P3
400 224
255
204 226 255
204 226 255
204 226 255
204 226 255
204 226 255
204 226 255
204 226 255
204 226 255
204 226 255
204 226 255
204 226 255
204 226 255
204 226 255
204 226 255
204 226 255
204 226 255
203 226 255
203 226 255
203 226 255
203 226 255
203 226 255
203 226 255
203 226 255
203 226 255
203 225 255
203 225 255
203 225 255
203 225 255
203 225 255
203 225 255
203 225 255
203 225 255
203 225 255
202 225 255
202 225 255
202 225 255
202 225 255
202 225 255
202 225 255
202 225 255
202 225 255
202 225 255
202 225 255
202 225 255
202 225 255
202 225 255
202 225 255
202 225 255
202 225 255
201 225 255
201 225 255
201 225 255
201 225 255
201 224 255
201 224 255
201 224 255
201 224 255
201 224 255
201 224 255
201 224 255
201 224 255
201 224 255
201 224 255
201 224 255
200 224 255
200 224 255
200 224 255
200 224 255
200 224 255
200 224 255
200 224 255
200 224 255
200 224 255
200 224 255
200 224 255
200 224 255
200 224 255
200 224 255
199 224 255
199 224 255
199 223 255
199 223 255
199 223 255
199 223 255
199 223 255
199 223 255
199 223 255
199 223 255
199 223 255
199 223 255
199 223 255
199 223 255
198 223 255
198 223 255
198 223 255
198 223 255
198 223 255
198 223 255
198 223 255
198 223 255
198 223 255
198 223 255
198 223 255
198 223 255
198 223 255
198 223 255
198 223 255
197 222 255
197 222 255
197 222 255
197 222 255
197 222 255
197 222 255
197 222 255
197 222 255
197 222 255
197 222 255
197 222 255
197 222 255
197 222 255
197 222 255
196 222 255
196 222 255
196 222 255
196 222 255
196 222 255
196 222 255
196 222 255
196 222 255
196 222 255
196 222 255
196 222 255
196 222 255
196 222 255
196 222 255
196 221 255
196 221 255
195 221 255
195 221 255
195 221 255
195 221 255
195 221 255
195 221 255
195 221 255
195 221 255
195 221 255
195 221 255
195 221 255
195 221 255
195 221 255
195 221 255
195 221 255
195 221 255
195 221 255
195 221 255
195 221 255
194 221 255
194 221 255
194 221 255
194 221 255
194 221 255
194 221 255
194 221 255
194 221 255
194 221 255
194 221 255
194 221 255
194 221 255
194 221 255
194 221 255
194 221 255
194 221 255
194 221 255
194 221 255
194 221 255
194 221 255
194 221 255
194 220 255
194 220 255
194 220 255
194 220 255
194 220 255
194 220 255
194 220 255
194 220 255
194 220 255
193 220 255
193 220 255
193 220 255
193 220 255
193 220 255
193 220 255
193 220 255
193 220 255
193 220 255
193 220 255
193 220 255
193 220 255
193 220 255
193 220 255
193 220 255
193 220 255
193 220 255
193 220 255
193 220 255
193 220 255
193 220 255
193 220 255
193 220 255
193 220 255
193 220 255
193 220 255
193 220 255
193 220 255
194 220 255
194 220 255
194 220 255
194 220 255
194 220 255
194 220 255
194 220 255
194 220 255
194 220 255
194 221 255
194 221 255
194 221 255
194 221 255
194 221 255
194 221 255
194 221 255
194 221 255
194 221 255
194 221 255
194 221 255
194 221 255
194 221 255
194 221 255
194 221 255
194 221 255
194 221 255
194 221 255
194 221 255
194 221 255
194 221 255
195 221 255
195 221 255
195 221 255
195 221 255
195 221 255
195 221 255
195 221 255
195 221 255
195 221 255
195 221 255
195 221 255
195 221 255
195 221 255
195 221 255
195 221 255
195 221 255
195 221 255
195 221 255
195 221 255
196 221 255
196 221 255
196 222 255
196 222 255
196 222 255
196 222 255
196 222 255
196 222 255
196 222 255
196 222 255
196 222 255
196 222 255
196 222 255
196 222 255
196 222 255
196 222 255
197 222 255
197 222 255
197 222 255
197 222 255
197 222 255
197 222 255
197 222 255
197 222 255
197 222 255
197 222 255
197 222 255
197 222 255
197 222 255
197 222 255
198 223 255
198 223 255
198 223 255
198 223 255
198 223 255
198 223 255
198 223 255
198 223 255
198 223 255
198 223 255
198 223 255
198 223 255
198 223 255
198 223 255
198 223 255
199 223 255
199 223 255
199 223 255
199 223 255
199 223 255
199 223 255
199 223 255
199 223 255
199 223 255
199 223 255
199 223 255
199 223 255
199 224 255
199 224 255
200 224 255
200 224 255
200 224 255
200 224 255
200 224 255
200 224 255
200 224 255
200 224 255
200 224 255
200 224 255
200 224 255
200 224 255
200 224 255
200 224 255
201 224 255
201 224 255
201 224 255
201 224 255
201 224 255
201 224 255
201 224 255
201 224 255
201 224 255
201 224 255
201 224 255
201 225 255
201 225 255
201 225 255
201 225 255
201 225 255
202 225 255
202 225 255
202 225 255
202 225 255
202 225 255
202 225 255
202 225 255
202 225 255
202 225 255
202 225 255
202 225 255
202 225 255
202 225 255
202 225 255
202 225 255
203 225 255
203 225 255
203 225 255
203 225 255
203 225 255
203 225 255
203 225 255
203 225 255
203 225 255
203 226 255
203 226 255
203 226 255
203 226 255
203 226 255
203 226 255
203 226 255
203 226 255
204 226 255
204 226 255
204 226 255
204 226 255
204 226 255
204 226 255
204 226 255
204 226 255
204 226 255
204 226 255
204 226 255
204 226 255
204 226 255
204 226 255
204 226 255
204 226 255
205 226 255
204 226 255
204 226 255
204 226 255
204 226 255
204 226 255
204 226 255
204 226 255
204 226 255
204 226 255
204 226 255
204 226 255
204 226 255
204 226 255
204 226 255
204 226 255
204 226 255
204 226 255
203 226 255
203 226 255
203 226 255
203 226 255
203 226 255
203 226 255
203 226 255
203 226 255
203 225 255
203 225 255
203 225 255
203 225 255
203 225 255
203 225 255
203 225 255
203 225 255
203 225 255
202 225 255
202 225 255
202 225 255
202 225 255
202 225 255
202 225 255
202 225 255
202 225 255
202 225 255
202 225 255
202 225 255
202 225 255
202 225 255
202 225 255
202 225 255
202 225 255
201 225 255
201 225 255
201 225 255
201 225 255
201 224 255
201 224 255
201 224 255
201 224 255
201 224 255
201 224 255
201 224 255
201 224 255
201 224 255
201 224 255
201 224 255
200 224 255
200 224 255
200 224 255
200 224 255
200 224 255
200 224 255
200 224 255
200 224 255
200 224 255
200 224 255
200 224 255
200 224 255
200 224 255
200 224 255
199 224 255
199 224 255
199 223 255
199 223 255
199 223 255
199 223 255
199 223 255
199 223 255
199 223 255
199 223 255
199 223 255
199 223 255
199 223 255
199 223 255
198 223 255
198 223 255
198 223 255
198 223 255
198 223 255
198 223 255
198 223 255
198 223 255
198 223 255
198 223 255
198 223 255
198 223 255
198 223 255
198 223 255
198 223 255
197 222 255
197 222 255
197 222 255
197 222 255
197 222 255
197 222 255
197 222 255
197 222 255
197 222 255
197 222 255
197 222 255
197 222 255
197 222 255
197 222 255
196 222 255
196 222 255
196 222 255
196 222 255
196 222 255
196 222 255
196 222 255
196 222 255
196 222 255
196 222 255
196 222 255
196 222 255
196 222 255
196 222 255
196 222 255
196 221 255
195 221 255
195 221 255
195 221 255
195 221 255
195 221 255
195 221 255
195 221 255
195 221 255
195 221 255
195 221 255
195 221 255
195 221 255
195 221 255
195 221 255
195 221 255
195 221 255
195 221 255
195 221 255
195 221 255
194 221 255
194 221 255
194 221 255
194 221 255
194 221 255
194 221 255
194 221 255
194 221 255
194 221 255
194 221 255
194 221 255
194 221 255
194 221 255
194 221 255
194 221 255
194 221 255
194 221 255
194 221 255
194 221 255
194 221 255
194 221 255
194 221 255
194 221 255
194 221 255
194 221 255
194 220 255
194 220 255
194 220 255
194 220 255
194 220 255
194 220 255
194 220 255
194 220 255
194 220 255
194 220 255
194 220 255
194 220 255
194 220 255
194 220 255
194 220 255
194 220 255
194 220 255
194 220 255
194 220 255
194 220 255
194 220 255
194 220 255
194 220 255
194 220 255
194 220 255
194 220 255
194 220 255
194 220 255
194 220 255
194 220 255
194 220 255
194 220 255
194 220 255
194 220 255
194 221 255
194 221 255
194 221 255
194 221 255
194 221 255
194 221 255
194 221 255
194 221 255
194 221 255
194 221 255
194 221 255
194 221 255
194 221 255
194 221 255
194 221 255
194 221 255
194 221 255
194 221 255
194 221 255
194 221 255
194 221 255
194 221 255
194 221 255
194 221 255
195 221 255
195 221 255
195 221 255
195 221 255
195 221 255
195 221 255
195 221 255
195 221 255
195 221 255
195 221 255
195 221 255
195 221 255
195 221 255
195 221 255
195 221 255
195 221 255
195 221 255
195 221 255
195 221 255
195 221 255
196 221 255
196 222 255
196 222 255
196 222 255
196 222 255
196 222 255
196 222 255
196 222 255
196 222 255
196 222 255
196 222 255
196 222 255
196 222 255
196 222 255
196 222 255
196 222 255
197 222 255
197 222 255
197 222 255
197 222 255
197 222 255
197 222 255
197 222 255
197 222 255
197 222 255
197 222 255
197 222 255
197 222 255
197 222 255
197 222 255
198 223 255
198 223 255
198 223 255
198 223 255
198 223 255
198 223 255
198 223 255
198 223 255
198 223 255
198 223 255
198 223 255
198 223 255
198 223 255
198 223 255
198 223 255
199 223 255
199 223 255
199 223 255
199 223 255
199 223 255
199 223 255
199 223 255
199 223 255
199 223 255
199 223 255
199 223 255
199 223 255
199 224 255
199 224 255
200 224 255
200 224 255
200 224 255
200 224 255
200 224 255
200 224 255
200 224 255
200 224 255
200 224 255
200 224 255
200 224 255
200 224 255
200 224 255
200 224 255
201 224 255
201 224 255
201 224 255
201 224 255
201 224 255
201 224 255
201 224 255
201 224 255
201 224 255
201 224 255
201 224 255
201 225 255
201 225 255
201 225 255
201 225 255
202 225 255
202 225 255
202 225 255
202 225 255
202 225 255
202 225 255
202 225 255
202 225 255
202 225 255
202 225 255
202 225 255
202 225 255
202 225 255
202 225 255
202 225 255
202 225 255
203 225 255
203 225 255
203 225 255
203 225 255
203 225 255
203 225 255
203 225 255
203 225 255
203 225 255
203 226 255
203 226 255
203 226 255
203 226 255
203 226 255
203 226 255
203 226 255
204 226 255
204 226 255
204 226 255
204 226 255
204 226 255
204 226 255
204 226 255
204 226 255
204 226 255
204 226 255
204 226 255
204 226 255
204 226 255
204 226 255
204 226 255
204 226 255
204 226 255
204 226 255
205 226 255
205 226 255
205 226 255
205 226 255
204 226 255
204 226 255
204 226 255
204 226 255
204 226 255
204 226 255
204 226 255
204 226 255
204 226 255
204 226 255
204 226 255
204 226 255
204 226 255
204 226 255
204 226 255
204 226 255
204 226 255
204 226 255
203 226 255
203 226 255
203 226 255
203 226 255
203 226 255
203 226 255
203 226 255
203 225 255
203 225 255
203 225 255
203 225 255
203 225 255
203 225 255
203 225 255
203 225 255
203 225 255
202 225 255
202 225 255
202 225 255
202 225 255
202 225 255
202 225 255
202 225 255
202 225 255
202 225 255
202 225 255
202 225 255
202 225 255
202 225 255
202 225 255
202 225 255
202 225 255
201 225 255
201 225 255
201 225 255
201 225 255
201 224 255
201 224 255
201 224 255
201 224 255
201 224 255
201 224 255
201 224 255
201 224 255
201 224 255
201 224 255
201 224 255
200 224 255
200 224 255
200 224 255
200 224 255
200 224 255
200 224 255
200 224 255
200 224 255
200 224 255
200 224 255
200 224 255
200 224 255
200 224 255
200 224 255
199 224 255
199 224 255
199 223 255
199 223 255
199 223 255
199 223 255
199 223 255
199 223 255
199 223 255
199 223 255
199 223 255
199 223 255
199 223 255
199 223 255
198 223 255
198 223 255
198 223 255
198 223 255
198 223 255
198 223 255
198 223 255
198 223 255
198 223 255
198 223 255
198 223 255
198 223 255
198 223 255
198 223 255
198 223 255
197 222 255
197 222 255
197 222 255
197 222 255
197 222 255
197 222 255
197 222 255
197 222 255
197 222 255
197 222 255
197 222 255
197 222 255
197 222 255
197 222 255
197 222 255
196 222 255
196 222 255
196 222 255
196 222 255
196 222 255
196 222 255
196 222 255
196 222 255
196 222 255
196 222 255
196 222 255
196 222 255
196 222 255
196 222 255
196 221 255
196 221 255
195 221 255
195 221 255
195 221 255
195 221 255
195 221 255
195 221 255
195 221 255
195 221 255
195 221 255
195 221 255
195 221 255
195 221 255
195 221 255
195 221 255
195 221 255
195 221 255
195 221 255
195 221 255
195 221 255
195 221 255
194 221 255
194 221 255
194 221 255
194 221 255
194 221 255
194 221 255
194 221 255
194 221 255
194 221 255
194 221 255
194 221 255
194 221 255
194 221 255
194 221 255
194 221 255
194 221 255
194 221 255
194 221 255
194 221 255
194 221 255
194 221 255
194 221 255
194 221 255
194 221 255
194 221 255
194 221 255
194 221 255
194 221 255
194 221 255
194 221 255
194 221 255
194 220 255
194 220 255
194 220 255
194 220 255
194 220 255
194 220 255
194 220 255
194 220 255
194 220 255
194 220 255
194 220 255
194 220 255
194 220 255
194 220 255
194 220 255
194 221 255
194 221 255
194 221 255
194 221 255
194 221 255
194 221 255
194 221 255
194 221 255
194 221 255
194 221 255
194 221 255
194 221 255
194 221 255
194 221 255
194 221 255
194 221 255
194 221 255
194 221 255
194 221 255
194 221 255
194 221 255
194 221 255
194 221 255
194 221 255
194 221 255
194 221 255
194 221 255
194 221 255
194 221 255
194 221 255
195 221 255
195 221 255
195 221 255
195 221 255
195 221 255
195 221 255
195 221 255
195 221 255
195 221 255
195 221 255
195 221 255
195 221 255
195 221 255
195 221 255
195 221 255
195 221 255
195 221 255
195 221 255
195 221 255
195 221 255
196 221 255
196 221 255
196 222 255
196 222 255
196 222 255
196 222 255
196 222 255
196 222 255
196 222 255
196 222 255
196 222 255
196 222 255
196 222 255
196 222 255
196 222 255
196 222 255
196 222 255
197 222 255
197 222 255
197 222 255
197 222 255
197 222 255
197 222 255
197 222 255
197 222 255
197 222 255
197 222 255
197 222 255
197 222 255
197 222 255
197 222 255
198 223 255
198 223 255
198 223 255
198 223 255
198 223 255
198 223 255
198 223 255
198 223 255
198 223 255
198 223 255
198 223 255
198 223 255
198 223 255
198 223 255
198 223 255
199 223 255
199 223 255
199 223 255
199 223 255
199 223 255
199 223 255
199 223 255
199 223 255
199 223 255
199 223 255
199 223 255
199 223 255
199 224 255
199 224 255
200 224 255
200 224 255
200 224 255
200 224 255
200 224 255
200 224 255
200 224 255
200 224 255
200 224 255
200 224 255
200 224 255
200 224 255
200 224 255
200 224 255
201 224 255
201 224 255
201 224 255
201 224 255
201 224 255
201 224 255
201 224 255
201 224 255
201 224 255
201 224 255
201 224 255
201 225 255
201 225 255
201 225 255
201 225 255
202 225 255
202 225 255
202 225 255
202 225 255
202 225 255
202 225 255
202 225 255
202 225 255
202 225 255
202 225 255
202 225 255
202 225 255
202 225 255
202 225 255
202 225 255
202 225 255
203 225 255
203 225 255
203 225 255
203 225 255
203 225 255
203 225 255
203 225 255
203 225 255
203 225 255
203 226 255
203 226 255
203 226 255
203 226 255
203 226 255
203 226 255
203 226 255
204 226 255
204 226 255
204 226 255
204 226 255
204 226 255
204 226 255
204 226 255
204 226 255
204 226 255
204 226 255
204 226 255
204 226 255
204 226 255
204 226 255
204 226 255
204 226 255
204 226 255
204 226 255
205 226 255
205 226 255
205 226 255
205 226 255
205 226 255
205 226 255
205 226 255
205 226 255
204 226 255
204 226 255
204 226 255
204 226 255
204 226 255
204 226 255
204 226 255
204 226 255
204 226 255
204 226 255
204 226 255
204 226 255
204 226 255
204 226 255
204 226 255
204 226 255
204 226 255
204 226 255
203 226 255
203 226 255
203 226 255
203 226 255
203 226 255
203 226 255
203 226 255
203 225 255
203 225 255
203 225 255
203 225 255
203 225 255
203 225 255
203 225 255
203 225 255
203 225 255
203 225 255
202 225 255
202 225 255
202 225 255
202 225 255
202 225 255
202 225 255
202 225 255
202 225 255
202 225 255
202 225 255
202 225 255
202 225 255
202 225 255
202 225 255
202 225 255
201 225 255
201 225 255
201 225 255
201 225 255
201 224 255
201 224 255
201 224 255
201 224 255
201 224 255
201 224 255
201 224 255
201 224 255
201 224 255
201 224 255
201 224 255
200 224 255
200 224 255
200 224 255
200 224 255
200 224 255
200 224 255
200 224 255
200 224 255
200 224 255
200 224 255
200 224 255
200 224 255
200 224 255
200 224 255
199 224 255
199 224 255
199 224 255
199 223 255
199 223 255
199 223 255
199 223 255
199 223 255
199 223 255
199 223 255
199 223 255
199 223 255
199 223 255
199 223 255
198 223 255
198 223 255
198 223 255
198 223 255
198 223 255
198 223 255
198 223 255
198 223 255
198 223 255
198 223 255
198 223 255
198 223 255
198 223 255
198 223 255
198 223 255
197 222 255
197 222 255
197 222 255
197 222 255
197 222 255
197 222 255
197 222 255
197 222 255
197 222 255
197 222 255
197 222 255
197 222 255
197 222 255
197 222 255
197 222 255
196 222 255
196 222 255
196 222 255
196 222 255
196 222 255
196 222 255
196 222 255
196 222 255
196 222 255
196 222 255
196 222 255
196 222 255
196 222 255
196 222 255
196 222 255
196 221 255
195 221 255
195 221 255
195 221 255
195 221 255
195 221 255
195 221 255
195 221 255
195 221 255
195 221 255
195 221 255
195 221 255
195 221 255
195 221 255
195 221 255
195 221 255
195 221 255
195 221 255
195 221 255
195 221 255
195 221 255
195 221 255
194 221 255
194 221 255
194 221 255
194 221 255
194 221 255
194 221 255
194 221 255
194 221 255
194 221 255
194 221 255
194 221 255
194 221 255
194 221 255
194 221 255
194 221 255
194 221 255
194 221 255
194 221 255
194 221 255
194 221 255
194 221 255
194 221 255
194 221 255
194 221 255
194 221 255
194 221 255
194 221 255
194 221 255
194 221 255
194 221 255
194 221 255
194 221 255
194 221 255
194 221 255
194 221 255
194 221 255
194 221 255
194 221 255
194 221 255
194 221 255
194 221 255
194 221 255
194 221 255
194 221 255
194 221 255
194 221 255
194 221 255
194 221 255
194 221 255
194 221 255
194 221 255
194 221 255
194 221 255
194 221 255
194 221 255
194 221 255
194 221 255
194 221 255
194 221 255
194 221 255
194 221 255
194 221 255
194 221 255
194 221 255
194 221 255
194 221 255
194 221 255
194 221 255
194 221 255
194 221 255
195 221 255
195 221 255
195 221 255
195 221 255
195 221 255
195 221 255
195 221 255
195 221 255
195 221 255
195 221 255
195 221 255
195 221 255
195 221 255
195 221 255
195 221 255
195 221 255
195 221 255
195 221 255
195 221 255
195 221 255
195 221 255
196 221 255
196 222 255
196 222 255
196 222 255
196 222 255
196 222 255
196 222 255
196 222 255
196 222 255
196 222 255
196 222 255
196 222 255
196 222 255
196 222 255
196 222 255
196 222 255
197 222 255
197 222 255
197 222 255
197 222 255
197 222 255
197 222 255
197 222 255
197 222 255
197 222 255
197 222 255
197 222 255
197 222 255
197 222 255
197 222 255
197 222 255
198 223 255
198 223 255
198 223 255
198 223 255
198 223 255
198 223 255
198 223 255
198 223 255
198 223 255
198 223 255
198 223 255
198 223 255
198 223 255
198 223 255
198 223 255
199 223 255
199 223 255
199 223 255
199 223 255
199 223 255
199 223 255
199 223 255
199 223 255
199 223 255
199 223 255
199 223 255
199 223 255
199 224 255
199 224 255
200 224 255
200 224 255
200 224 255
200 224 255
200 224 255
200 224 255
200 224 255
200 224 255
200 224 255
200 224 255
200 224 255
200 224 255
200 224 255
200 224 255
201 224 255
201 224 255
201 224 255
201 224 255
201 224 255
201 224 255
201 224 255
201 224 255
201 224 255
201 224 255
201 225 255
201 225 255
201 225 255
201 225 255
201 225 255
202 225 255
202 225 255
202 225 255
202 225 255
202 225 255
202 225 255
202 225 255
202 225 255
202 225 255
202 225 255
202 225 255
202 225 255
202 225 255
202 225 255
202 225 255
202 225 255
203 225 255
203 225 255
203 225 255
203 225 255
203 225 255
203 225 255
203 225 255
203 225 255
203 225 255
203 226 255
203 226 255
203 226 255
203 226 255
203 226 255
203 226 255
203 226 255
204 226 255
204 226 255
204 226 255
204 226 255
204 226 255
204 226 255
204 226 255
204 226 255
204 226 255
204 226 255
204 226 255
204 226 255
204 226 255
204 226 255
204 226 255
204 226 255
204 226 255
204 226 255
205 226 255
205 226 255
205 226 255
205 226 255
205 226 255
205 226 255
205 226 255
205 226 255
205 226 255
205 226 255
205 226 255
205 226 255
205 226 255
204 226 255
204 226 255
204 226 255
204 226 255
204 226 255
204 226 255
204 226 255
204 226 255
204 226 255
204 226 255
204 226 255
204 226 255
204 226 255
204 226 255
204 226 255
204 226 255
204 226 255
203 226 255
203 226 255
203 226 255
203 226 255
203 226 255
203 226 255
203 226 255
203 226 255
203 225 255
203 225 255
203 225 255
203 225 255
203 225 255
203 225 255
203 225 255
203 225 255
203 225 255
202 225 255
202 225 255
202 225 255
202 225 255
202 225 255
202 225 255
202 225 255
202 225 255
202 225 255
202 225 255
202 225 255
202 225 255
202 225 255
202 225 255
202 225 255
201 225 255
201 225 255
201 225 255
201 225 255
201 225 255
201 224 255
201 224 255
201 224 255
201 224 255
201 224 255
201 224 255
201 224 255
201 224 255
201 224 255
201 224 255
200 224 255
200 224 255
200 224 255
200 224 255
200 224 255
200 224 255
200 224 255
200 224 255
200 224 255
200 224 255
200 224 255
200 224 255
200 224 255
200 224 255
199 224 255
199 224 255
199 224 255
199 223 255
199 223 255
199 223 255
199 223 255
199 223 255
199 223 255
199 223 255
199 223 255
199 223 255
199 223 255
199 223 255
198 223 255
198 223 255
198 223 255
198 223 255
198 223 255
198 223 255
198 223 255
198 223 255
198 223 255
198 223 255
198 223 255
198 223 255
198 223 255
198 223 255
198 223 255
197 222 255
197 222 255
197 222 255
197 222 255
197 222 255
197 222 255
197 222 255
197 222 255
197 222 255
197 222 255
197 222 255
197 222 255
197 222 255
197 222 255
197 222 255
196 222 255
196 222 255
196 222 255
196 222 255
196 222 255
196 222 255
196 222 255
196 222 255
196 222 255
196 222 255
196 222 255
196 222 255
196 222 255
196 222 255
196 222 255
196 221 255
196 221 255
195 221 255
195 221 255
195 221 255
195 221 255
195 221 255
195 221 255
195 221 255
195 221 255
195 221 255
195 221 255
195 221 255
195 221 255
195 221 255
195 221 255
195 221 255
195 221 255
195 221 255
195 221 255
195 221 255
195 221 255
195 221 255
195 221 255
194 221 255
194 221 255
194 221 255
194 221 255
194 221 255
194 221 255
194 221 255
194 221 255
194 221 255
194 221 255
194 221 255
194 221 255
194 221 255
194 221 255
194 221 255
194 221 255
194 221 255
194 221 255
194 221 255
194 221 255
194 221 255
194 221 255
194 221 255
194 221 255
194 221 255
194 221 255
194 221 255
194 221 255
194 221 255
194 221 255
194 221 255
194 221 255
194 221 255
194 221 255
194 221 255
194 221 255
194 221 255
194 221 255
194 221 255
194 221 255
194 221 255
194 221 255
194 221 255
194 221 255
194 221 255
194 221 255
194 221 255
194 221 255
194 221 255
194 221 255
194 221 255
194 221 255
194 221 255
194 221 255
194 221 255
194 221 255
194 221 255
194 221 255
194 221 255
194 221 255
194 221 255
194 221 255
195 221 255
195 221 255
195 221 255
195 221 255
195 221 255
195 221 255
195 221 255
195 221 255
195 221 255
195 221 255
195 221 255
195 221 255
195 221 255
195 221 255
195 221 255
195 221 255
195 221 255
195 221 255
195 221 255
195 221 255
195 221 255
195 221 255
196 221 255
196 222 255
196 222 255
196 222 255
196 222 255
196 222 255
196 222 255
196 222 255
196 222 255
196 222 255
196 222 255
196 222 255
196 222 255
196 222 255
196 222 255
196 222 255
196 222 255
197 222 255
197 222 255
197 222 255
197 222 255
197 222 255
197 222 255
197 222 255
197 222 255
197 222 255
197 222 255
197 222 255
197 222 255
197 222 255
197 222 255
197 222 255
198 223 255
198 223 255
198 223 255
198 223 255
198 223 255
198 223 255
198 223 255
198 223 255
198 223 255
198 223 255
198 223 255
198 223 255
198 223 255
198 223 255
198 223 255
199 223 255
199 223 255
199 223 255
199 223 255
199 223 255
199 223 255
199 223 255
199 223 255
199 223 255
199 223 255
199 223 255
199 223 255
199 224 255
199 224 255
200 224 255
200 224 255
200 224 255
200 224 255
200 224 255
200 224 255
200 224 255
200 224 255
200 224 255
200 224 255
200 224 255
200 224 255
200 224 255
200 224 255
201 224 255
201 224 255
201 224 255
201 224 255
201 224 255
201 224 255
201 224 255
201 224 255
201 224 255
201 224 255
201 225 255
201 225 255
201 225 255
201 225 255
201 225 255
202 225 255
202 225 255
202 225 255
202 225 255
202 225 255
202 225 255
202 225 255
202 225 255
202 225 255
202 225 255
202 225 255
202 225 255
202 225 255
202 225 255
202 225 255
203 225 255
203 225 255
203 225 255
203 225 255
203 225 255
203 225 255
203 225 255
203 225 255
203 225 255
203 225 255
203 226 255
203 226 255
203 226 255
203 226 255
203 226 255
203 226 255
203 226 255
204 226 255
204 226 255
204 226 255
204 226 255
204 226 255
204 226 255
204 226 255
204 226 255
204 226 255
204 226 255
204 226 255
204 226 255
204 226 255
204 226 255
204 226 255
204 226 255
204 226 255
205 226 255
205 226 255
205 226 255
205 226 255
205 226 255
205 226 255
205 226 255
205 226 255
205 227 255
205 227 255
205 227 255
205 226 255
205 226 255
205 226 255
205 226 255
205 226 255
205 226 255
205 226 255
204 226 255
204 226 255
204 226 255
204 226 255
204 226 255
204 226 255
204 226 255
204 226 255
204 226 255
204 226 255
204 226 255
204 226 255
204 226 255
204 226 255
204 226 255
204 226 255
204 226 255
204 226 255
203 226 255
203 226 255
203 226 255
203 226 255
203 226 255
203 226 255
203 226 255
203 225 255
203 225 255
203 225 255
203 225 255
203 225 255
203 225 255
203 225 255
203 225 255
203 225 255
202 225 255
202 225 255
202 225 255
202 225 255
202 225 255
202 225 255
202 225 255
202 225 255
202 225 255
202 225 255
202 225 255
202 225 255
202 225 255
202 225 255
202 225 255
201 225 255
201 225 255
201 225 255
201 225 255
201 225 255
201 224 255
201 224 255
201 224 255
201 224 255
201 224 255
201 224 255
201 224 255
201 224 255
201 224 255
201 224 255
200 224 255
200 224 255
200 224 255
200 224 255
200 224 255
200 224 255
200 224 255
200 224 255
200 224 255
200 224 255
200 224 255
200 224 255
200 224 255
200 224 255
199 224 255
199 224 255
199 224 255
199 223 255
199 223 255
199 223 255
199 223 255
199 223 255
199 223 255
199 223 255
199 223 255
199 223 255
199 223 255
199 223 255
199 223 255
198 223 255
198 223 255
198 223 255
198 223 255
198 223 255
198 223 255
198 223 255
198 223 255
198 223 255
198 223 255
198 223 255
198 223 255
198 223 255
198 223 255
197 222 255
197 222 255
197 222 255
197 222 255
197 222 255
197 222 255
197 222 255
197 222 255
197 222 255
197 222 255
197 222 255
197 222 255
197 222 255
197 222 255
197 222 255
196 222 255
196 222 255
196 222 255
196 222 255
196 222 255
196 222 255
196 222 255
196 222 255
196 222 255
196 222 255
196 222 255
196 222 255
196 222 255
196 222 255
196 222 255
196 222 255
196 221 255
196 221 255
195 221 255
195 221 255
195 221 255
195 221 255
195 221 255
195 221 255
195 221 255
195 221 255
195 221 255
195 221 255
195 221 255
195 221 255
195 221 255
195 221 255
195 221 255
195 221 255
195 221 255
195 221 255
195 221 255
195 221 255
195 221 255
195 221 255
195 221 255
195 221 255
194 221 255
194 221 255
194 221 255
194 221 255
194 221 255
194 221 255
194 221 255
194 221 255
194 221 255
194 221 255
194 221 255
194 221 255
194 221 255
194 221 255
194 221 255
194 221 255
194 221 255
194 221 255
194 221 255
194 221 255
194 221 255
194 221 255
194 221 255
194 221 255
194 221 255
194 221 255
194 221 255
194 221 255
194 221 255
194 221 255
194 221 255
194 221 255
194 221 255
194 221 255
194 221 255
194 221 255
194 221 255
194 221 255
194 221 255
194 221 255
194 221 255
194 221 255
194 221 255
194 221 255
194 221 255
194 221 255
194 221 255
194 221 255
194 221 255
194 221 255
194 221 255
194 221 255
195 221 255
195 221 255
195 221 255
195 221 255
195 221 255
195 221 255
195 221 255
195 221 255
195 221 255
195 221 255
195 221 255
195 221 255
195 221 255
195 221 255
195 221 255
195 221 255
195 221 255
195 221 255
195 221 255
195 221 255
195 221 255
195 221 255
195 221 255
195 221 255
196 221 255
196 221 255
196 222 255
196 222 255
196 222 255
196 222 255
196 222 255
196 222 255
196 222 255
196 222 255
196 222 255
196 222 255
196 222 255
196 222 255
196 222 255
196 222 255
196 222 255
196 222 255
197 222 255
197 222 255
197 222 255
197 222 255
197 222 255
197 222 255
197 222 255
197 222 255
197 222 255
197 222 255
197 222 255
197 222 255
197 222 255
197 222 255
197 223 255
198 223 255
198 223 255
198 223 255
198 223 255
198 223 255
198 223 255
198 223 255
198 223 255
198 223 255
198 223 255
198 223 255
198 223 255
198 223 255
198 223 255
199 223 255
199 223 255
199 223 255
199 223 255
199 223 255
199 223 255
199 223 255
199 223 255
199 223 255
199 223 255
199 223 255
199 223 255
199 224 255
199 224 255
199 224 255
200 224 255
200 224 255
200 224 255
200 224 255
200 224 255
200 224 255
200 224 255
200 224 255
200 224 255
200 224 255
200 224 255
200 224 255
200 224 255
200 224 255
201 224 255
201 224 255
201 224 255
201 224 255
201 224 255
201 224 255
201 224 255
201 224 255
201 224 255
201 224 255
201 225 255
201 225 255
201 225 255
201 225 255
201 225 255
202 225 255
202 225 255
202 225 255
202 225 255
202 225 255
202 225 255
202 225 255
202 225 255
202 225 255
202 225 255
202 225 255
202 225 255
202 225 255
202 225 255
202 225 255
203 225 255
203 225 255
203 225 255
203 225 255
203 225 255
203 225 255
203 225 255
203 225 255
203 225 255
203 226 255
203 226 255
203 226 255
203 226 255
203 226 255
203 226 255
203 226 255
203 226 255
204 226 255
204 226 255
204 226 255
204 226 255
204 226 255
204 226 255
204 226 255
204 226 255
204 226 255
204 226 255
204 226 255
204 226 255
204 226 255
204 226 255
204 226 255
204 226 255
204 226 255
205 226 255
205 226 255
205 226 255
205 226 255
205 226 255
205 226 255
205 226 255
205 227 255
205 227 255
205 227 255
205 227 255
205 227 255
205 227 255
205 227 255
205 227 255
205 226 255
205 226 255
205 226 255
205 226 255
205 226 255
205 226 255
205 226 255
204 226 255
204 226 255
204 226 255
204 226 255
204 226 255
204 226 255
204 226 255
204 226 255
204 226 255
204 226 255
204 226 255
204 226 255
204 226 255
204 226 255
204 226 255
204 226 255
204 226 255
204 226 255
203 226 255
203 226 255
203 226 255
203 226 255
203 226 255
203 226 255
203 226 255
203 225 255
203 225 255
203 225 255
203 225 255
203 225 255
203 225 255
203 225 255
203 225 255
203 225 255
202 225 255
202 225 255
202 225 255
202 225 255
202 225 255
202 225 255
202 225 255
202 225 255
202 225 255
202 225 255
202 225 255
202 225 255
202 225 255
202 225 255
202 225 255
202 225 255
201 225 255
201 225 255
201 225 255
201 225 255
201 224 255
201 224 255
201 224 255
201 224 255
201 224 255
201 224 255
201 224 255
201 224 255
201 224 255
201 224 255
200 224 255
200 224 255
200 224 255
200 224 255
200 224 255
200 224 255
200 224 255
200 224 255
200 224 255
200 224 255
200 224 255
200 224 255
200 224 255
200 224 255
200 224 255
199 224 255
199 224 255
199 223 255
199 223 255
199 223 255
199 223 255
199 223 255
199 223 255
199 223 255
199 223 255
199 223 255
199 223 255
199 223 255
199 223 255
198 223 255
198 223 255
198 223 255
198 223 255
198 223 255
198 223 255
198 223 255
198 223 255
198 223 255
198 223 255
198 223 255
198 223 255
198 223 255
198 223 255
197 223 255
197 222 255
197 222 255
197 222 255
197 222 255
197 222 255
197 222 255
197 222 255
197 222 255
197 222 255
197 222 255
197 222 255
197 222 255
197 222 255
197 222 255
197 222 255
196 222 255
196 222 255
196 222 255
196 222 255
196 222 255
196 222 255
196 222 255
196 222 255
196 222 255
196 222 255
196 222 255
196 222 255
196 222 255
196 222 255
196 222 255
196 222 255
196 221 255
196 221 255
195 221 255
195 221 255
195 221 255
195 221 255
195 221 255
195 221 255
195 221 255
195 221 255
195 221 255
195 221 255
195 221 255
195 221 255
195 221 255
195 221 255
195 221 255
195 221 255
195 221 255
195 221 255
195 221 255
195 221 255
195 221 255
195 221 255
195 221 255
195 221 255
195 221 255
195 221 255
194 221 255
194 221 255
194 221 255
194 221 255
194 221 255
194 221 255
194 221 255
194 221 255
194 221 255
194 221 255
194 221 255
194 221 255
194 221 255
194 221 255
194 221 255
194 221 255
194 221 255
194 221 255
194 221 255
194 221 255
194 221 255
194 221 255
194 221 255
194 221 255
194 221 255
194 221 255
194 221 255
194 221 255
194 221 255
194 221 255
194 221 255
194 221 255
194 221 255
194 221 255
194 221 255
194 221 255
194 221 255
194 221 255
194 221 255
194 221 255
194 221 255
194 221 255
195 221 255
195 221 255
195 221 255
195 221 255
195 221 255
195 221 255
195 221 255
195 221 255
195 221 255
195 221 255
195 221 255
195 221 255
195 221 255
195 221 255
195 221 255
195 221 255
195 221 255
195 221 255
195 221 255
195 221 255
195 221 255
195 221 255
195 221 255
195 221 255
195 221 255
195 221 255
196 221 255
196 221 255
196 222 255
196 222 255
196 222 255
196 222 255
196 222 255
196 222 255
196 222 255
196 222 255
196 222 255
196 222 255
196 222 255
196 222 255
196 222 255
196 222 255
196 222 255
196 222 255
197 222 255
197 222 255
197 222 255
197 222 255
197 222 255
197 222 255
197 222 255
197 222 255
197 222 255
197 222 255
197 222 255
197 222 255
197 222 255
197 222 255
197 222 255
197 223 255
198 223 255
198 223 255
198 223 255
198 223 255
198 223 255
198 223 255
198 223 255
198 223 255
198 223 255
198 223 255
198 223 255
198 223 255
198 223 255
198 223 255
199 223 255
199 223 255
199 223 255
199 223 255
199 223 255
199 223 255
199 223 255
199 223 255
199 223 255
199 223 255
199 223 255
199 223 255
199 224 255
199 224 255
199 224 255
200 224 255
200 224 255
200 224 255
200 224 255
200 224 255
200 224 255
200 224 255
200 224 255
200 224 255
200 224 255
200 224 255
200 224 255
200 224 255
200 224 255
201 224 255
201 224 255
201 224 255
201 224 255
201 224 255
201 224 255
201 224 255
201 224 255
201 224 255
201 224 255
201 225 255
201 225 255
201 225 255
201 225 255
201 225 255
202 225 255
202 225 255
202 225 255
202 225 255
202 225 255
202 225 255
202 225 255
202 225 255
202 225 255
202 225 255
202 225 255
202 225 255
202 225 255
202 225 255
202 225 255
203 225 255
203 225 255
203 225 255
203 225 255
203 225 255
203 225 255
203 225 255
203 225 255
203 225 255
203 226 255
203 226 255
203 226 255
203 226 255
203 226 255
203 226 255
203 226 255
204 226 255
204 226 255
204 226 255
204 226 255
204 226 255
204 226 255
204 226 255
204 226 255
204 226 255
204 226 255
204 226 255
204 226 255
204 226 255
204 226 255
204 226 255
204 226 255
204 226 255
205 226 255
205 226 255
205 226 255
205 226 255
205 226 255
205 226 255
205 226 255
205 226 255
205 227 255
205 227 255
205 227 255
205 227 255
205 227 255
205 227 255
205 227 255
205 227 255
205 227 255
205 227 255
205 227 255
205 227 255
205 227 255
205 226 255
205 226 255
205 226 255
205 226 255
205 226 255
205 226 255
205 226 255
204 226 255
204 226 255
204 226 255
204 226 255
204 226 255
204 226 255
204 226 255
204 226 255
204 226 255
204 226 255
204 226 255
204 226 255
204 226 255
204 226 255
204 226 255
204 226 255
204 226 255
203 226 255
203 226 255
203 226 255
203 226 255
203 226 255
203 226 255
203 226 255
203 225 255
203 225 255
203 225 255
203 225 255
203 225 255
203 225 255
203 225 255
203 225 255
203 225 255
202 225 255
202 225 255
202 225 255
202 225 255
202 225 255
202 225 255
202 225 255
202 225 255
202 225 255
202 225 255
202 225 255
202 225 255
202 225 255
202 225 255
202 225 255
202 225 255
201 225 255
201 225 255
201 225 255
201 225 255
201 224 255
201 224 255
201 224 255
201 224 255
201 224 255
201 224 255
201 224 255
201 224 255
201 224 255
201 224 255
200 224 255
200 224 255
200 224 255
200 224 255
200 224 255
200 224 255
200 224 255
200 224 255
200 224 255
200 224 255
200 224 255
200 224 255
200 224 255
200 224 255
200 224 255
199 224 255
199 224 255
199 223 255
199 223 255
199 223 255
199 223 255
199 223 255
199 223 255
199 223 255
199 223 255
199 223 255
199 223 255
199 223 255
199 223 255
198 223 255
198 223 255
198 223 255
198 223 255
198 223 255
198 223 255
198 223 255
198 223 255
198 223 255
198 223 255
198 223 255
198 223 255
198 223 255
198 223 255
198 223 255
197 222 255
197 222 255
197 222 255
197 222 255
197 222 255
197 222 255
197 222 255
197 222 255
197 222 255
197 222 255
197 222 255
197 222 255
197 222 255
197 222 255
197 222 255
196 222 255
196 222 255
196 222 255
196 222 255
196 222 255
196 222 255
196 222 255
196 222 255
196 222 255
196 222 255
196 222 255
196 222 255
196 222 255
196 222 255
196 222 255
196 222 255
196 222 255
196 221 255
196 221 255
195 221 255
195 221 255
195 221 255
195 221 255
195 221 255
195 221 255
195 221 255
195 221 255
195 221 255
195 221 255
195 221 255
195 221 255
195 221 255
195 221 255
195 221 255
195 221 255
195 221 255
195 221 255
195 221 255
195 221 255
195 221 255
195 221 255
195 221 255
195 221 255
195 221 255
195 221 255
195 221 255
195 221 255
195 221 255
194 221 255
194 221 255
194 221 255
194 221 255
194 221 255
194 221 255
194 221 255
194 221 255
194 221 255
194 221 255
194 221 255
194 221 255
194 221 255
194 221 255
194 221 255
194 221 255
194 221 255
194 221 255
194 221 255
194 221 255
194 221 255
194 221 255
194 221 255
194 221 255
194 221 255
194 221 255
194 221 255
194 221 255
194 221 255
195 221 255
195 221 255
195 221 255
195 221 255
195 221 255
195 221 255
195 221 255
195 221 255
195 221 255
195 221 255
195 221 255
195 221 255
195 221 255
195 221 255
195 221 255
195 221 255
195 221 255
195 221 255
195 221 255
195 221 255
195 221 255
195 221 255
195 221 255
195 221 255
195 221 255
195 221 255
195 221 255
195 221 255
195 221 255
195 221 255
196 221 255
196 221 255
196 222 255
196 222 255
196 222 255
196 222 255
196 222 255
196 222 255
196 222 255
196 222 255
196 222 255
196 222 255
196 222 255
196 222 255
196 222 255
196 222 255
196 222 255
196 222 255
196 222 255
197 222 255
197 222 255
197 222 255
197 222 255
197 222 255
197 222 255
197 222 255
197 222 255
197 222 255
197 222 255
197 222 255
197 222 255
197 222 255
197 222 255
197 222 255
198 223 255
198 223 255
198 223 255
198 223 255
198 223 255
198 223 255
198 223 255
198 223 255
198 223 255
198 223 255
198 223 255
198 223 255
198 223 255
198 223 255
198 223 255
199 223 255
199 223 255
199 223 255
199 223 255
199 223 255
199 223 255
199 223 255
199 223 255
199 223 255
199 223 255
199 223 255
199 223 255
199 224 255
199 224 255
200 224 255
200 224 255
200 224 255
200 224 255
200 224 255
200 224 255
200 224 255
200 224 255
200 224 255
200 224 255
200 224 255
200 224 255
200 224 255
200 224 255
200 224 255
201 224 255
201 224 255
201 224 255
201 224 255
201 224 255
201 224 255
201 224 255
201 224 255
201 224 255
201 224 255
201 225 255
201 225 255
201 225 255
201 225 255
202 225 255
202 225 255
202 225 255
202 225 255
202 225 255
202 225 255
202 225 255
202 225 255
202 225 255
202 225 255
202 225 255
202 225 255
202 225 255
202 225 255
202 225 255
202 225 255
203 225 255
203 225 255
203 225 255
203 225 255
203 225 255
203 225 255
203 225 255
203 225 255
203 225 255
203 226 255
203 226 255
203 226 255
203 226 255
203 226 255
203 226 255
203 226 255
204 226 255
204 226 255
204 226 255
204 226 255
204 226 255
204 226 255
204 226 255
204 226 255
204 226 255
204 226 255
204 226 255
204 226 255
204 226 255
204 226 255
204 226 255
204 226 255
204 226 255
205 226 255
205 226 255
205 226 255
205 226 255
205 226 255
205 226 255
205 226 255
205 227 255
205 227 255
205 227 255
205 227 255
205 227 255
205 227 255
205 227 255
205 227 255
205 227 255
205 227 255
205 227 255
205 227 255
205 227 255
205 227 255
205 227 255
205 227 255
205 227 255
205 227 255
205 226 255
205 226 255
205 226 255
205 226 255
205 226 255
205 226 255
205 226 255
204 226 255
204 226 255
204 226 255
204 226 255
204 226 255
204 226 255
204 226 255
204 226 255
204 226 255
204 226 255
204 226 255
204 226 255
204 226 255
204 226 255
204 226 255
204 226 255
204 226 255
203 226 255
203 226 255
203 226 255
203 226 255
203 226 255
203 226 255
203 226 255
203 226 255
203 225 255
203 225 255
203 225 255
203 225 255
203 225 255
203 225 255
203 225 255
203 225 255
202 225 255
202 225 255
202 225 255
202 225 255
202 225 255
202 225 255
202 225 255
202 225 255
202 225 255
202 225 255
202 225 255
202 225 255
202 225 255
202 225 255
202 225 255
202 225 255
201 225 255
201 225 255
201 225 255
201 225 255
201 224 255
201 224 255
201 224 255
201 224 255
201 224 255
201 224 255
201 224 255
201 224 255
201 224 255
201 224 255
200 224 255
200 224 255
200 224 255
200 224 255
200 224 255
200 224 255
200 224 255
200 224 255
200 224 255
200 224 255
200 224 255
200 224 255
200 224 255
200 224 255
200 224 255
199 224 255
199 224 255
199 223 255
199 223 255
199 223 255
199 223 255
199 223 255
199 223 255
199 223 255
199 223 255
199 223 255
199 223 255
199 223 255
199 223 255
198 223 255
198 223 255
198 223 255
198 223 255
198 223 255
198 223 255
198 223 255
198 223 255
198 223 255
198 223 255
198 223 255
198 223 255
198 223 255
198 223 255
198 223 255
197 222 255
197 222 255
197 222 255
197 222 255
197 222 255
197 222 255
197 222 255
197 222 255
197 222 255
197 222 255
197 222 255
197 222 255
197 222 255
197 222 255
197 222 255
197 222 255
196 222 255
196 222 255
196 222 255
196 222 255
196 222 255
196 222 255
196 222 255
196 222 255
196 222 255
196 222 255
196 222 255
196 222 255
196 222 255
196 222 255
196 222 255
196 222 255
196 222 255
196 221 255
196 221 255
195 221 255
195 221 255
195 221 255
195 221 255
195 221 255
195 221 255
195 221 255
195 221 255
195 221 255
195 221 255
195 221 255
195 221 255
195 221 255
195 221 255
195 221 255
195 221 255
195 221 255
195 221 255
195 221 255
195 221 255
195 221 255
195 221 255
195 221 255
195 221 255
195 221 255
195 221 255
195 221 255
195 221 255
195 221 255
195 221 255
195 221 255
195 221 255
195 221 255
195 221 255
195 221 255
195 221 255
195 221 255
195 221 255
195 221 255
195 221 255
195 221 255
195 221 255
195 221 255
195 221 255
195 221 255
195 221 255
195 221 255
195 221 255
195 221 255
195 221 255
195 221 255
195 221 255
195 221 255
195 221 255
195 221 255
195 221 255
195 221 255
195 221 255
195 221 255
195 221 255
195 221 255
195 221 255
195 221 255
195 221 255
195 221 255
195 221 255
195 221 255
195 221 255
195 221 255
195 221 255
195 221 255
195 221 255
195 221 255
195 221 255
195 221 255
195 221 255
195 221 255
195 221 255
195 221 255
195 221 255
195 221 255
195 221 255
196 221 255
196 221 255
196 222 255
196 222 255
196 222 255
196 222 255
196 222 255
196 222 255
196 222 255
196 222 255
196 222 255
196 222 255
196 222 255
196 222 255
196 222 255
196 222 255
196 222 255
196 222 255
196 222 255
197 222 255
197 222 255
197 222 255
197 222 255
197 222 255
197 222 255
197 222 255
197 222 255
197 222 255
197 222 255
197 222 255
197 222 255
197 222 255
197 222 255
197 222 255
197 222 255
198 223 255
198 223 255
198 223 255
198 223 255
198 223 255
198 223 255
198 223 255
198 223 255
198 223 255
198 223 255
198 223 255
198 223 255
198 223 255
198 223 255
198 223 255
199 223 255
199 223 255
199 223 255
199 223 255
199 223 255
199 223 255
199 223 255
199 223 255
199 223 255
199 223 255
199 223 255
199 223 255
199 224 255
199 224 255
200 224 255
200 224 255
200 224 255
200 224 255
200 224 255
200 224 255
200 224 255
200 224 255
200 224 255
200 224 255
200 224 255
200 224 255
200 224 255
200 224 255
200 224 255
201 224 255
201 224 255
201 224 255
201 224 255
201 224 255
201 224 255
201 224 255
201 224 255
201 224 255
201 224 255
201 225 255
201 225 255
201 225 255
201 225 255
202 225 255
202 225 255
202 225 255
202 225 255
202 225 255
202 225 255
202 225 255
202 225 255
202 225 255
202 225 255
202 225 255
202 225 255
202 225 255
202 225 255
202 225 255
203 225 255
203 225 255
203 225 255
203 225 255
203 225 255
203 225 255
203 225 255
203 225 255
203 225 255
203 226 255
203 226 255
203 226 255
203 226 255
203 226 255
203 226 255
203 226 255
203 226 255
204 226 255
204 226 255
204 226 255
204 226 255
204 226 255
204 226 255
204 226 255
204 226 255
204 226 255
204 226 255
204 226 255
204 226 255
204 226 255
204 226 255
204 226 255
204 226 255
204 226 255
205 226 255
205 226 255
205 226 255
205 226 255
205 226 255
205 226 255
205 226 255
205 227 255
205 227 255
205 227 255
205 227 255
205 227 255
205 227 255
205 227 255
205 227 255
205 227 255
205 227 255
206 227 255
205 227 255
205 227 255
205 227 255
205 227 255
205 227 255
205 227 255
205 227 255
205 227 255
205 227 255
205 227 255
205 227 255
205 226 255
205 226 255
205 226 255
205 226 255
205 226 255
205 226 255
205 226 255
205 226 255
204 226 255
204 226 255
204 226 255
204 226 255
204 226 255
204 226 255
204 226 255
204 226 255
204 226 255
204 226 255
204 226 255
204 226 255
204 226 255
204 226 255
204 226 255
204 226 255
204 226 255
203 226 255
203 226 255
203 226 255
203 226 255
203 226 255
203 226 255
203 226 255
203 225 255
203 225 255
203 225 255
203 225 255
203 225 255
203 225 255
203 225 255
203 225 255
203 225 255
202 225 255
202 225 255
202 225 255
202 225 255
202 225 255
202 225 255
202 225 255
202 225 255
202 225 255
202 225 255
202 225 255
202 225 255
202 225 255
202 225 255
202 225 255
201 225 255
201 225 255
201 225 255
201 225 255
201 224 255
201 224 255
201 224 255
201 224 255
201 224 255
201 224 255
201 224 255
201 224 255
201 224 255
201 224 255
201 224 255
200 224 255
200 224 255
200 224 255
200 224 255
200 224 255
200 224 255
200 224 255
200 224 255
200 224 255
200 224 255
200 224 255
200 224 255
200 224 255
200 224 255
199 224 255
199 224 255
199 223 255
199 223 255
199 223 255
199 223 255
199 223 255
199 223 255
199 223 255
199 223 255
199 223 255
199 223 255
199 223 255
199 223 255
198 223 255
198 223 255
198 223 255
198 223 255
198 223 255
198 223 255
198 223 255
198 223 255
198 223 255
198 223 255
198 223 255
198 223 255
198 223 255
198 223 255
198 223 255
197 223 255
197 222 255
197 222 255
197 222 255
197 222 255
197 222 255
197 222 255
197 222 255
197 222 255
197 222 255
197 222 255
197 222 255
197 222 255
197 222 255
197 222 255
197 222 255
196 222 255
196 222 255
196 222 255
196 222 255
196 222 255
196 222 255
196 222 255
196 222 255
196 222 255
196 222 255
196 222 255
196 222 255
196 222 255
196 222 255
196 222 255
196 222 255
196 222 255
196 222 255
196 221 255
196 221 255
195 221 255
195 221 255
195 221 255
195 221 255
195 221 255
195 221 255
195 221 255
195 221 255
195 221 255
195 221 255
195 221 255
195 221 255
195 221 255
195 221 255
195 221 255
195 221 255
195 221 255
195 221 255
195 221 255
195 221 255
195 221 255
195 221 255
195 221 255
195 221 255
195 221 255
195 221 255
195 221 255
195 221 255
195 221 255
195 221 255
195 221 255
195 221 255
195 221 255
195 221 255
195 221 255
195 221 255
195 221 255
195 221 255
195 221 255
195 221 255
195 221 255
195 221 255
195 221 255
195 221 255
195 221 255
195 221 255
195 221 255
195 221 255
195 221 255
195 221 255
195 221 255
195 221 255
195 221 255
195 221 255
195 221 255
195 221 255
195 221 255
195 221 255
195 221 255
195 221 255
195 221 255
195 221 255
195 221 255
195 221 255
195 221 255
195 221 255
195 221 255
195 221 255
195 221 255
195 221 255
195 221 255
195 221 255
195 221 255
195 221 255
195 221 255
195 221 255
196 221 255
196 221 255
196 222 255
196 222 255
196 222 255
196 222 255
196 222 255
196 222 255
196 222 255
196 222 255
196 222 255
196 222 255
196 222 255
196 222 255
196 222 255
196 222 255
196 222 255
196 222 255
196 222 255
197 222 255
197 222 255
197 222 255
197 222 255
197 222 255
197 222 255
197 222 255
197 222 255
197 222 255
197 222 255
197 222 255
197 222 255
197 222 255
197 222 255
197 222 255
197 222 255
197 223 255
198 223 255
198 223 255
198 223 255
198 223 255
198 223 255
198 223 255
198 223 255
198 223 255
198 223 255
198 223 255
198 223 255
198 223 255
198 223 255
198 223 255
198 223 255
199 223 255
199 223 255
199 223 255
199 223 255
199 223 255
199 223 255
199 223 255
199 223 255
199 223 255
199 223 255
199 223 255
199 223 255
199 224 255
199 224 255
200 224 255
200 224 255
200 224 255
200 224 255
200 224 255
200 224 255
200 224 255
200 224 255
200 224 255
200 224 255
200 224 255
200 224 255
200 224 255
200 224 255
201 224 255
201 224 255
201 224 255
201 224 255
201 224 255
201 224 255
201 224 255
201 224 255
201 224 255
201 224 255
201 224 255
201 225 255
201 225 255
201 225 255
201 225 255
202 225 255
202 225 255
202 225 255
202 225 255
202 225 255
202 225 255
202 225 255
202 225 255
202 225 255
202 225 255
202 225 255
202 225 255
202 225 255
202 225 255
202 225 255
203 225 255
203 225 255
203 225 255
203 225 255
203 225 255
203 225 255
203 225 255
203 225 255
203 225 255
203 226 255
203 226 255
203 226 255
203 226 255
203 226 255
203 226 255
203 226 255
204 226 255
204 226 255
204 226 255
204 226 255
204 226 255
204 226 255
204 226 255
204 226 255
204 226 255
204 226 255
204 226 255
204 226 255
204 226 255
204 226 255
204 226 255
204 226 255
204 226 255
205 226 255
205 226 255
205 226 255
205 226 255
205 226 255
205 226 255
205 226 255
205 227 255
205 227 255
205 227 255
205 227 255
205 227 255
205 227 255
205 227 255
205 227 255
205 227 255
205 227 255
205 227 255
205 227 255
206 227 255
206 227 255
206 227 255
206 227 255
206 227 255
205 227 255
205 227 255
205 227 255
205 227 255
205 227 255
205 227 255
205 227 255
205 227 255
205 227 255
205 227 255
205 227 255
205 226 255
205 226 255
205 226 255
205 226 255
205 226 255
205 226 255
205 226 255
204 226 255
204 226 255
204 226 255
204 226 255
204 226 255
204 226 255
204 226 255
204 226 255
204 226 255
204 226 255
204 226 255
204 226 255
204 226 255
204 226 255
204 226 255
204 226 255
204 226 255
203 226 255
203 226 255
203 226 255
203 226 255
203 226 255
203 226 255
203 226 255
203 225 255
203 225 255
203 225 255
203 225 255
203 225 255
203 225 255
203 225 255
203 225 255
203 225 255
202 225 255
202 225 255
202 225 255
202 225 255
202 225 255
202 225 255
202 225 255
202 225 255
202 225 255
202 225 255
202 225 255
202 225 255
202 225 255
202 225 255
202 225 255
201 225 255
201 225 255
201 225 255
201 225 255
201 225 255
201 224 255
201 224 255
201 224 255
201 224 255
201 224 255
201 224 255
201 224 255
201 224 255
201 224 255
201 224 255
200 224 255
200 224 255
200 224 255
200 224 255
200 224 255
200 224 255
200 224 255
200 224 255
200 224 255
200 224 255
200 224 255
200 224 255
200 224 255
200 224 255
199 224 255
199 224 255
199 223 255
199 223 255
199 223 255
199 223 255
199 223 255
199 223 255
199 223 255
199 223 255
199 223 255
199 223 255
199 223 255
199 223 255
199 223 255
198 223 255
198 223 255
198 223 255
198 223 255
198 223 255
198 223 255
198 223 255
198 223 255
198 223 255
198 223 255
198 223 255
198 223 255
198 223 255
198 223 255
198 223 255
197 222 255
197 222 255
197 222 255
197 222 255
197 222 255
197 222 255
197 222 255
197 222 255
197 222 255
197 222 255
197 222 255
197 222 255
197 222 255
197 222 255
197 222 255
197 222 255
196 222 255
196 222 255
196 222 255
196 222 255
196 222 255
196 222 255
196 222 255
196 222 255
196 222 255
196 222 255
196 222 255
196 222 255
196 222 255
196 222 255
196 222 255
196 222 255
196 222 255
196 222 255
196 222 255
196 221 255
196 221 255
195 221 255
195 221 255
195 221 255
195 221 255
195 221 255
195 221 255
195 221 255
195 221 255
195 221 255
195 221 255
195 221 255
195 221 255
195 221 255
195 221 255
195 221 255
195 221 255
195 221 255
195 221 255
195 221 255
195 221 255
195 221 255
195 221 255
195 221 255
195 221 255
195 221 255
195 221 255
195 221 255
195 221 255
195 221 255
195 221 255
195 221 255
195 221 255
195 221 255
195 221 255
195 221 255
195 221 255
195 221 255
195 221 255
195 221 255
195 221 255
195 221 255
195 221 255
195 221 255
195 221 255
195 221 255
195 221 255
195 221 255
195 221 255
195 221 255
195 221 255
195 221 255
195 221 255
195 221 255
195 221 255
195 221 255
195 221 255
195 221 255
195 221 255
195 221 255
195 221 255
195 221 255
195 221 255
195 221 255
195 221 255
195 221 255
195 221 255
195 221 255
195 221 255
196 221 255
196 221 255
196 222 255
196 222 255
196 222 255
196 222 255
196 222 255
196 222 255
196 222 255
196 222 255
196 222 255
196 222 255
196 222 255
196 222 255
196 222 255
196 222 255
196 222 255
196 222 255
196 222 255
196 222 255
196 222 255
197 222 255
197 222 255
197 222 255
197 222 255
197 222 255
197 222 255
197 222 255
197 222 255
197 222 255
197 222 255
197 222 255
197 222 255
197 222 255
197 222 255
197 222 255
197 222 255
198 223 255
198 223 255
198 223 255
198 223 255
198 223 255
198 223 255
198 223 255
198 223 255
198 223 255
198 223 255
198 223 255
198 223 255
198 223 255
198 223 255
198 223 255
199 223 255
199 223 255
199 223 255
199 223 255
199 223 255
199 223 255
199 223 255
199 223 255
199 223 255
199 223 255
199 223 255
199 223 255
199 223 255
199 224 255
199 224 255
200 224 255
200 224 255
200 224 255
200 224 255
200 224 255
200 224 255
200 224 255
200 224 255
200 224 255
200 224 255
200 224 255
200 224 255
200 224 255
200 224 255
201 224 255
201 224 255
201 224 255
201 224 255
201 224 255
201 224 255
201 224 255
201 224 255
201 224 255
201 224 255
201 225 255
201 225 255
201 225 255
201 225 255
201 225 255
202 225 255
202 225 255
202 225 255
202 225 255
202 225 255
202 225 255
202 225 255
202 225 255
202 225 255
202 225 255
202 225 255
202 225 255
202 225 255
202 225 255
202 225 255
203 225 255
203 225 255
203 225 255
203 225 255
203 225 255
203 225 255
203 225 255
203 225 255
203 225 255
203 226 255
203 226 255
203 226 255
203 226 255
203 226 255
203 226 255
203 226 255
204 226 255
204 226 255
204 226 255
204 226 255
204 226 255
204 226 255
204 226 255
204 226 255
204 226 255
204 226 255
204 226 255
204 226 255
204 226 255
204 226 255
204 226 255
204 226 255
204 226 255
205 226 255
205 226 255
205 226 255
205 226 255
205 226 255
205 226 255
205 226 255
205 227 255
205 227 255
205 227 255
205 227 255
205 227 255
205 227 255
205 227 255
205 227 255
205 227 255
205 227 255
205 227 255
206 227 255
206 227 255
206 227 255
206 227 255
206 227 255
206 227 255
206 227 255
206 227 255
206 227 255
206 227 255
205 227 255
205 227 255
205 227 255
205 227 255
205 227 255
205 227 255
205 227 255
205 227 255
205 227 255
205 227 255
205 227 255
205 227 255
205 226 255
205 226 255
205 226 255
205 226 255
205 226 255
205 226 255
205 226 255
204 226 255
204 226 255
204 226 255
204 226 255
204 226 255
204 226 255
204 226 255
204 226 255
204 226 255
204 226 255
204 226 255
204 226 255
204 226 255
204 226 255
204 226 255
204 226 255
204 226 255
203 226 255
203 226 255
203 226 255
203 226 255
203 226 255
203 226 255
203 226 255
203 225 255
203 225 255
203 225 255
203 225 255
203 225 255
203 225 255
203 225 255
203 225 255
202 225 255
202 225 255
202 225 255
202 225 255
202 225 255
202 225 255
202 225 255
202 225 255
202 225 255
202 225 255
202 225 255
202 225 255
202 225 255
202 225 255
202 225 255
202 225 255
201 225 255
201 225 255
201 225 255
201 225 255
201 224 255
201 224 255
201 224 255
201 224 255
201 224 255
201 224 255
201 224 255
201 224 255
201 224 255
201 224 255
200 224 255
200 224 255
200 224 255
200 224 255
200 224 255
200 224 255
200 224 255
200 224 255
200 224 255
200 224 255
200 224 255
200 224 255
200 224 255
200 224 255
199 224 255
199 224 255
199 224 255
199 223 255
199 223 255
199 223 255
199 223 255
199 223 255
199 223 255
199 223 255
199 223 255
199 223 255
199 223 255
199 223 255
199 223 255
198 223 255
198 223 255
198 223 255
198 223 255
198 223 255
198 223 255
198 223 255
198 223 255
198 223 255
198 223 255
198 223 255
198 223 255
198 223 255
198 223 255
198 223 255
197 223 255
197 222 255
197 222 255
197 222 255
197 222 255
197 222 255
197 222 255
197 222 255
197 222 255
197 222 255
197 222 255
197 222 255
197 222 255
197 222 255
197 222 255
197 222 255
197 222 255
196 222 255
196 222 255
196 222 255
196 222 255
196 222 255
196 222 255
196 222 255
196 222 255
196 222 255
196 222 255
196 222 255
196 222 255
196 222 255
196 222 255
196 222 255
196 222 255
196 222 255
196 222 255
196 222 255
196 222 255
196 221 255
196 221 255
195 221 255
195 221 255
195 221 255
195 221 255
195 221 255
195 221 255
195 221 255
195 221 255
195 221 255
195 221 255
195 221 255
195 221 255
195 221 255
195 221 255
195 221 255
195 221 255
195 221 255
195 221 255
195 221 255
195 221 255
195 221 255
195 221 255
195 221 255
195 221 255
195 221 255
195 221 255
195 221 255
195 221 255
195 221 255
195 221 255
195 221 255
195 221 255
195 221 255
195 221 255
195 221 255
195 221 255
195 221 255
195 221 255
195 221 255
195 221 255
195 221 255
195 221 255
195 221 255
195 221 255
195 221 255
195 221 255
195 221 255
195 221 255
195 221 255
195 221 255
195 221 255
195 221 255
195 221 255
195 221 255
195 221 255
195 221 255
195 221 255
195 221 255
195 221 255
195 221 255
196 221 255
196 221 255
196 222 255
196 222 255
196 222 255
196 222 255
196 222 255
196 222 255
196 222 255
196 222 255
196 222 255
196 222 255
196 222 255
196 222 255
196 222 255
196 222 255
196 222 255
196 222 255
196 222 255
196 222 255
196 222 255
196 222 255
197 222 255
197 222 255
197 222 255
197 222 255
197 222 255
197 222 255
197 222 255
197 222 255
197 222 255
197 222 255
197 222 255
197 222 255
197 222 255
197 222 255
197 222 255
197 222 255
197 222 255
198 223 255
198 223 255
198 223 255
198 223 255
198 223 255
198 223 255
198 223 255
198 223 255
198 223 255
198 223 255
198 223 255
198 223 255
198 223 255
198 223 255
198 223 255
199 223 255
199 223 255
199 223 255
199 223 255
199 223 255
199 223 255
199 223 255
199 223 255
199 223 255
199 223 255
199 223 255
199 223 255
199 224 255
199 224 255
199 224 255
200 224 255
200 224 255
200 224 255
200 224 255
200 224 255
200 224 255
200 224 255
200 224 255
200 224 255
200 224 255
200 224 255
200 224 255
200 224 255
200 224 255
201 224 255
201 224 255
201 224 255
201 224 255
201 224 255
201 224 255
201 224 255
201 224 255
201 224 255
201 224 255
201 225 255
201 225 255
201 225 255
201 225 255
201 225 255
202 225 255
202 225 255
202 225 255
202 225 255
202 225 255
202 225 255
202 225 255
202 225 255
202 225 255
202 225 255
202 225 255
202 225 255
202 225 255
202 225 255
202 225 255
203 225 255
203 225 255
203 225 255
203 225 255
203 225 255
203 225 255
203 225 255
203 225 255
203 226 255
203 226 255
203 226 255
203 226 255
203 226 255
203 226 255
203 226 255
204 226 255
204 226 255
204 226 255
204 226 255
204 226 255
204 226 255
204 226 255
204 226 255
204 226 255
204 226 255
204 226 255
204 226 255
204 226 255
204 226 255
204 226 255
204 226 255
204 226 255
205 226 255
205 226 255
205 226 255
205 226 255
205 226 255
205 226 255
205 226 255
205 226 255
205 227 255
205 227 255
205 227 255
205 227 255
205 227 255
205 227 255
205 227 255
205 227 255
205 227 255
205 227 255
205 227 255
206 227 255
206 227 255
206 227 255
206 227 255
206 227 255
206 227 255
206 227 255
206 227 255
206 227 255
206 227 255
206 227 255
206 227 255
206 227 255
206 227 255
206 227 255
205 227 255
205 227 255
205 227 255
205 227 255
205 227 255
205 227 255
205 227 255
205 227 255
205 227 255
205 227 255
205 227 255
205 226 255
205 226 255
205 226 255
205 226 255
205 226 255
205 226 255
205 226 255
204 226 255
204 226 255
204 226 255
204 226 255
204 226 255
204 226 255
204 226 255
204 226 255
204 226 255
204 226 255
204 226 255
204 226 255
204 226 255
204 226 255
204 226 255
204 226 255
204 226 255
203 226 255
203 226 255
203 226 255
203 226 255
203 226 255
203 226 255
203 226 255
203 225 255
203 225 255
203 225 255
203 225 255
203 225 255
203 225 255
203 225 255
203 225 255
203 225 255
202 225 255
202 225 255
202 225 255
202 225 255
202 225 255
202 225 255
202 225 255
202 225 255
202 225 255
202 225 255
202 225 255
202 225 255
202 225 255
202 225 255
202 225 255
201 225 255
201 225 255
201 225 255
201 225 255
201 224 255
201 224 255
201 224 255
201 224 255
201 224 255
201 224 255
201 224 255
201 224 255
201 224 255
201 224 255
200 224 255
200 224 255
200 224 255
200 224 255
200 224 255
200 224 255
200 224 255
200 224 255
200 224 255
200 224 255
200 224 255
200 224 255
200 224 255
200 224 255
200 224 255
199 224 255
199 224 255
199 223 255
199 223 255
199 223 255
199 223 255
199 223 255
199 223 255
199 223 255
199 223 255
199 223 255
199 223 255
199 223 255
199 223 255
198 223 255
198 223 255
198 223 255
198 223 255
198 223 255
198 223 255
198 223 255
198 223 255
198 223 255
198 223 255
198 223 255
198 223 255
198 223 255
198 223 255
198 223 255
198 223 255
197 222 255
197 222 255
197 222 255
197 222 255
197 222 255
197 222 255
197 222 255
197 222 255
197 222 255
197 222 255
197 222 255
197 222 255
197 222 255
197 222 255
197 222 255
197 222 255
197 222 255
196 222 255
196 222 255
196 222 255
196 222 255
196 222 255
196 222 255
196 222 255
196 222 255
196 222 255
196 222 255
196 222 255
196 222 255
196 222 255
196 222 255
196 222 255
196 222 255
196 222 255
196 222 255
196 222 255
196 222 255
196 222 255
196 221 255
196 221 255
196 221 255
195 221 255
195 221 255
195 221 255
195 221 255
195 221 255
195 221 255
195 221 255
195 221 255
195 221 255
195 221 255
195 221 255
195 221 255
195 221 255
195 221 255
195 221 255
195 221 255
195 221 255
195 221 255
195 221 255
195 221 255
195 221 255
195 221 255
195 221 255
195 221 255
195 221 255
195 221 255
195 221 255
195 221 255
195 221 255
195 221 255
195 221 255
195 221 255
195 221 255
195 221 255
195 221 255
195 221 255
195 221 255
195 221 255
195 221 255
195 221 255
195 221 255
195 221 255
195 221 255
195 221 255
195 221 255
195 221 255
195 221 255
195 221 255
195 221 255
195 221 255
196 221 255
196 221 255
196 221 255
196 222 255
196 222 255
196 222 255
196 222 255
196 222 255
196 222 255
196 222 255
196 222 255
196 222 255
196 222 255
196 222 255
196 222 255
196 222 255
196 222 255
196 222 255
196 222 255
196 222 255
196 222 255
196 222 255
196 222 255
196 222 255
197 222 255
197 222 255
197 222 255
197 222 255
197 222 255
197 222 255
197 222 255
197 222 255
197 222 255
197 222 255
197 222 255
197 222 255
197 222 255
197 222 255
197 222 255
197 222 255
197 222 255
198 223 255
198 223 255
198 223 255
198 223 255
198 223 255
198 223 255
198 223 255
198 223 255
198 223 255
198 223 255
198 223 255
198 223 255
198 223 255
198 223 255
198 223 255
198 223 255
199 223 255
199 223 255
199 223 255
199 223 255
199 223 255
199 223 255
199 223 255
199 223 255
199 223 255
199 223 255
199 223 255
199 223 255
199 224 255
199 224 255
200 224 255
200 224 255
200 224 255
200 224 255
200 224 255
200 224 255
200 224 255
200 224 255
200 224 255
200 224 255
200 224 255
200 224 255
200 224 255
200 224 255
200 224 255
201 224 255
201 224 255
201 224 255
201 224 255
201 224 255
201 224 255
201 224 255
201 224 255
201 224 255
201 224 255
201 225 255
201 225 255
201 225 255
201 225 255
202 225 255
202 225 255
202 225 255
202 225 255
202 225 255
202 225 255
202 225 255
202 225 255
202 225 255
202 225 255
202 225 255
202 225 255
202 225 255
202 225 255
202 225 255
203 225 255
203 225 255
203 225 255
203 225 255
203 225 255
203 225 255
203 225 255
203 225 255
203 225 255
203 226 255
203 226 255
203 226 255
203 226 255
203 226 255
203 226 255
203 226 255
204 226 255
204 226 255
204 226 255
204 226 255
204 226 255
204 226 255
204 226 255
204 226 255
204 226 255
204 226 255
204 226 255
204 226 255
204 226 255
204 226 255
204 226 255
204 226 255
204 226 255
205 226 255
205 226 255
205 226 255
205 226 255
205 226 255
205 226 255
205 226 255
205 227 255
205 227 255
205 227 255
205 227 255
205 227 255
205 227 255
205 227 255
205 227 255
205 227 255
205 227 255
205 227 255
206 227 255
206 227 255
206 227 255
206 227 255
206 227 255
206 227 255
206 227 255
206 227 255
206 227 255
206 227 255
206 227 255
206 227 255
206 227 255
206 227 255
206 227 255
206 227 255
206 227 255
206 227 255
206 227 255
206 227 255
206 227 255
205 227 255
205 227 255
205 227 255
205 227 255
205 227 255
205 227 255
205 227 255
205 227 255
205 227 255
205 227 255
205 226 255
205 226 255
205 226 255
205 226 255
205 226 255
205 226 255
205 226 255
205 226 255
204 226 255
204 226 255
204 226 255
204 226 255
204 226 255
204 226 255
204 226 255
204 226 255
204 226 255
204 226 255
204 226 255
204 226 255
204 226 255
204 226 255
204 226 255
204 226 255
203 226 255
203 226 255
203 226 255
203 226 255
203 226 255
203 226 255
203 226 255
203 225 255
203 225 255
203 225 255
203 225 255
203 225 255
203 225 255
203 225 255
203 225 255
203 225 255
202 225 255
202 225 255
202 225 255
202 225 255
202 225 255
202 225 255
202 225 255
202 225 255
202 225 255
202 225 255
202 225 255
202 225 255
202 225 255
202 225 255
202 225 255
201 225 255
201 225 255
201 225 255
201 225 255
201 224 255
201 224 255
201 224 255
201 224 255
201 224 255
201 224 255
201 224 255
201 224 255
201 224 255
201 224 255
200 224 255
200 224 255
200 224 255
200 224 255
200 224 255
200 224 255
200 224 255
200 224 255
200 224 255
200 224 255
200 224 255
200 224 255
200 224 255
200 224 255
200 224 255
199 224 255
199 224 255
199 223 255
199 223 255
199 223 255
199 223 255
199 223 255
199 223 255
199 223 255
199 223 255
199 223 255
199 223 255
199 223 255
199 223 255
199 223 255
198 223 255
198 223 255
198 223 255
198 223 255
198 223 255
198 223 255
198 223 255
198 223 255
198 223 255
198 223 255
198 223 255
198 223 255
198 223 255
198 223 255
198 223 255
197 223 255
197 222 255
197 222 255
197 222 255
197 222 255
197 222 255
197 222 255
197 222 255
197 222 255
197 222 255
197 222 255
197 222 255
197 222 255
197 222 255
197 222 255
197 222 255
197 222 255
197 222 255
196 222 255
196 222 255
196 222 255
196 222 255
196 222 255
196 222 255
196 222 255
196 222 255
196 222 255
196 222 255
196 222 255
196 222 255
196 222 255
196 222 255
196 222 255
196 222 255
196 222 255
196 222 255
196 222 255
196 222 255
196 222 255
196 222 255
196 222 255
196 222 255
196 221 255
196 221 255
196 221 255
196 221 255
195 221 255
195 221 255
195 221 255
195 221 255
195 221 255
195 221 255
195 221 255
195 221 255
195 221 255
195 221 255
195 221 255
195 221 255
195 221 255
195 221 255
195 221 255
195 221 255
195 221 255
195 221 255
195 221 255
195 221 255
195 221 255
195 221 255
195 221 255
195 221 255
195 221 255
195 221 255
195 221 255
195 221 255
195 221 255
195 221 255
195 221 255
195 221 255
195 221 255
195 221 255
195 221 255
195 221 255
195 221 255
196 221 255
196 221 255
196 221 255
196 222 255
196 222 255
196 222 255
196 222 255
196 222 255
196 222 255
196 222 255
196 222 255
196 222 255
196 222 255
196 222 255
196 222 255
196 222 255
196 222 255
196 222 255
196 222 255
196 222 255
196 222 255
196 222 255
196 222 255
196 222 255
196 222 255
196 222 255
196 222 255
197 222 255
197 222 255
197 222 255
197 222 255
197 222 255
197 222 255
197 222 255
197 222 255
197 222 255
197 222 255
197 222 255
197 222 255
197 222 255
197 222 255
197 222 255
197 222 255
197 222 255
197 223 255
198 223 255
198 223 255
198 223 255
198 223 255
198 223 255
198 223 255
198 223 255
198 223 255
198 223 255
198 223 255
198 223 255
198 223 255
198 223 255
198 223 255
198 223 255
199 223 255
199 223 255
199 223 255
199 223 255
199 223 255
199 223 255
199 223 255
199 223 255
199 223 255
199 223 255
199 223 255
199 223 255
199 223 255
199 224 255
199 224 255
200 224 255
200 224 255
200 224 255
200 224 255
200 224 255
200 224 255
200 224 255
200 224 255
200 224 255
200 224 255
200 224 255
200 224 255
200 224 255
200 224 255
201 224 255
201 224 255
201 224 255
201 224 255
201 224 255
201 224 255
201 224 255
201 224 255
201 224 255
201 224 255
201 224 255
201 225 255
201 225 255
201 225 255
201 225 255
202 225 255
202 225 255
202 225 255
202 225 255
202 225 255
202 225 255
202 225 255
202 225 255
202 225 255
202 225 255
202 225 255
202 225 255
202 225 255
202 225 255
202 225 255
203 225 255
203 225 255
203 225 255
203 225 255
203 225 255
203 225 255
203 225 255
203 225 255
203 225 255
203 226 255
203 226 255
203 226 255
203 226 255
203 226 255
203 226 255
203 226 255
204 226 255
204 226 255
204 226 255
204 226 255
204 226 255
204 226 255
204 226 255
204 226 255
204 226 255
204 226 255
204 226 255
204 226 255
204 226 255
204 226 255
204 226 255
204 226 255
205 226 255
205 226 255
205 226 255
205 226 255
205 226 255
205 226 255
205 226 255
205 227 255
205 227 255
205 227 255
205 227 255
205 227 255
205 227 255
205 227 255
205 227 255
205 227 255
205 227 255
205 227 255
206 227 255
206 227 255
206 227 255
206 227 255
206 227 255
206 227 255
206 227 255
206 227 255
206 227 255
206 227 255
206 227 255
206 227 255
206 227 255
206 227 255
206 227 255
206 227 255
206 227 255
206 227 255
206 227 255
206 227 255
206 227 255
206 227 255
206 227 255
206 227 255
206 227 255
206 227 255
205 227 255
205 227 255
205 227 255
205 227 255
205 227 255
205 227 255
205 227 255
205 227 255
205 227 255
205 227 255
205 227 255
205 226 255
205 226 255
205 226 255
205 226 255
205 226 255
205 226 255
205 226 255
204 226 255
204 226 255
204 226 255
204 226 255
204 226 255
204 226 255
204 226 255
204 226 255
204 226 255
204 226 255
204 226 255
204 226 255
204 226 255
204 226 255
204 226 255
204 226 255
204 226 255
203 226 255
203 226 255
203 226 255
203 226 255
203 226 255
203 226 255
203 226 255
203 225 255
203 225 255
203 225 255
203 225 255
203 225 255
203 225 255
203 225 255
203 225 255
202 225 255
202 225 255
202 225 255
202 225 255
202 225 255
202 225 255
202 225 255
202 225 255
202 225 255
202 225 255
202 225 255
202 225 255
202 225 255
202 225 255
202 225 255
201 225 255
201 225 255
201 225 255
201 225 255
201 225 255
201 224 255
201 224 255
201 224 255
201 224 255
201 224 255
201 224 255
201 224 255
201 224 255
201 224 255
201 224 255
200 224 255
200 224 255
200 224 255
200 224 255
200 224 255
200 224 255
200 224 255
200 224 255
200 224 255
200 224 255
200 224 255
200 224 255
200 224 255
200 224 255
199 224 255
199 224 255
199 224 255
199 223 255
199 223 255
199 223 255
199 223 255
199 223 255
199 223 255
199 223 255
199 223 255
199 223 255
199 223 255
199 223 255
199 223 255
198 223 255
198 223 255
198 223 255
198 223 255
198 223 255
198 223 255
198 223 255
198 223 255
198 223 255
198 223 255
198 223 255
198 223 255
198 223 255
198 223 255
198 223 255
198 223 255
197 222 255
197 222 255
197 222 255
197 222 255
197 222 255
197 222 255
197 222 255
197 222 255
197 222 255
197 222 255
197 222 255
197 222 255
197 222 255
197 222 255
197 222 255
197 222 255
197 222 255
197 222 255
197 222 255
196 222 255
196 222 255
196 222 255
196 222 255
196 222 255
196 222 255
196 222 255
196 222 255
196 222 255
196 222 255
196 222 255
196 222 255
196 222 255
196 222 255
196 222 255
196 222 255
196 222 255
196 222 255
196 222 255
196 222 255
196 222 255
196 222 255
196 222 255
196 222 255
196 222 255
196 222 255
196 222 255
196 221 255
196 221 255
196 221 255
196 221 255
196 221 255
196 221 255
195 221 255
195 221 255
195 221 255
195 221 255
195 221 255
195 221 255
195 221 255
195 221 255
195 221 255
195 221 255
195 221 255
195 221 255
195 221 255
195 221 255
195 221 255
195 221 255
195 221 255
195 221 255
195 221 255
196 221 255
196 221 255
196 221 255
196 221 255
196 221 255
196 221 255
196 222 255
196 222 255
196 222 255
196 222 255
196 222 255
196 222 255
196 222 255
196 222 255
196 222 255
196 222 255
196 222 255
196 222 255
196 222 255
196 222 255
196 222 255
196 222 255
196 222 255
196 222 255
196 222 255
196 222 255
196 222 255
196 222 255
196 222 255
196 222 255
196 222 255
196 222 255
197 222 255
197 222 255
197 222 255
197 222 255
197 222 255
197 222 255
197 222 255
197 222 255
197 222 255
197 222 255
197 222 255
197 222 255
197 222 255
197 222 255
197 222 255
197 222 255
197 222 255
197 222 255
197 222 255
198 223 255
198 223 255
198 223 255
198 223 255
198 223 255
198 223 255
198 223 255
198 223 255
198 223 255
198 223 255
198 223 255
198 223 255
198 223 255
198 223 255
198 223 255
198 223 255
199 223 255
199 223 255
199 223 255
199 223 255
199 223 255
199 223 255
199 223 255
199 223 255
199 223 255
199 223 255
199 223 255
199 223 255
199 223 255
199 224 255
199 224 255
200 224 255
200 224 255
200 224 255
200 224 255
200 224 255
200 224 255
200 224 255
200 224 255
200 224 255
200 224 255
200 224 255
200 224 255
200 224 255
200 224 255
201 224 255
201 224 255
201 224 255
201 224 255
201 224 255
201 224 255
201 224 255
201 224 255
201 224 255
201 224 255
201 225 255
201 225 255
201 225 255
201 225 255
201 225 255
202 225 255
202 225 255
202 225 255
202 225 255
202 225 255
202 225 255
202 225 255
202 225 255
202 225 255
202 225 255
202 225 255
202 225 255
202 225 255
202 225 255
202 225 255
203 225 255
203 225 255
203 225 255
203 225 255
203 225 255
203 225 255
203 225 255
203 225 255
203 226 255
203 226 255
203 226 255
203 226 255
203 226 255
203 226 255
203 226 255
204 226 255
204 226 255
204 226 255
204 226 255
204 226 255
204 226 255
204 226 255
204 226 255
204 226 255
204 226 255
204 226 255
204 226 255
204 226 255
204 226 255
204 226 255
204 226 255
204 226 255
205 226 255
205 226 255
205 226 255
205 226 255
205 226 255
205 226 255
205 226 255
205 227 255
205 227 255
205 227 255
205 227 255
205 227 255
205 227 255
205 227 255
205 227 255
205 227 255
205 227 255
205 227 255
206 227 255
206 227 255
206 227 255
206 227 255
206 227 255
206 227 255
206 227 255
206 227 255
206 227 255
206 227 255
206 227 255
206 227 255
206 227 255
206 227 255
206 227 255
206 227 255
206 227 255
206 227 255
206 227 255
206 227 255
206 227 255
206 227 255
206 227 255
206 227 255
206 227 255
206 227 255
206 227 255
206 227 255
206 227 255
206 227 255
206 227 255
205 227 255
205 227 255
205 227 255
205 227 255
205 227 255
205 227 255
205 227 255
205 227 255
205 227 255
205 227 255
205 226 255
205 226 255
205 226 255
205 226 255
205 226 255
205 226 255
205 226 255
205 226 255
204 226 255
204 226 255
204 226 255
204 226 255
204 226 255
204 226 255
204 226 255
204 226 255
204 226 255
204 226 255
204 226 255
204 226 255
204 226 255
204 226 255
204 226 255
204 226 255
203 226 255
203 226 255
203 226 255
203 226 255
203 226 255
203 226 255
203 226 255
203 225 255
203 225 255
203 225 255
203 225 255
203 225 255
203 225 255
203 225 255
203 225 255
203 225 255
202 225 255
202 225 255
202 225 255
202 225 255
202 225 255
202 225 255
202 225 255
202 225 255
202 225 255
202 225 255
202 225 255
202 225 255
202 225 255
202 225 255
202 225 255
201 225 255
201 225 255
201 225 255
201 225 255
201 224 255
201 224 255
201 224 255
201 224 255
201 224 255
201 224 255
201 224 255
201 224 255
201 224 255
201 224 255
200 224 255
200 224 255
200 224 255
200 224 255
200 224 255
200 224 255
200 224 255
200 224 255
200 224 255
200 224 255
200 224 255
200 224 255
200 224 255
200 224 255
200 224 255
199 224 255
199 224 255
199 223 255
199 223 255
199 223 255
199 223 255
199 223 255
199 223 255
199 223 255
199 223 255
199 223 255
199 223 255
199 223 255
199 223 255
198 223 255
198 223 255
198 223 255
198 223 255
198 223 255
198 223 255
198 223 255
198 223 255
198 223 255
198 223 255
198 223 255
198 223 255
198 223 255
198 223 255
198 223 255
198 223 255
198 223 255
197 222 255
197 222 255
197 222 255
197 222 255
197 222 255
197 222 255
197 222 255
197 222 255
197 222 255
197 222 255
197 222 255
197 222 255
197 222 255
197 222 255
197 222 255
197 222 255
197 222 255
197 222 255
197 222 255
196 222 255
196 222 255
196 222 255
196 222 255
196 222 255
196 222 255
196 222 255
196 222 255
196 222 255
196 222 255
196 222 255
196 222 255
196 222 255
196 222 255
196 222 255
196 222 255
196 222 255
196 222 255
196 222 255
196 222 255
196 222 255
196 222 255
196 222 255
196 222 255
196 222 255
196 222 255
196 222 255
196 222 255
196 222 255
196 222 255
196 222 255
196 222 255
196 222 255
196 222 255
196 222 255
196 222 255
196 222 255
196 222 255
196 222 255
196 222 255
196 222 255
196 222 255
196 222 255
196 222 255
196 222 255
196 222 255
196 222 255
196 222 255
196 222 255
196 222 255
196 222 255
196 222 255
196 222 255
196 222 255
196 222 255
196 222 255
196 222 255
196 222 255
196 222 255
196 222 255
196 222 255
196 222 255
196 222 255
196 222 255
196 222 255
196 222 255
196 222 255
196 222 255
196 222 255
196 222 255
196 222 255
196 222 255
196 222 255
196 222 255
196 222 255
196 222 255
196 222 255
196 222 255
197 222 255
197 222 255
197 222 255
197 222 255
197 222 255
197 222 255
197 222 255
197 222 255
197 222 255
197 222 255
197 222 255
197 222 255
197 222 255
197 222 255
197 222 255
197 222 255
197 222 255
197 222 255
197 222 255
198 223 255
198 223 255
198 223 255
198 223 255
198 223 255
198 223 255
198 223 255
198 223 255
198 223 255
198 223 255
198 223 255
198 223 255
198 223 255
198 223 255
198 223 255
198 223 255
198 223 255
199 223 255
199 223 255
199 223 255
199 223 255
199 223 255
199 223 255
199 223 255
199 223 255
199 223 255
199 223 255
199 223 255
199 223 255
199 224 255
199 224 255
200 224 255
200 224 255
200 224 255
200 224 255
200 224 255
200 224 255
200 224 255
200 224 255
200 224 255
200 224 255
200 224 255
200 224 255
200 224 255
200 224 255
200 224 255
201 224 255
201 224 255
201 224 255
201 224 255
201 224 255
201 224 255
201 224 255
201 224 255
201 224 255
201 224 255
201 225 255
201 225 255
201 225 255
201 225 255
202 225 255
202 225 255
202 225 255
202 225 255
202 225 255
202 225 255
202 225 255
202 225 255
202 225 255
202 225 255
202 225 255
202 225 255
202 225 255
202 225 255
202 225 255
203 225 255
203 225 255
203 225 255
203 225 255
203 225 255
203 225 255
203 225 255
203 225 255
203 225 255
203 226 255
203 226 255
203 226 255
203 226 255
203 226 255
203 226 255
203 226 255
204 226 255
204 226 255
204 226 255
204 226 255
204 226 255
204 226 255
204 226 255
204 226 255
204 226 255
204 226 255
204 226 255
204 226 255
204 226 255
204 226 255
204 226 255
204 226 255
205 226 255
205 226 255
205 226 255
205 226 255
205 226 255
205 226 255
205 226 255
205 227 255
205 227 255
205 227 255
205 227 255
205 227 255
205 227 255
205 227 255
205 227 255
205 227 255
205 227 255
205 227 255
206 227 255
206 227 255
206 227 255
206 227 255
206 227 255
206 227 255
206 227 255
206 227 255
206 227 255
206 227 255
206 227 255
206 227 255
206 227 255
206 227 255
206 227 255
206 227 255
206 227 255
206 227 255
206 227 255
206 227 255
206 227 255
206 227 255
206 227 255
206 227 255
206 227 255
206 227 255
206 227 255
206 227 255
206 227 255
206 227 255
206 227 255
206 227 255
206 227 255
206 227 255
206 227 255
206 227 255
205 227 255
205 227 255
205 227 255
205 227 255
205 227 255
205 227 255
205 227 255
205 227 255
205 227 255
205 227 255
205 227 255
205 226 255
205 226 255
205 226 255
205 226 255
205 226 255
205 226 255
205 226 255
204 226 255
204 226 255
204 226 255
204 226 255
204 226 255
204 226 255
204 226 255
204 226 255
204 226 255
204 226 255
204 226 255
204 226 255
204 226 255
204 226 255
204 226 255
204 226 255
204 226 255
203 226 255
203 226 255
203 226 255
203 226 255
203 226 255
203 226 255
203 226 255
203 225 255
203 225 255
203 225 255
203 225 255
203 225 255
203 225 255
203 225 255
203 225 255
202 225 255
202 225 255
202 225 255
202 225 255
202 225 255
202 225 255
202 225 255
202 225 255
202 225 255
202 225 255
202 225 255
202 225 255
202 225 255
202 225 255
202 225 255
201 225 255
201 225 255
201 225 255
201 225 255
201 224 255
201 224 255
201 224 255
201 224 255
201 224 255
201 224 255
201 224 255
201 224 255
201 224 255
201 224 255
200 224 255
200 224 255
200 224 255
200 224 255
200 224 255
200 224 255
200 224 255
200 224 255
200 224 255
200 224 255
200 224 255
200 224 255
200 224 255
200 224 255
200 224 255
199 224 255
199 224 255
199 223 255
199 223 255
199 223 255
199 223 255
199 223 255
199 223 255
199 223 255
199 223 255
199 223 255
199 223 255
199 223 255
199 223 255
199 223 255
198 223 255
198 223 255
198 223 255
198 223 255
198 223 255
198 223 255
198 223 255
198 223 255
198 223 255
198 223 255
198 223 255
198 223 255
198 223 255
198 223 255
198 223 255
198 223 255
198 223 255
197 222 255
197 222 255
197 222 255
197 222 255
197 222 255
197 222 255
197 222 255
197 222 255
197 222 255
197 222 255
197 222 255
197 222 255
197 222 255
197 222 255
197 222 255
197 222 255
197 222 255
197 222 255
197 222 255
197 222 255
196 222 255
196 222 255
196 222 255
196 222 255
196 222 255
196 222 255
196 222 255
196 222 255
196 222 255
196 222 255
196 222 255
196 222 255
196 222 255
196 222 255
196 222 255
196 222 255
196 222 255
196 222 255
196 222 255
196 222 255
196 222 255
196 222 255
196 222 255
196 222 255
196 222 255
196 222 255
196 222 255
196 222 255
196 222 255
196 222 255
196 222 255
196 222 255
196 222 255
196 222 255
196 222 255
196 222 255
196 222 255
196 222 255
196 222 255
196 222 255
196 222 255
196 222 255
196 222 255
196 222 255
196 222 255
196 222 255
196 222 255
196 222 255
196 222 255
196 222 255
196 222 255
196 222 255
196 222 255
196 222 255
196 222 255
196 222 255
196 222 255
196 222 255
196 222 255
196 222 255
196 222 255
196 222 255
196 222 255
196 222 255
196 222 255
196 222 255
196 222 255
196 222 255
196 222 255
196 222 255
197 222 255
197 222 255
197 222 255
197 222 255
197 222 255
197 222 255
197 222 255
197 222 255
197 222 255
197 222 255
197 222 255
197 222 255
197 222 255
197 222 255
197 222 255
197 222 255
197 222 255
197 222 255
197 222 255
197 222 255
198 223 255
198 223 255
198 223 255
198 223 255
198 223 255
198 223 255
198 223 255
198 223 255
198 223 255
198 223 255
198 223 255
198 223 255
198 223 255
198 223 255
198 223 255
198 223 255
198 223 255
199 223 255
199 223 255
199 223 255
199 223 255
199 223 255
199 223 255
199 223 255
199 223 255
199 223 255
199 223 255
199 223 255
199 223 255
199 223 255
199 224 255
199 224 255
200 224 255
200 224 255
200 224 255
200 224 255
200 224 255
200 224 255
200 224 255
200 224 255
200 224 255
200 224 255
200 224 255
200 224 255
200 224 255
200 224 255
200 224 255
201 224 255
201 224 255
201 224 255
201 224 255
201 224 255
201 224 255
201 224 255
201 224 255
201 224 255
201 224 255
201 225 255
201 225 255
201 225 255
201 225 255
202 225 255
202 225 255
202 225 255
202 225 255
202 225 255
202 225 255
202 225 255
202 225 255
202 225 255
202 225 255
202 225 255
202 225 255
202 225 255
202 225 255
202 225 255
203 225 255
203 225 255
203 225 255
203 225 255
203 225 255
203 225 255
203 225 255
203 225 255
203 226 255
203 226 255
203 226 255
203 226 255
203 226 255
203 226 255
203 226 255
204 226 255
204 226 255
204 226 255
204 226 255
204 226 255
204 226 255
204 226 255
204 226 255
204 226 255
204 226 255
204 226 255
204 226 255
204 226 255
204 226 255
204 226 255
204 226 255
204 226 255
205 226 255
205 226 255
205 226 255
205 226 255
205 226 255
205 226 255
205 226 255
205 227 255
205 227 255
205 227 255
205 227 255
205 227 255
205 227 255
205 227 255
205 227 255
205 227 255
205 227 255
205 227 255
206 227 255
206 227 255
206 227 255
206 227 255
206 227 255
206 227 255
206 227 255
206 227 255
206 227 255
206 227 255
206 227 255
206 227 255
206 227 255
206 227 255
206 227 255
206 227 255
206 227 255
206 227 255
206 227 255
207 227 255
207 227 255
207 227 255
206 227 255
206 227 255
206 227 255
206 227 255
206 227 255
206 227 255
206 227 255
206 227 255
206 227 255
206 227 255
206 227 255
206 227 255
206 227 255
206 227 255
206 227 255
206 227 255
206 227 255
206 227 255
206 227 255
205 227 255
205 227 255
205 227 255
205 227 255
205 227 255
205 227 255
205 227 255
205 227 255
205 227 255
205 227 255
205 227 255
205 226 255
205 226 255
205 226 255
205 226 255
205 226 255
205 226 255
205 226 255
204 226 255
204 226 255
204 226 255
204 226 255
204 226 255
204 226 255
204 226 255
204 226 255
204 226 255
204 226 255
204 226 255
204 226 255
204 226 255
204 226 255
204 226 255
204 226 255
203 226 255
203 226 255
203 226 255
203 226 255
203 226 255
203 226 255
203 226 255
203 225 255
203 225 255
203 225 255
203 225 255
203 225 255
203 225 255
203 225 255
203 225 255
202 225 255
202 225 255
202 225 255
202 225 255
202 225 255
202 225 255
202 225 255
202 225 255
202 225 255
202 225 255
202 225 255
202 225 255
202 225 255
202 225 255
202 225 255
201 225 255
201 225 255
201 225 255
201 225 255
201 225 255
201 224 255
201 224 255
201 224 255
201 224 255
201 224 255
201 224 255
201 224 255
201 224 255
201 224 255
201 224 255
200 224 255
200 224 255
200 224 255
200 224 255
200 224 255
200 224 255
200 224 255
200 224 255
200 224 255
200 224 255
200 224 255
200 224 255
200 224 255
200 224 255
200 224 255
199 224 255
199 224 255
199 223 255
199 223 255
199 223 255
199 223 255
199 223 255
199 223 255
199 223 255
199 223 255
199 223 255
199 223 255
199 223 255
199 223 255
199 223 255
198 223 255
198 223 255
198 223 255
198 223 255
198 223 255
198 223 255
198 223 255
198 223 255
198 223 255
198 223 255
198 223 255
198 223 255
198 223 255
198 223 255
198 223 255
198 223 255
198 223 255
197 222 255
197 222 255
197 222 255
197 222 255
197 222 255
197 222 255
197 222 255
197 222 255
197 222 255
197 222 255
197 222 255
197 222 255
197 222 255
197 222 255
197 222 255
197 222 255
197 222 255
197 222 255
197 222 255
197 222 255
197 222 255
197 222 255
196 222 255
196 222 255
196 222 255
196 222 255
196 222 255
196 222 255
196 222 255
196 222 255
196 222 255
196 222 255
196 222 255
196 222 255
196 222 255
196 222 255
196 222 255
196 222 255
196 222 255
196 222 255
196 222 255
196 222 255
196 222 255
196 222 255
196 222 255
196 222 255
196 222 255
196 222 255
196 222 255
196 222 255
196 222 255
196 222 255
196 222 255
196 222 255
196 222 255
196 222 255
196 222 255
196 222 255
196 222 255
196 222 255
196 222 255
196 222 255
196 222 255
196 222 255
196 222 255
196 222 255
196 222 255
196 222 255
196 222 255
196 222 255
196 222 255
196 222 255
196 222 255
196 222 255
196 222 255
196 222 255
196 222 255
196 222 255
196 222 255
196 222 255
196 222 255
196 222 255
197 222 255
197 222 255
197 222 255
197 222 255
197 222 255
197 222 255
197 222 255
197 222 255
197 222 255
197 222 255
197 222 255
197 222 255
197 222 255
197 222 255
197 222 255
197 222 255
197 222 255
197 222 255
197 222 255
197 222 255
197 222 255
197 222 255
198 223 255
198 223 255
198 223 255
198 223 255
198 223 255
198 223 255
198 223 255
198 223 255
198 223 255
198 223 255
198 223 255
198 223 255
198 223 255
198 223 255
198 223 255
198 223 255
198 223 255
199 223 255
199 223 255
199 223 255
199 223 255
199 223 255
199 223 255
199 223 255
199 223 255
199 223 255
199 223 255
199 223 255
199 223 255
199 223 255
199 224 255
199 224 255
200 224 255
200 224 255
200 224 255
200 224 255
200 224 255
200 224 255
200 224 255
200 224 255
200 224 255
200 224 255
200 224 255
200 224 255
200 224 255
200 224 255
200 224 255
201 224 255
201 224 255
201 224 255
201 224 255
201 224 255
201 224 255
201 224 255
201 224 255
201 224 255
201 224 255
201 225 255
201 225 255
201 225 255
201 225 255
201 225 255
202 225 255
202 225 255
202 225 255
202 225 255
202 225 255
202 225 255
202 225 255
202 225 255
202 225 255
202 225 255
202 225 255
202 225 255
202 225 255
202 225 255
203 225 255
203 225 255
203 225 255
203 225 255
203 225 255
203 225 255
203 225 255
203 225 255
203 225 255
203 226 255
203 226 255
203 226 255
203 226 255
203 226 255
203 226 255
203 226 255
204 226 255
204 226 255
204 226 255
204 226 255
204 226 255
204 226 255
204 226 255
204 226 255
204 226 255
204 226 255
204 226 255
204 226 255
204 226 255
204 226 255
204 226 255
204 226 255
205 226 255
205 226 255
205 226 255
205 226 255
205 226 255
205 226 255
205 226 255
205 227 255
205 227 255
205 227 255
205 227 255
205 227 255
205 227 255
205 227 255
205 227 255
205 227 255
205 227 255
205 227 255
206 227 255
206 227 255
206 227 255
206 227 255
206 227 255
206 227 255
206 227 255
206 227 255
206 227 255
206 227 255
206 227 255
206 227 255
206 227 255
206 227 255
206 227 255
206 227 255
206 227 255
206 227 255
206 227 255
207 227 255
207 227 255
207 227 255
207 228 255
207 227 255
207 227 255
207 227 255
207 227 255
207 227 255
206 227 255
206 227 255
206 227 255
206 227 255
206 227 255
206 227 255
206 227 255
206 227 255
206 227 255
206 227 255
206 227 255
206 227 255
206 227 255
206 227 255
206 227 255
206 227 255
206 227 255
206 227 255
206 227 255
205 227 255
205 227 255
205 227 255
205 227 255
205 227 255
205 227 255
205 227 255
205 227 255
205 227 255
205 227 255
205 226 255
205 226 255
205 226 255
205 226 255
205 226 255
205 226 255
205 226 255
204 226 255
204 226 255
204 226 255
204 226 255
204 226 255
204 226 255
204 226 255
204 226 255
204 226 255
204 226 255
204 226 255
204 226 255
204 226 255
204 226 255
204 226 255
204 226 255
204 226 255
203 226 255
203 226 255
203 226 255
203 226 255
203 226 255
203 226 255
203 225 255
203 225 255
203 225 255
203 225 255
203 225 255
203 225 255
203 225 255
203 225 255
203 225 255
202 225 255
202 225 255
202 225 255
202 225 255
202 225 255
202 225 255
202 225 255
202 225 255
202 225 255
202 225 255
202 225 255
202 225 255
202 225 255
202 225 255
202 225 255
201 225 255
201 225 255
201 225 255
201 225 255
201 224 255
201 224 255
201 224 255
201 224 255
201 224 255
201 224 255
201 224 255
201 224 255
201 224 255
201 224 255
200 224 255
200 224 255
200 224 255
200 224 255
200 224 255
200 224 255
200 224 255
200 224 255
200 224 255
200 224 255
200 224 255
200 224 255
200 224 255
200 224 255
200 224 255
199 224 255
199 224 255
199 223 255
199 223 255
199 223 255
199 223 255
199 223 255
199 223 255
199 223 255
199 223 255
199 223 255
199 223 255
199 223 255
199 223 255
199 223 255
198 223 255
198 223 255
198 223 255
198 223 255
198 223 255
198 223 255
198 223 255
198 223 255
198 223 255
198 223 255
198 223 255
198 223 255
198 223 255
198 223 255
198 223 255
198 223 255
198 223 255
198 223 255
197 222 255
197 222 255
197 222 255
197 222 255
197 222 255
197 222 255
197 222 255
197 222 255
197 222 255
197 222 255
197 222 255
197 222 255
197 222 255
197 222 255
197 222 255
197 222 255
197 222 255
197 222 255
197 222 255
197 222 255
197 222 255
197 222 255
197 222 255
196 222 255
196 222 255
196 222 255
196 222 255
196 222 255
196 222 255
196 222 255
196 222 255
196 222 255
196 222 255
196 222 255
196 222 255
196 222 255
196 222 255
196 222 255
196 222 255
196 222 255
196 222 255
196 222 255
196 222 255
196 222 255
196 222 255
196 222 255
196 222 255
196 222 255
196 222 255
196 222 255
196 222 255
196 222 255
196 222 255
196 222 255
196 222 255
196 222 255
196 222 255
196 222 255
196 222 255
196 222 255
196 222 255
196 222 255
196 222 255
196 222 255
196 222 255
196 222 255
196 222 255
196 222 255
196 222 255
196 222 255
196 222 255
196 222 255
196 222 255
196 222 255
196 222 255
197 222 255
197 222 255
197 222 255
197 222 255
197 222 255
197 222 255
197 222 255
197 222 255
197 222 255
197 222 255
197 222 255
197 222 255
197 222 255
197 222 255
197 222 255
197 222 255
197 222 255
197 222 255
197 222 255
197 222 255
197 222 255
197 222 255
197 222 255
198 223 255
198 223 255
198 223 255
198 223 255
198 223 255
198 223 255
198 223 255
198 223 255
198 223 255
198 223 255
198 223 255
198 223 255
198 223 255
198 223 255
198 223 255
198 223 255
198 223 255
198 223 255
199 223 255
199 223 255
199 223 255
199 223 255
199 223 255
199 223 255
199 223 255
199 223 255
199 223 255
199 223 255
199 223 255
199 223 255
199 223 255
199 224 255
199 224 255
200 224 255
200 224 255
200 224 255
200 224 255
200 224 255
200 224 255
200 224 255
200 224 255
200 224 255
200 224 255
200 224 255
200 224 255
200 224 255
200 224 255
200 224 255
201 224 255
201 224 255
201 224 255
201 224 255
201 224 255
201 224 255
201 224 255
201 224 255
201 224 255
201 224 255
201 225 255
201 225 255
201 225 255
201 225 255
202 225 255
202 225 255
202 225 255
202 225 255
202 225 255
202 225 255
202 225 255
202 225 255
202 225 255
202 225 255
202 225 255
202 225 255
202 225 255
202 225 255
202 225 255
203 225 255
203 225 255
203 225 255
203 225 255
203 225 255
203 225 255
203 225 255
203 225 255
203 225 255
203 226 255
203 226 255
203 226 255
203 226 255
203 226 255
203 226 255
203 226 255
204 226 255
204 226 255
204 226 255
204 226 255
204 226 255
204 226 255
204 226 255
204 226 255
204 226 255
204 226 255
204 226 255
204 226 255
204 226 255
204 226 255
204 226 255
204 226 255
205 226 255
205 226 255
205 226 255
205 226 255
205 226 255
205 226 255
205 226 255
205 227 255
205 227 255
205 227 255
205 227 255
205 227 255
205 227 255
205 227 255
205 227 255
205 227 255
205 227 255
206 227 255
206 227 255
206 227 255
206 227 255
206 227 255
206 227 255
206 227 255
206 227 255
206 227 255
206 227 255
206 227 255
206 227 255
206 227 255
206 227 255
206 227 255
206 227 255
206 227 255
206 227 255
206 227 255
207 227 255
207 227 255
207 227 255
207 227 255
207 227 255
207 228 255
207 228 255
207 228 255
207 228 255
207 227 255
207 227 255
207 227 255
207 227 255
207 227 255
206 227 255
206 227 255
206 227 255
206 227 255
206 227 255
206 227 255
206 227 255
206 227 255
206 227 255
206 227 255
206 227 255
206 227 255
206 227 255
206 227 255
206 227 255
206 227 255
206 227 255
206 227 255
206 227 255
205 227 255
205 227 255
205 227 255
205 227 255
205 227 255
205 227 255
205 227 255
205 227 255
205 227 255
205 227 255
205 227 255
205 226 255
205 226 255
205 226 255
205 226 255
205 226 255
205 226 255
205 226 255
204 226 255
204 226 255
204 226 255
204 226 255
204 226 255
204 226 255
204 226 255
204 226 255
204 226 255
204 226 255
204 226 255
204 226 255
204 226 255
204 226 255
204 226 255
204 226 255
203 226 255
203 226 255
203 226 255
203 226 255
203 226 255
203 226 255
203 226 255
203 225 255
203 225 255
203 225 255
203 225 255
203 225 255
203 225 255
203 225 255
203 225 255
202 225 255
202 225 255
202 225 255
202 225 255
202 225 255
202 225 255
202 225 255
202 225 255
202 225 255
202 225 255
202 225 255
202 225 255
202 225 255
202 225 255
202 225 255
201 225 255
201 225 255
201 225 255
201 225 255
201 224 255
201 224 255
201 224 255
201 224 255
201 224 255
201 224 255
201 224 255
201 224 255
201 224 255
201 224 255
201 224 255
200 224 255
200 224 255
200 224 255
200 224 255
200 224 255
200 224 255
200 224 255
200 224 255
200 224 255
200 224 255
200 224 255
200 224 255
200 224 255
200 224 255
199 224 255
199 224 255
199 224 255
199 223 255
199 223 255
199 223 255
199 223 255
199 223 255
199 223 255
199 223 255
199 223 255
199 223 255
199 223 255
199 223 255
199 223 255
199 223 255
198 223 255
198 223 255
198 223 255
198 223 255
198 223 255
198 223 255
198 223 255
198 223 255
198 223 255
198 223 255
198 223 255
198 223 255
198 223 255
198 223 255
198 223 255
198 223 255
198 223 255
198 223 255
197 223 255
197 222 255
197 222 255
197 222 255
197 222 255
197 222 255
197 222 255
197 222 255
197 222 255
197 222 255
197 222 255
197 222 255
197 222 255
197 222 255
197 222 255
197 222 255
197 222 255
197 222 255
197 222 255
197 222 255
197 222 255
197 222 255
197 222 255
197 222 255
197 222 255
197 222 255
197 222 255
196 222 255
196 222 255
196 222 255
196 222 255
196 222 255
196 222 255
196 222 255
196 222 255
196 222 255
196 222 255
196 222 255
196 222 255
196 222 255
196 222 255
196 222 255
196 222 255
196 222 255
196 222 255
196 222 255
196 222 255
196 222 255
196 222 255
196 222 255
196 222 255
196 222 255
196 222 255
196 222 255
196 222 255
196 222 255
196 222 255
196 222 255
196 222 255
196 222 255
196 222 255
196 222 255
196 222 255
196 222 255
196 222 255
197 222 255
197 222 255
197 222 255
197 222 255
197 222 255
197 222 255
197 222 255
197 222 255
197 222 255
197 222 255
197 222 255
197 222 255
197 222 255
197 222 255
197 222 255
197 222 255
197 222 255
197 222 255
197 222 255
197 222 255
197 222 255
197 222 255
197 222 255
197 222 255
197 222 255
197 222 255
197 223 255
198 223 255
198 223 255
198 223 255
198 223 255
198 223 255
198 223 255
198 223 255
198 223 255
198 223 255
198 223 255
198 223 255
198 223 255
198 223 255
198 223 255
198 223 255
198 223 255
198 223 255
198 223 255
199 223 255
199 223 255
199 223 255
199 223 255
199 223 255
199 223 255
199 223 255
199 223 255
199 223 255
199 223 255
199 223 255
199 223 255
199 223 255
199 224 255
199 224 255
200 224 255
200 224 255
200 224 255
200 224 255
200 224 255
200 224 255
200 224 255
200 224 255
200 224 255
200 224 255
200 224 255
200 224 255
200 224 255
200 224 255
200 224 255
201 224 255
201 224 255
201 224 255
201 224 255
201 224 255
201 224 255
201 224 255
201 224 255
201 224 255
201 224 255
201 224 255
201 225 255
201 225 255
201 225 255
201 225 255
202 225 255
202 225 255
202 225 255
202 225 255
202 225 255
202 225 255
202 225 255
202 225 255
202 225 255
202 225 255
202 225 255
202 225 255
202 225 255
202 225 255
202 225 255
203 225 255
203 225 255
203 225 255
203 225 255
203 225 255
203 225 255
203 225 255
203 225 255
203 226 255
203 226 255
203 226 255
203 226 255
203 226 255
203 226 255
203 226 255
204 226 255
204 226 255
204 226 255
204 226 255
204 226 255
204 226 255
204 226 255
204 226 255
204 226 255
204 226 255
204 226 255
204 226 255
204 226 255
204 226 255
204 226 255
204 226 255
205 226 255
205 226 255
205 226 255
205 226 255
205 226 255
205 226 255
205 226 255
205 227 255
205 227 255
205 227 255
205 227 255
205 227 255
205 227 255
205 227 255
205 227 255
205 227 255
205 227 255
205 227 255
206 227 255
206 227 255
206 227 255
206 227 255
206 227 255
206 227 255
206 227 255
206 227 255
206 227 255
206 227 255
206 227 255
206 227 255
206 227 255
206 227 255
206 227 255
206 227 255
206 227 255
206 227 255
206 227 255
207 227 255
207 227 255
207 227 255
207 227 255
207 227 255
207 228 255
207 228 255
207 228 255
207 228 255
207 228 255
207 228 255
207 228 255
207 228 255
207 228 255
207 227 255
207 227 255
207 227 255
207 227 255
207 227 255
206 227 255
206 227 255
206 227 255
206 227 255
206 227 255
206 227 255
206 227 255
206 227 255
206 227 255
206 227 255
206 227 255
206 227 255
206 227 255
206 227 255
206 227 255
206 227 255
206 227 255
206 227 255
206 227 255
205 227 255
205 227 255
205 227 255
205 227 255
205 227 255
205 227 255
205 227 255
205 227 255
205 227 255
205 227 255
205 226 255
205 226 255
205 226 255
205 226 255
205 226 255
205 226 255
205 226 255
204 226 255
204 226 255
204 226 255
204 226 255
204 226 255
204 226 255
204 226 255
204 226 255
204 226 255
204 226 255
204 226 255
204 226 255
204 226 255
204 226 255
204 226 255
204 226 255
203 226 255
203 226 255
203 226 255
203 226 255
203 226 255
203 226 255
203 226 255
203 225 255
203 225 255
203 225 255
203 225 255
203 225 255
203 225 255
203 225 255
203 225 255
203 225 255
202 225 255
202 225 255
202 225 255
202 225 255
202 225 255
202 225 255
202 225 255
202 225 255
202 225 255
202 225 255
202 225 255
202 225 255
202 225 255
202 225 255
201 225 255
201 225 255
201 225 255
201 225 255
201 225 255
201 224 255
201 224 255
201 224 255
201 224 255
201 224 255
201 224 255
201 224 255
201 224 255
201 224 255
201 224 255
200 224 255
200 224 255
200 224 255
200 224 255
200 224 255
200 224 255
200 224 255
200 224 255
200 224 255
200 224 255
200 224 255
200 224 255
200 224 255
200 224 255
200 224 255
199 224 255
199 224 255
199 223 255
199 223 255
199 223 255
199 223 255
199 223 255
199 223 255
199 223 255
199 223 255
199 223 255
199 223 255
199 223 255
199 223 255
199 223 255
199 223 255
198 223 255
198 223 255
198 223 255
198 223 255
198 223 255
198 223 255
198 223 255
198 223 255
198 223 255
198 223 255
198 223 255
198 223 255
198 223 255
198 223 255
198 223 255
198 223 255
198 223 255
198 223 255
198 223 255
197 222 255
197 222 255
197 222 255
197 222 255
197 222 255
197 222 255
197 222 255
197 222 255
197 222 255
197 222 255
197 222 255
197 222 255
197 222 255
197 222 255
197 222 255
197 222 255
197 222 255
197 222 255
197 222 255
197 222 255
197 222 255
197 222 255
197 222 255
197 222 255
197 222 255
197 222 255
197 222 255
197 222 255
197 222 255
197 222 255
197 222 255
197 222 255
196 222 255
196 222 255
196 222 255
196 222 255
196 222 255
196 222 255
196 222 255
196 222 255
196 222 255
196 222 255
196 222 255
196 222 255
196 222 255
196 222 255
196 222 255
196 222 255
196 222 255
196 222 255
196 222 255
197 222 255
197 222 255
197 222 255
197 222 255
197 222 255
197 222 255
197 222 255
197 222 255
197 222 255
197 222 255
197 222 255
197 222 255
197 222 255
197 222 255
197 222 255
197 222 255
197 222 255
197 222 255
197 222 255
197 222 255
197 222 255
197 222 255
197 222 255
197 222 255
197 222 255
197 222 255
197 222 255
197 222 255
197 222 255
197 222 255
197 222 255
197 222 255
197 222 255
197 223 255
198 223 255
198 223 255
198 223 255
198 223 255
198 223 255
198 223 255
198 223 255
198 223 255
198 223 255
198 223 255
198 223 255
198 223 255
198 223 255
198 223 255
198 223 255
198 223 255
198 223 255
198 223 255
199 223 255
199 223 255
199 223 255
199 223 255
199 223 255
199 223 255
199 223 255
199 223 255
199 223 255
199 223 255
199 223 255
199 223 255
199 223 255
199 223 255
199 224 255
199 224 255
200 224 255
200 224 255
200 224 255
200 224 255
200 224 255
200 224 255
200 224 255
200 224 255
200 224 255
200 224 255
200 224 255
200 224 255
200 224 255
200 224 255
200 224 255
201 224 255
201 224 255
201 224 255
201 224 255
201 224 255
201 224 255
201 224 255
201 224 255
201 224 255
201 224 255
201 225 255
201 225 255
201 225 255
201 225 255
202 225 255
202 225 255
202 225 255
202 225 255
202 225 255
202 225 255
202 225 255
202 225 255
202 225 255
202 225 255
202 225 255
202 225 255
202 225 255
202 225 255
202 225 255
203 225 255
203 225 255
203 225 255
203 225 255
203 225 255
203 225 255
203 225 255
203 225 255
203 225 255
203 226 255
203 226 255
203 226 255
203 226 255
203 226 255
203 226 255
203 226 255
204 226 255
204 226 255
204 226 255
204 226 255
204 226 255
204 226 255
204 226 255
204 226 255
204 226 255
204 226 255
204 226 255
204 226 255
204 226 255
204 226 255
204 226 255
204 226 255
205 226 255
205 226 255
205 226 255
205 226 255
205 226 255
205 226 255
205 226 255
205 227 255
205 227 255
205 227 255
205 227 255
205 227 255
205 227 255
205 227 255
205 227 255
205 227 255
205 227 255
206 227 255
206 227 255
206 227 255
206 227 255
206 227 255
206 227 255
206 227 255
206 227 255
206 227 255
206 227 255
206 227 255
206 227 255
206 227 255
206 227 255
206 227 255
206 227 255
206 227 255
206 227 255
206 227 255
207 227 255
207 227 255
207 227 255
207 227 255
207 227 255
207 228 255
207 228 255
207 228 255
207 228 255
207 228 255
207 228 255
207 228 255
207 228 255
207 228 255
207 228 255
207 228 255
207 228 255
207 228 255
207 228 255
207 228 255
207 227 255
207 227 255
207 227 255
207 227 255
207 227 255
206 227 255
206 227 255
206 227 255
206 227 255
206 227 255
206 227 255
206 227 255
206 227 255
206 227 255
206 227 255
206 227 255
206 227 255
206 227 255
206 227 255
206 227 255
206 227 255
206 227 255
206 227 255
206 227 255
205 227 255
205 227 255
205 227 255
205 227 255
205 227 255
205 227 255
205 227 255
205 227 255
205 227 255
205 227 255
205 226 255
205 226 255
205 226 255
205 226 255
205 226 255
205 226 255
205 226 255
204 226 255
204 226 255
204 226 255
204 226 255
204 226 255
204 226 255
204 226 255
204 226 255
204 226 255
204 226 255
204 226 255
204 226 255
204 226 255
204 226 255
204 226 255
204 226 255
203 226 255
203 226 255
203 226 255
203 226 255
203 226 255
203 226 255
203 226 255
203 225 255
203 225 255
203 225 255
203 225 255
203 225 255
203 225 255
203 225 255
203 225 255
202 225 255
202 225 255
202 225 255
202 225 255
202 225 255
202 225 255
202 225 255
202 225 255
202 225 255
202 225 255
202 225 255
202 225 255
202 225 255
202 225 255
202 225 255
201 225 255
201 225 255
201 225 255
201 225 255
201 224 255
201 224 255
201 224 255
201 224 255
201 224 255
201 224 255
201 224 255
201 224 255
201 224 255
201 224 255
201 224 255
200 224 255
200 224 255
200 224 255
200 224 255
200 224 255
200 224 255
200 224 255
200 224 255
200 224 255
200 224 255
200 224 255
200 224 255
200 224 255
200 224 255
200 224 255
199 224 255
199 224 255
199 223 255
199 223 255
199 223 255
199 223 255
199 223 255
199 223 255
199 223 255
199 223 255
199 223 255
199 223 255
199 223 255
199 223 255
199 223 255
199 223 255
198 223 255
198 223 255
198 223 255
198 223 255
198 223 255
198 223 255
198 223 255
198 223 255
198 223 255
198 223 255
198 223 255
198 223 255
198 223 255
198 223 255
198 223 255
198 223 255
198 223 255
198 223 255
198 223 255
197 223 255
197 222 255
197 222 255
197 222 255
197 222 255
197 222 255
197 222 255
197 222 255
197 222 255
197 222 255
197 222 255
197 222 255
197 222 255
197 222 255
197 222 255
197 222 255
197 222 255
197 222 255
197 222 255
197 222 255
197 222 255
197 222 255
197 222 255
197 222 255
197 222 255
197 222 255
197 222 255
197 222 255
197 222 255
197 222 255
197 222 255
197 222 255
197 222 255
197 222 255
197 222 255
197 222 255
197 222 255
197 222 255
197 222 255
197 222 255
197 222 255
197 222 255
197 222 255
197 222 255
197 222 255
197 222 255
197 222 255
197 222 255
197 222 255
197 222 255
197 222 255
197 222 255
197 222 255
197 222 255
197 222 255
197 222 255
197 222 255
197 222 255
197 222 255
197 222 255
197 222 255
197 222 255
197 222 255
197 222 255
197 222 255
197 222 255
197 222 255
197 222 255
197 222 255
197 222 255
197 222 255
197 222 255
197 222 255
197 222 255
197 222 255
197 222 255
197 222 255
198 223 255
198 223 255
198 223 255
198 223 255
198 223 255
198 223 255
198 223 255
198 223 255
198 223 255
198 223 255
198 223 255
198 223 255
198 223 255
198 223 255
198 223 255
198 223 255
198 223 255
198 223 255
198 223 255
198 223 255
199 223 255
199 223 255
199 223 255
199 223 255
199 223 255
199 223 255
199 223 255
199 223 255
199 223 255
199 223 255
199 223 255
199 223 255
199 223 255
199 223 255
199 224 255
199 224 255
200 224 255
200 224 255
200 224 255
200 224 255
200 224 255
200 224 255
200 224 255
200 224 255
200 224 255
200 224 255
200 224 255
200 224 255
200 224 255
200 224 255
200 224 255
201 224 255
201 224 255
201 224 255
201 224 255
201 224 255
201 224 255
201 224 255
201 224 255
201 224 255
201 224 255
201 224 255
201 225 255
201 225 255
201 225 255
201 225 255
202 225 255
202 225 255
202 225 255
202 225 255
202 225 255
202 225 255
202 225 255
202 225 255
202 225 255
202 225 255
202 225 255
202 225 255
202 225 255
202 225 255
202 225 255
203 225 255
203 225 255
203 225 255
203 225 255
203 225 255
203 225 255
203 225 255
203 225 255
203 226 255
203 226 255
203 226 255
203 226 255
203 226 255
203 226 255
203 226 255
204 226 255
204 226 255
204 226 255
204 226 255
204 226 255
204 226 255
204 226 255
204 226 255
204 226 255
204 226 255
204 226 255
204 226 255
204 226 255
204 226 255
204 226 255
204 226 255
205 226 255
205 226 255
205 226 255
205 226 255
205 226 255
205 226 255
205 226 255
205 227 255
205 227 255
205 227 255
205 227 255
205 227 255
205 227 255
205 227 255
205 227 255
205 227 255
205 227 255
205 227 255
206 227 255
206 227 255
206 227 255
206 227 255
206 227 255
206 227 255
206 227 255
206 227 255
206 227 255
206 227 255
206 227 255
206 227 255
206 227 255
206 227 255
206 227 255
206 227 255
206 227 255
206 227 255
207 227 255
207 227 255
207 227 255
207 227 255
207 227 255
207 228 255
207 228 255
207 228 255
207 228 255
207 228 255
207 228 255
207 228 255
207 228 255
207 228 255
207 228 255
207 228 255
207 228 255
207 228 255
207 228 255
207 228 255
207 228 255
207 228 255
207 228 255
207 228 255
207 228 255
207 228 255
207 227 255
207 227 255
207 227 255
207 227 255
207 227 255
206 227 255
206 227 255
206 227 255
206 227 255
206 227 255
206 227 255
206 227 255
206 227 255
206 227 255
206 227 255
206 227 255
206 227 255
206 227 255
206 227 255
206 227 255
206 227 255
206 227 255
206 227 255
205 227 255
205 227 255
205 227 255
205 227 255
205 227 255
205 227 255
205 227 255
205 227 255
205 227 255
205 227 255
205 227 255
205 226 255
205 226 255
205 226 255
205 226 255
205 226 255
205 226 255
205 226 255
204 226 255
204 226 255
204 226 255
204 226 255
204 226 255
204 226 255
204 226 255
204 226 255
204 226 255
204 226 255
204 226 255
204 226 255
204 226 255
204 226 255
204 226 255
204 226 255
203 226 255
203 226 255
203 226 255
203 226 255
203 226 255
203 226 255
203 225 255
203 225 255
203 225 255
203 225 255
203 225 255
203 225 255
203 225 255
203 225 255
203 225 255
202 225 255
202 225 255
202 225 255
202 225 255
202 225 255
202 225 255
202 225 255
202 225 255
202 225 255
202 225 255
202 225 255
202 225 255
202 225 255
202 225 255
201 225 255
201 225 255
201 225 255
201 225 255
201 225 255
201 224 255
201 224 255
201 224 255
201 224 255
201 224 255
201 224 255
201 224 255
201 224 255
201 224 255
201 224 255
200 224 255
200 224 255
200 224 255
200 224 255
200 224 255
200 224 255
200 224 255
200 224 255
200 224 255
200 224 255
200 224 255
200 224 255
200 224 255
200 224 255
200 224 255
199 224 255
199 224 255
199 224 255
199 223 255
199 223 255
199 223 255
199 223 255
199 223 255
199 223 255
199 223 255
199 223 255
199 223 255
199 223 255
199 223 255
199 223 255
199 223 255
199 223 255
198 223 255
198 223 255
198 223 255
198 223 255
198 223 255
198 223 255
198 223 255
198 223 255
198 223 255
198 223 255
198 223 255
198 223 255
198 223 255
198 223 255
198 223 255
198 223 255
198 223 255
198 223 255
198 223 255
198 223 255
198 223 255
197 223 255
197 222 255
197 222 255
197 222 255
197 222 255
197 222 255
197 222 255
197 222 255
197 222 255
197 222 255
197 222 255
197 222 255
197 222 255
197 222 255
197 222 255
197 222 255
197 222 255
197 222 255
197 222 255
197 222 255
197 222 255
197 222 255
197 222 255
197 222 255
197 222 255
197 222 255
197 222 255
197 222 255
197 222 255
197 222 255
197 222 255
197 222 255
197 222 255
197 222 255
197 222 255
197 222 255
197 222 255
197 222 255
197 222 255
197 222 255
197 222 255
197 222 255
197 222 255
197 222 255
197 222 255
197 222 255
197 222 255
197 222 255
197 222 255
197 222 255
197 222 255
197 222 255
197 222 255
197 222 255
197 222 255
197 222 255
197 222 255
197 222 255
197 222 255
197 222 255
197 222 255
197 222 255
197 222 255
197 222 255
197 222 255
197 222 255
197 222 255
197 222 255
198 223 255
198 223 255
198 223 255
198 223 255
198 223 255
198 223 255
198 223 255
198 223 255
198 223 255
198 223 255
198 223 255
198 223 255
198 223 255
198 223 255
198 223 255
198 223 255
198 223 255
198 223 255
198 223 255
198 223 255
198 223 255
199 223 255
199 223 255
199 223 255
199 223 255
199 223 255
199 223 255
199 223 255
199 223 255
199 223 255
199 223 255
199 223 255
199 223 255
199 223 255
199 223 255
199 224 255
199 224 255
199 224 255
200 224 255
200 224 255
200 224 255
200 224 255
200 224 255
200 224 255
200 224 255
200 224 255
200 224 255
200 224 255
200 224 255
200 224 255
200 224 255
200 224 255
200 224 255
201 224 255
201 224 255
201 224 255
201 224 255
201 224 255
201 224 255
201 224 255
201 224 255
201 224 255
201 224 255
201 225 255
201 225 255
201 225 255
201 225 255
202 225 255
202 225 255
202 225 255
202 225 255
202 225 255
202 225 255
202 225 255
202 225 255
202 225 255
202 225 255
202 225 255
202 225 255
202 225 255
202 225 255
202 225 255
203 225 255
203 225 255
203 225 255
203 225 255
203 225 255
203 225 255
203 225 255
203 225 255
203 225 255
203 226 255
203 226 255
203 226 255
203 226 255
203 226 255
203 226 255
204 226 255
204 226 255
204 226 255
204 226 255
204 226 255
204 226 255
204 226 255
204 226 255
204 226 255
204 226 255
204 226 255
204 226 255
204 226 255
204 226 255
204 226 255
204 226 255
204 226 255
205 226 255
205 226 255
205 226 255
205 226 255
205 226 255
205 226 255
205 227 255
205 227 255
205 227 255
205 227 255
205 227 255
205 227 255
205 227 255
205 227 255
205 227 255
205 227 255
205 227 255
206 227 255
206 227 255
206 227 255
206 227 255
206 227 255
206 227 255
206 227 255
206 227 255
206 227 255
206 227 255
206 227 255
206 227 255
206 227 255
206 227 255
206 227 255
206 227 255
206 227 255
206 227 255
207 227 255
207 227 255
207 227 255
207 227 255
207 227 255
207 228 255
207 228 255
207 228 255
207 228 255
207 228 255
207 228 255
207 228 255
207 228 255
207 228 255
207 228 255
207 228 255
207 228 255
207 228 255
207 228 255
207 228 255
207 228 255
207 228 255
207 228 255
207 228 255
207 228 255
207 228 255
207 228 255
207 228 255
207 228 255
207 228 255
207 228 255
207 228 255
207 227 255
207 227 255
207 227 255
207 227 255
207 227 255
206 227 255
206 227 255
206 227 255
206 227 255
206 227 255
206 227 255
206 227 255
206 227 255
206 227 255
206 227 255
206 227 255
206 227 255
206 227 255
206 227 255
206 227 255
206 227 255
206 227 255
206 227 255
205 227 255
205 227 255
205 227 255
205 227 255
205 227 255
205 227 255
205 227 255
205 227 255
205 227 255
205 227 255
205 226 255
205 226 255
205 226 255
205 226 255
205 226 255
205 226 255
205 226 255
204 226 255
204 226 255
204 226 255
204 226 255
204 226 255
204 226 255
204 226 255
204 226 255
204 226 255
204 226 255
204 226 255
204 226 255
204 226 255
204 226 255
204 226 255
204 226 255
203 226 255
203 226 255
203 226 255
203 226 255
203 226 255
203 226 255
203 226 255
203 225 255
203 225 255
203 225 255
203 225 255
203 225 255
203 225 255
203 225 255
203 225 255
202 225 255
202 225 255
202 225 255
202 225 255
202 225 255
202 225 255
202 225 255
202 225 255
202 225 255
202 225 255
202 225 255
202 225 255
202 225 255
202 225 255
202 225 255
201 225 255
201 225 255
201 225 255
201 225 255
201 224 255
201 224 255
201 224 255
201 224 255
201 224 255
201 224 255
201 224 255
201 224 255
201 224 255
201 224 255
201 224 255
200 224 255
200 224 255
200 224 255
200 224 255
200 224 255
200 224 255
200 224 255
200 224 255
200 224 255
200 224 255
200 224 255
200 224 255
200 224 255
200 224 255
200 224 255
199 224 255
199 224 255
199 224 255
199 223 255
199 223 255
199 223 255
199 223 255
199 223 255
199 223 255
199 223 255
199 223 255
199 223 255
199 223 255
199 223 255
199 223 255
199 223 255
199 223 255
198 223 255
198 223 255
198 223 255
198 223 255
198 223 255
198 223 255
198 223 255
198 223 255
198 223 255
198 223 255
198 223 255
198 223 255
198 223 255
198 223 255
198 223 255
198 223 255
198 223 255
198 223 255
198 223 255
198 223 255
198 223 255
198 223 255
197 223 255
197 223 255
197 222 255
197 222 255
197 222 255
197 222 255
197 222 255
197 222 255
197 222 255
197 222 255
197 222 255
197 222 255
197 222 255
197 222 255
197 222 255
197 222 255
197 222 255
197 222 255
197 222 255
197 222 255
197 222 255
197 222 255
197 222 255
197 222 255
197 222 255
197 222 255
197 222 255
197 222 255
197 222 255
197 222 255
197 222 255
197 222 255
197 222 255
197 222 255
197 222 255
197 222 255
197 222 255
197 222 255
197 222 255
197 222 255
197 222 255
197 222 255
197 222 255
197 222 255
197 222 255
197 222 255
197 222 255
197 222 255
197 222 255
197 222 255
197 222 255
197 222 255
197 222 255
197 222 255
197 222 255
197 222 255
197 222 255
197 222 255
197 222 255
198 223 255
198 223 255
198 223 255
198 223 255
198 223 255
198 223 255
198 223 255
198 223 255
198 223 255
198 223 255
198 223 255
198 223 255
198 223 255
198 223 255
198 223 255
198 223 255
198 223 255
198 223 255
198 223 255
198 223 255
198 223 255
198 223 255
198 223 255
199 223 255
199 223 255
199 223 255
199 223 255
199 223 255
199 223 255
199 223 255
199 223 255
199 223 255
199 223 255
199 223 255
199 223 255
199 223 255
199 223 255
199 224 255
199 224 255
199 224 255
200 224 255
200 224 255
200 224 255
200 224 255
200 224 255
200 224 255
200 224 255
200 224 255
200 224 255
200 224 255
200 224 255
200 224 255
200 224 255
200 224 255
200 224 255
201 224 255
201 224 255
201 224 255
201 224 255
201 224 255
201 224 255
201 224 255
201 224 255
201 224 255
201 224 255
201 224 255
201 225 255
201 225 255
201 225 255
201 225 255
202 225 255
202 225 255
202 225 255
202 225 255
202 225 255
202 225 255
202 225 255
202 225 255
202 225 255
202 225 255
202 225 255
202 225 255
202 225 255
202 225 255
202 225 255
203 225 255
203 225 255
203 225 255
203 225 255
203 225 255
203 225 255
203 225 255
203 225 255
203 226 255
203 226 255
203 226 255
203 226 255
203 226 255
203 226 255
203 226 255
204 226 255
204 226 255
204 226 255
204 226 255
204 226 255
204 226 255
204 226 255
204 226 255
204 226 255
204 226 255
204 226 255
204 226 255
204 226 255
204 226 255
204 226 255
204 226 255
205 226 255
205 226 255
205 226 255
205 226 255
205 226 255
205 226 255
205 226 255
205 227 255
205 227 255
205 227 255
205 227 255
205 227 255
205 227 255
205 227 255
205 227 255
205 227 255
205 227 255
206 227 255
206 227 255
206 227 255
206 227 255
206 227 255
206 227 255
206 227 255
206 227 255
206 227 255
206 227 255
206 227 255
206 227 255
206 227 255
206 227 255
206 227 255
206 227 255
206 227 255
206 227 255
207 227 255
207 227 255
207 227 255
207 227 255
207 227 255
207 228 255
207 228 255
207 228 255
207 228 255
207 228 255
207 228 255
207 228 255
207 228 255
207 228 255
207 228 255
207 228 255
207 228 255
207 228 255
207 228 255
207 228 255
208 228 255
208 228 255
207 228 255
207 228 255
207 228 255
207 228 255
207 228 255
207 228 255
207 228 255
207 228 255
207 228 255
207 228 255
207 228 255
207 228 255
207 228 255
207 228 255
207 228 255
207 228 255
207 227 255
207 227 255
207 227 255
207 227 255
206 227 255
206 227 255
206 227 255
206 227 255
206 227 255
206 227 255
206 227 255
206 227 255
206 227 255
206 227 255
206 227 255
206 227 255
206 227 255
206 227 255
206 227 255
206 227 255
206 227 255
206 227 255
206 227 255
205 227 255
205 227 255
205 227 255
205 227 255
205 227 255
205 227 255
205 227 255
205 227 255
205 227 255
205 227 255
205 226 255
205 226 255
205 226 255
205 226 255
205 226 255
205 226 255
205 226 255
204 226 255
204 226 255
204 226 255
204 226 255
204 226 255
204 226 255
204 226 255
204 226 255
204 226 255
204 226 255
204 226 255
204 226 255
204 226 255
204 226 255
204 226 255
204 226 255
203 226 255
203 226 255
203 226 255
203 226 255
203 226 255
203 226 255
203 225 255
203 225 255
203 225 255
203 225 255
203 225 255
203 225 255
203 225 255
203 225 255
203 225 255
202 225 255
202 225 255
202 225 255
202 225 255
202 225 255
202 225 255
202 225 255
202 225 255
202 225 255
202 225 255
202 225 255
202 225 255
202 225 255
202 225 255
202 225 255
201 225 255
201 225 255
201 225 255
201 225 255
201 224 255
201 224 255
201 224 255
201 224 255
201 224 255
201 224 255
201 224 255
201 224 255
201 224 255
201 224 255
200 224 255
200 224 255
200 224 255
200 224 255
200 224 255
200 224 255
200 224 255
200 224 255
200 224 255
200 224 255
200 224 255
200 224 255
200 224 255
200 224 255
200 224 255
200 224 255
199 224 255
199 224 255
199 224 255
199 223 255
199 223 255
199 223 255
199 223 255
199 223 255
199 223 255
199 223 255
199 223 255
199 223 255
199 223 255
199 223 255
199 223 255
199 223 255
199 223 255
199 223 255
198 223 255
198 223 255
198 223 255
198 223 255
198 223 255
198 223 255
198 223 255
198 223 255
198 223 255
198 223 255
198 223 255
198 223 255
198 223 255
198 223 255
198 223 255
198 223 255
198 223 255
198 223 255
198 223 255
198 223 255
198 223 255
198 223 255
198 223 255
198 223 255
197 223 255
197 222 255
197 222 255
197 222 255
197 222 255
197 222 255
197 222 255
197 222 255
197 222 255
197 222 255
197 222 255
197 222 255
197 222 255
197 222 255
197 222 255
197 222 255
197 222 255
197 222 255
197 222 255
197 222 255
197 222 255
197 222 255
197 222 255
197 222 255
197 222 255
197 222 255
197 222 255
197 222 255
197 222 255
197 222 255
197 222 255
197 222 255
197 222 255
197 222 255
197 222 255
197 222 255
197 222 255
197 222 255
197 222 255
197 222 255
197 222 255
197 222 255
197 222 255
197 222 255
197 222 255
197 222 255
197 223 255
197 223 255
198 223 255
198 223 255
198 223 255
198 223 255
198 223 255
198 223 255
198 223 255
198 223 255
198 223 255
198 223 255
198 223 255
198 223 255
198 223 255
198 223 255
198 223 255
198 223 255
198 223 255
198 223 255
198 223 255
198 223 255
198 223 255
198 223 255
198 223 255
198 223 255
198 223 255
199 223 255
199 223 255
199 223 255
199 223 255
199 223 255
199 223 255
199 223 255
199 223 255
199 223 255
199 223 255
199 223 255
199 223 255
199 223 255
199 223 255
199 224 255
199 224 255
199 224 255
200 224 255
200 224 255
200 224 255
200 224 255
200 224 255
200 224 255
200 224 255
200 224 255
200 224 255
200 224 255
200 224 255
200 224 255
200 224 255
200 224 255
200 224 255
200 224 255
201 224 255
201 224 255
201 224 255
201 224 255
201 224 255
201 224 255
201 224 255
201 224 255
201 224 255
201 224 255
201 225 255
201 225 255
201 225 255
201 225 255
201 225 255
202 225 255
202 225 255
202 225 255
202 225 255
202 225 255
202 225 255
202 225 255
202 225 255
202 225 255
202 225 255
202 225 255
202 225 255
202 225 255
202 225 255
203 225 255
203 225 255
203 225 255
203 225 255
203 225 255
203 225 255
203 225 255
203 225 255
203 225 255
203 226 255
203 226 255
203 226 255
203 226 255
203 226 255
203 226 255
204 226 255
204 226 255
204 226 255
204 226 255
204 226 255
204 226 255
204 226 255
204 226 255
204 226 255
204 226 255
204 226 255
204 226 255
204 226 255
204 226 255
204 226 255
204 226 255
205 226 255
205 226 255
205 226 255
205 226 255
205 226 255
205 226 255
205 226 255
205 227 255
205 227 255
205 227 255
205 227 255
205 227 255
205 227 255
205 227 255
205 227 255
205 227 255
205 227 255
206 227 255
206 227 255
206 227 255
206 227 255
206 227 255
206 227 255
206 227 255
206 227 255
206 227 255
206 227 255
206 227 255
206 227 255
206 227 255
206 227 255
206 227 255
206 227 255
206 227 255
206 227 255
206 227 255
207 227 255
207 227 255
207 227 255
207 227 255
207 228 255
207 228 255
207 228 255
207 228 255
207 228 255
207 228 255
207 228 255
207 228 255
207 228 255
207 228 255
207 228 255
207 228 255
207 228 255
207 228 255
207 228 255
207 228 255
208 228 255
208 228 255
208 228 255
208 228 255
208 228 255
208 228 255
208 228 255
207 228 255
207 228 255
207 228 255
207 228 255
207 228 255
207 228 255
207 228 255
207 228 255
207 228 255
207 228 255
207 228 255
207 228 255
207 228 255
207 228 255
207 228 255
207 227 255
207 227 255
207 227 255
207 227 255
207 227 255
206 227 255
206 227 255
206 227 255
206 227 255
206 227 255
206 227 255
206 227 255
206 227 255
206 227 255
206 227 255
206 227 255
206 227 255
206 227 255
206 227 255
206 227 255
206 227 255
206 227 255
206 227 255
205 227 255
205 227 255
205 227 255
205 227 255
205 227 255
205 227 255
205 227 255
205 227 255
205 227 255
205 227 255
205 227 255
205 226 255
205 226 255
205 226 255
205 226 255
205 226 255
205 226 255
204 226 255
204 226 255
204 226 255
204 226 255
204 226 255
204 226 255
204 226 255
204 226 255
204 226 255
204 226 255
204 226 255
204 226 255
204 226 255
204 226 255
204 226 255
204 226 255
203 226 255
203 226 255
203 226 255
203 226 255
203 226 255
203 226 255
203 226 255
203 225 255
203 225 255
203 225 255
203 225 255
203 225 255
203 225 255
203 225 255
203 225 255
202 225 255
202 225 255
202 225 255
202 225 255
202 225 255
202 225 255
202 225 255
202 225 255
202 225 255
202 225 255
202 225 255
202 225 255
202 225 255
202 225 255
202 225 255
201 225 255
201 225 255
201 225 255
201 225 255
201 225 255
201 224 255
201 224 255
201 224 255
201 224 255
201 224 255
201 224 255
201 224 255
201 224 255
201 224 255
201 224 255
200 224 255
200 224 255
200 224 255
200 224 255
200 224 255
200 224 255
200 224 255
200 224 255
200 224 255
200 224 255
200 224 255
200 224 255
200 224 255
200 224 255
200 224 255
200 224 255
199 224 255
199 224 255
199 224 255
199 223 255
199 223 255
199 223 255
199 223 255
199 223 255
199 223 255
199 223 255
199 223 255
199 223 255
199 223 255
199 223 255
199 223 255
199 223 255
199 223 255
199 223 255
198 223 255
198 223 255
198 223 255
198 223 255
198 223 255
198 223 255
198 223 255
198 223 255
198 223 255
198 223 255
198 223 255
198 223 255
198 223 255
198 223 255
198 223 255
198 223 255
198 223 255
198 223 255
198 223 255
198 223 255
198 223 255
198 223 255
198 223 255
198 223 255
198 223 255
198 223 255
198 223 255
198 223 255
198 223 255
197 223 255
197 222 255
197 222 255
197 222 255
197 222 255
197 222 255
197 222 255
197 222 255
197 222 255
197 222 255
197 222 255
197 222 255
197 222 255
197 222 255
197 222 255
197 222 255
197 222 255
197 222 255
197 222 255
197 222 255
197 222 255
197 222 255
197 222 255
197 222 255
197 222 255
197 222 255
197 222 255
197 222 255
197 222 255
197 222 255
197 222 255
197 223 255
198 223 255
198 223 255
198 223 255
198 223 255
198 223 255
198 223 255
198 223 255
198 223 255
198 223 255
198 223 255
198 223 255
198 223 255
198 223 255
198 223 255
198 223 255
198 223 255
198 223 255
198 223 255
198 223 255
198 223 255
198 223 255
198 223 255
198 223 255
198 223 255
198 223 255
198 223 255
198 223 255
198 223 255
198 223 255
199 223 255
199 223 255
199 223 255
199 223 255
199 223 255
199 223 255
199 223 255
199 223 255
199 223 255
199 223 255
199 223 255
199 223 255
199 223 255
199 223 255
199 223 255
199 224 255
199 224 255
199 224 255
200 224 255
200 224 255
200 224 255
200 224 255
200 224 255
200 224 255
200 224 255
200 224 255
200 224 255
200 224 255
200 224 255
200 224 255
200 224 255
200 224 255
200 224 255
200 224 255
201 224 255
201 224 255
201 224 255
201 224 255
201 224 255
201 224 255
201 224 255
201 224 255
201 224 255
201 224 255
201 225 255
201 225 255
201 225 255
201 225 255
201 225 255
202 225 255
202 225 255
202 225 255
202 225 255
202 225 255
202 225 255
202 225 255
202 225 255
202 225 255
202 225 255
202 225 255
202 225 255
202 225 255
202 225 255
202 225 255
203 225 255
203 225 255
203 225 255
203 225 255
203 225 255
203 225 255
203 225 255
203 225 255
203 226 255
203 226 255
203 226 255
203 226 255
203 226 255
203 226 255
203 226 255
204 226 255
204 226 255
204 226 255
204 226 255
204 226 255
204 226 255
204 226 255
204 226 255
204 226 255
204 226 255
204 226 255
204 226 255
204 226 255
204 226 255
204 226 255
204 226 255
205 226 255
205 226 255
205 226 255
205 226 255
205 226 255
205 226 255
205 227 255
205 227 255
205 227 255
205 227 255
205 227 255
205 227 255
205 227 255
205 227 255
205 227 255
205 227 255
205 227 255
206 227 255
206 227 255
206 227 255
206 227 255
206 227 255
206 227 255
206 227 255
206 227 255
206 227 255
206 227 255
206 227 255
206 227 255
206 227 255
206 227 255
206 227 255
206 227 255
206 227 255
206 227 255
207 227 255
207 227 255
207 227 255
207 227 255
207 228 255
207 228 255
207 228 255
207 228 255
207 228 255
207 228 255
207 228 255
207 228 255
207 228 255
207 228 255
207 228 255
207 228 255
207 228 255
207 228 255
207 228 255
207 228 255
208 228 255
208 228 255
208 228 255
208 228 255
208 228 255
208 228 255
208 228 255
208 228 255
208 228 255
208 228 255
208 228 255
208 228 255
208 228 255
207 228 255
207 228 255
207 228 255
207 228 255
207 228 255
207 228 255
207 228 255
207 228 255
207 228 255
207 228 255
207 228 255
207 228 255
207 228 255
207 228 255
207 228 255
207 228 255
207 227 255
207 227 255
207 227 255
207 227 255
206 227 255
206 227 255
206 227 255
206 227 255
206 227 255
206 227 255
206 227 255
206 227 255
206 227 255
206 227 255
206 227 255
206 227 255
206 227 255
206 227 255
206 227 255
206 227 255
206 227 255
206 227 255
205 227 255
205 227 255
205 227 255
205 227 255
205 227 255
205 227 255
205 227 255
205 227 255
205 227 255
205 227 255
205 226 255
205 226 255
205 226 255
205 226 255
205 226 255
205 226 255
205 226 255
204 226 255
204 226 255
204 226 255
204 226 255
204 226 255
204 226 255
204 226 255
204 226 255
204 226 255
204 226 255
204 226 255
204 226 255
204 226 255
204 226 255
204 226 255
204 226 255
203 226 255
203 226 255
203 226 255
203 226 255
203 226 255
203 226 255
203 225 255
203 225 255
203 225 255
203 225 255
203 225 255
203 225 255
203 225 255
203 225 255
203 225 255
202 225 255
202 225 255
202 225 255
202 225 255
202 225 255
202 225 255
202 225 255
202 225 255
202 225 255
202 225 255
202 225 255
202 225 255
202 225 255
202 225 255
202 225 255
201 225 255
201 225 255
201 225 255
201 225 255
201 224 255
201 224 255
201 224 255
201 224 255
201 224 255
201 224 255
201 224 255
201 224 255
201 224 255
201 224 255
201 224 255
200 224 255
200 224 255
200 224 255
200 224 255
200 224 255
200 224 255
200 224 255
200 224 255
200 224 255
200 224 255
200 224 255
200 224 255
200 224 255
200 224 255
200 224 255
200 224 255
199 224 255
199 224 255
199 224 255
199 223 255
199 223 255
199 223 255
199 223 255
199 223 255
199 223 255
199 223 255
199 223 255
199 223 255
199 223 255
199 223 255
199 223 255
199 223 255
199 223 255
199 223 255
199 223 255
198 223 255
198 223 255
198 223 255
198 223 255
198 223 255
198 223 255
198 223 255
198 223 255
198 223 255
198 223 255
198 223 255
198 223 255
198 223 255
198 223 255
198 223 255
198 223 255
198 223 255
198 223 255
198 223 255
198 223 255
198 223 255
198 223 255
198 223 255
198 223 255
198 223 255
198 223 255
198 223 255
198 223 255
198 223 255
198 223 255
198 223 255
198 223 255
198 223 255
198 223 255
198 223 255
198 223 255
198 223 255
198 223 255
198 223 255
198 223 255
198 223 255
198 223 255
198 223 255
198 223 255
198 223 255
198 223 255
198 223 255
198 223 255
198 223 255
198 223 255
198 223 255
198 223 255
198 223 255
198 223 255
198 223 255
198 223 255
198 223 255
198 223 255
198 223 255
198 223 255
198 223 255
198 223 255
198 223 255
198 223 255
198 223 255
198 223 255
198 223 255
198 223 255
198 223 255
198 223 255
198 223 255
198 223 255
198 223 255
198 223 255
198 223 255
198 223 255
198 223 255
198 223 255
198 223 255
198 223 255
198 223 255
198 223 255
199 223 255
199 223 255
199 223 255
199 223 255
199 223 255
199 223 255
199 223 255
199 223 255
199 223 255
199 223 255
199 223 255
199 223 255
199 223 255
199 223 255
199 223 255
199 223 255
199 224 255
199 224 255
199 224 255
200 224 255
200 224 255
200 224 255
200 224 255
200 224 255
200 224 255
200 224 255
200 224 255
200 224 255
200 224 255
200 224 255
200 224 255
200 224 255
200 224 255
200 224 255
200 224 255
201 224 255
201 224 255
201 224 255
201 224 255
201 224 255
201 224 255
201 224 255
201 224 255
201 224 255
201 224 255
201 224 255
201 225 255
201 225 255
201 225 255
201 225 255
202 225 255
202 225 255
202 225 255
202 225 255
202 225 255
202 225 255
202 225 255
202 225 255
202 225 255
202 225 255
202 225 255
202 225 255
202 225 255
202 225 255
202 225 255
203 225 255
203 225 255
203 225 255
203 225 255
203 225 255
203 225 255
203 225 255
203 225 255
203 226 255
203 226 255
203 226 255
203 226 255
203 226 255
203 226 255
203 226 255
204 226 255
204 226 255
204 226 255
204 226 255
204 226 255
204 226 255
204 226 255
204 226 255
204 226 255
204 226 255
204 226 255
204 226 255
204 226 255
204 226 255
204 226 255
204 226 255
205 226 255
205 226 255
205 226 255
205 226 255
205 226 255
205 226 255
205 226 255
205 227 255
205 227 255
205 227 255
205 227 255
205 227 255
205 227 255
205 227 255
205 227 255
205 227 255
205 227 255
206 227 255
206 227 255
206 227 255
206 227 255
206 227 255
206 227 255
206 227 255
206 227 255
206 227 255
206 227 255
206 227 255
206 227 255
206 227 255
206 227 255
206 227 255
206 227 255
206 227 255
206 227 255
207 227 255
207 227 255
207 227 255
207 227 255
207 227 255
207 228 255
207 228 255
207 228 255
207 228 255
207 228 255
207 228 255
207 228 255
207 228 255
207 228 255
207 228 255
207 228 255
207 228 255
207 228 255
207 228 255
207 228 255
208 228 255
208 228 255
208 228 255
208 228 255
208 228 255
208 228 255
208 228 255
208 228 255
208 228 255
208 228 255
208 228 255
208 228 255
208 228 255
208 228 255
208 228 255
208 228 255
208 228 255
208 228 255
208 228 255
207 228 255
207 228 255
207 228 255
207 228 255
207 228 255
207 228 255
207 228 255
207 228 255
207 228 255
207 228 255
207 228 255
207 228 255
207 228 255
207 228 255
207 228 255
207 227 255
207 227 255
207 227 255
207 227 255
207 227 255
206 227 255
206 227 255
206 227 255
206 227 255
206 227 255
206 227 255
206 227 255
206 227 255
206 227 255
206 227 255
206 227 255
206 227 255
206 227 255
206 227 255
206 227 255
206 227 255
206 227 255
206 227 255
205 227 255
205 227 255
205 227 255
205 227 255
205 227 255
205 227 255
205 227 255
205 227 255
205 227 255
205 227 255
205 226 255
205 226 255
205 226 255
205 226 255
205 226 255
205 226 255
205 226 255
204 226 255
204 226 255
204 226 255
204 226 255
204 226 255
204 226 255
204 226 255
204 226 255
204 226 255
204 226 255
204 226 255
204 226 255
204 226 255
204 226 255
204 226 255
203 226 255
203 226 255
203 226 255
203 226 255
203 226 255
203 226 255
203 226 255
203 225 255
203 225 255
203 225 255
203 225 255
203 225 255
203 225 255
203 225 255
203 225 255
203 225 255
202 225 255
202 225 255
202 225 255
202 225 255
202 225 255
202 225 255
202 225 255
202 225 255
202 225 255
202 225 255
202 225 255
202 225 255
202 225 255
202 225 255
201 225 255
201 225 255
201 225 255
201 225 255
201 225 255
201 224 255
201 224 255
201 224 255
201 224 255
201 224 255
201 224 255
201 224 255
201 224 255
201 224 255
201 224 255
201 224 255
200 224 255
200 224 255
200 224 255
200 224 255
200 224 255
200 224 255
200 224 255
200 224 255
200 224 255
200 224 255
200 224 255
200 224 255
200 224 255
200 224 255
200 224 255
200 224 255
199 224 255
199 224 255
199 224 255
199 223 255
199 223 255
199 223 255
199 223 255
199 223 255
199 223 255
199 223 255
199 223 255
199 223 255
199 223 255
199 223 255
199 223 255
199 223 255
199 223 255
199 223 255
199 223 255
199 223 255
199 223 255
198 223 255
198 223 255
198 223 255
198 223 255
198 223 255
198 223 255
198 223 255
198 223 255
198 223 255
198 223 255
198 223 255
198 223 255
198 223 255
198 223 255
198 223 255
198 223 255
198 223 255
198 223 255
198 223 255
198 223 255
198 223 255
198 223 255
198 223 255
198 223 255
198 223 255
198 223 255
198 223 255
198 223 255
198 223 255
198 223 255
198 223 255
198 223 255
198 223 255
198 223 255
198 223 255
198 223 255
198 223 255
198 223 255
198 223 255
198 223 255
198 223 255
198 223 255
198 223 255
198 223 255
198 223 255
198 223 255
198 223 255
198 223 255
198 223 255
198 223 255
198 223 255
198 223 255
198 223 255
198 223 255
198 223 255
198 223 255
198 223 255
198 223 255
198 223 255
198 223 255
198 223 255
198 223 255
198 223 255
198 223 255
198 223 255
198 223 255
198 223 255
198 223 255
198 223 255
198 223 255
198 223 255
198 223 255
198 223 255
199 223 255
199 223 255
199 223 255
199 223 255
199 223 255
199 223 255
199 223 255
199 223 255
199 223 255
199 223 255
199 223 255
199 223 255
199 223 255
199 223 255
199 223 255
199 223 255
199 223 255
199 224 255
199 224 255
199 224 255
200 224 255
200 224 255
200 224 255
200 224 255
200 224 255
200 224 255
200 224 255
200 224 255
200 224 255
200 224 255
200 224 255
200 224 255
200 224 255
200 224 255
200 224 255
200 224 255
201 224 255
201 224 255
201 224 255
201 224 255
201 224 255
201 224 255
201 224 255
201 224 255
201 224 255
201 224 255
201 224 255
201 225 255
201 225 255
201 225 255
201 225 255
202 225 255
202 225 255
202 225 255
202 225 255
202 225 255
202 225 255
202 225 255
202 225 255
202 225 255
202 225 255
202 225 255
202 225 255
202 225 255
202 225 255
202 225 255
203 225 255
203 225 255
203 225 255
203 225 255
203 225 255
203 225 255
203 225 255
203 225 255
203 225 255
203 226 255
203 226 255
203 226 255
203 226 255
203 226 255
203 226 255
203 226 255
204 226 255
204 226 255
204 226 255
204 226 255
204 226 255
204 226 255
204 226 255
204 226 255
204 226 255
204 226 255
204 226 255
204 226 255
204 226 255
204 226 255
204 226 255
205 226 255
205 226 255
205 226 255
205 226 255
205 226 255
205 226 255
205 226 255
205 227 255
205 227 255
205 227 255
205 227 255
205 227 255
205 227 255
205 227 255
205 227 255
205 227 255
205 227 255
206 227 255
206 227 255
206 227 255
206 227 255
206 227 255
206 227 255
206 227 255
206 227 255
206 227 255
206 227 255
206 227 255
206 227 255
206 227 255
206 227 255
206 227 255
206 227 255
206 227 255
206 227 255
207 227 255
207 227 255
207 227 255
207 227 255
207 227 255
207 228 255
207 228 255
207 228 255
207 228 255
207 228 255
207 228 255
207 228 255
207 228 255
207 228 255
207 228 255
207 228 255
207 228 255
207 228 255
207 228 255
207 228 255
208 228 255
208 228 255
208 228 255
208 228 255
208 228 255
208 228 255
208 228 255
208 228 255
208 228 255
208 228 255
208 228 255
208 228 255
208 228 255
208 228 255
208 228 255
208 228 255
208 228 255
208 228 255
208 228 255
208 228 255
208 228 255
208 228 255
208 228 255
208 228 255
208 228 255
207 228 255
207 228 255
207 228 255
207 228 255
207 228 255
207 228 255
207 228 255
207 228 255
207 228 255
207 228 255
207 228 255
207 228 255
207 228 255
207 228 255
207 228 255
207 227 255
207 227 255
207 227 255
207 227 255
207 227 255
206 227 255
206 227 255
206 227 255
206 227 255
206 227 255
206 227 255
206 227 255
206 227 255
206 227 255
206 227 255
206 227 255
206 227 255
206 227 255
206 227 255
206 227 255
206 227 255
206 227 255
206 227 255
205 227 255
205 227 255
205 227 255
205 227 255
205 227 255
205 227 255
205 227 255
205 227 255
205 227 255
205 227 255
205 226 255
205 226 255
205 226 255
205 226 255
205 226 255
205 226 255
204 226 255
204 226 255
204 226 255
204 226 255
204 226 255
204 226 255
204 226 255
204 226 255
204 226 255
204 226 255
204 226 255
204 226 255
204 226 255
204 226 255
204 226 255
204 226 255
203 226 255
203 226 255
203 226 255
203 226 255
203 226 255
203 226 255
203 226 255
203 225 255
203 225 255
203 225 255
203 225 255
203 225 255
203 225 255
203 225 255
203 225 255
202 225 255
202 225 255
202 225 255
202 225 255
202 225 255
202 225 255
202 225 255
202 225 255
202 225 255
202 225 255
202 225 255
202 225 255
202 225 255
202 225 255
202 225 255
201 225 255
201 225 255
201 225 255
201 225 255
201 225 255
201 224 255
201 224 255
201 224 255
201 224 255
201 224 255
201 224 255
201 224 255
201 224 255
201 224 255
201 224 255
201 224 255
200 224 255
200 224 255
200 224 255
200 224 255
200 224 255
200 224 255
200 224 255
200 224 255
200 224 255
200 224 255
200 224 255
200 224 255
200 224 255
200 224 255
200 224 255
200 224 255
200 224 255
199 224 255
199 224 255
199 224 255
199 223 255
199 223 255
199 223 255
199 223 255
199 223 255
199 223 255
199 223 255
199 223 255
199 223 255
199 223 255
199 223 255
199 223 255
199 223 255
199 223 255
199 223 255
199 223 255
199 223 255
199 223 255
198 223 255
198 223 255
198 223 255
198 223 255
198 223 255
198 223 255
198 223 255
198 223 255
198 223 255
198 223 255
198 223 255
198 223 255
198 223 255
198 223 255
198 223 255
198 223 255
198 223 255
198 223 255
198 223 255
198 223 255
198 223 255
198 223 255
198 223 255
198 223 255
198 223 255
198 223 255
198 223 255
198 223 255
198 223 255
198 223 255
198 223 255
198 223 255
198 223 255
198 223 255
198 223 255
198 223 255
198 223 255
198 223 255
198 223 255
198 223 255
198 223 255
198 223 255
198 223 255
198 223 255
198 223 255
198 223 255
198 223 255
198 223 255
198 223 255
198 223 255
198 223 255
198 223 255
198 223 255
198 223 255
198 223 255
198 223 255
198 223 255
198 223 255
198 223 255
198 223 255
198 223 255
198 223 255
198 223 255
198 223 255
199 223 255
199 223 255
199 223 255
199 223 255
199 223 255
199 223 255
199 223 255
199 223 255
199 223 255
199 223 255
199 223 255
199 223 255
199 223 255
199 223 255
199 223 255
199 223 255
199 223 255
199 223 255
199 224 255
199 224 255
199 224 255
200 224 255
200 224 255
200 224 255
200 224 255
200 224 255
200 224 255
200 224 255
200 224 255
200 224 255
200 224 255
200 224 255
200 224 255
200 224 255
200 224 255
200 224 255
200 224 255
200 224 255
201 224 255
201 224 255
201 224 255
201 224 255
201 224 255
201 224 255
201 224 255
201 224 255
201 224 255
201 224 255
201 224 255
201 225 255
201 225 255
201 225 255
201 225 255
201 225 255
202 225 255
202 225 255
202 225 255
202 225 255
202 225 255
202 225 255
202 225 255
202 225 255
202 225 255
202 225 255
202 225 255
202 225 255
202 225 255
202 225 255
202 225 255
203 225 255
203 225 255
203 225 255
203 225 255
203 225 255
203 225 255
203 225 255
203 225 255
203 226 255
203 226 255
203 226 255
203 226 255
203 226 255
203 226 255
203 226 255
204 226 255
204 226 255
204 226 255
204 226 255
204 226 255
204 226 255
204 226 255
204 226 255
204 226 255
204 226 255
204 226 255
204 226 255
204 226 255
204 226 255
204 226 255
204 226 255
205 226 255
205 226 255
205 226 255
205 226 255
205 226 255
205 226 255
205 227 255
205 227 255
205 227 255
205 227 255
205 227 255
205 227 255
205 227 255
205 227 255
205 227 255
205 227 255
206 227 255
206 227 255
206 227 255
206 227 255
206 227 255
206 227 255
206 227 255
206 227 255
206 227 255
206 227 255
206 227 255
206 227 255
206 227 255
206 227 255
206 227 255
206 227 255
206 227 255
206 227 255
207 227 255
207 227 255
207 227 255
207 227 255
207 227 255
207 228 255
207 228 255
207 228 255
207 228 255
207 228 255
207 228 255
207 228 255
207 228 255
207 228 255
207 228 255
207 228 255
207 228 255
207 228 255
207 228 255
207 228 255
208 228 255
208 228 255
208 228 255
208 228 255
208 228 255
208 228 255
208 228 255
208 228 255
208 228 255
208 228 255
208 228 255
208 228 255
208 228 255
208 228 255
208 228 255
208 228 255
208 228 255
208 228 255
208 228 255
208 228 255
208 228 255
208 228 255
208 228 255
208 228 255
208 228 255
208 228 255
208 228 255
208 228 255
208 228 255
208 228 255
208 228 255
207 228 255
207 228 255
207 228 255
207 228 255
207 228 255
207 228 255
207 228 255
207 228 255
207 228 255
207 228 255
207 228 255
207 228 255
207 228 255
207 228 255
207 228 255
207 227 255
207 227 255
207 227 255
207 227 255
207 227 255
206 227 255
206 227 255
206 227 255
206 227 255
206 227 255
206 227 255
206 227 255
206 227 255
206 227 255
206 227 255
206 227 255
206 227 255
206 227 255
206 227 255
206 227 255
206 227 255
206 227 255
206 227 255
205 227 255
205 227 255
205 227 255
205 227 255
205 227 255
205 227 255
205 227 255
205 227 255
205 227 255
205 227 255
205 226 255
205 226 255
205 226 255
205 226 255
205 226 255
205 226 255
204 226 255
204 226 255
204 226 255
204 226 255
204 226 255
204 226 255
204 226 255
204 226 255
204 226 255
204 226 255
204 226 255
204 226 255
204 226 255
204 226 255
204 226 255
204 226 255
203 226 255
203 226 255
203 226 255
203 226 255
203 226 255
203 226 255
203 225 255
203 225 255
203 225 255
203 225 255
203 225 255
203 225 255
203 225 255
203 225 255
203 225 255
202 225 255
202 225 255
202 225 255
202 225 255
202 225 255
202 225 255
202 225 255
202 225 255
202 225 255
202 225 255
202 225 255
202 225 255
202 225 255
202 225 255
202 225 255
201 225 255
201 225 255
201 225 255
201 225 255
201 225 255
201 224 255
201 224 255
201 224 255
201 224 255
201 224 255
201 224 255
201 224 255
201 224 255
201 224 255
201 224 255
201 224 255
200 224 255
200 224 255
200 224 255
200 224 255
200 224 255
200 224 255
200 224 255
200 224 255
200 224 255
200 224 255
200 224 255
200 224 255
200 224 255
200 224 255
200 224 255
200 224 255
200 224 255
199 224 255
199 224 255
199 224 255
199 224 255
199 223 255
199 223 255
199 223 255
199 223 255
199 223 255
199 223 255
199 223 255
199 223 255
199 223 255
199 223 255
199 223 255
199 223 255
199 223 255
199 223 255
199 223 255
199 223 255
199 223 255
199 223 255
199 223 255
199 223 255
198 223 255
198 223 255
198 223 255
198 223 255
198 223 255
198 223 255
198 223 255
198 223 255
198 223 255
198 223 255
198 223 255
198 223 255
198 223 255
198 223 255
198 223 255
198 223 255
198 223 255
198 223 255
198 223 255
198 223 255
198 223 255
198 223 255
198 223 255
198 223 255
198 223 255
198 223 255
198 223 255
198 223 255
198 223 255
198 223 255
198 223 255
198 223 255
198 223 255
198 223 255
198 223 255
198 223 255
198 223 255
198 223 255
198 223 255
198 223 255
198 223 255
198 223 255
198 223 255
198 223 255
198 223 255
198 223 255
198 223 255
198 223 255
198 223 255
198 223 255
198 223 255
198 223 255
199 223 255
199 223 255
199 223 255
199 223 255
199 223 255
199 223 255
199 223 255
199 223 255
199 223 255
199 223 255
199 223 255
199 223 255
199 223 255
199 223 255
199 223 255
199 223 255
199 223 255
199 223 255
199 223 255
199 223 255
199 224 255
199 224 255
199 224 255
199 224 255
200 224 255
200 224 255
200 224 255
200 224 255
200 224 255
200 224 255
200 224 255
200 224 255
200 224 255
200 224 255
200 224 255
200 224 255
200 224 255
200 224 255
200 224 255
200 224 255
200 224 255
201 224 255
201 224 255
201 224 255
201 224 255
201 224 255
201 224 255
201 224 255
201 224 255
201 224 255
201 224 255
201 224 255
201 225 255
201 225 255
201 225 255
201 225 255
201 225 255
202 225 255
202 225 255
202 225 255
202 225 255
202 225 255
202 225 255
202 225 255
202 225 255
202 225 255
202 225 255
202 225 255
202 225 255
202 225 255
202 225 255
202 225 255
203 225 255
203 225 255
203 225 255
203 225 255
203 225 255
203 225 255
203 225 255
203 225 255
203 226 255
203 226 255
203 226 255
203 226 255
203 226 255
203 226 255
203 226 255
204 226 255
204 226 255
204 226 255
204 226 255
204 226 255
204 226 255
204 226 255
204 226 255
204 226 255
204 226 255
204 226 255
204 226 255
204 226 255
204 226 255
204 226 255
204 226 255
205 226 255
205 226 255
205 226 255
205 226 255
205 226 255
205 226 255
205 227 255
205 227 255
205 227 255
205 227 255
205 227 255
205 227 255
205 227 255
205 227 255
205 227 255
205 227 255
206 227 255
206 227 255
206 227 255
206 227 255
206 227 255
206 227 255
206 227 255
206 227 255
206 227 255
206 227 255
206 227 255
206 227 255
206 227 255
206 227 255
206 227 255
206 227 255
206 227 255
206 227 255
207 227 255
207 227 255
207 227 255
207 227 255
207 227 255
207 228 255
207 228 255
207 228 255
207 228 255
207 228 255
207 228 255
207 228 255
207 228 255
207 228 255
207 228 255
207 228 255
207 228 255
207 228 255
207 228 255
207 228 255
208 228 255
208 228 255
208 228 255
208 228 255
208 228 255
208 228 255
208 228 255
208 228 255
208 228 255
208 228 255
208 228 255
208 228 255
208 228 255
208 228 255
208 228 255
208 228 255
208 228 255
208 228 255
208 228 255
208 228 255
208 228 255
208 228 255
208 228 255
208 228 255
208 228 255
208 228 255
208 228 255
208 228 255
208 228 255
208 228 255
208 228 255
208 228 255
208 228 255
208 228 255
208 228 255
208 228 255
208 228 255
207 228 255
207 228 255
207 228 255
207 228 255
207 228 255
207 228 255
207 228 255
207 228 255
207 228 255
207 228 255
207 228 255
207 228 255
207 228 255
207 228 255
207 228 255
207 227 255
207 227 255
207 227 255
207 227 255
207 227 255
206 227 255
206 227 255
206 227 255
206 227 255
206 227 255
206 227 255
206 227 255
206 227 255
206 227 255
206 227 255
206 227 255
206 227 255
206 227 255
206 227 255
206 227 255
206 227 255
206 227 255
205 227 255
205 227 255
205 227 255
205 227 255
205 227 255
205 227 255
205 227 255
205 227 255
205 227 255
205 227 255
205 226 255
205 226 255
205 226 255
205 226 255
205 226 255
205 226 255
205 226 255
204 226 255
204 226 255
204 226 255
204 226 255
204 226 255
204 226 255
204 226 255
204 226 255
204 226 255
204 226 255
204 226 255
204 226 255
204 226 255
204 226 255
204 226 255
203 226 255
203 226 255
203 226 255
203 226 255
203 226 255
203 226 255
203 226 255
203 225 255
203 225 255
203 225 255
203 225 255
203 225 255
203 225 255
203 225 255
203 225 255
203 225 255
202 225 255
202 225 255
202 225 255
202 225 255
202 225 255
202 225 255
202 225 255
202 225 255
202 225 255
202 225 255
202 225 255
202 225 255
202 225 255
202 225 255
202 225 255
201 225 255
201 225 255
201 225 255
201 225 255
201 225 255
201 224 255
201 224 255
201 224 255
201 224 255
201 224 255
201 224 255
201 224 255
201 224 255
201 224 255
201 224 255
201 224 255
200 224 255
200 224 255
200 224 255
200 224 255
200 224 255
200 224 255
200 224 255
200 224 255
200 224 255
200 224 255
200 224 255
200 224 255
200 224 255
200 224 255
200 224 255
200 224 255
200 224 255
200 224 255
199 224 255
199 224 255
199 224 255
199 224 255
199 223 255
199 223 255
199 223 255
199 223 255
199 223 255
199 223 255
199 223 255
199 223 255
199 223 255
199 223 255
199 223 255
199 223 255
199 223 255
199 223 255
199 223 255
199 223 255
199 223 255
199 223 255
199 223 255
199 223 255
199 223 255
199 223 255
199 223 255
198 223 255
198 223 255
198 223 255
198 223 255
198 223 255
198 223 255
198 223 255
198 223 255
198 223 255
198 223 255
198 223 255
198 223 255
198 223 255
198 223 255
198 223 255
198 223 255
198 223 255
198 223 255
198 223 255
198 223 255
198 223 255
198 223 255
198 223 255
198 223 255
198 223 255
198 223 255
198 223 255
198 223 255
198 223 255
198 223 255
198 223 255
198 223 255
198 223 255
198 223 255
198 223 255
198 223 255
198 223 255
198 223 255
199 223 255
199 223 255
199 223 255
199 223 255
199 223 255
199 223 255
199 223 255
199 223 255
199 223 255
199 223 255
199 223 255
199 223 255
199 223 255
199 223 255
199 223 255
199 223 255
199 223 255
199 223 255
199 223 255
199 223 255
199 223 255
199 223 255
199 223 255
199 224 255
199 224 255
199 224 255
199 224 255
200 224 255
200 224 255
200 224 255
200 224 255
200 224 255
200 224 255
200 224 255
200 224 255
200 224 255
200 224 255
200 224 255
200 224 255
200 224 255
200 224 255
200 224 255
200 224 255
200 224 255
200 224 255
201 224 255
201 224 255
201 224 255
201 224 255
201 224 255
201 224 255
201 224 255
201 224 255
201 224 255
201 224 255
201 224 255
201 225 255
201 225 255
201 225 255
201 225 255
201 225 255
202 225 255
202 225 255
202 225 255
202 225 255
202 225 255
202 225 255
202 225 255
202 225 255
202 225 255
202 225 255
202 225 255
202 225 255
202 225 255
202 225 255
202 225 255
203 225 255
203 225 255
203 225 255
203 225 255
203 225 255
203 225 255
203 225 255
203 225 255
203 225 255
203 226 255
203 226 255
203 226 255
203 226 255
203 226 255
203 226 255
204 226 255
204 226 255
204 226 255
204 226 255
204 226 255
204 226 255
204 226 255
204 226 255
204 226 255
204 226 255
204 226 255
204 226 255
204 226 255
204 226 255
204 226 255
204 226 255
205 226 255
205 226 255
205 226 255
205 226 255
205 226 255
205 226 255
205 226 255
205 227 255
205 227 255
205 227 255
205 227 255
205 227 255
205 227 255
205 227 255
205 227 255
205 227 255
205 227 255
206 227 255
206 227 255
206 227 255
206 227 255
206 227 255
206 227 255
206 227 255
206 227 255
206 227 255
206 227 255
206 227 255
206 227 255
206 227 255
206 227 255
206 227 255
206 227 255
206 227 255
207 227 255
207 227 255
207 227 255
207 227 255
207 227 255
207 228 255
207 228 255
207 228 255
207 228 255
207 228 255
207 228 255
207 228 255
207 228 255
207 228 255
207 228 255
207 228 255
207 228 255
207 228 255
207 228 255
207 228 255
208 228 255
208 228 255
208 228 255
208 228 255
208 228 255
208 228 255
208 228 255
208 228 255
208 228 255
208 228 255
208 228 255
208 228 255
208 228 255
208 228 255
208 228 255
208 228 255
208 228 255
208 228 255
208 228 255
208 228 255
209 229 255
209 228 255
208 228 255
208 228 255
208 228 255
208 228 255
208 228 255
208 228 255
208 228 255
208 228 255
208 228 255
208 228 255
208 228 255
208 228 255
208 228 255
208 228 255
208 228 255
208 228 255
208 228 255
208 228 255
208 228 255
208 228 255
208 228 255
207 228 255
207 228 255
207 228 255
207 228 255
207 228 255
207 228 255
207 228 255
207 228 255
207 228 255
207 228 255
207 228 255
207 228 255
207 228 255
207 228 255
207 228 255
207 227 255
207 227 255
207 227 255
207 227 255
207 227 255
206 227 255
206 227 255
206 227 255
206 227 255
206 227 255
206 227 255
206 227 255
206 227 255
206 227 255
206 227 255
206 227 255
206 227 255
206 227 255
206 227 255
206 227 255
206 227 255
206 227 255
205 227 255
205 227 255
205 227 255
205 227 255
205 227 255
205 227 255
205 227 255
205 227 255
205 227 255
205 227 255
205 226 255
205 226 255
205 226 255
205 226 255
205 226 255
205 226 255
205 226 255
204 226 255
204 226 255
204 226 255
204 226 255
204 226 255
204 226 255
204 226 255
204 226 255
204 226 255
204 226 255
204 226 255
204 226 255
204 226 255
204 226 255
204 226 255
203 226 255
203 226 255
203 226 255
203 226 255
203 226 255
203 226 255
203 226 255
203 225 255
203 225 255
203 225 255
203 225 255
203 225 255
203 225 255
203 225 255
203 225 255
203 225 255
202 225 255
202 225 255
202 225 255
202 225 255
202 225 255
202 225 255
202 225 255
202 225 255
202 225 255
202 225 255
202 225 255
202 225 255
202 225 255
202 225 255
202 225 255
201 225 255
201 225 255
201 225 255
201 225 255
201 225 255
201 224 255
201 224 255
201 224 255
201 224 255
201 224 255
201 224 255
201 224 255
201 224 255
201 224 255
201 224 255
201 224 255
200 224 255
200 224 255
200 224 255
200 224 255
200 224 255
200 224 255
200 224 255
200 224 255
200 224 255
200 224 255
200 224 255
200 224 255
200 224 255
200 224 255
200 224 255
200 224 255
200 224 255
200 224 255
200 224 255
199 224 255
199 224 255
199 224 255
199 224 255
199 223 255
199 223 255
199 223 255
199 223 255
199 223 255
199 223 255
199 223 255
199 223 255
199 223 255
199 223 255
199 223 255
199 223 255
199 223 255
199 223 255
199 223 255
199 223 255
199 223 255
199 223 255
199 223 255
199 223 255
199 223 255
199 223 255
199 223 255
199 223 255
199 223 255
199 223 255
199 223 255
199 223 255
199 223 255
199 223 255
199 223 255
199 223 255
198 223 255
198 223 255
198 223 255
198 223 255
198 223 255
198 223 255
198 223 255
198 223 255
198 223 255
198 223 255
198 223 255
198 223 255
198 223 255
199 223 255
199 223 255
199 223 255
199 223 255
199 223 255
199 223 255
199 223 255
199 223 255
199 223 255
199 223 255
199 223 255
199 223 255
199 223 255
199 223 255
199 223 255
199 223 255
199 223 255
199 223 255
199 223 255
199 223 255
199 223 255
199 223 255
199 223 255
199 223 255
199 223 255
199 223 255
199 223 255
199 223 255
199 223 255
199 223 255
199 223 255
199 224 255
199 224 255
199 224 255
199 224 255
200 224 255
200 224 255
200 224 255
200 224 255
200 224 255
200 224 255
200 224 255
200 224 255
200 224 255
200 224 255
200 224 255
200 224 255
200 224 255
200 224 255
200 224 255
200 224 255
200 224 255
200 224 255
200 224 255
201 224 255
201 224 255
201 224 255
201 224 255
201 224 255
201 224 255
201 224 255
201 224 255
201 224 255
201 224 255
201 224 255
201 225 255
201 225 255
201 225 255
201 225 255
201 225 255
202 225 255
202 225 255
202 225 255
202 225 255
202 225 255
202 225 255
202 225 255
202 225 255
202 225 255
202 225 255
202 225 255
202 225 255
202 225 255
202 225 255
202 225 255
203 225 255
203 225 255
203 225 255
203 225 255
203 225 255
203 225 255
203 225 255
203 225 255
203 225 255
203 226 255
203 226 255
203 226 255
203 226 255
203 226 255
203 226 255
203 226 255
204 226 255
204 226 255
204 226 255
204 226 255
204 226 255
204 226 255
204 226 255
204 226 255
204 226 255
204 226 255
204 226 255
204 226 255
204 226 255
204 226 255
204 226 255
205 226 255
205 226 255
205 226 255
205 226 255
205 226 255
205 226 255
205 226 255
205 227 255
205 227 255
205 227 255
205 227 255
205 227 255
205 227 255
205 227 255
205 227 255
205 227 255
205 227 255
206 227 255
206 227 255
206 227 255
206 227 255
206 227 255
206 227 255
206 227 255
206 227 255
206 227 255
206 227 255
206 227 255
206 227 255
206 227 255
206 227 255
206 227 255
206 227 255
206 227 255
207 227 255
207 227 255
207 227 255
207 227 255
207 227 255
207 228 255
207 228 255
207 228 255
207 228 255
207 228 255
207 228 255
207 228 255
207 228 255
207 228 255
207 228 255
207 228 255
207 228 255
207 228 255
207 228 255
207 228 255
208 228 255
208 228 255
208 228 255
208 228 255
208 228 255
208 228 255
208 228 255
208 228 255
208 228 255
208 228 255
208 228 255
208 228 255
208 228 255
208 228 255
208 228 255
208 228 255
208 228 255
208 228 255
208 228 255
208 228 255
208 228 255
209 228 255
209 229 255
209 229 255
209 229 255
209 229 255
209 229 255
209 228 255
208 228 255
208 228 255
208 228 255
208 228 255
208 228 255
208 228 255
208 228 255
208 228 255
208 228 255
208 228 255
208 228 255
208 228 255
208 228 255
208 228 255
208 228 255
208 228 255
208 228 255
208 228 255
208 228 255
208 228 255
208 228 255
208 228 255
207 228 255
207 228 255
207 228 255
207 228 255
207 228 255
207 228 255
207 228 255
207 228 255
207 228 255
207 228 255
207 228 255
207 228 255
207 228 255
207 228 255
207 227 255
207 227 255
207 227 255
207 227 255
207 227 255
206 227 255
206 227 255
206 227 255
206 227 255
206 227 255
206 227 255
206 227 255
206 227 255
206 227 255
206 227 255
206 227 255
206 227 255
206 227 255
206 227 255
206 227 255
206 227 255
206 227 255
205 227 255
205 227 255
205 227 255
205 227 255
205 227 255
205 227 255
205 227 255
205 227 255
205 227 255
205 227 255
205 226 255
205 226 255
205 226 255
205 226 255
205 226 255
205 226 255
205 226 255
204 226 255
204 226 255
204 226 255
204 226 255
204 226 255
204 226 255
204 226 255
204 226 255
204 226 255
204 226 255
204 226 255
204 226 255
204 226 255
204 226 255
204 226 255
203 226 255
203 226 255
203 226 255
203 226 255
203 226 255
203 226 255
203 226 255
203 225 255
203 225 255
203 225 255
203 225 255
203 225 255
203 225 255
203 225 255
203 225 255
202 225 255
202 225 255
202 225 255
202 225 255
202 225 255
202 225 255
202 225 255
202 225 255
202 225 255
202 225 255
202 225 255
202 225 255
202 225 255
202 225 255
202 225 255
202 225 255
201 225 255
201 225 255
201 225 255
201 225 255
201 225 255
201 224 255
201 224 255
201 224 255
201 224 255
201 224 255
201 224 255
201 224 255
201 224 255
201 224 255
201 224 255
201 224 255
201 224 255
200 224 255
200 224 255
200 224 255
200 224 255
200 224 255
200 224 255
200 224 255
200 224 255
200 224 255
200 224 255
200 224 255
200 224 255
200 224 255
200 224 255
200 224 255
200 224 255
200 224 255
200 224 255
200 224 255
200 224 255
199 224 255
199 224 255
199 224 255
199 224 255
199 223 255
199 223 255
199 223 255
199 223 255
199 223 255
199 223 255
199 223 255
199 223 255
199 223 255
199 223 255
199 223 255
199 223 255
199 223 255
199 223 255
199 223 255
199 223 255
199 223 255
199 223 255
199 223 255
199 223 255
199 223 255
199 223 255
199 223 255
199 223 255
199 223 255
199 223 255
199 223 255
199 223 255
199 223 255
199 223 255
199 223 255
199 223 255
199 223 255
199 223 255
199 223 255
199 223 255
199 223 255
199 223 255
199 223 255
199 223 255
199 223 255
199 223 255
199 223 255
199 223 255
199 223 255
199 223 255
199 223 255
199 223 255
199 223 255
199 223 255
199 223 255
199 223 255
199 223 255
199 223 255
199 223 255
199 223 255
199 223 255
199 223 255
199 223 255
199 223 255
199 223 255
199 223 255
199 223 255
199 223 255
199 223 255
199 223 255
199 224 255
199 224 255
199 224 255
199 224 255
200 224 255
200 224 255
200 224 255
200 224 255
200 224 255
200 224 255
200 224 255
200 224 255
200 224 255
200 224 255
200 224 255
200 224 255
200 224 255
200 224 255
200 224 255
200 224 255
200 224 255
200 224 255
200 224 255
200 224 255
201 224 255
201 224 255
201 224 255
201 224 255
201 224 255
201 224 255
201 224 255
201 224 255
201 224 255
201 224 255
201 224 255
201 224 255
201 225 255
201 225 255
201 225 255
201 225 255
201 225 255
202 225 255
202 225 255
202 225 255
202 225 255
202 225 255
202 225 255
202 225 255
202 225 255
202 225 255
202 225 255
202 225 255
202 225 255
202 225 255
202 225 255
202 225 255
202 225 255
203 225 255
203 225 255
203 225 255
203 225 255
203 225 255
203 225 255
203 225 255
203 225 255
203 226 255
203 226 255
203 226 255
203 226 255
203 226 255
203 226 255
203 226 255
204 226 255
204 226 255
204 226 255
204 226 255
204 226 255
204 226 255
204 226 255
204 226 255
204 226 255
204 226 255
204 226 255
204 226 255
204 226 255
204 226 255
204 226 255
204 226 255
205 226 255
205 226 255
205 226 255
205 226 255
205 226 255
205 226 255
205 227 255
205 227 255
205 227 255
205 227 255
205 227 255
205 227 255
205 227 255
205 227 255
205 227 255
205 227 255
206 227 255
206 227 255
206 227 255
206 227 255
206 227 255
206 227 255
206 227 255
206 227 255
206 227 255
206 227 255
206 227 255
206 227 255
206 227 255
206 227 255
206 227 255
206 227 255
206 227 255
207 227 255
207 227 255
207 227 255
207 227 255
207 227 255
207 228 255
207 228 255
207 228 255
207 228 255
207 228 255
207 228 255
207 228 255
207 228 255
207 228 255
207 228 255
207 228 255
207 228 255
207 228 255
207 228 255
208 228 255
208 228 255
208 228 255
208 228 255
208 228 255
208 228 255
208 228 255
208 228 255
208 228 255
208 228 255
208 228 255
208 228 255
208 228 255
208 228 255
208 228 255
208 228 255
208 228 255
208 228 255
208 228 255
208 228 255
208 228 255
209 228 255
209 228 255
209 229 255
209 229 255
209 229 255
209 229 255
209 229 255
209 229 255
209 229 255
209 229 255
209 229 255
209 229 255
209 229 255
209 228 255
209 228 255
208 228 255
208 228 255
208 228 255
208 228 255
208 228 255
208 228 255
208 228 255
208 228 255
208 228 255
208 228 255
208 228 255
208 228 255
208 228 255
208 228 255
208 228 255
208 228 255
208 228 255
208 228 255
208 228 255
208 228 255
208 228 255
207 228 255
207 228 255
207 228 255
207 228 255
207 228 255
207 228 255
207 228 255
207 228 255
207 228 255
207 228 255
207 228 255
207 228 255
207 228 255
207 228 255
207 227 255
207 227 255
207 227 255
207 227 255
207 227 255
206 227 255
206 227 255
206 227 255
206 227 255
206 227 255
206 227 255
206 227 255
206 227 255
206 227 255
206 227 255
206 227 255
206 227 255
206 227 255
206 227 255
206 227 255
206 227 255
206 227 255
205 227 255
205 227 255
205 227 255
205 227 255
205 227 255
205 227 255
205 227 255
205 227 255
205 227 255
205 227 255
205 226 255
205 226 255
205 226 255
205 226 255
205 226 255
205 226 255
204 226 255
204 226 255
204 226 255
204 226 255
204 226 255
204 226 255
204 226 255
204 226 255
204 226 255
204 226 255
204 226 255
204 226 255
204 226 255
204 226 255
204 226 255
204 226 255
203 226 255
203 226 255
203 226 255
203 226 255
203 226 255
203 226 255
203 226 255
203 225 255
203 225 255
203 225 255
203 225 255
203 225 255
203 225 255
203 225 255
203 225 255
202 225 255
202 225 255
202 225 255
202 225 255
202 225 255
202 225 255
202 225 255
202 225 255
202 225 255
202 225 255
202 225 255
202 225 255
202 225 255
202 225 255
202 225 255
202 225 255
201 225 255
201 225 255
201 225 255
201 225 255
201 225 255
201 224 255
201 224 255
201 224 255
201 224 255
201 224 255
201 224 255
201 224 255
201 224 255
201 224 255
201 224 255
201 224 255
201 224 255
200 224 255
200 224 255
200 224 255
200 224 255
200 224 255
200 224 255
200 224 255
200 224 255
200 224 255
200 224 255
200 224 255
200 224 255
200 224 255
200 224 255
200 224 255
200 224 255
200 224 255
200 224 255
200 224 255
200 224 255
200 224 255
199 224 255
199 224 255
199 224 255
199 224 255
199 224 255
199 223 255
199 223 255
199 223 255
199 223 255
199 223 255
199 223 255
199 223 255
199 223 255
199 223 255
199 223 255
199 223 255
199 223 255
199 223 255
199 223 255
199 223 255
199 223 255
199 223 255
199 223 255
199 223 255
199 223 255
199 223 255
199 223 255
199 223 255
199 223 255
199 223 255
199 223 255
199 223 255
199 223 255
199 223 255
199 223 255
199 223 255
199 223 255
199 223 255
199 223 255
199 223 255
199 223 255
199 223 255
199 223 255
199 223 255
199 223 255
199 223 255
199 223 255
199 223 255
199 223 255
199 223 255
199 223 255
199 223 255
199 223 255
199 223 255
199 223 255
199 223 255
199 223 255
199 223 255
199 223 255
199 223 255
199 223 255
199 224 255
199 224 255
199 224 255
199 224 255
200 224 255
200 224 255
200 224 255
200 224 255
200 224 255
200 224 255
200 224 255
200 224 255
200 224 255
200 224 255
200 224 255
200 224 255
200 224 255
200 224 255
200 224 255
200 224 255
200 224 255
200 224 255
200 224 255
200 224 255
200 224 255
200 224 255
201 224 255
201 224 255
201 224 255
201 224 255
201 224 255
201 224 255
201 224 255
201 224 255
201 224 255
201 224 255
201 224 255
201 224 255
201 225 255
201 225 255
201 225 255
201 225 255
201 225 255
202 225 255
202 225 255
202 225 255
202 225 255
202 225 255
202 225 255
202 225 255
202 225 255
202 225 255
202 225 255
202 225 255
202 225 255
202 225 255
202 225 255
202 225 255
202 225 255
203 225 255
203 225 255
203 225 255
203 225 255
203 225 255
203 225 255
203 225 255
203 225 255
203 226 255
203 226 255
203 226 255
203 226 255
203 226 255
203 226 255
203 226 255
204 226 255
204 226 255
204 226 255
204 226 255
204 226 255
204 226 255
204 226 255
204 226 255
204 226 255
204 226 255
204 226 255
204 226 255
204 226 255
204 226 255
204 226 255
204 226 255
205 226 255
205 226 255
205 226 255
205 226 255
205 226 255
205 226 255
205 227 255
205 227 255
205 227 255
205 227 255
205 227 255
205 227 255
205 227 255
205 227 255
205 227 255
205 227 255
206 227 255
206 227 255
206 227 255
206 227 255
206 227 255
206 227 255
206 227 255
206 227 255
206 227 255
206 227 255
206 227 255
206 227 255
206 227 255
206 227 255
206 227 255
206 227 255
206 227 255
207 227 255
207 227 255
207 227 255
207 227 255
207 227 255
207 228 255
207 228 255
207 228 255
207 228 255
207 228 255
207 228 255
207 228 255
207 228 255
207 228 255
207 228 255
207 228 255
207 228 255
207 228 255
207 228 255
208 228 255
208 228 255
208 228 255
208 228 255
208 228 255
208 228 255
208 228 255
208 228 255
208 228 255
208 228 255
208 228 255
208 228 255
208 228 255
208 228 255
208 228 255
208 228 255
208 228 255
208 228 255
208 228 255
208 228 255
208 228 255
209 228 255
209 228 255
209 229 255
209 229 255
209 229 255
209 229 255
209 229 255
209 229 255
209 229 255
209 229 255
209 229 255
209 229 255
209 229 255
209 229 255
209 229 255
209 229 255
209 229 255
209 229 255
209 229 255
209 228 255
209 228 255
208 228 255
208 228 255
208 228 255
208 228 255
208 228 255
208 228 255
208 228 255
208 228 255
208 228 255
208 228 255
208 228 255
208 228 255
208 228 255
208 228 255
208 228 255
208 228 255
208 228 255
208 228 255
208 228 255
208 228 255
208 228 255
207 228 255
207 228 255
207 228 255
207 228 255
207 228 255
207 228 255
207 228 255
207 228 255
207 228 255
207 228 255
207 228 255
207 228 255
207 228 255
207 228 255
207 227 255
207 227 255
207 227 255
207 227 255
207 227 255
206 227 255
206 227 255
206 227 255
206 227 255
206 227 255
206 227 255
206 227 255
206 227 255
206 227 255
206 227 255
206 227 255
206 227 255
206 227 255
206 227 255
206 227 255
206 227 255
206 227 255
205 227 255
205 227 255
205 227 255
205 227 255
205 227 255
205 227 255
205 227 255
205 227 255
205 227 255
205 227 255
205 226 255
205 226 255
205 226 255
205 226 255
205 226 255
205 226 255
204 226 255
204 226 255
204 226 255
204 226 255
204 226 255
204 226 255
204 226 255
204 226 255
204 226 255
204 226 255
204 226 255
204 226 255
204 226 255
204 226 255
204 226 255
204 226 255
203 226 255
203 226 255
203 226 255
203 226 255
203 226 255
203 226 255
203 226 255
203 225 255
203 225 255
203 225 255
203 225 255
203 225 255
203 225 255
203 225 255
203 225 255
202 225 255
202 225 255
202 225 255
202 225 255
202 225 255
202 225 255
202 225 255
202 225 255
202 225 255
202 225 255
202 225 255
202 225 255
202 225 255
202 225 255
202 225 255
202 225 255
201 225 255
201 225 255
201 225 255
201 225 255
201 225 255
201 224 255
201 224 255
201 224 255
201 224 255
201 224 255
201 224 255
201 224 255
201 224 255
201 224 255
201 224 255
201 224 255
201 224 255
201 224 255
200 224 255
200 224 255
200 224 255
200 224 255
200 224 255
200 224 255
200 224 255
200 224 255
200 224 255
200 224 255
200 224 255
200 224 255
200 224 255
200 224 255
200 224 255
200 224 255
200 224 255
200 224 255
200 224 255
200 224 255
200 224 255
200 224 255
200 224 255
200 224 255
199 224 255
199 224 255
199 224 255
199 224 255
199 224 255
199 223 255
199 223 255
199 223 255
199 223 255
199 223 255
199 223 255
199 223 255
199 223 255
199 223 255
199 223 255
199 223 255
199 223 255
199 223 255
199 223 255
199 223 255
199 223 255
199 223 255
199 223 255
199 223 255
199 223 255
199 223 255
199 223 255
199 223 255
199 223 255
199 223 255
199 223 255
199 223 255
199 223 255
199 223 255
199 223 255
199 223 255
199 223 255
199 223 255
199 223 255
199 223 255
199 223 255
199 223 255
199 223 255
199 223 255
199 223 255
199 223 255
199 223 255
199 224 255
199 224 255
199 224 255
199 224 255
199 224 255
200 224 255
200 224 255
200 224 255
200 224 255
200 224 255
200 224 255
200 224 255
200 224 255
200 224 255
200 224 255
200 224 255
200 224 255
200 224 255
200 224 255
200 224 255
200 224 255
200 224 255
200 224 255
200 224 255
200 224 255
200 224 255
200 224 255
200 224 255
200 224 255
201 224 255
201 224 255
201 224 255
201 224 255
201 224 255
201 224 255
201 224 255
201 224 255
201 224 255
201 224 255
201 224 255
201 224 255
201 224 255
201 225 255
201 225 255
201 225 255
201 225 255
201 225 255
202 225 255
202 225 255
202 225 255
202 225 255
202 225 255
202 225 255
202 225 255
202 225 255
202 225 255
202 225 255
202 225 255
202 225 255
202 225 255
202 225 255
202 225 255
202 225 255
203 225 255
203 225 255
203 225 255
203 225 255
203 225 255
203 225 255
203 225 255
203 225 255
203 226 255
203 226 255
203 226 255
203 226 255
203 226 255
203 226 255
203 226 255
204 226 255
204 226 255
204 226 255
204 226 255
204 226 255
204 226 255
204 226 255
204 226 255
204 226 255
204 226 255
204 226 255
204 226 255
204 226 255
204 226 255
204 226 255
204 226 255
205 226 255
205 226 255
205 226 255
205 226 255
205 226 255
205 226 255
205 227 255
205 227 255
205 227 255
205 227 255
205 227 255
205 227 255
205 227 255
205 227 255
205 227 255
205 227 255
206 227 255
206 227 255
206 227 255
206 227 255
206 227 255
206 227 255
206 227 255
206 227 255
206 227 255
206 227 255
206 227 255
206 227 255
206 227 255
206 227 255
206 227 255
206 227 255
206 227 255
207 227 255
207 227 255
207 227 255
207 227 255
207 227 255
207 228 255
207 228 255
207 228 255
207 228 255
207 228 255
207 228 255
207 228 255
207 228 255
207 228 255
207 228 255
207 228 255
207 228 255
207 228 255
207 228 255
208 228 255
208 228 255
208 228 255
208 228 255
208 228 255
208 228 255
208 228 255
208 228 255
208 228 255
208 228 255
208 228 255
208 228 255
208 228 255
208 228 255
208 228 255
208 228 255
208 228 255
208 228 255
208 228 255
208 228 255
208 228 255
209 228 255
209 229 255
209 229 255
209 229 255
209 229 255
209 229 255
209 229 255
209 229 255
209 229 255
209 229 255
209 229 255
209 229 255
209 229 255
209 229 255
209 229 255
209 229 255
209 229 255
209 229 255
209 229 255
209 229 255
209 229 255
209 229 255
209 229 255
209 229 255
209 229 255
209 229 255
209 228 255
208 228 255
208 228 255
208 228 255
208 228 255
208 228 255
208 228 255
208 228 255
208 228 255
208 228 255
208 228 255
208 228 255
208 228 255
208 228 255
208 228 255
208 228 255
208 228 255
208 228 255
208 228 255
208 228 255
208 228 255
208 228 255
207 228 255
207 228 255
207 228 255
207 228 255
207 228 255
207 228 255
207 228 255
207 228 255
207 228 255
207 228 255
207 228 255
207 228 255
207 228 255
207 228 255
207 227 255
207 227 255
207 227 255
207 227 255
207 227 255
206 227 255
206 227 255
206 227 255
206 227 255
206 227 255
206 227 255
206 227 255
206 227 255
206 227 255
206 227 255
206 227 255
206 227 255
206 227 255
206 227 255
206 227 255
206 227 255
206 227 255
205 227 255
205 227 255
205 227 255
205 227 255
205 227 255
205 227 255
205 227 255
205 227 255
205 227 255
205 227 255
205 226 255
205 226 255
205 226 255
205 226 255
205 226 255
205 226 255
204 226 255
204 226 255
204 226 255
204 226 255
204 226 255
204 226 255
204 226 255
204 226 255
204 226 255
204 226 255
204 226 255
204 226 255
204 226 255
204 226 255
204 226 255
204 226 255
203 226 255
203 226 255
203 226 255
203 226 255
203 226 255
203 226 255
203 226 255
203 225 255
203 225 255
203 225 255
203 225 255
203 225 255
203 225 255
203 225 255
203 225 255
202 225 255
202 225 255
202 225 255
202 225 255
202 225 255
202 225 255
202 225 255
202 225 255
202 225 255
202 225 255
202 225 255
202 225 255
202 225 255
202 225 255
202 225 255
202 225 255
202 225 255
201 225 255
201 225 255
201 225 255
201 225 255
201 225 255
201 224 255
201 224 255
201 224 255
201 224 255
201 224 255
201 224 255
201 224 255
201 224 255
201 224 255
201 224 255
201 224 255
201 224 255
201 224 255
200 224 255
200 224 255
200 224 255
200 224 255
200 224 255
200 224 255
200 224 255
200 224 255
200 224 255
200 224 255
200 224 255
200 224 255
200 224 255
200 224 255
200 224 255
200 224 255
200 224 255
200 224 255
200 224 255
200 224 255
200 224 255
200 224 255
200 224 255
200 224 255
200 224 255
200 224 255
200 224 255
199 224 255
199 224 255
199 224 255
199 224 255
199 224 255
199 224 255
199 224 255
199 224 255
199 223 255
199 223 255
199 223 255
199 223 255
199 223 255
199 223 255
199 223 255
199 223 255
199 223 255
199 223 255
199 223 255
199 223 255
199 223 255
199 223 255
199 223 255
199 223 255
199 223 255
199 223 255
199 223 255
199 223 255
199 223 255
199 224 255
199 224 255
199 224 255
199 224 255
199 224 255
199 224 255
199 224 255
199 224 255
199 224 255
200 224 255
200 224 255
200 224 255
200 224 255
200 224 255
200 224 255
200 224 255
200 224 255
200 224 255
200 224 255
200 224 255
200 224 255
200 224 255
200 224 255
200 224 255
200 224 255
200 224 255
200 224 255
200 224 255
200 224 255
200 224 255
200 224 255
200 224 255
200 224 255
200 224 255
200 224 255
200 224 255
201 224 255
201 224 255
201 224 255
201 224 255
201 224 255
201 224 255
201 224 255
201 224 255
201 224 255
201 224 255
201 224 255
201 224 255
201 224 255
201 225 255
201 225 255
201 225 255
201 225 255
201 225 255
202 225 255
202 225 255
202 225 255
202 225 255
202 225 255
202 225 255
202 225 255
202 225 255
202 225 255
202 225 255
202 225 255
202 225 255
202 225 255
202 225 255
202 225 255
202 225 255
202 225 255
203 225 255
203 225 255
203 225 255
203 225 255
203 225 255
203 225 255
203 225 255
203 225 255
203 226 255
203 226 255
203 226 255
203 226 255
203 226 255
203 226 255
203 226 255
204 226 255
204 226 255
204 226 255
204 226 255
204 226 255
204 226 255
204 226 255
204 226 255
204 226 255
204 226 255
204 226 255
204 226 255
204 226 255
204 226 255
204 226 255
204 226 255
205 226 255
205 226 255
205 226 255
205 226 255
205 226 255
205 226 255
205 227 255
205 227 255
205 227 255
205 227 255
205 227 255
205 227 255
205 227 255
205 227 255
205 227 255
205 227 255
206 227 255
206 227 255
206 227 255
206 227 255
206 227 255
206 227 255
206 227 255
206 227 255
206 227 255
206 227 255
206 227 255
206 227 255
206 227 255
206 227 255
206 227 255
206 227 255
206 227 255
207 227 255
207 227 255
207 227 255
207 227 255
207 227 255
207 228 255
207 228 255
207 228 255
207 228 255
207 228 255
207 228 255
207 228 255
207 228 255
207 228 255
207 228 255
207 228 255
207 228 255
207 228 255
207 228 255
208 228 255
208 228 255
208 228 255
208 228 255
208 228 255
208 228 255
208 228 255
208 228 255
208 228 255
208 228 255
208 228 255
208 228 255
208 228 255
208 228 255
208 228 255
208 228 255
208 228 255
208 228 255
208 228 255
208 228 255
208 228 255
209 228 255
209 229 255
209 229 255
209 229 255
209 229 255
209 229 255
209 229 255
209 229 255
209 229 255
209 229 255
209 229 255
209 229 255
209 229 255
209 229 255
209 229 255
209 229 255
209 229 255
209 229 255
209 229 255
209 229 255
209 229 255
209 229 255
209 229 255
209 229 255
209 229 255
209 229 255
209 229 255
209 229 255
209 229 255
209 229 255
209 229 255
209 229 255
209 228 255
209 228 255
208 228 255
208 228 255
208 228 255
208 228 255
208 228 255
208 228 255
208 228 255
208 228 255
208 228 255
208 228 255
208 228 255
208 228 255
208 228 255
208 228 255
208 228 255
208 228 255
208 228 255
208 228 255
208 228 255
208 228 255
207 228 255
207 228 255
207 228 255
207 228 255
207 228 255
207 228 255
207 228 255
207 228 255
207 228 255
207 228 255
207 228 255
207 228 255
207 228 255
207 228 255
207 227 255
207 227 255
207 227 255
207 227 255
207 227 255
206 227 255
206 227 255
206 227 255
206 227 255
206 227 255
206 227 255
206 227 255
206 227 255
206 227 255
206 227 255
206 227 255
206 227 255
206 227 255
206 227 255
206 227 255
206 227 255
206 227 255
205 227 255
205 227 255
205 227 255
205 227 255
205 227 255
205 227 255
205 227 255
205 227 255
205 227 255
205 226 255
205 226 255
205 226 255
205 226 255
205 226 255
205 226 255
205 226 255
204 226 255
204 226 255
204 226 255
204 226 255
204 226 255
204 226 255
204 226 255
204 226 255
204 226 255
204 226 255
204 226 255
204 226 255
204 226 255
204 226 255
204 226 255
204 226 255
203 226 255
203 226 255
203 226 255
203 226 255
203 226 255
203 226 255
203 226 255
203 225 255
203 225 255
203 225 255
203 225 255
203 225 255
203 225 255
203 225 255
203 225 255
202 225 255
202 225 255
202 225 255
202 225 255
202 225 255
202 225 255
202 225 255
202 225 255
202 225 255
202 225 255
202 225 255
202 225 255
202 225 255
202 225 255
202 225 255
202 225 255
202 225 255
201 225 255
201 225 255
201 225 255
201 225 255
201 225 255
201 224 255
201 224 255
201 224 255
201 224 255
201 224 255
201 224 255
201 224 255
201 224 255
201 224 255
201 224 255
201 224 255
201 224 255
201 224 255
201 224 255
200 224 255
200 224 255
200 224 255
200 224 255
200 224 255
200 224 255
200 224 255
200 224 255
200 224 255
200 224 255
200 224 255
200 224 255
200 224 255
200 224 255
200 224 255
200 224 255
200 224 255
200 224 255
200 224 255
200 224 255
200 224 255
200 224 255
200 224 255
200 224 255
200 224 255
200 224 255
200 224 255
200 224 255
200 224 255
200 224 255
200 224 255
200 224 255
200 224 255
200 224 255
200 224 255
200 224 255
200 224 255
199 224 255
199 224 255
199 224 255
199 224 255
199 224 255
199 224 255
199 224 255
199 224 255
199 224 255
200 224 255
199 224 255
200 224 255
200 224 255
200 224 255
200 224 255
200 224 255
200 224 255
200 224 255
200 224 255
200 224 255
200 224 255
200 224 255
200 224 255
200 224 255
200 224 255
200 224 255
200 224 255
200 224 255
200 224 255
200 224 255
200 224 255
200 224 255
200 224 255
200 224 255
200 224 255
200 224 255
200 224 255
200 224 255
200 224 255
200 224 255
200 224 255
200 224 255
200 224 255
200 224 255
200 224 255
200 224 255
200 224 255
201 224 255
201 224 255
201 224 255
201 224 255
201 224 255
201 224 255
201 224 255
201 224 255
201 224 255
201 224 255
201 224 255
201 224 255
201 224 255
201 224 255
201 225 255
201 225 255
201 225 255
201 225 255
201 225 255
202 225 255
202 225 255
202 225 255
202 225 255
202 225 255
202 225 255
202 225 255
202 225 255
202 225 255
202 225 255
202 225 255
202 225 255
202 225 255
202 225 255
202 225 255
202 225 255
202 225 255
203 225 255
203 225 255
203 225 255
203 225 255
203 225 255
203 225 255
203 225 255
203 225 255
203 226 255
203 226 255
203 226 255
203 226 255
203 226 255
203 226 255
203 226 255
204 226 255
204 226 255
204 226 255
204 226 255
204 226 255
204 226 255
204 226 255
204 226 255
204 226 255
204 226 255
204 226 255
204 226 255
204 226 255
204 226 255
204 226 255
204 226 255
205 226 255
205 226 255
205 226 255
205 226 255
205 226 255
205 226 255
205 226 255
205 227 255
205 227 255
205 227 255
205 227 255
205 227 255
205 227 255
205 227 255
205 227 255
205 227 255
206 227 255
206 227 255
206 227 255
206 227 255
206 227 255
206 227 255
206 227 255
206 227 255
206 227 255
206 227 255
206 227 255
206 227 255
206 227 255
206 227 255
206 227 255
206 227 255
206 227 255
207 227 255
207 227 255
207 227 255
207 227 255
207 227 255
207 228 255
207 228 255
207 228 255
207 228 255
207 228 255
207 228 255
207 228 255
207 228 255
207 228 255
207 228 255
207 228 255
207 228 255
207 228 255
207 228 255
208 228 255
208 228 255
208 228 255
208 228 255
208 228 255
208 228 255
208 228 255
208 228 255
208 228 255
208 228 255
208 228 255
208 228 255
208 228 255
208 228 255
208 228 255
208 228 255
208 228 255
208 228 255
208 228 255
208 228 255
209 228 255
209 228 255
209 229 255
209 229 255
209 229 255
209 229 255
209 229 255
209 229 255
209 229 255
209 229 255
209 229 255
209 229 255
209 229 255
209 229 255
209 229 255
209 229 255
209 229 255
209 229 255
209 229 255
209 229 255
209 229 255
209 229 255
209 229 255
209 229 255
209 229 255
209 229 255
209 229 255
209 229 255
209 229 255
209 229 255
209 229 255
209 229 255
209 229 255
209 229 255
209 229 255
209 229 255
209 229 255
209 229 255
209 229 255
209 228 255
209 228 255
208 228 255
208 228 255
208 228 255
208 228 255
208 228 255
208 228 255
208 228 255
208 228 255
208 228 255
208 228 255
208 228 255
208 228 255
208 228 255
208 228 255
208 228 255
208 228 255
208 228 255
208 228 255
208 228 255
208 228 255
207 228 255
207 228 255
207 228 255
207 228 255
207 228 255
207 228 255
207 228 255
207 228 255
207 228 255
207 228 255
207 228 255
207 228 255
207 228 255
207 228 255
207 227 255
207 227 255
207 227 255
207 227 255
207 227 255
206 227 255
206 227 255
206 227 255
206 227 255
206 227 255
206 227 255
206 227 255
206 227 255
206 227 255
206 227 255
206 227 255
206 227 255
206 227 255
206 227 255
206 227 255
206 227 255
206 227 255
205 227 255
205 227 255
205 227 255
205 227 255
205 227 255
205 227 255
205 227 255
205 227 255
205 227 255
205 227 255
205 226 255
205 226 255
205 226 255
205 226 255
205 226 255
205 226 255
204 226 255
204 226 255
204 226 255
204 226 255
204 226 255
204 226 255
204 226 255
204 226 255
204 226 255
204 226 255
204 226 255
204 226 255
204 226 255
204 226 255
204 226 255
204 226 255
203 226 255
203 226 255
203 226 255
203 226 255
203 226 255
203 226 255
203 226 255
203 225 255
203 225 255
203 225 255
203 225 255
203 225 255
203 225 255
203 225 255
203 225 255
203 225 255
202 225 255
202 225 255
202 225 255
202 225 255
202 225 255
202 225 255
202 225 255
202 225 255
202 225 255
202 225 255
202 225 255
202 225 255
202 225 255
202 225 255
202 225 255
202 225 255
202 225 255
201 225 255
201 225 255
201 225 255
201 225 255
201 225 255
201 224 255
201 224 255
201 224 255
201 224 255
201 224 255
201 224 255
201 224 255
201 224 255
201 224 255
201 224 255
201 224 255
201 224 255
201 224 255
201 224 255
201 224 255
200 224 255
200 224 255
200 224 255
200 224 255
200 224 255
200 224 255
200 224 255
200 224 255
200 224 255
200 224 255
200 224 255
200 224 255
200 224 255
200 224 255
200 224 255
200 224 255
200 224 255
200 224 255
200 224 255
200 224 255
200 224 255
200 224 255
200 224 255
200 224 255
200 224 255
200 224 255
200 224 255
200 224 255
200 224 255
200 224 255
200 224 255
200 224 255
200 224 255
200 224 255
200 224 255
200 224 255
200 224 255
200 224 255
200 224 255
200 224 255
200 224 255
200 224 255
200 224 255
200 224 255
200 224 255
200 224 255
200 224 255
200 224 255
200 224 255
200 224 255
200 224 255
200 224 255
200 224 255
200 224 255
200 224 255
200 224 255
200 224 255
200 224 255
200 224 255
200 224 255
200 224 255
200 224 255
200 224 255
200 224 255
200 224 255
200 224 255
200 224 255
200 224 255
200 224 255
200 224 255
200 224 255
200 224 255
200 224 255
200 224 255
201 224 255
201 224 255
201 224 255
201 224 255
201 224 255
201 224 255
201 224 255
201 224 255
201 224 255
201 224 255
201 224 255
201 224 255
201 224 255
201 224 255
201 224 255
201 225 255
201 225 255
201 225 255
201 225 255
201 225 255
202 225 255
202 225 255
202 225 255
202 225 255
202 225 255
202 225 255
202 225 255
202 225 255
202 225 255
202 225 255
202 225 255
202 225 255
202 225 255
202 225 255
202 225 255
202 225 255
202 225 255
203 225 255
203 225 255
203 225 255
203 225 255
203 225 255
203 225 255
203 225 255
203 225 255
203 225 255
203 226 255
203 226 255
203 226 255
203 226 255
203 226 255
203 226 255
203 226 255
204 226 255
204 226 255
204 226 255
204 226 255
204 226 255
204 226 255
204 226 255
204 226 255
204 226 255
204 226 255
204 226 255
204 226 255
204 226 255
204 226 255
204 226 255
204 226 255
205 226 255
205 226 255
205 226 255
205 226 255
205 226 255
205 226 255
205 227 255
205 227 255
205 227 255
205 227 255
205 227 255
205 227 255
205 227 255
205 227 255
205 227 255
205 227 255
206 227 255
206 227 255
206 227 255
206 227 255
206 227 255
206 227 255
206 227 255
206 227 255
206 227 255
206 227 255
206 227 255
206 227 255
206 227 255
206 227 255
206 227 255
206 227 255
206 227 255
207 227 255
207 227 255
207 227 255
207 227 255
207 227 255
207 228 255
207 228 255
207 228 255
207 228 255
207 228 255
207 228 255
207 228 255
207 228 255
207 228 255
207 228 255
207 228 255
207 228 255
207 228 255
207 228 255
208 228 255
208 228 255
208 228 255
208 228 255
208 228 255
208 228 255
208 228 255
208 228 255
208 228 255
208 228 255
208 228 255
208 228 255
208 228 255
208 228 255
208 228 255
208 228 255
208 228 255
208 228 255
208 228 255
208 228 255
209 228 255
209 228 255
209 229 255
209 229 255
209 229 255
209 229 255
209 229 255
209 229 255
209 229 255
209 229 255
209 229 255
209 229 255
209 229 255
209 229 255
209 229 255
209 229 255
209 229 255
209 229 255
209 229 255
209 229 255
209 229 255
209 229 255
210 229 255
210 229 255
210 229 255
209 229 255
209 229 255
209 229 255
209 229 255
209 229 255
209 229 255
209 229 255
209 229 255
209 229 255
209 229 255
209 229 255
209 229 255
209 229 255
209 229 255
209 229 255
209 229 255
209 229 255
209 229 255
209 229 255
209 229 255
209 229 255
209 228 255
208 228 255
208 228 255
208 228 255
208 228 255
208 228 255
208 228 255
208 228 255
208 228 255
208 228 255
208 228 255
208 228 255
208 228 255
208 228 255
208 228 255
208 228 255
208 228 255
208 228 255
208 228 255
208 228 255
208 228 255
207 228 255
207 228 255
207 228 255
207 228 255
207 228 255
207 228 255
207 228 255
207 228 255
207 228 255
207 228 255
207 228 255
207 228 255
207 228 255
207 228 255
207 227 255
207 227 255
207 227 255
207 227 255
207 227 255
206 227 255
206 227 255
206 227 255
206 227 255
206 227 255
206 227 255
206 227 255
206 227 255
206 227 255
206 227 255
206 227 255
206 227 255
206 227 255
206 227 255
206 227 255
206 227 255
206 227 255
205 227 255
205 227 255
205 227 255
205 227 255
205 227 255
205 227 255
205 227 255
205 227 255
205 227 255
205 227 255
205 226 255
205 226 255
205 226 255
205 226 255
205 226 255
205 226 255
204 226 255
204 226 255
204 226 255
204 226 255
204 226 255
204 226 255
204 226 255
204 226 255
204 226 255
204 226 255
204 226 255
204 226 255
204 226 255
204 226 255
204 226 255
204 226 255
203 226 255
203 226 255
203 226 255
203 226 255
203 226 255
203 226 255
203 226 255
203 225 255
203 225 255
203 225 255
203 225 255
203 225 255
203 225 255
203 225 255
203 225 255
203 225 255
202 225 255
202 225 255
202 225 255
202 225 255
202 225 255
202 225 255
202 225 255
202 225 255
202 225 255
202 225 255
202 225 255
202 225 255
202 225 255
202 225 255
202 225 255
202 225 255
202 225 255
202 225 255
201 225 255
201 225 255
201 225 255
201 225 255
201 225 255
201 224 255
201 224 255
201 224 255
201 224 255
201 224 255
201 224 255
201 224 255
201 224 255
201 224 255
201 224 255
201 224 255
201 224 255
201 224 255
201 224 255
201 224 255
201 224 255
200 224 255
200 224 255
200 224 255
200 224 255
200 224 255
200 224 255
200 224 255
200 224 255
200 224 255
200 224 255
200 224 255
200 224 255
200 224 255
200 224 255
200 224 255
200 224 255
200 224 255
200 224 255
200 224 255
200 224 255
200 224 255
200 224 255
200 224 255
200 224 255
200 224 255
200 224 255
200 224 255
200 224 255
200 224 255
200 224 255
200 224 255
200 224 255
200 224 255
200 224 255
200 224 255
200 224 255
200 224 255
200 224 255
200 224 255
200 224 255
200 224 255
200 224 255
200 224 255
200 224 255
200 224 255
200 224 255
200 224 255
200 224 255
200 224 255
200 224 255
200 224 255
200 224 255
200 224 255
200 224 255
200 224 255
200 224 255
200 224 255
200 224 255
200 224 255
200 224 255
200 224 255
200 224 255
200 224 255
201 224 255
201 224 255
201 224 255
201 224 255
201 224 255
201 224 255
201 224 255
201 224 255
201 224 255
201 224 255
201 224 255
201 224 255
201 224 255
201 224 255
201 224 255
201 224 255
201 224 255
201 225 255
201 225 255
201 225 255
201 225 255
201 225 255
201 225 255
202 225 255
202 225 255
202 225 255
202 225 255
202 225 255
202 225 255
202 225 255
202 225 255
202 225 255
202 225 255
202 225 255
202 225 255
202 225 255
202 225 255
202 225 255
202 225 255
202 225 255
203 225 255
203 225 255
203 225 255
203 225 255
203 225 255
203 225 255
203 225 255
203 225 255
203 225 255
203 226 255
203 226 255
203 226 255
203 226 255
203 226 255
203 226 255
203 226 255
204 226 255
204 226 255
204 226 255
204 226 255
204 226 255
204 226 255
204 226 255
204 226 255
204 226 255
204 226 255
204 226 255
204 226 255
204 226 255
204 226 255
204 226 255
204 226 255
205 226 255
205 226 255
205 226 255
205 226 255
205 226 255
205 226 255
205 226 255
205 227 255
205 227 255
205 227 255
205 227 255
205 227 255
205 227 255
205 227 255
205 227 255
205 227 255
206 227 255
206 227 255
206 227 255
206 227 255
206 227 255
206 227 255
206 227 255
206 227 255
206 227 255
206 227 255
206 227 255
206 227 255
206 227 255
206 227 255
206 227 255
206 227 255
206 227 255
207 227 255
207 227 255
207 227 255
207 227 255
207 227 255
207 228 255
207 228 255
207 228 255
207 228 255
207 228 255
207 228 255
207 228 255
207 228 255
207 228 255
207 228 255
207 228 255
207 228 255
207 228 255
207 228 255
208 228 255
208 228 255
208 228 255
208 228 255
208 228 255
208 228 255
208 228 255
208 228 255
208 228 255
208 228 255
208 228 255
208 228 255
208 228 255
208 228 255
208 228 255
208 228 255
208 228 255
208 228 255
208 228 255
208 228 255
209 228 255
209 229 255
209 229 255
209 229 255
209 229 255
209 229 255
209 229 255
209 229 255
209 229 255
209 229 255
209 229 255
209 229 255
209 229 255
209 229 255
209 229 255
209 229 255
209 229 255
209 229 255
209 229 255
209 229 255
209 229 255
209 229 255
210 229 255
210 229 255
210 229 255
210 229 255
210 229 255
210 229 255
210 229 255
210 229 255
210 229 255
209 229 255
209 229 255
209 229 255
209 229 255
209 229 255
209 229 255
209 229 255
209 229 255
209 229 255
209 229 255
209 229 255
209 229 255
209 229 255
209 229 255
209 229 255
209 229 255
209 229 255
209 229 255
209 229 255
209 229 255
209 229 255
209 228 255
209 228 255
208 228 255
208 228 255
208 228 255
208 228 255
208 228 255
208 228 255
208 228 255
208 228 255
208 228 255
208 228 255
208 228 255
208 228 255
208 228 255
208 228 255
208 228 255
208 228 255
208 228 255
208 228 255
208 228 255
208 228 255
207 228 255
207 228 255
207 228 255
207 228 255
207 228 255
207 228 255
207 228 255
207 228 255
207 228 255
207 228 255
207 228 255
207 228 255
207 228 255
207 228 255
207 227 255
207 227 255
207 227 255
207 227 255
206 227 255
206 227 255
206 227 255
206 227 255
206 227 255
206 227 255
206 227 255
206 227 255
206 227 255
206 227 255
206 227 255
206 227 255
206 227 255
206 227 255
206 227 255
206 227 255
206 227 255
205 227 255
205 227 255
205 227 255
205 227 255
205 227 255
205 227 255
205 227 255
205 227 255
205 227 255
205 227 255
205 226 255
205 226 255
205 226 255
205 226 255
205 226 255
205 226 255
204 226 255
204 226 255
204 226 255
204 226 255
204 226 255
204 226 255
204 226 255
204 226 255
204 226 255
204 226 255
204 226 255
204 226 255
204 226 255
204 226 255
204 226 255
204 226 255
203 226 255
203 226 255
203 226 255
203 226 255
203 226 255
203 226 255
203 226 255
203 225 255
203 225 255
203 225 255
203 225 255
203 225 255
203 225 255
203 225 255
203 225 255
203 225 255
202 225 255
202 225 255
202 225 255
202 225 255
202 225 255
202 225 255
202 225 255
202 225 255
202 225 255
202 225 255
202 225 255
202 225 255
202 225 255
202 225 255
202 225 255
202 225 255
202 225 255
202 225 255
202 225 255
201 225 255
201 225 255
201 225 255
201 225 255
201 225 255
201 225 255
201 224 255
201 224 255
201 224 255
201 224 255
201 224 255
201 224 255
201 224 255
201 224 255
201 224 255
201 224 255
201 224 255
201 224 255
201 224 255
201 224 255
201 224 255
201 224 255
201 224 255
201 224 255
200 224 255
200 224 255
200 224 255
200 224 255
200 224 255
200 224 255
200 224 255
200 224 255
200 224 255
200 224 255
200 224 255
200 224 255
200 224 255
200 224 255
200 224 255
200 224 255
200 224 255
200 224 255
200 224 255
200 224 255
200 224 255
200 224 255
200 224 255
200 224 255
200 224 255
200 224 255
200 224 255
200 224 255
200 224 255
200 224 255
200 224 255
200 224 255
200 224 255
200 224 255
200 224 255
200 224 255
200 224 255
200 224 255
200 224 255
200 224 255
200 224 255
200 224 255
200 224 255
200 224 255
200 224 255
200 224 255
200 224 255
200 224 255
200 224 255
200 224 255
201 224 255
201 224 255
201 224 255
201 224 255
201 224 255
201 224 255
201 224 255
201 224 255
201 224 255
201 224 255
201 224 255
201 224 255
201 224 255
201 224 255
201 224 255
201 224 255
201 224 255
201 224 255
201 225 255
201 225 255
201 225 255
201 225 255
201 225 255
201 225 255
201 225 255
202 225 255
202 225 255
202 225 255
202 225 255
202 225 255
202 225 255
202 225 255
202 225 255
202 225 255
202 225 255
202 225 255
202 225 255
202 225 255
202 225 255
202 225 255
202 225 255
202 225 255
202 225 255
203 225 255
203 225 255
203 225 255
203 225 255
203 225 255
203 225 255
203 225 255
203 225 255
203 225 255
203 226 255
203 226 255
203 226 255
203 226 255
203 226 255
203 226 255
203 226 255
204 226 255
204 226 255
204 226 255
204 226 255
204 226 255
204 226 255
204 226 255
204 226 255
204 226 255
204 226 255
204 226 255
204 226 255
204 226 255
204 226 255
204 226 255
204 226 255
205 226 255
205 226 255
205 226 255
205 226 255
205 226 255
205 226 255
205 227 255
205 227 255
205 227 255
205 227 255
205 227 255
205 227 255
205 227 255
205 227 255
205 227 255
205 227 255
206 227 255
206 227 255
206 227 255
206 227 255
206 227 255
206 227 255
206 227 255
206 227 255
206 227 255
206 227 255
206 227 255
206 227 255
206 227 255
206 227 255
206 227 255
206 227 255
206 227 255
207 227 255
207 227 255
207 227 255
207 227 255
207 228 255
207 228 255
207 228 255
207 228 255
207 228 255
207 228 255
207 228 255
207 228 255
207 228 255
207 228 255
207 228 255
207 228 255
207 228 255
207 228 255
208 228 255
208 228 255
208 228 255
208 228 255
208 228 255
208 228 255
208 228 255
208 228 255
208 228 255
208 228 255
208 228 255
208 228 255
208 228 255
208 228 255
208 228 255
208 228 255
208 228 255
208 228 255
208 228 255
208 228 255
209 228 255
209 228 255
209 229 255
209 229 255
209 229 255
209 229 255
209 229 255
209 229 255
209 229 255
209 229 255
209 229 255
209 229 255
209 229 255
209 229 255
209 229 255
209 229 255
209 229 255
209 229 255
209 229 255
209 229 255
209 229 255
209 229 255
209 229 255
210 229 255
210 229 255
210 229 255
210 229 255
210 229 255
210 229 255
210 229 255
210 229 255
210 229 255
210 229 255
210 229 255
210 229 255
210 229 255
210 229 255
210 229 255
210 229 255
209 229 255
209 229 255
209 229 255
209 229 255
209 229 255
209 229 255
209 229 255
209 229 255
209 229 255
209 229 255
209 229 255
209 229 255
209 229 255
209 229 255
209 229 255
209 229 255
209 229 255
209 229 255
209 229 255
209 229 255
209 229 255
209 228 255
208 228 255
208 228 255
208 228 255
208 228 255
208 228 255
208 228 255
208 228 255
208 228 255
208 228 255
208 228 255
208 228 255
208 228 255
208 228 255
208 228 255
208 228 255
208 228 255
208 228 255
208 228 255
208 228 255
208 228 255
207 228 255
207 228 255
207 228 255
207 228 255
207 228 255
207 228 255
207 228 255
207 228 255
207 228 255
207 228 255
207 228 255
207 228 255
207 228 255
207 228 255
207 227 255
207 227 255
207 227 255
207 227 255
206 227 255
206 227 255
206 227 255
206 227 255
206 227 255
206 227 255
206 227 255
206 227 255
206 227 255
206 227 255
206 227 255
206 227 255
206 227 255
206 227 255
206 227 255
206 227 255
206 227 255
205 227 255
205 227 255
205 227 255
205 227 255
205 227 255
205 227 255
205 227 255
205 227 255
205 227 255
205 227 255
205 226 255
205 226 255
205 226 255
205 226 255
205 226 255
205 226 255
204 226 255
204 226 255
204 226 255
204 226 255
204 226 255
204 226 255
204 226 255
204 226 255
204 226 255
204 226 255
204 226 255
204 226 255
204 226 255
204 226 255
204 226 255
204 226 255
203 226 255
203 226 255
203 226 255
203 226 255
203 226 255
203 226 255
203 226 255
203 226 255
203 225 255
203 225 255
203 225 255
203 225 255
203 225 255
203 225 255
203 225 255
203 225 255
203 225 255
202 225 255
202 225 255
202 225 255
202 225 255
202 225 255
202 225 255
202 225 255
202 225 255
202 225 255
202 225 255
202 225 255
202 225 255
202 225 255
202 225 255
202 225 255
202 225 255
202 225 255
202 225 255
202 225 255
201 225 255
201 225 255
201 225 255
201 225 255
201 225 255
201 225 255
201 224 255
201 224 255
201 224 255
201 224 255
201 224 255
201 224 255
201 224 255
201 224 255
201 224 255
201 224 255
201 224 255
201 224 255
201 224 255
201 224 255
201 224 255
201 224 255
201 224 255
201 224 255
201 224 255
201 224 255
201 224 255
201 224 255
201 224 255
200 224 255
200 224 255
200 224 255
200 224 255
200 224 255
200 224 255
200 224 255
200 224 255
200 224 255
200 224 255
200 224 255
200 224 255
200 224 255
200 224 255
200 224 255
200 224 255
200 224 255
200 224 255
200 224 255
200 224 255
200 224 255
200 224 255
200 224 255
200 224 255
200 224 255
200 224 255
200 224 255
200 224 255
200 224 255
200 224 255
200 224 255
200 224 255
201 224 255
201 224 255
201 224 255
201 224 255
201 224 255
201 224 255
201 224 255
201 224 255
201 224 255
201 224 255
201 224 255
201 224 255
201 224 255
201 224 255
201 224 255
201 224 255
201 224 255
201 224 255
201 224 255
201 224 255
201 224 255
201 224 255
201 224 255
201 225 255
201 225 255
201 225 255
201 225 255
201 225 255
201 225 255
202 225 255
202 225 255
202 225 255
202 225 255
202 225 255
202 225 255
202 225 255
202 225 255
202 225 255
202 225 255
202 225 255
202 225 255
202 225 255
202 225 255
202 225 255
202 225 255
202 225 255
202 225 255
202 225 255
203 225 255
203 225 255
203 225 255
203 225 255
203 225 255
203 225 255
203 225 255
203 225 255
203 225 255
203 225 255
203 226 255
203 226 255
203 226 255
203 226 255
203 226 255
203 226 255
203 226 255
204 226 255
204 226 255
204 226 255
204 226 255
204 226 255
204 226 255
204 226 255
204 226 255
204 226 255
204 226 255
204 226 255
204 226 255
204 226 255
204 226 255
204 226 255
204 226 255
205 226 255
205 226 255
205 226 255
205 226 255
205 226 255
205 226 255
205 227 255
205 227 255
205 227 255
205 227 255
205 227 255
205 227 255
205 227 255
205 227 255
205 227 255
205 227 255
206 227 255
206 227 255
206 227 255
206 227 255
206 227 255
206 227 255
206 227 255
206 227 255
206 227 255
206 227 255
206 227 255
206 227 255
206 227 255
206 227 255
206 227 255
206 227 255
206 227 255
207 227 255
207 227 255
207 227 255
207 227 255
207 227 255
207 228 255
207 228 255
207 228 255
207 228 255
207 228 255
207 228 255
207 228 255
207 228 255
207 228 255
207 228 255
207 228 255
207 228 255
207 228 255
208 228 255
208 228 255
208 228 255
208 228 255
208 228 255
208 228 255
208 228 255
208 228 255
208 228 255
208 228 255
208 228 255
208 228 255
208 228 255
208 228 255
208 228 255
208 228 255
208 228 255
208 228 255
208 228 255
208 228 255
209 228 255
209 229 255
209 229 255
209 229 255
209 229 255
209 229 255
209 229 255
209 229 255
209 229 255
209 229 255
209 229 255
209 229 255
209 229 255
209 229 255
209 229 255
209 229 255
209 229 255
209 229 255
209 229 255
209 229 255
209 229 255
209 229 255
210 229 255
210 229 255
210 229 255
210 229 255
210 229 255
210 229 255
210 229 255
210 229 255
210 229 255
210 229 255
210 229 255
210 229 255
210 229 255
210 229 255
210 229 255
210 229 255
210 229 255
210 229 255
210 229 255
210 229 255
210 229 255
210 229 255
210 229 255
209 229 255
209 229 255
209 229 255
209 229 255
209 229 255
209 229 255
209 229 255
209 229 255
209 229 255
209 229 255
209 229 255
209 229 255
209 229 255
209 229 255
209 229 255
209 229 255
209 229 255
209 229 255
209 229 255
209 229 255
209 229 255
209 228 255
209 228 255
208 228 255
208 228 255
208 228 255
208 228 255
208 228 255
208 228 255
208 228 255
208 228 255
208 228 255
208 228 255
208 228 255
208 228 255
208 228 255
208 228 255
208 228 255
208 228 255
208 228 255
208 228 255
208 228 255
207 228 255
207 228 255
207 228 255
207 228 255
207 228 255
207 228 255
207 228 255
207 228 255
207 228 255
207 228 255
207 228 255
207 228 255
207 228 255
207 228 255
207 227 255
207 227 255
207 227 255
207 227 255
206 227 255
206 227 255
206 227 255
206 227 255
206 227 255
206 227 255
206 227 255
206 227 255
206 227 255
206 227 255
206 227 255
206 227 255
206 227 255
206 227 255
206 227 255
206 227 255
206 227 255
205 227 255
205 227 255
205 227 255
205 227 255
205 227 255
205 227 255
205 227 255
205 227 255
205 227 255
205 227 255
205 226 255
205 226 255
205 226 255
205 226 255
205 226 255
205 226 255
204 226 255
204 226 255
204 226 255
204 226 255
204 226 255
204 226 255
204 226 255
204 226 255
204 226 255
204 226 255
204 226 255
204 226 255
204 226 255
204 226 255
204 226 255
204 226 255
204 226 255
203 226 255
203 226 255
203 226 255
203 226 255
203 226 255
203 226 255
203 226 255
203 225 255
203 225 255
203 225 255
203 225 255
203 225 255
203 225 255
203 225 255
203 225 255
203 225 255
202 225 255
202 225 255
202 225 255
202 225 255
202 225 255
202 225 255
202 225 255
202 225 255
202 225 255
202 225 255
202 225 255
202 225 255
202 225 255
202 225 255
202 225 255
202 225 255
202 225 255
202 225 255
202 225 255
202 225 255
202 225 255
201 225 255
201 225 255
201 225 255
201 225 255
201 225 255
201 225 255
201 225 255
201 224 255
201 224 255
201 224 255
201 224 255
201 224 255
201 224 255
201 224 255
201 224 255
201 224 255
201 224 255
201 224 255
201 224 255
201 224 255
201 224 255
201 224 255
201 224 255
201 224 255
201 224 255
201 224 255
201 224 255
201 224 255
201 224 255
201 224 255
201 224 255
201 224 255
201 224 255
201 224 255
201 224 255
201 224 255
201 224 255
201 224 255
201 224 255
201 224 255
201 224 255
201 224 255
201 224 255
201 224 255
201 224 255
201 224 255
201 224 255
201 224 255
201 224 255
201 224 255
201 224 255
201 224 255
201 224 255
201 224 255
201 224 255
201 224 255
201 224 255
201 224 255
201 224 255
201 224 255
201 224 255
201 224 255
201 224 255
201 224 255
201 224 255
201 224 255
201 224 255
201 224 255
201 224 255
201 224 255
201 224 255
201 224 255
201 224 255
201 225 255
201 225 255
201 225 255
201 225 255
201 225 255
201 225 255
201 225 255
202 225 255
202 225 255
202 225 255
202 225 255
202 225 255
202 225 255
202 225 255
202 225 255
202 225 255
202 225 255
202 225 255
202 225 255
202 225 255
202 225 255
202 225 255
202 225 255
202 225 255
202 225 255
202 225 255
202 225 255
203 225 255
203 225 255
203 225 255
203 225 255
203 225 255
203 225 255
203 225 255
203 225 255
203 225 255
203 225 255
203 226 255
203 226 255
203 226 255
203 226 255
203 226 255
203 226 255
203 226 255
204 226 255
204 226 255
204 226 255
204 226 255
204 226 255
204 226 255
204 226 255
204 226 255
204 226 255
204 226 255
204 226 255
204 226 255
204 226 255
204 226 255
204 226 255
204 226 255
204 226 255
205 226 255
205 226 255
205 226 255
205 226 255
205 226 255
205 226 255
205 227 255
205 227 255
205 227 255
205 227 255
205 227 255
205 227 255
205 227 255
205 227 255
205 227 255
205 227 255
206 227 255
206 227 255
206 227 255
206 227 255
206 227 255
206 227 255
206 227 255
206 227 255
206 227 255
206 227 255
206 227 255
206 227 255
206 227 255
206 227 255
206 227 255
206 227 255
206 227 255
207 227 255
207 227 255
207 227 255
207 227 255
207 228 255
207 228 255
207 228 255
207 228 255
207 228 255
207 228 255
207 228 255
207 228 255
207 228 255
207 228 255
207 228 255
207 228 255
207 228 255
207 228 255
208 228 255
208 228 255
208 228 255
208 228 255
208 228 255
208 228 255
208 228 255
208 228 255
208 228 255
208 228 255
208 228 255
208 228 255
208 228 255
208 228 255
208 228 255
208 228 255
208 228 255
208 228 255
208 228 255
208 228 255
209 228 255
209 229 255
209 229 255
209 229 255
209 229 255
209 229 255
209 229 255
209 229 255
209 229 255
209 229 255
209 229 255
209 229 255
209 229 255
209 229 255
209 229 255
209 229 255
209 229 255
209 229 255
209 229 255
209 229 255
209 229 255
210 229 255
210 229 255
210 229 255
210 229 255
210 229 255
210 229 255
210 229 255
210 229 255
210 229 255
210 229 255
210 229 255
210 229 255
210 229 255
210 229 255
210 229 255
210 229 255
210 229 255
210 229 255
210 229 255
210 229 255
210 229 255
210 229 255
210 229 255
210 229 255
210 229 255
210 229 255
210 229 255
210 229 255
210 229 255
210 229 255
210 229 255
209 229 255
209 229 255
209 229 255
209 229 255
209 229 255
209 229 255
209 229 255
209 229 255
209 229 255
209 229 255
209 229 255
209 229 255
209 229 255
209 229 255
209 229 255
209 229 255
209 229 255
209 229 255
209 229 255
209 229 255
209 228 255
209 228 255
208 228 255
208 228 255
208 228 255
208 228 255
208 228 255
208 228 255
208 228 255
208 228 255
208 228 255
208 228 255
208 228 255
208 228 255
208 228 255
208 228 255
208 228 255
208 228 255
208 228 255
208 228 255
208 228 255
207 228 255
207 228 255
207 228 255
207 228 255
207 228 255
207 228 255
207 228 255
207 228 255
207 228 255
207 228 255
207 228 255
207 228 255
207 228 255
207 228 255
207 227 255
207 227 255
207 227 255
207 227 255
206 227 255
206 227 255
206 227 255
206 227 255
206 227 255
206 227 255
206 227 255
206 227 255
206 227 255
206 227 255
206 227 255
206 227 255
206 227 255
206 227 255
206 227 255
206 227 255
206 227 255
205 227 255
205 227 255
205 227 255
205 227 255
205 227 255
205 227 255
205 227 255
205 227 255
205 227 255
205 227 255
205 226 255
205 226 255
205 226 255
205 226 255
205 226 255
205 226 255
205 226 255
204 226 255
204 226 255
204 226 255
204 226 255
204 226 255
204 226 255
204 226 255
204 226 255
204 226 255
204 226 255
204 226 255
204 226 255
204 226 255
204 226 255
204 226 255
204 226 255
203 226 255
203 226 255
203 226 255
203 226 255
203 226 255
203 226 255
203 226 255
203 226 255
203 225 255
203 225 255
203 225 255
203 225 255
203 225 255
203 225 255
203 225 255
203 225 255
203 225 255
203 225 255
202 225 255
202 225 255
202 225 255
202 225 255
202 225 255
202 225 255
202 225 255
202 225 255
202 225 255
202 225 255
202 225 255
202 225 255
202 225 255
202 225 255
202 225 255
202 225 255
202 225 255
202 225 255
202 225 255
202 225 255
202 225 255
201 225 255
201 225 255
201 225 255
201 225 255
201 225 255
201 225 255
201 225 255
201 225 255
201 224 255
201 224 255
201 224 255
201 224 255
201 224 255
201 224 255
201 224 255
201 224 255
201 224 255
201 224 255
201 224 255
201 224 255
201 224 255
201 224 255
201 224 255
201 224 255
201 224 255
201 224 255
201 224 255
201 224 255
201 224 255
201 224 255
201 224 255
201 224 255
201 224 255
201 224 255
201 224 255
201 224 255
201 224 255
201 224 255
201 224 255
201 224 255
201 224 255
201 224 255
201 224 255
201 224 255
201 224 255
201 224 255
201 224 255
201 224 255
201 224 255
201 224 255
201 224 255
201 224 255
201 224 255
201 224 255
201 224 255
201 224 255
201 224 255
201 224 255
201 224 255
201 224 255
201 224 255
201 224 255
201 225 255
201 225 255
201 225 255
201 225 255
201 225 255
201 225 255
201 225 255
201 225 255
202 225 255
202 225 255
202 225 255
202 225 255
202 225 255
202 225 255
202 225 255
202 225 255
202 225 255
202 225 255
202 225 255
202 225 255
202 225 255
202 225 255
202 225 255
202 225 255
202 225 255
202 225 255
202 225 255
202 225 255
202 225 255
203 225 255
203 225 255
203 225 255
203 225 255
203 225 255
203 225 255
203 225 255
203 225 255
203 225 255
203 225 255
203 226 255
203 226 255
203 226 255
203 226 255
203 226 255
203 226 255
203 226 255
203 226 255
204 226 255
204 226 255
204 226 255
204 226 255
204 226 255
204 226 255
204 226 255
204 226 255
204 226 255
204 226 255
204 226 255
204 226 255
204 226 255
204 226 255
204 226 255
204 226 255
205 226 255
205 226 255
205 226 255
205 226 255
205 226 255
205 226 255
205 226 255
205 227 255
205 227 255
205 227 255
205 227 255
205 227 255
205 227 255
205 227 255
205 227 255
205 227 255
205 227 255
206 227 255
206 227 255
206 227 255
206 227 255
206 227 255
206 227 255
206 227 255
206 227 255
206 227 255
206 227 255
206 227 255
206 227 255
206 227 255
206 227 255
206 227 255
206 227 255
206 227 255
207 227 255
207 227 255
207 227 255
207 227 255
207 228 255
207 228 255
207 228 255
207 228 255
207 228 255
207 228 255
207 228 255
207 228 255
207 228 255
207 228 255
207 228 255
207 228 255
207 228 255
208 228 255
208 228 255
208 228 255
208 228 255
208 228 255
208 228 255
208 228 255
208 228 255
208 228 255
208 228 255
208 228 255
208 228 255
208 228 255
208 228 255
208 228 255
208 228 255
208 228 255
208 228 255
208 228 255
208 228 255
209 228 255
209 228 255
209 229 255
209 229 255
209 229 255
209 229 255
209 229 255
209 229 255
209 229 255
209 229 255
209 229 255
209 229 255
209 229 255
209 229 255
209 229 255
209 229 255
209 229 255
209 229 255
209 229 255
209 229 255
209 229 255
209 229 255
210 229 255
210 229 255
210 229 255
210 229 255
210 229 255
210 229 255
210 229 255
210 229 255
210 229 255
210 229 255
210 229 255
210 229 255
210 229 255
210 229 255
210 229 255
210 229 255
210 229 255
210 229 255
210 229 255
210 229 255
210 229 255
210 229 255
210 229 255
210 229 255
210 229 255
210 229 255
210 229 255
210 229 255
210 229 255
210 229 255
210 229 255
210 229 255
210 229 255
210 229 255
210 229 255
210 229 255
210 229 255
210 229 255
209 229 255
209 229 255
209 229 255
209 229 255
209 229 255
209 229 255
209 229 255
209 229 255
209 229 255
209 229 255
209 229 255
209 229 255
209 229 255
209 229 255
209 229 255
209 229 255
209 229 255
209 229 255
209 229 255
209 229 255
209 228 255
208 228 255
208 228 255
208 228 255
208 228 255
208 228 255
208 228 255
208 228 255
208 228 255
208 228 255
208 228 255
208 228 255
208 228 255
208 228 255
208 228 255
208 228 255
208 228 255
208 228 255
208 228 255
208 228 255
208 228 255
207 228 255
207 228 255
207 228 255
207 228 255
207 228 255
207 228 255
207 228 255
207 228 255
207 228 255
207 228 255
207 228 255
207 228 255
207 228 255
207 227 255
207 227 255
207 227 255
207 227 255
207 227 255
206 227 255
206 227 255
206 227 255
206 227 255
206 227 255
206 227 255
206 227 255
206 227 255
206 227 255
206 227 255
206 227 255
206 227 255
206 227 255
206 227 255
206 227 255
206 227 255
206 227 255
205 227 255
205 227 255
205 227 255
205 227 255
205 227 255
205 227 255
205 227 255
205 227 255
205 227 255
205 226 255
205 226 255
205 226 255
205 226 255
205 226 255
205 226 255
205 226 255
204 226 255
204 226 255
204 226 255
204 226 255
204 226 255
204 226 255
204 226 255
204 226 255
204 226 255
204 226 255
204 226 255
204 226 255
204 226 255
204 226 255
204 226 255
204 226 255
204 226 255
203 226 255
203 226 255
203 226 255
203 226 255
203 226 255
203 226 255
203 226 255
203 225 255
203 225 255
203 225 255
203 225 255
203 225 255
203 225 255
203 225 255
203 225 255
203 225 255
203 225 255
203 225 255
202 225 255
202 225 255
202 225 255
202 225 255
202 225 255
202 225 255
202 225 255
202 225 255
202 225 255
202 225 255
202 225 255
202 225 255
202 225 255
202 225 255
202 225 255
202 225 255
202 225 255
202 225 255
202 225 255
202 225 255
202 225 255
202 225 255
202 225 255
201 225 255
201 225 255
201 225 255
201 225 255
201 225 255
201 225 255
201 225 255
201 225 255
201 225 255
201 225 255
201 225 255
201 224 255
201 224 255
201 224 255
201 224 255
201 224 255
201 224 255
201 224 255
201 224 255
201 224 255
201 224 255
201 224 255
201 224 255
201 224 255
201 224 255
201 224 255
201 224 255
201 224 255
201 224 255
201 224 255
201 224 255
201 224 255
201 224 255
201 224 255
201 224 255
201 224 255
201 224 255
201 224 255
201 224 255
201 224 255
201 224 255
201 224 255
201 224 255
201 224 255
201 224 255
201 224 255
201 224 255
201 225 255
201 225 255
201 225 255
201 225 255
201 225 255
201 225 255
201 225 255
201 225 255
201 225 255
201 225 255
201 225 255
202 225 255
202 225 255
202 225 255
202 225 255
202 225 255
202 225 255
202 225 255
202 225 255
202 225 255
202 225 255
202 225 255
202 225 255
202 225 255
202 225 255
202 225 255
202 225 255
202 225 255
202 225 255
202 225 255
202 225 255
202 225 255
202 225 255
202 225 255
203 225 255
203 225 255
203 225 255
203 225 255
203 225 255
203 225 255
203 225 255
203 225 255
203 225 255
203 225 255
203 225 255
203 226 255
203 226 255
203 226 255
203 226 255
203 226 255
203 226 255
203 226 255
204 226 255
204 226 255
204 226 255
204 226 255
204 226 255
204 226 255
204 226 255
204 226 255
204 226 255
204 226 255
204 226 255
204 226 255
204 226 255
204 226 255
204 226 255
204 226 255
204 226 255
205 226 255
205 226 255
205 226 255
205 226 255
205 226 255
205 226 255
205 226 255
205 227 255
205 227 255
205 227 255
205 227 255
205 227 255
205 227 255
205 227 255
205 227 255
205 227 255
205 227 255
206 227 255
206 227 255
206 227 255
206 227 255
206 227 255
206 227 255
206 227 255
206 227 255
206 227 255
206 227 255
206 227 255
206 227 255
206 227 255
206 227 255
206 227 255
206 227 255
207 227 255
207 227 255
207 227 255
207 227 255
207 228 255
207 228 255
207 228 255
207 228 255
207 228 255
207 228 255
207 228 255
207 228 255
207 228 255
207 228 255
207 228 255
207 228 255
207 228 255
207 228 255
208 228 255
208 228 255
208 228 255
208 228 255
208 228 255
208 228 255
208 228 255
208 228 255
208 228 255
208 228 255
208 228 255
208 228 255
208 228 255
208 228 255
208 228 255
208 228 255
208 228 255
208 228 255
208 228 255
208 228 255
209 228 255
209 229 255
209 229 255
209 229 255
209 229 255
209 229 255
209 229 255
209 229 255
209 229 255
209 229 255
209 229 255
209 229 255
209 229 255
209 229 255
209 229 255
209 229 255
209 229 255
209 229 255
209 229 255
209 229 255
209 229 255
210 229 255
210 229 255
210 229 255
210 229 255
210 229 255
210 229 255
210 229 255
210 229 255
210 229 255
210 229 255
210 229 255
210 229 255
210 229 255
210 229 255
210 229 255
210 229 255
210 229 255
210 229 255
210 229 255
210 229 255
210 229 255
210 230 255
210 230 255
210 230 255
210 229 255
210 229 255
210 229 255
210 229 255
210 229 255
210 229 255
210 229 255
210 229 255
210 229 255
210 229 255
210 229 255
210 229 255
210 229 255
210 229 255
210 229 255
210 229 255
210 229 255
210 229 255
210 229 255
210 229 255
210 229 255
209 229 255
209 229 255
209 229 255
209 229 255
209 229 255
209 229 255
209 229 255
209 229 255
209 229 255
209 229 255
209 229 255
209 229 255
209 229 255
209 229 255
209 229 255
209 229 255
209 229 255
209 229 255
209 229 255
209 229 255
209 228 255
209 228 255
208 228 255
208 228 255
208 228 255
208 228 255
208 228 255
208 228 255
208 228 255
208 228 255
208 228 255
208 228 255
208 228 255
208 228 255
208 228 255
208 228 255
208 228 255
208 228 255
208 228 255
208 228 255
208 228 255
207 228 255
207 228 255
207 228 255
207 228 255
207 228 255
207 228 255
207 228 255
207 228 255
207 228 255
207 228 255
207 228 255
207 228 255
207 228 255
207 228 255
207 227 255
207 227 255
207 227 255
207 227 255
206 227 255
206 227 255
206 227 255
206 227 255
206 227 255
206 227 255
206 227 255
206 227 255
206 227 255
206 227 255
206 227 255
206 227 255
206 227 255
206 227 255
206 227 255
206 227 255
206 227 255
205 227 255
205 227 255
205 227 255
205 227 255
205 227 255
205 227 255
205 227 255
205 227 255
205 227 255
205 227 255
205 226 255
205 226 255
205 226 255
205 226 255
205 226 255
205 226 255
205 226 255
204 226 255
204 226 255
204 226 255
204 226 255
204 226 255
204 226 255
204 226 255
204 226 255
204 226 255
204 226 255
204 226 255
204 226 255
204 226 255
204 226 255
204 226 255
204 226 255
203 226 255
203 226 255
203 226 255
203 226 255
203 226 255
203 226 255
203 226 255
203 226 255
203 225 255
203 225 255
203 225 255
203 225 255
203 225 255
203 225 255
203 225 255
203 225 255
203 225 255
203 225 255
203 225 255
202 225 255
202 225 255
202 225 255
202 225 255
202 225 255
202 225 255
202 225 255
202 225 255
202 225 255
202 225 255
202 225 255
202 225 255
202 225 255
202 225 255
202 225 255
202 225 255
202 225 255
202 225 255
202 225 255
202 225 255
202 225 255
202 225 255
202 225 255
202 225 255
202 225 255
202 225 255
201 225 255
201 225 255
201 225 255
201 225 255
201 225 255
201 225 255
201 225 255
201 225 255
201 225 255
201 225 255
201 225 255
201 225 255
201 225 255
201 225 255
201 225 255
201 225 255
201 225 255
201 225 255
201 225 255
201 225 255
201 225 255
201 225 255
201 225 255
201 225 255
201 225 255
201 225 255
201 225 255
201 225 255
201 225 255
201 225 255
201 225 255
201 225 255
201 225 255
201 225 255
201 225 255
201 225 255
201 225 255
201 225 255
201 225 255
201 225 255
201 225 255
201 225 255
201 225 255
201 225 255
202 225 255
202 225 255
202 225 255
202 225 255
202 225 255
202 225 255
202 225 255
202 225 255
202 225 255
202 225 255
202 225 255
202 225 255
202 225 255
202 225 255
202 225 255
202 225 255
202 225 255
202 225 255
202 225 255
202 225 255
202 225 255
202 225 255
202 225 255
202 225 255
202 225 255
202 225 255
203 225 255
203 225 255
203 225 255
203 225 255
203 225 255
203 225 255
203 225 255
203 225 255
203 225 255
203 225 255
203 225 255
203 226 255
203 226 255
203 226 255
203 226 255
203 226 255
203 226 255
203 226 255
203 226 255
204 226 255
204 226 255
204 226 255
204 226 255
204 226 255
204 226 255
204 226 255
204 226 255
204 226 255
204 226 255
204 226 255
204 226 255
204 226 255
204 226 255
204 226 255
204 226 255
204 226 255
205 226 255
205 226 255
205 226 255
205 226 255
205 226 255
205 226 255
205 227 255
205 227 255
205 227 255
205 227 255
205 227 255
205 227 255
205 227 255
205 227 255
205 227 255
205 227 255
206 227 255
206 227 255
206 227 255
206 227 255
206 227 255
206 227 255
206 227 255
206 227 255
206 227 255
206 227 255
206 227 255
206 227 255
206 227 255
206 227 255
206 227 255
206 227 255
206 227 255
207 227 255
207 227 255
207 227 255
207 227 255
207 228 255
207 228 255
207 228 255
207 228 255
207 228 255
207 228 255
207 228 255
207 228 255
207 228 255
207 228 255
207 228 255
207 228 255
207 228 255
207 228 255
208 228 255
208 228 255
208 228 255
208 228 255
208 228 255
208 228 255
208 228 255
208 228 255
208 228 255
208 228 255
208 228 255
208 228 255
208 228 255
208 228 255
208 228 255
208 228 255
208 228 255
208 228 255
208 228 255
209 228 255
209 228 255
209 229 255
209 229 255
209 229 255
209 229 255
209 229 255
209 229 255
209 229 255
209 229 255
209 229 255
209 229 255
209 229 255
209 229 255
209 229 255
209 229 255
209 229 255
209 229 255
209 229 255
209 229 255
209 229 255
209 229 255
210 229 255
210 229 255
210 229 255
210 229 255
210 229 255
210 229 255
210 229 255
210 229 255
210 229 255
210 229 255
210 229 255
210 229 255
210 229 255
210 229 255
210 229 255
210 229 255
210 229 255
210 229 255
210 229 255
210 229 255
210 229 255
210 230 255
210 230 255
210 230 255
211 230 255
211 230 255
211 230 255
211 230 255
210 230 255
210 230 255
210 230 255
210 229 255
210 229 255
210 229 255
210 229 255
210 229 255
210 229 255
210 229 255
210 229 255
210 229 255
210 229 255
210 229 255
210 229 255
210 229 255
210 229 255
210 229 255
210 229 255
210 229 255
210 229 255
210 229 255
210 229 255
210 229 255
209 229 255
209 229 255
209 229 255
209 229 255
209 229 255
209 229 255
209 229 255
209 229 255
209 229 255
209 229 255
209 229 255
209 229 255
209 229 255
209 229 255
209 229 255
209 229 255
209 229 255
209 229 255
209 229 255
209 229 255
209 228 255
208 228 255
208 228 255
208 228 255
208 228 255
208 228 255
208 228 255
208 228 255
208 228 255
208 228 255
208 228 255
208 228 255
208 228 255
208 228 255
208 228 255
208 228 255
208 228 255
208 228 255
208 228 255
208 228 255
208 228 255
207 228 255
207 228 255
207 228 255
207 228 255
207 228 255
207 228 255
207 228 255
207 228 255
207 228 255
207 228 255
207 228 255
207 228 255
207 228 255
207 227 255
207 227 255
207 227 255
207 227 255
206 227 255
206 227 255
206 227 255
206 227 255
206 227 255
206 227 255
206 227 255
206 227 255
206 227 255
206 227 255
206 227 255
206 227 255
206 227 255
206 227 255
206 227 255
206 227 255
206 227 255
205 227 255
205 227 255
205 227 255
205 227 255
205 227 255
205 227 255
205 227 255
205 227 255
205 227 255
205 227 255
205 226 255
205 226 255
205 226 255
205 226 255
205 226 255
205 226 255
205 226 255
204 226 255
204 226 255
204 226 255
204 226 255
204 226 255
204 226 255
204 226 255
204 226 255
204 226 255
204 226 255
204 226 255
204 226 255
204 226 255
204 226 255
204 226 255
204 226 255
204 226 255
203 226 255
203 226 255
203 226 255
203 226 255
203 226 255
203 226 255
203 226 255
203 226 255
203 225 255
203 225 255
203 225 255
203 225 255
203 225 255
203 225 255
203 225 255
203 225 255
203 225 255
203 225 255
203 225 255
203 225 255
202 225 255
202 225 255
202 225 255
202 225 255
202 225 255
202 225 255
202 225 255
202 225 255
202 225 255
202 225 255
202 225 255
202 225 255
202 225 255
202 225 255
202 225 255
202 225 255
202 225 255
202 225 255
202 225 255
202 225 255
202 225 255
202 225 255
202 225 255
202 225 255
202 225 255
202 225 255
202 225 255
202 225 255
202 225 255
202 225 255
202 225 255
202 225 255
202 225 255
202 225 255
202 225 255
201 225 255
201 225 255
201 225 255
201 225 255
201 225 255
201 225 255
201 225 255
201 225 255
201 225 255
201 225 255
201 225 255
201 225 255
201 225 255
201 225 255
201 225 255
201 225 255
202 225 255
202 225 255
202 225 255
202 225 255
202 225 255
202 225 255
202 225 255
202 225 255
202 225 255
202 225 255
202 225 255
202 225 255
202 225 255
202 225 255
202 225 255
202 225 255
202 225 255
202 225 255
202 225 255
202 225 255
202 225 255
202 225 255
202 225 255
202 225 255
202 225 255
202 225 255
202 225 255
202 225 255
202 225 255
202 225 255
202 225 255
202 225 255
202 225 255
202 225 255
202 225 255
203 225 255
203 225 255
203 225 255
203 225 255
203 225 255
203 225 255
203 225 255
203 225 255
203 225 255
203 225 255
203 225 255
203 225 255
203 226 255
203 226 255
203 226 255
203 226 255
203 226 255
203 226 255
203 226 255
203 226 255
204 226 255
204 226 255
204 226 255
204 226 255
204 226 255
204 226 255
204 226 255
204 226 255
204 226 255
204 226 255
204 226 255
204 226 255
204 226 255
204 226 255
204 226 255
204 226 255
204 226 255
205 226 255
205 226 255
205 226 255
205 226 255
205 226 255
205 226 255
205 226 255
205 227 255
205 227 255
205 227 255
205 227 255
205 227 255
205 227 255
205 227 255
205 227 255
205 227 255
205 227 255
206 227 255
206 227 255
206 227 255
206 227 255
206 227 255
206 227 255
206 227 255
206 227 255
206 227 255
206 227 255
206 227 255
206 227 255
206 227 255
206 227 255
206 227 255
206 227 255
206 227 255
207 227 255
207 227 255
207 227 255
207 227 255
207 228 255
207 228 255
207 228 255
207 228 255
207 228 255
207 228 255
207 228 255
207 228 255
207 228 255
207 228 255
207 228 255
207 228 255
207 228 255
208 228 255
208 228 255
208 228 255
208 228 255
208 228 255
208 228 255
208 228 255
208 228 255
208 228 255
208 228 255
208 228 255
208 228 255
208 228 255
208 228 255
208 228 255
208 228 255
208 228 255
208 228 255
208 228 255
208 228 255
209 228 255
209 229 255
209 229 255
209 229 255
209 229 255
209 229 255
209 229 255
209 229 255
209 229 255
209 229 255
209 229 255
209 229 255
209 229 255
209 229 255
209 229 255
209 229 255
209 229 255
209 229 255
209 229 255
209 229 255
209 229 255
210 229 255
210 229 255
210 229 255
210 229 255
210 229 255
210 229 255
210 229 255
210 229 255
210 229 255
210 229 255
210 229 255
210 229 255
210 229 255
210 229 255
210 229 255
210 229 255
210 229 255
210 229 255
210 229 255
210 229 255
210 229 255
210 230 255
210 230 255
210 230 255
211 230 255
211 230 255
211 230 255
211 230 255
211 230 255
211 230 255
211 230 255
211 230 255
211 230 255
211 230 255
211 230 255
211 230 255
210 230 255
210 230 255
210 230 255
210 229 255
210 229 255
210 229 255
210 229 255
210 229 255
210 229 255
210 229 255
210 229 255
210 229 255
210 229 255
210 229 255
210 229 255
210 229 255
210 229 255
210 229 255
210 229 255
210 229 255
210 229 255
210 229 255
210 229 255
210 229 255
209 229 255
209 229 255
209 229 255
209 229 255
209 229 255
209 229 255
209 229 255
209 229 255
209 229 255
209 229 255
209 229 255
209 229 255
209 229 255
209 229 255
209 229 255
209 229 255
209 229 255
209 229 255
209 229 255
209 228 255
209 228 255
208 228 255
208 228 255
208 228 255
208 228 255
208 228 255
208 228 255
208 228 255
208 228 255
208 228 255
208 228 255
208 228 255
208 228 255
208 228 255
208 228 255
208 228 255
208 228 255
208 228 255
208 228 255
208 228 255
207 228 255
207 228 255
207 228 255
207 228 255
207 228 255
207 228 255
207 228 255
207 228 255
207 228 255
207 228 255
207 228 255
207 228 255
207 228 255
207 228 255
207 227 255
207 227 255
207 227 255
207 227 255
206 227 255
206 227 255
206 227 255
206 227 255
206 227 255
206 227 255
206 227 255
206 227 255
206 227 255
206 227 255
206 227 255
206 227 255
206 227 255
206 227 255
206 227 255
206 227 255
206 227 255
205 227 255
205 227 255
205 227 255
205 227 255
205 227 255
205 227 255
205 227 255
205 227 255
205 227 255
205 227 255
205 226 255
205 226 255
205 226 255
205 226 255
205 226 255
205 226 255
205 226 255
204 226 255
204 226 255
204 226 255
204 226 255
204 226 255
204 226 255
204 226 255
204 226 255
204 226 255
204 226 255
204 226 255
204 226 255
204 226 255
204 226 255
204 226 255
204 226 255
204 226 255
203 226 255
203 226 255
203 226 255
203 226 255
203 226 255
203 226 255
203 226 255
203 226 255
203 226 255
203 225 255
203 225 255
203 225 255
203 225 255
203 225 255
203 225 255
203 225 255
203 225 255
203 225 255
203 225 255
203 225 255
203 225 255
202 225 255
202 225 255
202 225 255
202 225 255
202 225 255
202 225 255
202 225 255
202 225 255
202 225 255
202 225 255
202 225 255
202 225 255
202 225 255
202 225 255
202 225 255
202 225 255
202 225 255
202 225 255
202 225 255
202 225 255
202 225 255
202 225 255
202 225 255
202 225 255
202 225 255
202 225 255
202 225 255
202 225 255
202 225 255
202 225 255
202 225 255
202 225 255
202 225 255
202 225 255
202 225 255
202 225 255
202 225 255
202 225 255
202 225 255
202 225 255
202 225 255
202 225 255
202 225 255
202 225 255
202 225 255
202 225 255
202 225 255
202 225 255
202 225 255
202 225 255
202 225 255
202 225 255
202 225 255
202 225 255
202 225 255
202 225 255
202 225 255
202 225 255
202 225 255
202 225 255
202 225 255
202 225 255
202 225 255
202 225 255
202 225 255
202 225 255
202 225 255
202 225 255
202 225 255
202 225 255
202 225 255
202 225 255
202 225 255
202 225 255
202 225 255
202 225 255
203 225 255
203 225 255
203 225 255
203 225 255
203 225 255
203 225 255
203 225 255
203 225 255
203 225 255
203 225 255
203 225 255
203 225 255
203 226 255
203 226 255
203 226 255
203 226 255
203 226 255
203 226 255
203 226 255
203 226 255
203 226 255
204 226 255
204 226 255
204 226 255
204 226 255
204 226 255
204 226 255
204 226 255
204 226 255
204 226 255
204 226 255
204 226 255
204 226 255
204 226 255
204 226 255
204 226 255
204 226 255
204 226 255
204 226 255
205 226 255
205 226 255
205 226 255
205 226 255
205 226 255
205 226 255
205 227 255
205 227 255
205 227 255
205 227 255
205 227 255
205 227 255
205 227 255
205 227 255
205 227 255
205 227 255
206 227 255
206 227 255
206 227 255
206 227 255
206 227 255
206 227 255
206 227 255
206 227 255
206 227 255
206 227 255
206 227 255
206 227 255
206 227 255
206 227 255
206 227 255
206 227 255
206 227 255
207 227 255
207 227 255
207 227 255
207 227 255
207 227 255
207 228 255
207 228 255
207 228 255
207 228 255
207 228 255
207 228 255
207 228 255
207 228 255
207 228 255
207 228 255
207 228 255
207 228 255
207 228 255
208 228 255
208 228 255
208 228 255
208 228 255
208 228 255
208 228 255
208 228 255
208 228 255
208 228 255
208 228 255
208 228 255
208 228 255
208 228 255
208 228 255
208 228 255
208 228 255
208 228 255
208 228 255
208 228 255
209 228 255
209 228 255
209 229 255
209 229 255
209 229 255
209 229 255
209 229 255
209 229 255
209 229 255
209 229 255
209 229 255
209 229 255
209 229 255
209 229 255
209 229 255
209 229 255
209 229 255
209 229 255
209 229 255
209 229 255
209 229 255
210 229 255
210 229 255
210 229 255
210 229 255
210 229 255
210 229 255
210 229 255
210 229 255
210 229 255
210 229 255
210 229 255
210 229 255
210 229 255
210 229 255
210 229 255
210 229 255
210 229 255
210 229 255
210 229 255
210 229 255
210 229 255
210 230 255
210 230 255
210 230 255
211 230 255
211 230 255
211 230 255
211 230 255
211 230 255
211 230 255
211 230 255
211 230 255
211 230 255
211 230 255
211 230 255
211 230 255
211 230 255
211 230 255
211 230 255
211 230 255
211 230 255
211 230 255
211 230 255
211 230 255
210 230 255
210 230 255
210 229 255
210 229 255
210 229 255
210 229 255
210 229 255
210 229 255
210 229 255
210 229 255
210 229 255
210 229 255
210 229 255
210 229 255
210 229 255
210 229 255
210 229 255
210 229 255
210 229 255
210 229 255
210 229 255
210 229 255
210 229 255
210 229 255
209 229 255
209 229 255
209 229 255
209 229 255
209 229 255
209 229 255
209 229 255
209 229 255
209 229 255
209 229 255
209 229 255
209 229 255
209 229 255
209 229 255
209 229 255
209 229 255
209 229 255
209 229 255
209 229 255
209 228 255
208 228 255
208 228 255
208 228 255
208 228 255
208 228 255
208 228 255
208 228 255
208 228 255
208 228 255
208 228 255
208 228 255
208 228 255
208 228 255
208 228 255
208 228 255
208 228 255
208 228 255
208 228 255
208 228 255
207 228 255
207 228 255
207 228 255
207 228 255
207 228 255
207 228 255
207 228 255
207 228 255
207 228 255
207 228 255
207 228 255
207 228 255
207 228 255
207 228 255
207 227 255
207 227 255
207 227 255
207 227 255
206 227 255
206 227 255
206 227 255
206 227 255
206 227 255
206 227 255
206 227 255
206 227 255
206 227 255
206 227 255
206 227 255
206 227 255
206 227 255
206 227 255
206 227 255
206 227 255
206 227 255
205 227 255
205 227 255
205 227 255
205 227 255
205 227 255
205 227 255
205 227 255
205 227 255
205 227 255
205 227 255
205 226 255
205 226 255
205 226 255
205 226 255
205 226 255
205 226 255
205 226 255
204 226 255
204 226 255
204 226 255
204 226 255
204 226 255
204 226 255
204 226 255
204 226 255
204 226 255
204 226 255
204 226 255
204 226 255
204 226 255
204 226 255
204 226 255
204 226 255
204 226 255
204 226 255
204 226 255
203 226 255
203 226 255
203 226 255
203 226 255
203 226 255
203 226 255
203 226 255
203 226 255
203 226 255
203 225 255
203 225 255
203 225 255
203 225 255
203 225 255
203 225 255
203 225 255
203 225 255
203 225 255
203 225 255
203 225 255
203 225 255
203 225 255
202 225 255
202 225 255
202 225 255
202 225 255
202 225 255
202 225 255
202 225 255
202 225 255
202 225 255
202 225 255
202 225 255
202 225 255
202 225 255
202 225 255
202 225 255
202 225 255
202 225 255
202 225 255
202 225 255
202 225 255
202 225 255
202 225 255
202 225 255
191 212 241
183 203 231
172 192 218
160 178 202
147 163 186
129 144 164
130 144 164
129 144 164
133 148 169
130 145 165
133 149 169
129 144 164
140 156 178
146 162 185
159 177 201
174 194 221
186 207 235
192 213 242
201 224 254
202 225 255
202 225 255
202 225 255
202 225 255
202 225 255
202 225 255
202 225 255
202 225 255
202 225 255
202 225 255
202 225 255
202 225 255
202 225 255
202 225 255
202 225 255
202 225 255
202 225 255
202 225 255
202 225 255
202 225 255
202 225 255
202 225 255
203 225 255
203 225 255
203 225 255
203 225 255
203 225 255
203 225 255
203 225 255
203 225 255
203 225 255
203 225 255
203 225 255
203 225 255
203 225 255
203 226 255
203 226 255
203 226 255
203 226 255
203 226 255
203 226 255
203 226 255
203 226 255
203 226 255
204 226 255
204 226 255
204 226 255
204 226 255
204 226 255
204 226 255
204 226 255
204 226 255
204 226 255
204 226 255
204 226 255
204 226 255
204 226 255
204 226 255
204 226 255
204 226 255
204 226 255
204 226 255
205 226 255
205 226 255
205 226 255
205 226 255
205 226 255
205 226 255
205 226 255
205 226 255
205 227 255
205 227 255
205 227 255
205 227 255
205 227 255
205 227 255
205 227 255
205 227 255
205 227 255
205 227 255
206 227 255
206 227 255
206 227 255
206 227 255
206 227 255
206 227 255
206 227 255
206 227 255
206 227 255
206 227 255
206 227 255
206 227 255
206 227 255
206 227 255
206 227 255
206 227 255
206 227 255
207 227 255
207 227 255
207 227 255
207 227 255
207 228 255
207 228 255
207 228 255
207 228 255
207 228 255
207 228 255
207 228 255
207 228 255
207 228 255
207 228 255
207 228 255
207 228 255
207 228 255
207 228 255
208 228 255
208 228 255
208 228 255
208 228 255
208 228 255
208 228 255
208 228 255
208 228 255
208 228 255
208 228 255
208 228 255
208 228 255
208 228 255
208 228 255
208 228 255
208 228 255
208 228 255
208 228 255
209 228 255
209 228 255
209 229 255
209 229 255
209 229 255
209 229 255
209 229 255
209 229 255
209 229 255
209 229 255
209 229 255
209 229 255
209 229 255
209 229 255
209 229 255
209 229 255
209 229 255
209 229 255
209 229 255
209 229 255
209 229 255
210 229 255
210 229 255
210 229 255
210 229 255
210 229 255
210 229 255
210 229 255
210 229 255
210 229 255
210 229 255
210 229 255
210 229 255
210 229 255
210 229 255
210 229 255
210 229 255
210 229 255
210 229 255
210 229 255
210 229 255
210 229 255
210 229 255
210 230 255
210 230 255
211 230 255
211 230 255
211 230 255
211 230 255
211 230 255
211 230 255
211 230 255
211 230 255
211 230 255
211 230 255
211 230 255
211 230 255
211 230 255
211 230 255
211 230 255
211 230 255
211 230 255
211 230 255
211 230 255
211 230 255
211 230 255
211 230 255
211 230 255
211 230 255
211 230 255
211 230 255
211 230 255
211 230 255
210 230 255
210 230 255
210 229 255
210 229 255
210 229 255
210 229 255
210 229 255
210 229 255
210 229 255
210 229 255
210 229 255
210 229 255
210 229 255
210 229 255
210 229 255
210 229 255
210 229 255
210 229 255
210 229 255
210 229 255
210 229 255
210 229 255
210 229 255
209 229 255
209 229 255
209 229 255
209 229 255
209 229 255
209 229 255
209 229 255
209 229 255
209 229 255
209 229 255
209 229 255
209 229 255
209 229 255
209 229 255
209 229 255
209 229 255
209 229 255
209 229 255
209 229 255
209 229 255
209 228 255
208 228 255
208 228 255
208 228 255
208 228 255
208 228 255
208 228 255
208 228 255
208 228 255
208 228 255
208 228 255
208 228 255
208 228 255
208 228 255
208 228 255
208 228 255
208 228 255
208 228 255
208 228 255
208 228 255
207 228 255
207 228 255
207 228 255
207 228 255
207 228 255
207 228 255
207 228 255
207 228 255
207 228 255
207 228 255
207 228 255
207 228 255
207 228 255
207 227 255
207 227 255
207 227 255
207 227 255
207 227 255
206 227 255
206 227 255
206 227 255
206 227 255
206 227 255
206 227 255
206 227 255
206 227 255
206 227 255
206 227 255
206 227 255
206 227 255
206 227 255
206 227 255
206 227 255
206 227 255
206 227 255
205 227 255
205 227 255
205 227 255
205 227 255
205 227 255
205 227 255
205 227 255
205 227 255
205 227 255
205 227 255
205 226 255
205 226 255
205 226 255
205 226 255
205 226 255
205 226 255
205 226 255
204 226 255
204 226 255
204 226 255
204 226 255
204 226 255
204 226 255
204 226 255
204 226 255
204 226 255
204 226 255
204 226 255
204 226 255
204 226 255
204 226 255
204 226 255
204 226 255
204 226 255
204 226 255
204 226 255
203 226 255
203 226 255
203 226 255
203 226 255
203 226 255
203 226 255
203 226 255
203 226 255
203 226 255
203 226 255
203 225 255
203 225 255
203 225 255
203 225 255
203 225 255
203 225 255
203 225 255
203 225 255
203 225 255
203 225 255
203 225 255
203 225 255
203 225 255
203 225 255
203 225 255
203 225 255
202 225 255
202 225 255
202 225 255
202 225 255
202 225 255
202 225 255
202 225 255
202 225 255
202 225 255
199 221 251
180 200 227
159 177 201
135 151 171
102 114 130
77 86 98
62 69 79
61 69 79
61 68 78
61 69 79
61 68 77
61 69 79
61 68 78
60 68 78
61 68 79
62 70 80
61 69 79
60 67 77
60 68 77
60 68 77
62 69 79
60 67 76
62 69 79
61 69 79
74 83 94
109 121 138
134 149 170
153 170 194
174 193 219
200 222 252
202 225 255
202 225 255
202 225 255
202 225 255
202 225 255
202 225 255
202 225 255
202 225 255
202 225 255
203 225 255
203 225 255
203 225 255
203 225 255
203 225 255
203 225 255
203 225 255
203 225 255
203 225 255
203 225 255
203 225 255
203 225 255
203 225 255
203 225 255
203 225 255
203 225 255
203 226 255
203 226 255
203 226 255
203 226 255
203 226 255
203 226 255
203 226 255
203 226 255
203 226 255
203 226 255
204 226 255
204 226 255
204 226 255
204 226 255
204 226 255
204 226 255
204 226 255
204 226 255
204 226 255
204 226 255
204 226 255
204 226 255
204 226 255
204 226 255
204 226 255
204 226 255
204 226 255
204 226 255
204 226 255
205 226 255
205 226 255
205 226 255
205 226 255
205 226 255
205 226 255
205 226 255
205 227 255
205 227 255
205 227 255
205 227 255
205 227 255
205 227 255
205 227 255
205 227 255
205 227 255
205 227 255
206 227 255
206 227 255
206 227 255
206 227 255
206 227 255
206 227 255
206 227 255
206 227 255
206 227 255
206 227 255
206 227 255
206 227 255
206 227 255
206 227 255
206 227 255
206 227 255
206 227 255
207 227 255
207 227 255
207 227 255
207 227 255
207 227 255
207 228 255
207 228 255
207 228 255
207 228 255
207 228 255
207 228 255
207 228 255
207 228 255
207 228 255
207 228 255
207 228 255
207 228 255
207 228 255
208 228 255
208 228 255
208 228 255
208 228 255
208 228 255
208 228 255
208 228 255
208 228 255
208 228 255
208 228 255
208 228 255
208 228 255
208 228 255
208 228 255
208 228 255
208 228 255
208 228 255
208 228 255
208 228 255
209 228 255
209 228 255
209 229 255
209 229 255
209 229 255
209 229 255
209 229 255
209 229 255
209 229 255
209 229 255
209 229 255
209 229 255
209 229 255
209 229 255
209 229 255
209 229 255
209 229 255
209 229 255
209 229 255
209 229 255
209 229 255
210 229 255
210 229 255
210 229 255
210 229 255
210 229 255
210 229 255
210 229 255
210 229 255
210 229 255
210 229 255
210 229 255
210 229 255
210 229 255
210 229 255
210 229 255
210 229 255
210 229 255
210 229 255
210 229 255
210 229 255
210 230 255
210 230 255
210 230 255
211 230 255
211 230 255
211 230 255
211 230 255
211 230 255
211 230 255
211 230 255
211 230 255
211 230 255
211 230 255
211 230 255
211 230 255
211 230 255
211 230 255
211 230 255
211 230 255
211 230 255
211 230 255
211 230 255
211 230 255
211 230 255
211 230 255
211 230 255
211 230 255
211 230 255
211 230 255
211 230 255
211 230 255
211 230 255
211 230 255
211 230 255
211 230 255
211 230 255
211 230 255
211 230 255
211 230 255
210 230 255
210 230 255
210 230 255
210 229 255
210 229 255
210 229 255
210 229 255
210 229 255
210 229 255
210 229 255
210 229 255
210 229 255
210 229 255
210 229 255
210 229 255
210 229 255
210 229 255
210 229 255
210 229 255
210 229 255
210 229 255
210 229 255
210 229 255
209 229 255
209 229 255
209 229 255
209 229 255
209 229 255
209 229 255
209 229 255
209 229 255
209 229 255
209 229 255
209 229 255
209 229 255
209 229 255
209 229 255
209 229 255
209 229 255
209 229 255
209 229 255
209 229 255
209 228 255
209 228 255
208 228 255
208 228 255
208 228 255
208 228 255
208 228 255
208 228 255
208 228 255
208 228 255
208 228 255
208 228 255
208 228 255
208 228 255
208 228 255
208 228 255
208 228 255
208 228 255
208 228 255
208 228 255
208 228 255
207 228 255
207 228 255
207 228 255
207 228 255
207 228 255
207 228 255
207 228 255
207 228 255
207 228 255
207 228 255
207 228 255
207 228 255
207 228 255
207 227 255
207 227 255
207 227 255
207 227 255
206 227 255
206 227 255
206 227 255
206 227 255
206 227 255
206 227 255
206 227 255
206 227 255
206 227 255
206 227 255
206 227 255
206 227 255
206 227 255
206 227 255
206 227 255
206 227 255
206 227 255
205 227 255
205 227 255
205 227 255
205 227 255
205 227 255
205 227 255
205 227 255
205 227 255
205 227 255
205 227 255
205 227 255
205 226 255
205 226 255
205 226 255
205 226 255
205 226 255
205 226 255
205 226 255
204 226 255
204 226 255
204 226 255
204 226 255
204 226 255
204 226 255
204 226 255
204 226 255
204 226 255
204 226 255
204 226 255
204 226 255
204 226 255
204 226 255
204 226 255
204 226 255
204 226 255
204 226 255
204 226 255
204 226 255
203 226 255
203 226 255
203 226 255
203 226 255
203 226 255
203 226 255
203 226 255
203 226 255
203 226 255
203 226 255
203 226 255
203 225 255
203 225 255
203 225 255
203 225 255
203 225 255
203 225 255
203 225 255
203 225 255
203 225 255
203 225 255
203 225 255
203 225 255
203 225 255
203 225 255
203 225 255
202 224 254
174 193 220
147 164 186
116 129 147
73 81 92
60 68 78
60 67 77
62 69 79
60 68 77
60 67 77
61 69 78
61 68 78
60 67 76
61 69 79
60 68 78
61 69 79
58 65 75
60 68 78
61 68 78
62 70 79
61 68 77
60 67 77
60 68 77
62 69 79
61 68 77
59 67 76
61 68 79
59 66 76
61 68 78
61 69 78
61 69 79
61 69 79
58 66 76
61 69 79
104 116 132
155 173 197
176 196 222
199 221 251
203 225 255
203 225 255
203 225 255
203 225 255
203 225 255
203 225 255
203 225 255
203 225 255
203 225 255
203 225 255
203 225 255
203 225 255
203 225 255
203 225 255
203 225 255
203 226 255
203 226 255
203 226 255
203 226 255
203 226 255
203 226 255
203 226 255
203 226 255
203 226 255
203 226 255
203 226 255
204 226 255
204 226 255
204 226 255
204 226 255
204 226 255
204 226 255
204 226 255
204 226 255
204 226 255
204 226 255
204 226 255
204 226 255
204 226 255
204 226 255
204 226 255
204 226 255
204 226 255
204 226 255
204 226 255
204 226 255
205 226 255
205 226 255
205 226 255
205 226 255
205 226 255
205 226 255
205 226 255
205 227 255
205 227 255
205 227 255
205 227 255
205 227 255
205 227 255
205 227 255
205 227 255
205 227 255
205 227 255
206 227 255
206 227 255
206 227 255
206 227 255
206 227 255
206 227 255
206 227 255
206 227 255
206 227 255
206 227 255
206 227 255
206 227 255
206 227 255
206 227 255
206 227 255
206 227 255
206 227 255
206 227 255
207 227 255
207 227 255
207 227 255
207 227 255
207 228 255
207 228 255
207 228 255
207 228 255
207 228 255
207 228 255
207 228 255
207 228 255
207 228 255
207 228 255
207 228 255
207 228 255
207 228 255
208 228 255
208 228 255
208 228 255
208 228 255
208 228 255
208 228 255
208 228 255
208 228 255
208 228 255
208 228 255
208 228 255
208 228 255
208 228 255
208 228 255
208 228 255
208 228 255
208 228 255
208 228 255
208 228 255
209 228 255
209 228 255
209 229 255
209 229 255
209 229 255
209 229 255
209 229 255
209 229 255
209 229 255
209 229 255
209 229 255
209 229 255
209 229 255
209 229 255
209 229 255
209 229 255
209 229 255
209 229 255
209 229 255
209 229 255
209 229 255
210 229 255
210 229 255
210 229 255
210 229 255
210 229 255
210 229 255
210 229 255
210 229 255
210 229 255
210 229 255
210 229 255
210 229 255
210 229 255
210 229 255
210 229 255
210 229 255
210 229 255
210 229 255
210 229 255
210 229 255
210 230 255
210 230 255
210 230 255
211 230 255
211 230 255
211 230 255
211 230 255
211 230 255
211 230 255
211 230 255
211 230 255
211 230 255
211 230 255
211 230 255
211 230 255
211 230 255
211 230 255
211 230 255
211 230 255
211 230 255
211 230 255
211 230 255
211 230 255
211 230 255
211 230 255
211 230 255
211 230 255
211 230 255
211 230 255
211 230 255
211 230 255
211 230 255
211 230 255
211 230 255
211 230 255
211 230 255
211 230 255
211 230 255
211 230 255
211 230 255
211 230 255
211 230 255
211 230 255
211 230 255
211 230 255
211 230 255
211 230 255
210 230 255
210 230 255
210 229 255
210 229 255
210 229 255
210 229 255
210 229 255
210 229 255
210 229 255
210 229 255
210 229 255
210 229 255
210 229 255
210 229 255
210 229 255
210 229 255
210 229 255
210 229 255
210 229 255
210 229 255
210 229 255
210 229 255
210 229 255
209 229 255
209 229 255
209 229 255
209 229 255
209 229 255
209 229 255
209 229 255
209 229 255
209 229 255
209 229 255
209 229 255
209 229 255
209 229 255
209 229 255
209 229 255
209 229 255
209 229 255
209 229 255
209 229 255
209 228 255
208 228 255
208 228 255
208 228 255
208 228 255
208 228 255
208 228 255
208 228 255
208 228 255
208 228 255
208 228 255
208 228 255
208 228 255
208 228 255
208 228 255
208 228 255
208 228 255
208 228 255
208 228 255
208 228 255
207 228 255
207 228 255
207 228 255
207 228 255
207 228 255
207 228 255
207 228 255
207 228 255
207 228 255
207 228 255
207 228 255
207 228 255
207 228 255
207 228 255
207 227 255
207 227 255
207 227 255
207 227 255
206 227 255
206 227 255
206 227 255
206 227 255
206 227 255
206 227 255
206 227 255
206 227 255
206 227 255
206 227 255
206 227 255
206 227 255
206 227 255
206 227 255
206 227 255
206 227 255
206 227 255
205 227 255
205 227 255
205 227 255
205 227 255
205 227 255
205 227 255
205 227 255
205 227 255
205 227 255
205 227 255
205 227 255
205 226 255
205 226 255
205 226 255
205 226 255
205 226 255
205 226 255
205 226 255
205 226 255
204 226 255
204 226 255
204 226 255
204 226 255
204 226 255
204 226 255
204 226 255
204 226 255
204 226 255
204 226 255
204 226 255
204 226 255
204 226 255
204 226 255
204 226 255
204 226 255
204 226 255
204 226 255
204 226 255
204 226 255
203 226 255
203 226 255
203 226 255
203 226 255
203 226 255
203 226 255
203 226 255
203 226 255
203 226 255
203 226 255
203 226 255
203 226 255
203 226 255
203 225 255
203 225 255
203 225 255
203 225 255
203 225 255
199 221 251
172 191 217
131 145 165
78 87 99
61 69 78
62 69 78
61 68 78
61 68 78
60 67 77
59 67 77
60 67 76
59 66 76
62 69 79
58 65 74
60 67 77
59 67 76
60 68 77
60 68 77
61 68 77
60 68 77
59 66 75
61 68 77
60 68 77
60 68 77
60 68 77
60 67 77
59 66 76
60 68 78
60 68 78
60 67 76
59 67 77
61 69 79
59 67 76
61 68 78
59 67 76
59 67 77
60 68 78
61 69 79
60 68 78
61 68 78
75 84 95
137 152 173
164 182 207
201 223 253
203 225 255
203 225 255
203 225 255
203 225 255
203 225 255
203 226 255
203 226 255
203 226 255
203 226 255
203 226 255
203 226 255
203 226 255
203 226 255
203 226 255
203 226 255
203 226 255
203 226 255
204 226 255
204 226 255
204 226 255
204 226 255
204 226 255
204 226 255
204 226 255
204 226 255
204 226 255
204 226 255
204 226 255
204 226 255
204 226 255
204 226 255
204 226 255
204 226 255
204 226 255
204 226 255
204 226 255
204 226 255
204 226 255
204 226 255
205 226 255
205 226 255
205 226 255
205 226 255
205 226 255
205 226 255
205 226 255
205 227 255
205 227 255
205 227 255
205 227 255
205 227 255
205 227 255
205 227 255
205 227 255
205 227 255
205 227 255
205 227 255
206 227 255
206 227 255
206 227 255
206 227 255
206 227 255
206 227 255
206 227 255
206 227 255
206 227 255
206 227 255
206 227 255
206 227 255
206 227 255
206 227 255
206 227 255
206 227 255
206 227 255
207 227 255
207 227 255
207 227 255
207 227 255
207 228 255
207 228 255
207 228 255
207 228 255
207 228 255
207 228 255
207 228 255
207 228 255
207 228 255
207 228 255
207 228 255
207 228 255
207 228 255
207 228 255
208 228 255
208 228 255
208 228 255
208 228 255
208 228 255
208 228 255
208 228 255
208 228 255
208 228 255
208 228 255
208 228 255
208 228 255
208 228 255
208 228 255
208 228 255
208 228 255
208 228 255
208 228 255
208 228 255
209 228 255
209 229 255
209 229 255
209 229 255
209 229 255
209 229 255
209 229 255
209 229 255
209 229 255
209 229 255
209 229 255
209 229 255
209 229 255
209 229 255
209 229 255
209 229 255
209 229 255
209 229 255
209 229 255
209 229 255
210 229 255
210 229 255
210 229 255
210 229 255
210 229 255
210 229 255
210 229 255
210 229 255
210 229 255
210 229 255
210 229 255
210 229 255
210 229 255
210 229 255
210 229 255
210 229 255
210 229 255
210 229 255
210 229 255
210 229 255
210 229 255
210 230 255
210 230 255
211 230 255
211 230 255
211 230 255
211 230 255
211 230 255
211 230 255
211 230 255
211 230 255
211 230 255
211 230 255
211 230 255
211 230 255
211 230 255
211 230 255
211 230 255
211 230 255
211 230 255
211 230 255
211 230 255
211 230 255
211 230 255
211 230 255
211 230 255
211 230 255
212 230 255
212 230 255
211 230 255
211 230 255
211 230 255
211 230 255
211 230 255
211 230 255
211 230 255
211 230 255
211 230 255
211 230 255
211 230 255
211 230 255
211 230 255
211 230 255
211 230 255
211 230 255
211 230 255
211 230 255
211 230 255
211 230 255
211 230 255
211 230 255
211 230 255
211 230 255
211 230 255
211 230 255
210 230 255
210 230 255
210 230 255
210 229 255
210 229 255
210 229 255
210 229 255
210 229 255
210 229 255
210 229 255
210 229 255
210 229 255
210 229 255
210 229 255
210 229 255
210 229 255
210 229 255
210 229 255
210 229 255
210 229 255
210 229 255
210 229 255
210 229 255
209 229 255
209 229 255
209 229 255
209 229 255
209 229 255
209 229 255
209 229 255
209 229 255
209 229 255
209 229 255
209 229 255
209 229 255
209 229 255
209 229 255
209 229 255
209 229 255
209 229 255
209 229 255
209 229 255
209 228 255
208 228 255
208 228 255
208 228 255
208 228 255
208 228 255
208 228 255
208 228 255
208 228 255
208 228 255
208 228 255
208 228 255
208 228 255
208 228 255
208 228 255
208 228 255
208 228 255
208 228 255
208 228 255
208 228 255
207 228 255
207 228 255
207 228 255
207 228 255
207 228 255
207 228 255
207 228 255
207 228 255
207 228 255
207 228 255
207 228 255
207 228 255
207 228 255
207 227 255
207 227 255
207 227 255
207 227 255
207 227 255
206 227 255
206 227 255
206 227 255
206 227 255
206 227 255
206 227 255
206 227 255
206 227 255
206 227 255
206 227 255
206 227 255
206 227 255
206 227 255
206 227 255
206 227 255
206 227 255
206 227 255
205 227 255
205 227 255
205 227 255
205 227 255
205 227 255
205 227 255
205 227 255
205 227 255
205 227 255
205 227 255
205 227 255
205 226 255
205 226 255
205 226 255
205 226 255
205 226 255
205 226 255
205 226 255
205 226 255
204 226 255
204 226 255
204 226 255
204 226 255
204 226 255
204 226 255
204 226 255
204 226 255
204 226 255
204 226 255
204 226 255
204 226 255
204 226 255
204 226 255
204 226 255
204 226 255
204 226 255
204 226 255
204 226 255
204 226 255
204 226 255
204 226 255
204 226 255
203 226 255
203 226 255
203 226 255
203 226 255
203 226 255
203 226 255
203 226 255
203 226 255
203 226 255
182 202 229
142 158 179
72 81 93
60 67 77
60 68 77
59 67 77
61 68 79
61 68 78
60 67 76
60 67 76
59 66 76
61 68 78
60 67 76
58 65 74
59 66 76
59 66 76
59 66 76
58 65 74
58 66 76
60 67 77
60 67 76
61 68 77
58 66 75
59 66 76
60 68 78
60 68 78
60 67 76
62 69 79
60 67 76
61 68 77
60 67 77
60 68 78
60 67 77
61 68 77
59 66 76
58 66 76
61 68 77
61 68 78
61 68 77
60 67 76
59 67 76
61 68 77
59 66 76
60 67 77
60 67 77
68 76 86
142 158 179
180 199 226
202 225 254
203 226 255
203 226 255
203 226 255
203 226 255
203 226 255
203 226 255
203 226 255
203 226 255
204 226 255
204 226 255
204 226 255
204 226 255
204 226 255
204 226 255
204 226 255
204 226 255
204 226 255
204 226 255
204 226 255
204 226 255
204 226 255
204 226 255
204 226 255
204 226 255
204 226 255
204 226 255
204 226 255
204 226 255
204 226 255
204 226 255
204 226 255
205 226 255
205 226 255
205 226 255
205 226 255
205 226 255
205 226 255
205 226 255
205 226 255
205 227 255
205 227 255
205 227 255
205 227 255
205 227 255
205 227 255
205 227 255
205 227 255
205 227 255
205 227 255
205 227 255
206 227 255
206 227 255
206 227 255
206 227 255
206 227 255
206 227 255
206 227 255
206 227 255
206 227 255
206 227 255
206 227 255
206 227 255
206 227 255
206 227 255
206 227 255
206 227 255
206 227 255
206 227 255
207 227 255
207 227 255
207 227 255
207 227 255
207 228 255
207 228 255
207 228 255
207 228 255
207 228 255
207 228 255
207 228 255
207 228 255
207 228 255
207 228 255
207 228 255
207 228 255
207 228 255
208 228 255
208 228 255
208 228 255
208 228 255
208 228 255
208 228 255
208 228 255
208 228 255
208 228 255
208 228 255
208 228 255
208 228 255
208 228 255
208 228 255
208 228 255
208 228 255
208 228 255
208 228 255
208 228 255
209 228 255
209 228 255
209 229 255
209 229 255
209 229 255
209 229 255
209 229 255
209 229 255
209 229 255
209 229 255
209 229 255
209 229 255
209 229 255
209 229 255
209 229 255
209 229 255
209 229 255
209 229 255
209 229 255
209 229 255
210 229 255
210 229 255
210 229 255
210 229 255
210 229 255
210 229 255
210 229 255
210 229 255
210 229 255
210 229 255
210 229 255
210 229 255
210 229 255
210 229 255
210 229 255
210 229 255
210 229 255
210 229 255
210 229 255
210 229 255
210 229 255
210 230 255
210 230 255
211 230 255
211 230 255
211 230 255
211 230 255
211 230 255
211 230 255
211 230 255
211 230 255
211 230 255
211 230 255
211 230 255
211 230 255
211 230 255
211 230 255
211 230 255
211 230 255
211 230 255
211 230 255
211 230 255
211 230 255
211 230 255
211 230 255
211 230 255
211 230 255
211 230 255
211 230 255
212 230 255
212 230 255
212 230 255
212 230 255
212 230 255
212 230 255
212 230 255
212 230 255
211 230 255
211 230 255
211 230 255
211 230 255
211 230 255
211 230 255
211 230 255
211 230 255
211 230 255
211 230 255
211 230 255
211 230 255
211 230 255
211 230 255
211 230 255
211 230 255
211 230 255
211 230 255
211 230 255
211 230 255
211 230 255
211 230 255
211 230 255
211 230 255
211 230 255
211 230 255
210 230 255
210 230 255
210 230 255
210 229 255
210 229 255
210 229 255
210 229 255
210 229 255
210 229 255
210 229 255
210 229 255
210 229 255
210 229 255
210 229 255
210 229 255
210 229 255
210 229 255
210 229 255
210 229 255
210 229 255
210 229 255
210 229 255
210 229 255
209 229 255
209 229 255
209 229 255
209 229 255
209 229 255
209 229 255
209 229 255
209 229 255
209 229 255
209 229 255
209 229 255
209 229 255
209 229 255
209 229 255
209 229 255
209 229 255
209 229 255
209 229 255
209 228 255
209 228 255
208 228 255
208 228 255
208 228 255
208 228 255
208 228 255
208 228 255
208 228 255
208 228 255
208 228 255
208 228 255
208 228 255
208 228 255
208 228 255
208 228 255
208 228 255
208 228 255
208 228 255
208 228 255
207 228 255
207 228 255
207 228 255
207 228 255
207 228 255
207 228 255
207 228 255
207 228 255
207 228 255
207 228 255
207 228 255
207 228 255
207 228 255
207 228 255
207 227 255
207 227 255
207 227 255
207 227 255
206 227 255
206 227 255
206 227 255
206 227 255
206 227 255
206 227 255
206 227 255
206 227 255
206 227 255
206 227 255
206 227 255
206 227 255
206 227 255
206 227 255
206 227 255
206 227 255
206 227 255
206 227 255
205 227 255
205 227 255
205 227 255
205 227 255
205 227 255
205 227 255
205 227 255
205 227 255
205 227 255
205 227 255
205 227 255
205 226 255
205 226 255
205 226 255
205 226 255
205 226 255
205 226 255
205 226 255
205 226 255
205 226 255
204 226 255
204 226 255
204 226 255
204 226 255
204 226 255
204 226 255
204 226 255
204 226 255
204 226 255
204 226 255
204 226 255
204 226 255
204 226 255
204 226 255
204 226 255
204 226 255
204 226 255
204 226 255
204 226 255
204 226 255
204 226 255
204 226 255
204 226 255
204 226 255
202 224 253
163 181 205
92 103 117
59 67 77
60 68 78
60 67 77
60 68 77
61 68 78
61 68 78
59 66 76
60 67 76
59 66 75
60 67 76
60 67 76
59 66 76
59 66 76
62 69 78
61 69 78
59 67 76
60 66 76
61 68 78
60 67 76
59 66 76
62 70 79
60 68 77
59 66 75
61 68 77
60 67 77
59 66 76
59 66 75
60 67 77
59 66 76
62 69 79
59 66 76
59 66 76
60 67 76
60 68 78
59 66 75
61 67 77
61 68 77
60 68 78
60 67 77
61 68 77
58 65 75
60 67 77
60 67 76
60 67 76
59 67 76
61 68 78
61 69 79
60 67 77
86 96 109
169 188 213
202 224 253
204 226 255
204 226 255
204 226 255
204 226 255
204 226 255
204 226 255
204 226 255
204 226 255
204 226 255
204 226 255
204 226 255
204 226 255
204 226 255
204 226 255
204 226 255
204 226 255
204 226 255
204 226 255
204 226 255
204 226 255
204 226 255
204 226 255
204 226 255
204 226 255
205 226 255
205 226 255
205 226 255
205 226 255
205 226 255
205 226 255
205 226 255
205 226 255
205 227 255
205 227 255
205 227 255
205 227 255
205 227 255
205 227 255
205 227 255
205 227 255
205 227 255
205 227 255
205 227 255
205 227 255
206 227 255
206 227 255
206 227 255
206 227 255
206 227 255
206 227 255
206 227 255
206 227 255
206 227 255
206 227 255
206 227 255
206 227 255
206 227 255
206 227 255
206 227 255
206 227 255
206 227 255
206 227 255
207 227 255
207 227 255
207 227 255
207 227 255
207 228 255
207 228 255
207 228 255
207 228 255
207 228 255
207 228 255
207 228 255
207 228 255
207 228 255
207 228 255
207 228 255
207 228 255
207 228 255
207 228 255
208 228 255
208 228 255
208 228 255
208 228 255
208 228 255
208 228 255
208 228 255
208 228 255
208 228 255
208 228 255
208 228 255
208 228 255
208 228 255
208 228 255
208 228 255
208 228 255
208 228 255
208 228 255
209 228 255
209 228 255
209 229 255
209 229 255
209 229 255
209 229 255
209 229 255
209 229 255
209 229 255
209 229 255
209 229 255
209 229 255
209 229 255
209 229 255
209 229 255
209 229 255
209 229 255
209 229 255
209 229 255
209 229 255
210 229 255
210 229 255
210 229 255
210 229 255
210 229 255
210 229 255
210 229 255
210 229 255
210 229 255
210 229 255
210 229 255
210 229 255
210 229 255
210 229 255
210 229 255
210 229 255
210 229 255
210 229 255
210 229 255
210 229 255
210 229 255
210 230 255
210 230 255
211 230 255
211 230 255
211 230 255
211 230 255
211 230 255
211 230 255
211 230 255
211 230 255
211 230 255
211 230 255
211 230 255
211 230 255
211 230 255
211 230 255
211 230 255
211 230 255
211 230 255
211 230 255
211 230 255
211 230 255
211 230 255
211 230 255
211 230 255
211 230 255
211 230 255
211 230 255
212 230 255
212 230 255
212 230 255
212 230 255
212 230 255
212 230 255
212 230 255
212 230 255
212 230 255
212 230 255
212 230 255
212 230 255
212 230 255
212 230 255
212 230 255
212 230 255
211 230 255
211 230 255
211 230 255
211 230 255
211 230 255
211 230 255
211 230 255
211 230 255
211 230 255
211 230 255
211 230 255
211 230 255
211 230 255
211 230 255
211 230 255
211 230 255
211 230 255
211 230 255
211 230 255
211 230 255
211 230 255
211 230 255
211 230 255
211 230 255
211 230 255
211 230 255
210 230 255
210 230 255
210 229 255
210 229 255
210 229 255
210 229 255
210 229 255
210 229 255
210 229 255
210 229 255
210 229 255
210 229 255
210 229 255
210 229 255
210 229 255
210 229 255
210 229 255
210 229 255
210 229 255
210 229 255
210 229 255
210 229 255
210 229 255
209 229 255
209 229 255
209 229 255
209 229 255
209 229 255
209 229 255
209 229 255
209 229 255
209 229 255
209 229 255
209 229 255
209 229 255
209 229 255
209 229 255
209 229 255
209 229 255
209 229 255
209 229 255
209 228 255
209 228 255
208 228 255
208 228 255
208 228 255
208 228 255
208 228 255
208 228 255
208 228 255
208 228 255
208 228 255
208 228 255
208 228 255
208 228 255
208 228 255
208 228 255
208 228 255
208 228 255
208 228 255
208 228 255
207 228 255
207 228 255
207 228 255
207 228 255
207 228 255
207 228 255
207 228 255
207 228 255
207 228 255
207 228 255
207 228 255
207 228 255
207 228 255
207 228 255
207 227 255
207 227 255
207 227 255
207 227 255
206 227 255
206 227 255
206 227 255
206 227 255
206 227 255
206 227 255
206 227 255
206 227 255
206 227 255
206 227 255
206 227 255
206 227 255
206 227 255
206 227 255
206 227 255
206 227 255
206 227 255
206 227 255
206 227 255
205 227 255
205 227 255
205 227 255
205 227 255
205 227 255
205 227 255
205 227 255
205 227 255
205 227 255
205 227 255
205 227 255
205 226 255
205 226 255
205 226 255
205 226 255
205 226 255
205 226 255
205 226 255
205 226 255
205 226 255
204 226 255
204 226 255
204 226 255
204 226 255
204 226 255
204 226 255
204 226 255
204 226 255
204 226 255
204 226 255
204 226 255
204 226 255
204 226 255
204 226 255
204 226 255
204 226 255
204 226 255
196 217 246
141 157 178
77 86 98
60 68 78
60 68 78
61 68 77
58 66 76
59 66 76
60 67 77
61 68 77
58 65 75
61 68 77
60 67 77
58 66 75
61 69 79
58 65 75
59 66 75
60 67 77
60 67 76
60 67 77
60 67 77
59 66 75
60 67 76
57 64 74
60 67 76
60 67 76
60 67 76
61 68 77
59 66 75
57 64 73
59 66 75
59 67 76
61 67 77
60 67 76
59 66 76
59 67 76
59 65 74
60 67 76
62 68 77
60 66 75
59 66 76
60 67 76
61 68 77
59 66 76
59 67 76
59 66 76
58 65 74
59 66 76
60 67 76
59 67 76
59 66 76
60 67 77
59 66 76
61 68 79
61 68 78
80 89 101
131 146 166
197 219 247
204 226 255
204 226 255
204 226 255
204 226 255
204 226 255
204 226 255
204 226 255
204 226 255
204 226 255
204 226 255
204 226 255
204 226 255
204 226 255
204 226 255
204 226 255
204 226 255
204 226 255
205 226 255
205 226 255
205 226 255
205 226 255
205 226 255
205 226 255
205 226 255
205 226 255
205 226 255
205 227 255
205 227 255
205 227 255
205 227 255
205 227 255
205 227 255
205 227 255
205 227 255
205 227 255
205 227 255
205 227 255
206 227 255
206 227 255
206 227 255
206 227 255
206 227 255
206 227 255
206 227 255
206 227 255
206 227 255
206 227 255
206 227 255
206 227 255
206 227 255
206 227 255
206 227 255
206 227 255
206 227 255
206 227 255
206 227 255
207 227 255
207 227 255
207 227 255
207 227 255
207 228 255
207 228 255
207 228 255
207 228 255
207 228 255
207 228 255
207 228 255
207 228 255
207 228 255
207 228 255
207 228 255
207 228 255
207 228 255
208 228 255
208 228 255
208 228 255
208 228 255
208 228 255
208 228 255
208 228 255
208 228 255
208 228 255
208 228 255
208 228 255
208 228 255
208 228 255
208 228 255
208 228 255
208 228 255
208 228 255
208 228 255
208 228 255
209 228 255
209 228 255
209 229 255
209 229 255
209 229 255
209 229 255
209 229 255
209 229 255
209 229 255
209 229 255
209 229 255
209 229 255
209 229 255
209 229 255
209 229 255
209 229 255
209 229 255
209 229 255
209 229 255
209 229 255
210 229 255
210 229 255
210 229 255
210 229 255
210 229 255
210 229 255
210 229 255
210 229 255
210 229 255
210 229 255
210 229 255
210 229 255
210 229 255
210 229 255
210 229 255
210 229 255
210 229 255
210 229 255
210 229 255
210 229 255
210 230 255
210 230 255
210 230 255
211 230 255
211 230 255
211 230 255
211 230 255
211 230 255
211 230 255
211 230 255
211 230 255
211 230 255
211 230 255
211 230 255
211 230 255
211 230 255
211 230 255
211 230 255
211 230 255
211 230 255
211 230 255
211 230 255
211 230 255
211 230 255
211 230 255
211 230 255
211 230 255
211 230 255
212 230 255
212 230 255
212 230 255
212 230 255
212 230 255
212 230 255
212 230 255
212 230 255
212 230 255
212 230 255
212 230 255
212 230 255
212 230 255
212 230 255
212 230 255
212 230 255
212 230 255
212 230 255
212 230 255
212 230 255
212 230 255
212 230 255
212 230 255
212 230 255
212 230 255
212 230 255
211 230 255
211 230 255
211 230 255
211 230 255
211 230 255
211 230 255
211 230 255
211 230 255
211 230 255
211 230 255
211 230 255
211 230 255
211 230 255
211 230 255
211 230 255
211 230 255
211 230 255
211 230 255
211 230 255
211 230 255
211 230 255
211 230 255
211 230 255
211 230 255
211 230 255
210 230 255
210 230 255
210 230 255
210 229 255
210 229 255
210 229 255
210 229 255
210 229 255
210 229 255
210 229 255
210 229 255
210 229 255
210 229 255
210 229 255
210 229 255
210 229 255
210 229 255
210 229 255
210 229 255
210 229 255
210 229 255
210 229 255
209 229 255
209 229 255
209 229 255
209 229 255
209 229 255
209 229 255
209 229 255
209 229 255
209 229 255
209 229 255
209 229 255
209 229 255
209 229 255
209 229 255
209 229 255
209 229 255
209 229 255
209 229 255
209 229 255
209 228 255
209 228 255
208 228 255
208 228 255
208 228 255
208 228 255
208 228 255
208 228 255
208 228 255
208 228 255
208 228 255
208 228 255
208 228 255
208 228 255
208 228 255
208 228 255
208 228 255
208 228 255
208 228 255
208 228 255
207 228 255
207 228 255
207 228 255
207 228 255
207 228 255
207 228 255
207 228 255
207 228 255
207 228 255
207 228 255
207 228 255
207 228 255
207 228 255
207 228 255
207 227 255
207 227 255
207 227 255
207 227 255
206 227 255
206 227 255
206 227 255
206 227 255
206 227 255
206 227 255
206 227 255
206 227 255
206 227 255
206 227 255
206 227 255
206 227 255
206 227 255
206 227 255
206 227 255
206 227 255
206 227 255
206 227 255
206 227 255
205 227 255
205 227 255
205 227 255
205 227 255
205 227 255
205 227 255
205 227 255
205 227 255
205 227 255
205 227 255
205 227 255
205 227 255
205 226 255
205 226 255
205 226 255
205 226 255
205 226 255
205 226 255
205 226 255
205 226 255
205 226 255
205 226 255
204 226 255
204 226 255
204 226 255
204 226 255
204 226 255
204 226 255
204 226 255
204 226 255
204 226 255
197 218 246
147 163 184
69 77 87
61 69 78
61 69 79
61 68 77
61 68 77
62 69 79
60 67 77
58 65 74
61 69 79
61 68 77
59 66 75
59 66 76
59 66 76
59 66 76
60 67 76
59 66 76
60 67 76
61 69 78
57 64 73
60 68 77
61 69 79
60 67 76
58 65 74
60 67 77
59 66 75
59 66 76
59 66 76
59 67 76
60 67 76
60 68 77
58 65 74
60 67 77
59 67 76
59 66 75
58 65 74
61 67 77
61 69 78
58 65 74
59 66 76
60 67 77
60 68 77
59 66 75
60 67 76
60 67 76
63 69 79
58 65 74
61 68 77
58 65 74
61 68 77
59 66 76
60 68 77
58 65 74
59 66 76
60 67 76
60 66 75
58 65 74
62 69 79
74 83 94
137 152 172
196 217 245
204 226 255
204 226 255
204 226 255
204 226 255
204 226 255
204 226 255
204 226 255
204 226 255
204 226 255
205 226 255
205 226 255
205 226 255
205 226 255
205 226 255
205 226 255
205 226 255
205 226 255
205 226 255
205 226 255
205 227 255
205 227 255
205 227 255
205 227 255
205 227 255
205 227 255
205 227 255
205 227 255
205 227 255
205 227 255
205 227 255
205 227 255
206 227 255
206 227 255
206 227 255
206 227 255
206 227 255
206 227 255
206 227 255
206 227 255
206 227 255
206 227 255
206 227 255
206 227 255
206 227 255
206 227 255
206 227 255
206 227 255
206 227 255
206 227 255
206 227 255
207 227 255
207 227 255
207 227 255
207 227 255
207 228 255
207 228 255
207 228 255
207 228 255
207 228 255
207 228 255
207 228 255
207 228 255
207 228 255
207 228 255
207 228 255
207 228 255
207 228 255
207 228 255
208 228 255
208 228 255
208 228 255
208 228 255
208 228 255
208 228 255
208 228 255
208 228 255
208 228 255
208 228 255
208 228 255
208 228 255
208 228 255
208 228 255
208 228 255
208 228 255
208 228 255
208 228 255
209 228 255
209 228 255
209 229 255
209 229 255
209 229 255
209 229 255
209 229 255
209 229 255
209 229 255
209 229 255
209 229 255
209 229 255
209 229 255
209 229 255
209 229 255
209 229 255
209 229 255
209 229 255
209 229 255
209 229 255
209 229 255
210 229 255
210 229 255
210 229 255
210 229 255
210 229 255
210 229 255
210 229 255
210 229 255
210 229 255
210 229 255
210 229 255
210 229 255
210 229 255
210 229 255
210 229 255
210 229 255
210 229 255
210 229 255
210 229 255
210 230 255
210 230 255
210 230 255
211 230 255
211 230 255
211 230 255
211 230 255
211 230 255
211 230 255
211 230 255
211 230 255
211 230 255
211 230 255
211 230 255
211 230 255
211 230 255
211 230 255
211 230 255
211 230 255
211 230 255
211 230 255
211 230 255
211 230 255
211 230 255
211 230 255
211 230 255
211 230 255
211 230 255
212 230 255
212 230 255
212 230 255
212 230 255
212 230 255
212 230 255
212 230 255
212 230 255
212 230 255
212 230 255
212 230 255
212 230 255
212 230 255
212 230 255
212 230 255
212 230 255
212 230 255
212 230 255
212 230 255
212 230 255
212 230 255
212 230 255
212 230 255
212 230 255
212 230 255
212 230 255
212 230 255
212 230 255
212 230 255
212 230 255
212 230 255
212 230 255
212 230 255
212 230 255
211 230 255
211 230 255
211 230 255
211 230 255
211 230 255
211 230 255
211 230 255
211 230 255
211 230 255
211 230 255
211 230 255
211 230 255
211 230 255
211 230 255
211 230 255
211 230 255
211 230 255
211 230 255
211 230 255
211 230 255
211 230 255
211 230 255
211 230 255
211 230 255
211 230 255
211 230 255
210 230 255
210 230 255
210 229 255
210 229 255
210 229 255
210 229 255
210 229 255
210 229 255
210 229 255
210 229 255
210 229 255
210 229 255
210 229 255
210 229 255
210 229 255
210 229 255
210 229 255
210 229 255
210 229 255
210 229 255
210 229 255
209 229 255
209 229 255
209 229 255
209 229 255
209 229 255
209 229 255
209 229 255
209 229 255
209 229 255
209 229 255
209 229 255
209 229 255
209 229 255
209 229 255
209 229 255
209 229 255
209 229 255
209 229 255
209 229 255
209 228 255
209 228 255
208 228 255
208 228 255
208 228 255
208 228 255
208 228 255
208 228 255
208 228 255
208 228 255
208 228 255
208 228 255
208 228 255
208 228 255
208 228 255
208 228 255
208 228 255
208 228 255
208 228 255
208 228 255
207 228 255
207 228 255
207 228 255
207 228 255
207 228 255
207 228 255
207 228 255
207 228 255
207 228 255
207 228 255
207 228 255
207 228 255
207 228 255
207 228 255
207 227 255
207 227 255
207 227 255
207 227 255
206 227 255
206 227 255
206 227 255
206 227 255
206 227 255
206 227 255
206 227 255
206 227 255
206 227 255
206 227 255
206 227 255
206 227 255
206 227 255
206 227 255
206 227 255
206 227 255
206 227 255
206 227 255
206 227 255
206 227 255
205 227 255
205 227 255
205 227 255
205 227 255
205 227 255
205 227 255
205 227 255
205 227 255
205 227 255
205 227 255
205 227 255
205 227 255
205 227 255
205 226 255
205 226 255
205 226 255
205 226 255
205 226 255
205 226 255
205 226 255
205 226 255
205 226 255
205 226 255
205 226 255
202 223 252
162 179 203
72 80 91
60 67 76
60 68 77
61 68 78
59 65 74
60 67 77
60 68 77
57 65 74
61 69 78
59 66 75
58 65 75
60 67 76
60 67 76
60 67 77
59 66 75
60 67 76
61 68 77
59 66 75
57 64 74
59 66 74
57 65 74
60 66 75
60 67 76
61 68 78
59 66 76
59 66 76
59 67 76
59 66 75
60 67 77
59 66 75
57 64 73
60 67 76
60 67 76
60 67 77
59 66 76
58 65 75
60 67 76
59 66 75
59 66 76
59 66 76
59 66 75
61 68 76
58 65 74
61 68 77
57 64 73
59 67 76
58 65 75
57 64 74
61 68 77
61 68 77
59 66 75
59 66 75
60 67 77
61 68 77
60 67 76
58 65 74
60 67 76
61 68 78
60 67 76
59 66 76
60 68 77
72 80 92
152 168 190
199 220 248
204 226 255
205 226 255
205 226 255
205 226 255
205 226 255
205 226 255
205 226 255
205 226 255
205 226 255
205 226 255
205 226 255
205 226 255
205 227 255
205 227 255
205 227 255
205 227 255
205 227 255
205 227 255
205 227 255
205 227 255
205 227 255
205 227 255
205 227 255
205 227 255
206 227 255
206 227 255
206 227 255
206 227 255
206 227 255
206 227 255
206 227 255
206 227 255
206 227 255
206 227 255
206 227 255
206 227 255
206 227 255
206 227 255
206 227 255
206 227 255
206 227 255
206 227 255
206 227 255
206 227 255
207 227 255
207 227 255
207 227 255
207 227 255
207 228 255
207 228 255
207 228 255
207 228 255
207 228 255
207 228 255
207 228 255
207 228 255
207 228 255
207 228 255
207 228 255
207 228 255
207 228 255
208 228 255
208 228 255
208 228 255
208 228 255
208 228 255
208 228 255
208 228 255
208 228 255
208 228 255
208 228 255
208 228 255
208 228 255
208 228 255
208 228 255
208 228 255
208 228 255
208 228 255
208 228 255
208 228 255
208 228 255
209 228 255
209 229 255
209 229 255
209 229 255
209 229 255
209 229 255
209 229 255
209 229 255
209 229 255
209 229 255
209 229 255
209 229 255
209 229 255
209 229 255
209 229 255
209 229 255
209 229 255
209 229 255
209 229 255
209 229 255
210 229 255
210 229 255
210 229 255
210 229 255
210 229 255
210 229 255
210 229 255
210 229 255
210 229 255
210 229 255
210 229 255
210 229 255
210 229 255
210 229 255
210 229 255
210 229 255
210 229 255
210 229 255
210 229 255
210 230 255
210 230 255
211 230 255
211 230 255
211 230 255
211 230 255
211 230 255
211 230 255
211 230 255
211 230 255
211 230 255
211 230 255
211 230 255
211 230 255
211 230 255
211 230 255
211 230 255
211 230 255
211 230 255
211 230 255
211 230 255
211 230 255
211 230 255
211 230 255
211 230 255
211 230 255
211 230 255
211 230 255
212 230 255
212 230 255
212 230 255
212 230 255
212 230 255
212 230 255
212 230 255
212 230 255
212 230 255
212 230 255
212 230 255
212 230 255
212 230 255
212 230 255
212 230 255
212 230 255
212 230 255
212 230 255
212 230 255
212 231 255
212 231 255
212 231 255
212 231 255
212 230 255
212 230 255
212 230 255
212 230 255
212 230 255
212 230 255
212 230 255
212 230 255
212 230 255
212 230 255
212 230 255
212 230 255
212 230 255
212 230 255
212 230 255
212 230 255
212 230 255
212 230 255
212 230 255
212 230 255
211 230 255
211 230 255
211 230 255
211 230 255
211 230 255
211 230 255
211 230 255
211 230 255
211 230 255
211 230 255
211 230 255
211 230 255
211 230 255
211 230 255
211 230 255
211 230 255
211 230 255
211 230 255
211 230 255
211 230 255
211 230 255
211 230 255
211 230 255
211 230 255
211 230 255
210 230 255
210 230 255
210 229 255
210 229 255
210 229 255
210 229 255
210 229 255
210 229 255
210 229 255
210 229 255
210 229 255
210 229 255
210 229 255
210 229 255
210 229 255
210 229 255
210 229 255
210 229 255
210 229 255
210 229 255
210 229 255
209 229 255
209 229 255
209 229 255
209 229 255
209 229 255
209 229 255
209 229 255
209 229 255
209 229 255
209 229 255
209 229 255
209 229 255
209 229 255
209 229 255
209 229 255
209 229 255
209 229 255
209 229 255
209 229 255
209 228 255
208 228 255
208 228 255
208 228 255
208 228 255
208 228 255
208 228 255
208 228 255
208 228 255
208 228 255
208 228 255
208 228 255
208 228 255
208 228 255
208 228 255
208 228 255
208 228 255
208 228 255
208 228 255
208 228 255
207 228 255
207 228 255
207 228 255
207 228 255
207 228 255
207 228 255
207 228 255
207 228 255
207 228 255
207 228 255
207 228 255
207 228 255
207 228 255
207 228 255
207 227 255
207 227 255
207 227 255
207 227 255
207 227 255
206 227 255
206 227 255
206 227 255
206 227 255
206 227 255
206 227 255
206 227 255
206 227 255
206 227 255
206 227 255
206 227 255
206 227 255
206 227 255
206 227 255
206 227 255
206 227 255
206 227 255
206 227 255
206 227 255
206 227 255
205 227 255
205 227 255
205 227 255
205 227 255
205 227 255
205 227 255
205 227 255
205 227 255
205 227 255
205 227 255
205 227 255
205 227 255
205 227 255
205 227 255
205 226 255
205 226 255
205 226 255
205 226 255
169 187 211
92 102 116
58 65 74
61 68 77
59 66 76
60 67 76
57 64 73
59 66 76
60 68 77
61 68 77
61 67 77
59 66 76
59 66 76
57 64 73
59 66 76
60 67 76
60 66 75
60 67 77
60 67 76
59 65 74
60 67 76
60 67 76
60 67 76
60 67 77
60 66 76
59 66 76
60 67 76
60 68 77
59 66 75
59 66 75
61 68 77
59 66 76
57 64 73
58 65 74
60 67 77
57 65 74
59 66 74
59 67 76
58 65 74
60 67 76
58 65 74
61 67 76
61 68 78
59 66 76
60 67 76
58 65 74
59 66 76
58 65 75
59 65 74
60 67 76
60 67 76
60 66 76
59 66 75
60 67 76
60 67 76
59 66 75
61 68 78
59 66 76
60 67 76
59 66 76
61 68 77
59 66 76
60 67 77
59 66 75
61 68 77
61 68 77
87 96 110
169 187 211
205 226 255
205 226 255
205 226 255
205 226 255
205 227 255
205 227 255
205 227 255
205 227 255
205 227 255
205 227 255
205 227 255
205 227 255
205 227 255
205 227 255
205 227 255
205 227 255
205 227 255
205 227 255
206 227 255
206 227 255
206 227 255
206 227 255
206 227 255
206 227 255
206 227 255
206 227 255
206 227 255
206 227 255
206 227 255
206 227 255
206 227 255
206 227 255
206 227 255
206 227 255
206 227 255
206 227 255
206 227 255
206 227 255
207 227 255
207 227 255
207 227 255
207 227 255
207 228 255
207 228 255
207 228 255
207 228 255
207 228 255
207 228 255
207 228 255
207 228 255
207 228 255
207 228 255
207 228 255
207 228 255
207 228 255
207 228 255
207 228 255
208 228 255
208 228 255
208 228 255
208 228 255
208 228 255
208 228 255
208 228 255
208 228 255
208 228 255
208 228 255
208 228 255
208 228 255
208 228 255
208 228 255
208 228 255
208 228 255
208 228 255
208 228 255
208 228 255
209 228 255
209 229 255
209 229 255
209 229 255
209 229 255
209 229 255
209 229 255
209 229 255
209 229 255
209 229 255
209 229 255
209 229 255
209 229 255
209 229 255
209 229 255
209 229 255
209 229 255
209 229 255
209 229 255
209 229 255
210 229 255
210 229 255
210 229 255
210 229 255
210 229 255
210 229 255
210 229 255
210 229 255
210 229 255
210 229 255
210 229 255
210 229 255
210 229 255
210 229 255
210 229 255
210 229 255
210 229 255
210 229 255
210 229 255
210 230 255
210 230 255
210 230 255
211 230 255
211 230 255
211 230 255
211 230 255
211 230 255
211 230 255
211 230 255
211 230 255
211 230 255
211 230 255
211 230 255
211 230 255
211 230 255
211 230 255
211 230 255
211 230 255
211 230 255
211 230 255
211 230 255
211 230 255
211 230 255
211 230 255
211 230 255
211 230 255
212 230 255
212 230 255
212 230 255
212 230 255
212 230 255
212 230 255
212 230 255
212 230 255
212 230 255
212 230 255
212 230 255
212 230 255
212 230 255
212 230 255
212 230 255
212 230 255
212 230 255
212 230 255
212 230 255
212 230 255
212 230 255
212 231 255
212 231 255
212 231 255
212 231 255
212 231 255
212 231 255
212 231 255
212 231 255
212 231 255
212 231 255
212 231 255
212 231 255
212 230 255
212 230 255
212 230 255
212 230 255
212 230 255
212 230 255
212 230 255
212 230 255
212 230 255
212 230 255
212 230 255
212 230 255
212 230 255
212 230 255
212 230 255
212 230 255
212 230 255
212 230 255
212 230 255
211 230 255
211 230 255
211 230 255
211 230 255
211 230 255
211 230 255
211 230 255
211 230 255
211 230 255
211 230 255
211 230 255
211 230 255
211 230 255
211 230 255
211 230 255
211 230 255
211 230 255
211 230 255
211 230 255
211 230 255
211 230 255
211 230 255
211 230 255
211 230 255
211 230 255
210 230 255
210 230 255
210 229 255
210 229 255
210 229 255
210 229 255
210 229 255
210 229 255
210 229 255
210 229 255
210 229 255
210 229 255
210 229 255
210 229 255
210 229 255
210 229 255
210 229 255
210 229 255
210 229 255
210 229 255
210 229 255
210 229 255
209 229 255
209 229 255
209 229 255
209 229 255
209 229 255
209 229 255
209 229 255
209 229 255
209 229 255
209 229 255
209 229 255
209 229 255
209 229 255
209 229 255
209 229 255
209 229 255
209 229 255
209 229 255
209 228 255
209 228 255
208 228 255
208 228 255
208 228 255
208 228 255
208 228 255
208 228 255
208 228 255
208 228 255
208 228 255
208 228 255
208 228 255
208 228 255
208 228 255
208 228 255
208 228 255
208 228 255
208 228 255
208 228 255
207 228 255
207 228 255
207 228 255
207 228 255
207 228 255
207 228 255
207 228 255
207 228 255
207 228 255
207 228 255
207 228 255
207 228 255
207 228 255
207 228 255
207 228 255
207 227 255
207 227 255
207 227 255
207 227 255
206 227 255
206 227 255
206 227 255
206 227 255
206 227 255
206 227 255
206 227 255
206 227 255
206 227 255
206 227 255
206 227 255
206 227 255
206 227 255
206 227 255
206 227 255
206 227 255
206 227 255
206 227 255
206 227 255
206 227 255
206 227 255
205 227 255
205 227 255
205 227 255
205 227 255
205 227 255
205 227 255
205 227 255
205 227 255
205 227 255
205 227 255
205 227 255
194 215 242
112 124 140
61 68 77
59 66 75
58 66 75
59 66 76
59 66 75
60 67 76
60 67 77
60 67 76
58 65 74
60 67 76
58 66 75
60 66 76
57 64 73
60 67 76
60 67 76
59 66 76
58 65 74
58 65 74
62 69 78
59 66 75
60 67 76
60 67 76
59 66 76
59 66 75
57 64 73
57 64 72
58 65 74
59 66 74
57 64 73
58 65 74
61 68 77
60 66 76
60 67 76
60 67 77
59 67 76
59 66 75
57 64 73
59 65 74
59 66 75
59 66 76
59 65 74
58 65 74
60 67 77
59 66 75
60 67 77
58 65 73
60 67 76
58 65 74
58 65 74
59 66 75
60 68 77
60 67 76
59 66 75
59 65 74
59 66 75
59 66 75
61 68 77
58 65 75
59 66 76
59 65 74
58 64 74
60 67 76
58 65 74
59 66 75
58 65 75
57 64 73
59 66 75
59 66 76
122 135 153
192 213 240
205 227 255
205 227 255
205 227 255
205 227 255
205 227 255
205 227 255
205 227 255
205 227 255
205 227 255
205 227 255
205 227 255
206 227 255
206 227 255
206 227 255
206 227 255
206 227 255
206 227 255
206 227 255
206 227 255
206 227 255
206 227 255
206 227 255
206 227 255
206 227 255
206 227 255
206 227 255
206 227 255
206 227 255
206 227 255
206 227 255
206 227 255
207 227 255
207 227 255
207 227 255
207 227 255
207 227 255
207 228 255
207 228 255
207 228 255
207 228 255
207 228 255
207 228 255
207 228 255
207 228 255
207 228 255
207 228 255
207 228 255
207 228 255
207 228 255
207 228 255
207 228 255
208 228 255
208 228 255
208 228 255
208 228 255
208 228 255
208 228 255
208 228 255
208 228 255
208 228 255
208 228 255
208 228 255
208 228 255
208 228 255
208 228 255
208 228 255
208 228 255
208 228 255
208 228 255
209 228 255
209 228 255
209 229 255
209 229 255
209 229 255
209 229 255
209 229 255
209 229 255
209 229 255
209 229 255
209 229 255
209 229 255
209 229 255
209 229 255
209 229 255
209 229 255
209 229 255
209 229 255
209 229 255
209 229 255
210 229 255
210 229 255
210 229 255
210 229 255
210 229 255
210 229 255
210 229 255
210 229 255
210 229 255
210 229 255
210 229 255
210 229 255
210 229 255
210 229 255
210 229 255
210 229 255
210 229 255
210 229 255
210 229 255
210 229 255
210 230 255
210 230 255
211 230 255
211 230 255
211 230 255
211 230 255
211 230 255
211 230 255
211 230 255
211 230 255
211 230 255
211 230 255
211 230 255
211 230 255
211 230 255
211 230 255
211 230 255
211 230 255
211 230 255
211 230 255
211 230 255
211 230 255
211 230 255
211 230 255
211 230 255
211 230 255
211 230 255
212 230 255
212 230 255
212 230 255
212 230 255
212 230 255
212 230 255
212 230 255
212 230 255
212 230 255
212 230 255
212 230 255
212 230 255
212 230 255
212 230 255
212 230 255
212 230 255
212 230 255
212 230 255
212 230 255
212 230 255
212 231 255
212 231 255
212 231 255
212 231 255
212 231 255
212 231 255
212 231 255
212 231 255
213 231 255
213 231 255
213 231 255
213 231 255
212 231 255
212 231 255
212 231 255
212 231 255
212 231 255
212 231 255
212 231 255
212 231 255
212 231 255
212 230 255
212 230 255
212 230 255
212 230 255
212 230 255
212 230 255
212 230 255
212 230 255
212 230 255
212 230 255
212 230 255
212 230 255
212 230 255
212 230 255
212 230 255
212 230 255
212 230 255
212 230 255
212 230 255
212 230 255
211 230 255
211 230 255
211 230 255
211 230 255
211 230 255
211 230 255
211 230 255
211 230 255
211 230 255
211 230 255
211 230 255
211 230 255
211 230 255
211 230 255
211 230 255
211 230 255
211 230 255
211 230 255
211 230 255
211 230 255
211 230 255
211 230 255
211 230 255
211 230 255
210 230 255
210 230 255
210 230 255
210 229 255
210 229 255
210 229 255
210 229 255
210 229 255
210 229 255
210 229 255
210 229 255
210 229 255
210 229 255
210 229 255
210 229 255
210 229 255
210 229 255
210 229 255
210 229 255
210 229 255
210 229 255
210 229 255
209 229 255
209 229 255
209 229 255
209 229 255
209 229 255
209 229 255
209 229 255
209 229 255
209 229 255
209 229 255
209 229 255
209 229 255
209 229 255
209 229 255
209 229 255
209 229 255
209 229 255
209 229 255
209 228 255
209 228 255
208 228 255
208 228 255
208 228 255
208 228 255
208 228 255
208 228 255
208 228 255
208 228 255
208 228 255
208 228 255
208 228 255
208 228 255
208 228 255
208 228 255
208 228 255
208 228 255
208 228 255
208 228 255
208 228 255
207 228 255
207 228 255
207 228 255
207 228 255
207 228 255
207 228 255
207 228 255
207 228 255
207 228 255
207 228 255
207 228 255
207 228 255
207 228 255
207 228 255
207 228 255
207 227 255
207 227 255
207 227 255
207 227 255
206 227 255
206 227 255
206 227 255
206 227 255
206 227 255
206 227 255
206 227 255
206 227 255
206 227 255
206 227 255
206 227 255
206 227 255
206 227 255
206 227 255
206 227 255
206 227 255
206 227 255
206 227 255
206 227 255
206 227 255
206 227 255
206 227 255
205 227 255
205 227 255
205 227 255
205 227 255
161 178 201
80 89 101
60 66 75
60 66 76
59 66 75
58 65 74
59 66 76
59 66 76
61 67 76
58 65 74
60 67 76
60 67 77
60 68 77
59 66 75
60 67 76
57 64 72
60 67 77
60 67 77
58 64 73
59 66 75
61 68 77
58 65 74
58 65 74
58 65 74
59 65 74
58 65 74
56 62 71
59 66 74
60 67 76
60 67 76
58 65 74
59 66 75
59 66 75
60 67 76
57 64 74
59 66 74
57 64 72
57 64 73
60 66 76
60 67 76
59 66 75
58 65 74
59 66 75
58 65 75
59 65 74
58 64 73
61 68 77
59 66 75
57 64 73
59 66 76
60 67 76
57 63 72
60 67 76
57 64 73
59 66 76
59 66 76
60 67 76
59 65 74
59 66 76
58 65 75
59 67 76
58 65 74
56 63 72
57 65 74
59 66 75
58 65 74
60 67 76
60 67 77
60 67 76
59 66 76
59 66 76
59 66 75
73 82 93
170 188 212
205 227 255
205 227 255
205 227 255
206 227 255
206 227 255
206 227 255
206 227 255
206 227 255
206 227 255
206 227 255
206 227 255
206 227 255
206 227 255
206 227 255
206 227 255
206 227 255
206 227 255
206 227 255
206 227 255
206 227 255
206 227 255
206 227 255
206 227 255
206 227 255
206 227 255
206 227 255
207 227 255
207 227 255
207 227 255
207 227 255
207 227 255
207 228 255
207 228 255
207 228 255
207 228 255
207 228 255
207 228 255
207 228 255
207 228 255
207 228 255
207 228 255
207 228 255
207 228 255
207 228 255
207 228 255
208 228 255
208 228 255
208 228 255
208 228 255
208 228 255
208 228 255
208 228 255
208 228 255
208 228 255
208 228 255
208 228 255
208 228 255
208 228 255
208 228 255
208 228 255
208 228 255
208 228 255
208 228 255
208 228 255
209 228 255
209 228 255
209 229 255
209 229 255
209 229 255
209 229 255
209 229 255
209 229 255
209 229 255
209 229 255
209 229 255
209 229 255
209 229 255
209 229 255
209 229 255
209 229 255
209 229 255
209 229 255
209 229 255
209 229 255
210 229 255
210 229 255
210 229 255
210 229 255
210 229 255
210 229 255
210 229 255
210 229 255
210 229 255
210 229 255
210 229 255
210 229 255
210 229 255
210 229 255
210 229 255
210 229 255
210 229 255
210 229 255
210 229 255
210 229 255
210 230 255
210 230 255
211 230 255
211 230 255
211 230 255
211 230 255
211 230 255
211 230 255
211 230 255
211 230 255
211 230 255
211 230 255
211 230 255
211 230 255
211 230 255
211 230 255
211 230 255
211 230 255
211 230 255
211 230 255
211 230 255
211 230 255
211 230 255
211 230 255
211 230 255
211 230 255
212 230 255
212 230 255
212 230 255
212 230 255
212 230 255
212 230 255
212 230 255
212 230 255
212 230 255
212 230 255
212 230 255
212 230 255
212 230 255
212 230 255
212 230 255
212 230 255
212 230 255
212 230 255
212 230 255
212 230 255
212 231 255
212 231 255
212 231 255
212 231 255
212 231 255
212 231 255
212 231 255
212 231 255
212 231 255
213 231 255
213 231 255
213 231 255
213 231 255
213 231 255
213 231 255
213 231 255
213 231 255
213 231 255
213 231 255
213 231 255
213 231 255
213 231 255
212 231 255
212 231 255
212 231 255
212 231 255
212 231 255
212 231 255
212 231 255
212 231 255
212 231 255
212 230 255
212 230 255
212 230 255
212 230 255
212 230 255
212 230 255
212 230 255
212 230 255
212 230 255
212 230 255
212 230 255
212 230 255
212 230 255
212 230 255
212 230 255
212 230 255
212 230 255
212 230 255
212 230 255
211 230 255
211 230 255
211 230 255
211 230 255
211 230 255
211 230 255
211 230 255
211 230 255
211 230 255
211 230 255
211 230 255
211 230 255
211 230 255
211 230 255
211 230 255
211 230 255
211 230 255
211 230 255
211 230 255
211 230 255
211 230 255
211 230 255
211 230 255
211 230 255
210 230 255
210 230 255
210 230 255
210 229 255
210 229 255
210 229 255
210 229 255
210 229 255
210 229 255
210 229 255
210 229 255
210 229 255
210 229 255
210 229 255
210 229 255
210 229 255
210 229 255
210 229 255
210 229 255
210 229 255
210 229 255
210 229 255
209 229 255
209 229 255
209 229 255
209 229 255
209 229 255
209 229 255
209 229 255
209 229 255
209 229 255
209 229 255
209 229 255
209 229 255
209 229 255
209 229 255
209 229 255
209 229 255
209 229 255
209 229 255
209 229 255
209 228 255
208 228 255
208 228 255
208 228 255
208 228 255
208 228 255
208 228 255
208 228 255
208 228 255
208 228 255
208 228 255
208 228 255
208 228 255
208 228 255
208 228 255
208 228 255
208 228 255
208 228 255
208 228 255
208 228 255
207 228 255
207 228 255
207 228 255
207 228 255
207 228 255
207 228 255
207 228 255
207 228 255
207 228 255
207 228 255
207 228 255
207 228 255
207 228 255
207 228 255
207 228 255
207 227 255
207 227 255
207 227 255
207 227 255
207 227 255
206 227 255
206 227 255
206 227 255
206 227 255
206 227 255
206 227 255
206 227 255
206 227 255
206 227 255
206 227 255
206 227 255
206 227 255
206 227 255
206 227 255
206 227 255
206 227 255
206 227 255
206 227 255
206 227 255
200 221 248
120 133 150
58 66 75
58 66 75
59 65 74
59 67 76
58 65 74
60 67 77
60 67 76
60 67 76
58 65 74
57 64 73
59 66 76
61 67 77
59 66 76
59 66 75
59 66 75
58 65 74
60 67 76
58 65 74
57 65 74
59 66 76
57 64 73
59 65 74
60 67 76
59 65 74
58 65 74
57 64 73
60 67 76
59 66 75
61 68 77
58 65 74
58 65 74
56 63 71
61 67 76
60 66 76
59 66 76
60 67 76
59 66 75
61 68 77
58 65 73
59 66 75
58 65 74
58 64 73
58 64 74
56 62 71
59 67 76
57 64 73
58 64 73
61 67 76
57 64 73
60 67 76
58 65 74
58 65 74
61 68 77
55 62 70
59 66 75
57 63 72
59 66 75
59 65 74
58 65 74
58 65 74
59 66 75
56 63 72
59 66 76
59 66 74
60 66 75
58 65 74
60 67 76
58 65 74
58 64 74
60 68 77
60 67 76
60 67 77
61 68 77
61 68 77
126 140 158
192 212 239
206 227 255
206 227 255
206 227 255
206 227 255
206 227 255
206 227 255
206 227 255
206 227 255
206 227 255
206 227 255
206 227 255
206 227 255
206 227 255
206 227 255
206 227 255
206 227 255
206 227 255
206 227 255
206 227 255
207 227 255
207 227 255
207 227 255
207 227 255
207 227 255
207 228 255
207 228 255
207 228 255
207 228 255
207 228 255
207 228 255
207 228 255
207 228 255
207 228 255
207 228 255
207 228 255
207 228 255
207 228 255
207 228 255
207 228 255
208 228 255
208 228 255
208 228 255
208 228 255
208 228 255
208 228 255
208 228 255
208 228 255
208 228 255
208 228 255
208 228 255
208 228 255
208 228 255
208 228 255
208 228 255
208 228 255
208 228 255
208 228 255
208 228 255
209 228 255
209 228 255
209 229 255
209 229 255
209 229 255
209 229 255
209 229 255
209 229 255
209 229 255
209 229 255
209 229 255
209 229 255
209 229 255
209 229 255
209 229 255
209 229 255
209 229 255
209 229 255
209 229 255
209 229 255
210 229 255
210 229 255
210 229 255
210 229 255
210 229 255
210 229 255
210 229 255
210 229 255
210 229 255
210 229 255
210 229 255
210 229 255
210 229 255
210 229 255
210 229 255
210 229 255
210 229 255
210 229 255
210 229 255
210 230 255
210 230 255
210 230 255
211 230 255
211 230 255
211 230 255
211 230 255
211 230 255
211 230 255
211 230 255
211 230 255
211 230 255
211 230 255
211 230 255
211 230 255
211 230 255
211 230 255
211 230 255
211 230 255
211 230 255
211 230 255
211 230 255
211 230 255
211 230 255
211 230 255
211 230 255
211 230 255
212 230 255
212 230 255
212 230 255
212 230 255
212 230 255
212 230 255
212 230 255
212 230 255
212 230 255
212 230 255
212 230 255
212 230 255
212 230 255
212 230 255
212 230 255
212 230 255
212 230 255
212 230 255
212 230 255
212 231 255
212 231 255
212 231 255
212 231 255
212 231 255
212 231 255
212 231 255
212 231 255
212 231 255
213 231 255
213 231 255
213 231 255
213 231 255
213 231 255
213 231 255
213 231 255
213 231 255
213 231 255
213 231 255
213 231 255
213 231 255
213 231 255
213 231 255
213 231 255
213 231 255
213 231 255
213 231 255
213 231 255
213 231 255
213 231 255
213 231 255
213 231 255
212 231 255
212 231 255
212 231 255
212 231 255
212 231 255
212 231 255
212 231 255
212 231 255
212 231 255
212 230 255
212 230 255
212 230 255
212 230 255
212 230 255
212 230 255
212 230 255
212 230 255
212 230 255
212 230 255
212 230 255
212 230 255
212 230 255
212 230 255
212 230 255
212 230 255
212 230 255
212 230 255
212 230 255
211 230 255
211 230 255
211 230 255
211 230 255
211 230 255
211 230 255
211 230 255
211 230 255
211 230 255
211 230 255
211 230 255
211 230 255
211 230 255
211 230 255
211 230 255
211 230 255
211 230 255
211 230 255
211 230 255
211 230 255
211 230 255
211 230 255
211 230 255
211 230 255
210 230 255
210 230 255
210 229 255
210 229 255
210 229 255
210 229 255
210 229 255
210 229 255
210 229 255
210 229 255
210 229 255
210 229 255
210 229 255
210 229 255
210 229 255
210 229 255
210 229 255
210 229 255
210 229 255
210 229 255
210 229 255
209 229 255
209 229 255
209 229 255
209 229 255
209 229 255
209 229 255
209 229 255
209 229 255
209 229 255
209 229 255
209 229 255
209 229 255
209 229 255
209 229 255
209 229 255
209 229 255
209 229 255
209 229 255
209 229 255
209 228 255
208 228 255
208 228 255
208 228 255
208 228 255
208 228 255
208 228 255
208 228 255
208 228 255
208 228 255
208 228 255
208 228 255
208 228 255
208 228 255
208 228 255
208 228 255
208 228 255
208 228 255
208 228 255
208 228 255
208 228 255
207 228 255
207 228 255
207 228 255
207 228 255
207 228 255
207 228 255
207 228 255
207 228 255
207 228 255
207 228 255
207 228 255
207 228 255
207 228 255
207 228 255
207 228 255
207 228 255
207 227 255
207 227 255
207 227 255
207 227 255
207 227 255
206 227 255
206 227 255
206 227 255
206 227 255
206 227 255
206 227 255
206 227 255
206 227 255
206 227 255
206 227 255
206 227 255
206 227 255
180 198 223
79 88 100
60 67 76
59 66 76
60 67 76
55 62 70
60 67 76
59 66 75
58 65 74
58 65 74
60 67 76
60 67 77
56 63 72
59 66 75
60 67 76
60 67 76
58 65 74
60 67 77
59 65 74
59 65 74
59 66 75
59 67 76
57 64 73
58 65 74
56 63 71
58 65 75
60 66 75
60 67 77
62 69 78
59 66 75
59 66 75
60 66 75
58 64 73
58 65 74
60 66 76
58 64 73
59 66 75
56 63 71
58 65 74
59 65 74
59 66 75
58 65 74
60 67 76
60 67 76
57 63 72
56 63 72
59 66 75
58 65 73
59 66 74
58 65 75
58 65 74
61 68 77
59 65 74
58 65 74
56 62 71
57 64 73
58 65 74
60 67 77
59 66 75
59 66 76
59 66 75
59 66 75
57 64 72
59 66 74
59 66 75
59 66 75
58 65 74
59 66 75
58 65 74
58 65 74
59 66 75
59 66 75
59 66 76
59 67 76
57 64 73
58 65 74
60 67 76
58 65 75
91 101 114
187 206 232
206 227 255
206 227 255
206 227 255
206 227 255
206 227 255
206 227 255
206 227 255
206 227 255
206 227 255
206 227 255
206 227 255
206 227 255
207 227 255
207 227 255
207 227 255
207 227 255
207 227 255
207 228 255
207 228 255
207 228 255
207 228 255
207 228 255
207 228 255
207 228 255
207 228 255
207 228 255
207 228 255
207 228 255
207 228 255
207 228 255
207 228 255
207 228 255
207 228 255
208 228 255
208 228 255
208 228 255
208 228 255
208 228 255
208 228 255
208 228 255
208 228 255
208 228 255
208 228 255
208 228 255
208 228 255
208 228 255
208 228 255
208 228 255
208 228 255
208 228 255
208 228 255
208 228 255
208 228 255
209 228 255
209 229 255
209 229 255
209 229 255
209 229 255
209 229 255
209 229 255
209 229 255
209 229 255
209 229 255
209 229 255
209 229 255
209 229 255
209 229 255
209 229 255
209 229 255
209 229 255
209 229 255
209 229 255
209 229 255
210 229 255
210 229 255
210 229 255
210 229 255
210 229 255
210 229 255
210 229 255
210 229 255
210 229 255
210 229 255
210 229 255
210 229 255
210 229 255
210 229 255
210 229 255
210 229 255
210 229 255
210 229 255
210 229 255
210 230 255
210 230 255
211 230 255
211 230 255
211 230 255
211 230 255
211 230 255
211 230 255
211 230 255
211 230 255
211 230 255
211 230 255
211 230 255
211 230 255
211 230 255
211 230 255
211 230 255
211 230 255
211 230 255
211 230 255
211 230 255
211 230 255
211 230 255
211 230 255
211 230 255
211 230 255
212 230 255
212 230 255
212 230 255
212 230 255
212 230 255
212 230 255
212 230 255
212 230 255
212 230 255
212 230 255
212 230 255
212 230 255
212 230 255
212 230 255
212 230 255
212 230 255
212 230 255
212 230 255
212 230 255
212 231 255
212 231 255
212 231 255
212 231 255
212 231 255
212 231 255
212 231 255
212 231 255
212 231 255
213 231 255
213 231 255
213 231 255
213 231 255
213 231 255
213 231 255
213 231 255
213 231 255
213 231 255
213 231 255
213 231 255
213 231 255
213 231 255
213 231 255
213 231 255
213 231 255
213 231 255
213 231 255
213 231 255
213 231 255
213 231 255
213 231 255
213 231 255
213 231 255
213 231 255
213 231 255
213 231 255
213 231 255
213 231 255
213 231 255
213 231 255
213 231 255
213 231 255
212 231 255
212 231 255
212 231 255
212 231 255
212 231 255
212 231 255
212 231 255
212 231 255
212 231 255
212 230 255
212 230 255
212 230 255
212 230 255
212 230 255
212 230 255
212 230 255
212 230 255
212 230 255
212 230 255
212 230 255
212 230 255
212 230 255
212 230 255
212 230 255
212 230 255
212 230 255
212 230 255
211 230 255
211 230 255
211 230 255
211 230 255
211 230 255
211 230 255
211 230 255
211 230 255
211 230 255
211 230 255
211 230 255
211 230 255
211 230 255
211 230 255
211 230 255
211 230 255
211 230 255
211 230 255
211 230 255
211 230 255
211 230 255
211 230 255
211 230 255
211 230 255
210 230 255
210 230 255
210 230 255
210 229 255
210 229 255
210 229 255
210 229 255
210 229 255
210 229 255
210 229 255
210 229 255
210 229 255
210 229 255
210 229 255
210 229 255
210 229 255
210 229 255
210 229 255
210 229 255
210 229 255
210 229 255
210 229 255
209 229 255
209 229 255
209 229 255
209 229 255
209 229 255
209 229 255
209 229 255
209 229 255
209 229 255
209 229 255
209 229 255
209 229 255
209 229 255
209 229 255
209 229 255
209 229 255
209 229 255
209 229 255
209 228 255
209 228 255
208 228 255
208 228 255
208 228 255
208 228 255
208 228 255
208 228 255
208 228 255
208 228 255
208 228 255
208 228 255
208 228 255
208 228 255
208 228 255
208 228 255
208 228 255
208 228 255
208 228 255
208 228 255
208 228 255
208 228 255
207 228 255
207 228 255
207 228 255
207 228 255
207 228 255
207 228 255
207 228 255
207 228 255
207 228 255
207 228 255
207 228 255
207 228 255
207 228 255
207 228 255
207 228 255
207 228 255
207 227 255
207 227 255
207 227 255
207 227 255
207 227 255
206 227 255
206 227 255
206 227 255
206 227 255
206 227 255
206 227 255
159 176 198
64 71 81
60 67 76
59 67 76
58 65 74
61 68 77
57 64 73
60 66 75
59 65 74
58 65 74
57 64 72
58 65 74
60 66 76
58 64 74
59 65 74
57 63 71
57 63 72
59 66 75
59 66 75
58 65 74
57 64 73
58 65 74
58 64 73
58 64 73
56 62 71
59 66 75
58 65 74
56 63 72
60 67 76
60 67 77
58 65 74
57 64 73
58 65 73
56 63 72
58 65 74
59 66 76
58 64 74
56 63 72
57 63 72
58 65 74
58 64 73
59 66 75
61 68 76
59 66 75
57 63 72
59 66 76
59 65 73
58 65 74
59 66 74
57 65 74
60 66 76
59 66 75
57 63 72
58 65 74
59 65 73
61 67 76
58 64 73
58 65 73
57 64 72
60 66 75
59 66 75
57 64 74
57 64 73
57 64 74
57 63 72
56 63 72
57 63 72
59 65 74
59 65 74
60 67 76
61 68 77
60 66 76
58 65 74
57 64 72
59 66 75
60 67 77
56 62 71
59 65 74
60 67 77
61 68 78
74 82 93
163 180 202
206 227 255
206 227 255
206 227 255
206 227 255
206 227 255
207 227 255
207 227 255
207 227 255
207 227 255
207 227 255
207 227 255
207 228 255
207 228 255
207 228 255
207 228 255
207 228 255
207 228 255
207 228 255
207 228 255
207 228 255
207 228 255
207 228 255
207 228 255
207 228 255
207 228 255
207 228 255
207 228 255
208 228 255
208 228 255
208 228 255
208 228 255
208 228 255
208 228 255
208 228 255
208 228 255
208 228 255
208 228 255
208 228 255
208 228 255
208 228 255
208 228 255
208 228 255
208 228 255
208 228 255
208 228 255
208 228 255
208 228 255
209 228 255
209 228 255
209 229 255
209 229 255
209 229 255
209 229 255
209 229 255
209 229 255
209 229 255
209 229 255
209 229 255
209 229 255
209 229 255
209 229 255
209 229 255
209 229 255
209 229 255
209 229 255
209 229 255
209 229 255
210 229 255
210 229 255
210 229 255
210 229 255
210 229 255
210 229 255
210 229 255
210 229 255
210 229 255
210 229 255
210 229 255
210 229 255
210 229 255
210 229 255
210 229 255
210 229 255
210 229 255
210 229 255
210 229 255
210 230 255
210 230 255
210 230 255
211 230 255
211 230 255
211 230 255
211 230 255
211 230 255
211 230 255
211 230 255
211 230 255
211 230 255
211 230 255
211 230 255
211 230 255
211 230 255
211 230 255
211 230 255
211 230 255
211 230 255
211 230 255
211 230 255
211 230 255
211 230 255
211 230 255
211 230 255
211 230 255
212 230 255
212 230 255
212 230 255
212 230 255
212 230 255
212 230 255
212 230 255
212 230 255
212 230 255
212 230 255
212 230 255
212 230 255
212 230 255
212 230 255
212 230 255
212 230 255
212 230 255
212 230 255
212 230 255
212 231 255
212 231 255
212 231 255
212 231 255
212 231 255
212 231 255
212 231 255
212 231 255
213 231 255
213 231 255
213 231 255
213 231 255
213 231 255
213 231 255
213 231 255
213 231 255
213 231 255
213 231 255
213 231 255
213 231 255
213 231 255
213 231 255
213 231 255
213 231 255
213 231 255
213 231 255
213 231 255
213 231 255
213 231 255
213 231 255
213 231 255
213 231 255
213 231 255
213 231 255
213 231 255
213 231 255
213 231 255
213 231 255
213 231 255
213 231 255
213 231 255
213 231 255
213 231 255
213 231 255
213 231 255
213 231 255
213 231 255
213 231 255
213 231 255
213 231 255
213 231 255
212 231 255
212 231 255
212 231 255
212 231 255
212 231 255
212 231 255
212 231 255
212 231 255
212 231 255
212 230 255
212 230 255
212 230 255
212 230 255
212 230 255
212 230 255
212 230 255
212 230 255
212 230 255
212 230 255
212 230 255
212 230 255
212 230 255
212 230 255
212 230 255
212 230 255
212 230 255
212 230 255
211 230 255
211 230 255
211 230 255
211 230 255
211 230 255
211 230 255
211 230 255
211 230 255
211 230 255
211 230 255
211 230 255
211 230 255
211 230 255
211 230 255
211 230 255
211 230 255
211 230 255
211 230 255
211 230 255
211 230 255
211 230 255
211 230 255
211 230 255
211 230 255
210 230 255
210 230 255
210 229 255
210 229 255
210 229 255
210 229 255
210 229 255
210 229 255
210 229 255
210 229 255
210 229 255
210 229 255
210 229 255
210 229 255
210 229 255
210 229 255
210 229 255
210 229 255
210 229 255
210 229 255
210 229 255
209 229 255
209 229 255
209 229 255
209 229 255
209 229 255
209 229 255
209 229 255
209 229 255
209 229 255
209 229 255
209 229 255
209 229 255
209 229 255
209 229 255
209 229 255
209 229 255
209 229 255
209 229 255
209 229 255
209 228 255
209 228 255
208 228 255
208 228 255
208 228 255
208 228 255
208 228 255
208 228 255
208 228 255
208 228 255
208 228 255
208 228 255
208 228 255
208 228 255
208 228 255
208 228 255
208 228 255
208 228 255
208 228 255
208 228 255
208 228 255
208 228 255
207 228 255
207 228 255
207 228 255
207 228 255
207 228 255
207 228 255
207 228 255
207 228 255
207 228 255
207 228 255
207 228 255
207 228 255
207 228 255
207 228 255
207 228 255
207 228 255
207 228 255
207 227 255
207 227 255
207 227 255
205 225 253
131 145 163
60 67 76
59 66 75
58 65 74
60 67 76
56 64 73
60 67 76
57 63 72
57 64 73
60 67 76
57 65 74
59 66 74
59 66 74
57 63 72
55 62 71
58 65 74
59 65 74
60 67 76
60 67 76
57 64 73
59 66 75
60 67 76
58 64 73
59 66 76
59 66 75
58 64 73
59 66 75
57 63 72
59 66 76
54 61 69
59 66 74
59 66 75
57 64 73
59 65 74
56 63 72
61 68 77
57 63 72
56 63 72
59 66 74
59 66 75
59 65 74
58 64 73
55 62 70
57 64 73
59 65 74
58 65 74
59 66 75
55 62 70
59 66 75
57 63 72
57 63 72
60 67 76
57 63 72
58 65 74
58 65 74
59 66 74
59 66 75
59 65 73
57 64 72
60 67 76
59 66 75
60 67 75
56 64 73
58 65 74
57 64 73
58 65 74
56 62 71
59 66 75
57 64 73
59 66 75
58 64 73
61 68 77
57 64 72
56 63 71
59 66 74
59 66 75
58 65 74
56 63 72
59 66 74
59 66 75
58 65 75
59 65 74
59 66 76
139 153 172
204 224 252
207 227 255
207 227 255
207 227 255
207 228 255
207 228 255
207 228 255
207 228 255
207 228 255
207 228 255
207 228 255
207 228 255
207 228 255
207 228 255
207 228 255
207 228 255
207 228 255
207 228 255
207 228 255
207 228 255
207 228 255
208 228 255
208 228 255
208 228 255
208 228 255
208 228 255
208 228 255
208 228 255
208 228 255
208 228 255
208 228 255
208 228 255
208 228 255
208 228 255
208 228 255
208 228 255
208 228 255
208 228 255
208 228 255
208 228 255
208 228 255
208 228 255
209 228 255
209 229 255
209 229 255
209 229 255
209 229 255
209 229 255
209 229 255
209 229 255
209 229 255
209 229 255
209 229 255
209 229 255
209 229 255
209 229 255
209 229 255
209 229 255
209 229 255
209 229 255
209 229 255
209 229 255
210 229 255
210 229 255
210 229 255
210 229 255
210 229 255
210 229 255
210 229 255
210 229 255
210 229 255
210 229 255
210 229 255
210 229 255
210 229 255
210 229 255
210 229 255
210 229 255
210 229 255
210 229 255
210 229 255
210 230 255
210 230 255
211 230 255
211 230 255
211 230 255
211 230 255
211 230 255
211 230 255
211 230 255
211 230 255
211 230 255
211 230 255
211 230 255
211 230 255
211 230 255
211 230 255
211 230 255
211 230 255
211 230 255
211 230 255
211 230 255
211 230 255
211 230 255
211 230 255
211 230 255
211 230 255
212 230 255
212 230 255
212 230 255
212 230 255
212 230 255
212 230 255
212 230 255
212 230 255
212 230 255
212 230 255
212 230 255
212 230 255
212 230 255
212 230 255
212 230 255
212 230 255
212 230 255
212 230 255
212 230 255
212 231 255
212 231 255
212 231 255
212 231 255
212 231 255
212 231 255
212 231 255
212 231 255
213 231 255
213 231 255
213 231 255
213 231 255
213 231 255
213 231 255
213 231 255
213 231 255
213 231 255
213 231 255
213 231 255
213 231 255
213 231 255
213 231 255
213 231 255
213 231 255
213 231 255
213 231 255
213 231 255
213 231 255
213 231 255
213 231 255
213 231 255
213 231 255
213 231 255
213 231 255
213 231 255
213 231 255
213 231 255
213 231 255
213 231 255
213 231 255
213 231 255
213 231 255
213 231 255
213 231 255
213 231 255
213 231 255
213 231 255
213 231 255
213 231 255
213 231 255
213 231 255
213 231 255
213 231 255
213 231 255
213 231 255
213 231 255
213 231 255
213 231 255
213 231 255
213 231 255
213 231 255
212 231 255
212 231 255
212 231 255
212 231 255
212 231 255
212 231 255
212 231 255
212 231 255
212 230 255
212 230 255
212 230 255
212 230 255
212 230 255
212 230 255
212 230 255
212 230 255
212 230 255
212 230 255
212 230 255
212 230 255
212 230 255
212 230 255
212 230 255
212 230 255
212 230 255
212 230 255
212 230 255
211 230 255
211 230 255
211 230 255
211 230 255
211 230 255
211 230 255
211 230 255
211 230 255
211 230 255
211 230 255
211 230 255
211 230 255
211 230 255
211 230 255
211 230 255
211 230 255
211 230 255
211 230 255
211 230 255
211 230 255
211 230 255
211 230 255
211 230 255
210 230 255
210 230 255
210 230 255
210 229 255
210 229 255
210 229 255
210 229 255
210 229 255
210 229 255
210 229 255
210 229 255
210 229 255
210 229 255
210 229 255
210 229 255
210 229 255
210 229 255
210 229 255
210 229 255
210 229 255
210 229 255
210 229 255
209 229 255
209 229 255
209 229 255
209 229 255
209 229 255
209 229 255
209 229 255
209 229 255
209 229 255
209 229 255
209 229 255
209 229 255
209 229 255
209 229 255
209 229 255
209 229 255
209 229 255
209 229 255
209 229 255
209 228 255
208 228 255
208 228 255
208 228 255
208 228 255
208 228 255
208 228 255
208 228 255
208 228 255
208 228 255
208 228 255
208 228 255
208 228 255
208 228 255
208 228 255
208 228 255
208 228 255
208 228 255
208 228 255
208 228 255
208 228 255
208 228 255
207 228 255
207 228 255
207 228 255
207 228 255
207 228 255
207 228 255
207 228 255
207 228 255
207 228 255
207 228 255
207 228 255
207 228 255
207 228 255
207 228 255
200 220 247
121 133 150
56 63 72
59 66 75
56 63 72
58 65 74
58 65 74
59 66 75
58 64 73
59 66 74
57 64 74
57 64 73
59 66 76
56 63 72
60 67 76
57 65 74
58 65 74
58 65 74
60 66 75
59 66 76
61 68 77
60 67 76
54 60 69
58 64 73
59 66 75
59 65 74
59 66 74
57 63 72
57 64 73
60 66 76
59 66 76
58 65 74
58 65 73
59 66 75
59 66 74
59 66 75
59 66 75
58 64 73
58 65 74
57 64 73
59 66 75
56 63 71
56 63 72
56 63 71
58 64 73
58 64 73
58 64 73
57 63 72
58 65 73
58 64 73
57 63 72
57 64 72
58 65 74
58 64 72
59 65 74
58 64 73
56 63 72
57 64 73
58 65 74
58 64 73
58 65 73
60 66 75
58 65 73
60 67 76
59 66 74
58 64 73
57 64 72
59 65 74
60 66 75
59 65 74
58 65 74
57 64 72
59 66 75
57 64 73
59 66 75
60 66 76
60 67 76
57 64 72
59 66 75
61 67 76
58 64 74
58 64 73
58 64 74
60 67 76
58 64 73
59 66 75
128 141 159
203 223 251
207 228 255
207 228 255
207 228 255
207 228 255
207 228 255
207 228 255
207 228 255
207 228 255
207 228 255
207 228 255
207 228 255
207 228 255
207 228 255
207 228 255
208 228 255
208 228 255
208 228 255
208 228 255
208 228 255
208 228 255
208 228 255
208 228 255
208 228 255
208 228 255
208 228 255
208 228 255
208 228 255
208 228 255
208 228 255
208 228 255
208 228 255
208 228 255
208 228 255
208 228 255
208 228 255
209 228 255
209 228 255
209 229 255
209 229 255
209 229 255
209 229 255
209 229 255
209 229 255
209 229 255
209 229 255
209 229 255
209 229 255
209 229 255
209 229 255
209 229 255
209 229 255
209 229 255
209 229 255
209 229 255
209 229 255
210 229 255
210 229 255
210 229 255
210 229 255
210 229 255
210 229 255
210 229 255
210 229 255
210 229 255
210 229 255
210 229 255
210 229 255
210 229 255
210 229 255
210 229 255
210 229 255
210 229 255
210 229 255
210 229 255
210 230 255
210 230 255
211 230 255
211 230 255
211 230 255
211 230 255
211 230 255
211 230 255
211 230 255
211 230 255
211 230 255
211 230 255
211 230 255
211 230 255
211 230 255
211 230 255
211 230 255
211 230 255
211 230 255
211 230 255
211 230 255
211 230 255
211 230 255
211 230 255
211 230 255
211 230 255
212 230 255
212 230 255
212 230 255
212 230 255
212 230 255
212 230 255
212 230 255
212 230 255
212 230 255
212 230 255
212 230 255
212 230 255
212 230 255
212 230 255
212 230 255
212 230 255
212 230 255
212 230 255
212 230 255
212 231 255
212 231 255
212 231 255
212 231 255
212 231 255
212 231 255
212 231 255
212 231 255
213 231 255
213 231 255
213 231 255
213 231 255
213 231 255
213 231 255
213 231 255
213 231 255
213 231 255
213 231 255
213 231 255
213 231 255
213 231 255
213 231 255
213 231 255
213 231 255
213 231 255
213 231 255
213 231 255
213 231 255
213 231 255
213 231 255
213 231 255
213 231 255
213 231 255
213 231 255
213 231 255
213 231 255
213 231 255
214 231 255
214 231 255
213 231 255
213 231 255
213 231 255
213 231 255
213 231 255
213 231 255
213 231 255
213 231 255
213 231 255
213 231 255
213 231 255
213 231 255
213 231 255
213 231 255
213 231 255
213 231 255
213 231 255
213 231 255
213 231 255
213 231 255
213 231 255
213 231 255
213 231 255
213 231 255
213 231 255
213 231 255
213 231 255
213 231 255
213 231 255
213 231 255
213 231 255
213 231 255
212 231 255
212 231 255
212 231 255
212 231 255
212 231 255
212 231 255
212 231 255
212 231 255
212 230 255
212 230 255
212 230 255
212 230 255
212 230 255
212 230 255
212 230 255
212 230 255
212 230 255
212 230 255
212 230 255
212 230 255
212 230 255
212 230 255
212 230 255
212 230 255
212 230 255
212 230 255
212 230 255
211 230 255
211 230 255
211 230 255
211 230 255
211 230 255
211 230 255
211 230 255
211 230 255
211 230 255
211 230 255
211 230 255
211 230 255
211 230 255
211 230 255
211 230 255
211 230 255
211 230 255
211 230 255
211 230 255
211 230 255
211 230 255
211 230 255
211 230 255
210 230 255
210 230 255
210 229 255
210 229 255
210 229 255
210 229 255
210 229 255
210 229 255
210 229 255
210 229 255
210 229 255
210 229 255
210 229 255
210 229 255
210 229 255
210 229 255
210 229 255
210 229 255
210 229 255
210 229 255
210 229 255
210 229 255
209 229 255
209 229 255
209 229 255
209 229 255
209 229 255
209 229 255
209 229 255
209 229 255
209 229 255
209 229 255
209 229 255
209 229 255
209 229 255
209 229 255
209 229 255
209 229 255
209 229 255
209 229 255
209 228 255
209 228 255
208 228 255
208 228 255
208 228 255
208 228 255
208 228 255
208 228 255
208 228 255
208 228 255
208 228 255
208 228 255
208 228 255
208 228 255
208 228 255
208 228 255
208 228 255
208 228 255
208 228 255
208 228 255
208 228 255
208 228 255
208 228 255
208 228 255
207 228 255
207 228 255
207 228 255
207 228 255
207 228 255
207 228 255
207 228 255
201 221 248
111 122 137
60 67 76
58 64 73
60 67 76
57 64 73
59 66 75
58 64 73
57 63 72
59 66 76
61 67 76
60 66 75
59 66 75
58 65 74
56 62 71
57 64 73
59 65 74
58 65 74
57 64 73
57 63 72
56 62 70
59 66 75
59 65 74
55 62 71
56 63 72
59 66 75
58 65 74
58 65 74
59 66 75
59 65 74
58 65 73
58 65 74
59 65 73
57 63 71
58 65 74
59 66 74
57 64 73
58 64 73
56 63 71
58 64 72
58 64 73
56 62 71
58 65 74
58 65 74
58 64 73
55 62 71
57 63 72
56 62 71
57 63 72
59 66 75
59 66 75
58 65 74
56 62 70
59 66 74
59 66 75
62 68 77
58 64 73
58 65 74
59 66 75
57 63 72
56 63 72
57 63 72
58 65 73
59 66 75
58 65 74
59 66 75
57 64 73
56 63 72
59 65 74
58 65 74
58 65 74
57 64 72
57 64 72
59 66 74
57 64 72
58 65 74
59 66 75
59 66 75
60 67 75
60 67 76
58 64 73
58 65 74
60 66 75
58 64 73
58 65 74
60 67 76
61 68 77
58 65 74
114 126 142
199 219 246
207 228 255
207 228 255
207 228 255
207 228 255
207 228 255
207 228 255
207 228 255
208 228 255
208 228 255
208 228 255
208 228 255
208 228 255
208 228 255
208 228 255
208 228 255
208 228 255
208 228 255
208 228 255
208 228 255
208 228 255
208 228 255
208 228 255
208 228 255
208 228 255
208 228 255
208 228 255
208 228 255
208 228 255
208 228 255
209 228 255
209 229 255
209 229 255
209 229 255
209 229 255
209 229 255
209 229 255
209 229 255
209 229 255
209 229 255
209 229 255
209 229 255
209 229 255
209 229 255
209 229 255
209 229 255
209 229 255
209 229 255
209 229 255
209 229 255
210 229 255
210 229 255
210 229 255
210 229 255
210 229 255
210 229 255
210 229 255
210 229 255
210 229 255
210 229 255
210 229 255
210 229 255
210 229 255
210 229 255
210 229 255
210 229 255
210 229 255
210 229 255
210 229 255
210 229 255
210 230 255
210 230 255
211 230 255
211 230 255
211 230 255
211 230 255
211 230 255
211 230 255
211 230 255
211 230 255
211 230 255
211 230 255
211 230 255
211 230 255
211 230 255
211 230 255
211 230 255
211 230 255
211 230 255
211 230 255
211 230 255
211 230 255
211 230 255
211 230 255
211 230 255
212 230 255
212 230 255
212 230 255
212 230 255
212 230 255
212 230 255
212 230 255
212 230 255
212 230 255
212 230 255
212 230 255
212 230 255
212 230 255
212 230 255
212 230 255
212 230 255
212 230 255
212 230 255
212 230 255
212 231 255
212 231 255
212 231 255
212 231 255
212 231 255
212 231 255
212 231 255
212 231 255
213 231 255
213 231 255
213 231 255
213 231 255
213 231 255
213 231 255
213 231 255
213 231 255
213 231 255
213 231 255
213 231 255
213 231 255
213 231 255
213 231 255
213 231 255
213 231 255
213 231 255
213 231 255
213 231 255
213 231 255
213 231 255
213 231 255
213 231 255
213 231 255
213 231 255
213 231 255
213 231 255
213 231 255
213 231 255
213 231 255
213 231 255
214 231 255
214 231 255
214 231 255
214 231 255
214 231 255
214 231 255
214 231 255
214 231 255
214 231 255
214 231 255
214 231 255
213 231 255
213 231 255
213 231 255
213 231 255
213 231 255
213 231 255
213 231 255
213 231 255
213 231 255
213 231 255
213 231 255
213 231 255
213 231 255
213 231 255
213 231 255
213 231 255
213 231 255
213 231 255
213 231 255
213 231 255
213 231 255
213 231 255
213 231 255
213 231 255
213 231 255
213 231 255
213 231 255
213 231 255
213 231 255
213 231 255
213 231 255
212 231 255
212 231 255
212 231 255
212 231 255
212 231 255
212 231 255
212 231 255
212 231 255
212 230 255
212 230 255
212 230 255
212 230 255
212 230 255
212 230 255
212 230 255
212 230 255
212 230 255
212 230 255
212 230 255
212 230 255
212 230 255
212 230 255
212 230 255
212 230 255
212 230 255
212 230 255
212 230 255
211 230 255
211 230 255
211 230 255
211 230 255
211 230 255
211 230 255
211 230 255
211 230 255
211 230 255
211 230 255
211 230 255
211 230 255
211 230 255
211 230 255
211 230 255
211 230 255
211 230 255
211 230 255
211 230 255
211 230 255
211 230 255
211 230 255
211 230 255
210 230 255
210 230 255
210 229 255
210 229 255
210 229 255
210 229 255
210 229 255
210 229 255
210 229 255
210 229 255
210 229 255
210 229 255
210 229 255
210 229 255
210 229 255
210 229 255
210 229 255
210 229 255
210 229 255
210 229 255
210 229 255
209 229 255
209 229 255
209 229 255
209 229 255
209 229 255
209 229 255
209 229 255
209 229 255
209 229 255
209 229 255
209 229 255
209 229 255
209 229 255
209 229 255
209 229 255
209 229 255
209 229 255
209 229 255
209 229 255
209 229 255
209 228 255
209 228 255
208 228 255
208 228 255
208 228 255
208 228 255
208 228 255
208 228 255
208 228 255
208 228 255
208 228 255
208 228 255
208 228 255
208 228 255
208 228 255
208 228 255
208 228 255
208 228 255
208 228 255
208 228 255
208 228 255
208 228 255
208 228 255
208 228 255
202 222 248
88 97 109
59 66 75
60 67 76
56 63 72
59 66 75
59 66 75
59 66 75
59 66 75
61 67 77
58 65 74
58 64 72
60 66 76
60 66 75
57 64 73
56 62 71
58 65 74
59 65 74
56 62 71
57 64 72
58 64 72
57 63 72
58 64 73
59 66 74
59 66 74
60 67 76
58 65 74
58 64 73
58 64 73
56 63 72
58 64 72
57 63 72
60 67 76
57 64 72
58 65 74
59 65 74
57 64 72
58 64 72
59 66 75
59 65 74
59 65 74
58 65 73
57 64 73
58 64 73
57 63 71
53 60 68
58 64 72
56 62 70
56 63 72
58 65 73
57 63 72
56 62 71
56 63 71
57 63 71
56 62 70
57 63 72
58 64 73
57 64 72
57 63 72
55 61 70
58 64 73
57 63 71
58 64 73
60 66 75
58 64 73
57 64 72
60 67 76
58 64 73
59 66 75
58 64 73
59 66 75
59 66 75
57 64 72
57 64 72
56 63 72
57 64 73
58 65 74
56 62 71
57 64 73
60 67 76
58 65 74
58 65 73
58 64 73
58 64 73
58 65 74
57 64 73
59 65 74
60 67 76
56 63 72
58 65 74
87 96 109
200 219 246
208 228 255
208 228 255
208 228 255
208 228 255
208 228 255
208 228 255
208 228 255
208 228 255
208 228 255
208 228 255
208 228 255
208 228 255
208 228 255
208 228 255
208 228 255
208 228 255
208 228 255
208 228 255
208 228 255
208 228 255
208 228 255
208 228 255
208 228 255
209 228 255
209 229 255
209 229 255
209 229 255
209 229 255
209 229 255
209 229 255
209 229 255
209 229 255
209 229 255
209 229 255
209 229 255
209 229 255
209 229 255
209 229 255
209 229 255
209 229 255
209 229 255
209 229 255
209 229 255
209 229 255
210 229 255
210 229 255
210 229 255
210 229 255
210 229 255
210 229 255
210 229 255
210 229 255
210 229 255
210 229 255
210 229 255
210 229 255
210 229 255
210 229 255
210 229 255
210 229 255
210 229 255
210 229 255
210 229 255
210 230 255
210 230 255
211 230 255
211 230 255
211 230 255
211 230 255
211 230 255
211 230 255
211 230 255
211 230 255
211 230 255
211 230 255
211 230 255
211 230 255
211 230 255
211 230 255
211 230 255
211 230 255
211 230 255
211 230 255
211 230 255
211 230 255
211 230 255
211 230 255
211 230 255
212 230 255
212 230 255
212 230 255
212 230 255
212 230 255
212 230 255
212 230 255
212 230 255
212 230 255
212 230 255
212 230 255
212 230 255
212 230 255
212 230 255
212 230 255
212 230 255
212 230 255
212 230 255
212 230 255
212 231 255
212 231 255
212 231 255
212 231 255
212 231 255
212 231 255
212 231 255
212 231 255
213 231 255
213 231 255
213 231 255
213 231 255
213 231 255
213 231 255
213 231 255
213 231 255
213 231 255
213 231 255
213 231 255
213 231 255
213 231 255
213 231 255
213 231 255
213 231 255
213 231 255
213 231 255
213 231 255
213 231 255
213 231 255
213 231 255
213 231 255
213 231 255
213 231 255
213 231 255
213 231 255
213 231 255
213 231 255
213 231 255
213 231 255
214 231 255
214 231 255
214 231 255
214 231 255
214 231 255
214 231 255
214 231 255
214 231 255
214 231 255
214 231 255
214 231 255
214 231 255
214 231 255
214 231 255
214 231 255
214 231 255
214 231 255
214 231 255
214 231 255
214 231 255
214 231 255
214 231 255
213 231 255
213 231 255
213 231 255
213 231 255
213 231 255
213 231 255
213 231 255
213 231 255
213 231 255
213 231 255
213 231 255
213 231 255
213 231 255
213 231 255
213 231 255
213 231 255
213 231 255
213 231 255
213 231 255
213 231 255
213 231 255
213 231 255
213 231 255
213 231 255
213 231 255
213 231 255
213 231 255
213 231 255
213 231 255
213 231 255
212 231 255
212 231 255
212 231 255
212 231 255
212 231 255
212 231 255
212 231 255
212 231 255
212 231 255
212 230 255
212 230 255
212 230 255
212 230 255
212 230 255
212 230 255
212 230 255
212 230 255
212 230 255
212 230 255
212 230 255
212 230 255
212 230 255
212 230 255
212 230 255
212 230 255
212 230 255
211 230 255
211 230 255
211 230 255
211 230 255
211 230 255
211 230 255
211 230 255
211 230 255
211 230 255
211 230 255
211 230 255
211 230 255
211 230 255
211 230 255
211 230 255
211 230 255
211 230 255
211 230 255
211 230 255
211 230 255
211 230 255
211 230 255
211 230 255
211 230 255
210 230 255
210 230 255
210 229 255
210 229 255
210 229 255
210 229 255
210 229 255
210 229 255
210 229 255
210 229 255
210 229 255
210 229 255
210 229 255
210 229 255
210 229 255
210 229 255
210 229 255
210 229 255
210 229 255
210 229 255
210 229 255
210 229 255
209 229 255
209 229 255
209 229 255
209 229 255
209 229 255
209 229 255
209 229 255
209 229 255
209 229 255
209 229 255
209 229 255
209 229 255
209 229 255
209 229 255
209 229 255
209 229 255
209 229 255
209 229 255
209 229 255
209 229 255
209 228 255
208 228 255
208 228 255
208 228 255
208 228 255
208 228 255
208 228 255
208 228 255
208 228 255
208 228 255
208 228 255
208 228 255
208 228 255
208 228 255
208 228 255
208 228 255
208 228 255
196 215 241
117 129 145
59 66 75
59 66 74
59 65 74
57 64 73
59 66 75
57 64 72
58 64 73
58 65 74
56 63 72
58 65 74
60 67 75
56 63 71
56 63 72
59 66 76
58 65 73
57 63 71
58 65 74
57 63 72
57 63 71
58 64 73
57 64 73
57 64 73
55 61 70
58 64 73
57 63 72
60 66 75
57 63 71
60 67 76
56 62 70
56 63 71
58 65 74
59 66 75
60 67 76
57 63 72
58 64 72
58 64 73
55 61 70
60 66 75
57 64 73
60 67 75
55 62 70
59 66 75
57 63 72
57 64 72
55 62 71
58 65 74
59 66 74
57 64 73
58 65 74
54 60 69
58 64 72
58 65 73
58 65 73
56 63 72
57 63 72
57 64 72
57 64 73
58 65 73
59 65 74
56 63 72
60 66 75
57 63 72
55 62 71
59 65 73
58 65 73
56 62 71
58 64 72
60 66 75
59 66 75
60 66 75
59 66 74
60 67 76
56 63 72
59 66 75
59 66 76
58 64 73
57 63 72
58 65 74
60 67 76
57 63 71
58 65 73
58 65 73
56 62 70
56 63 72
59 66 75
58 65 73
60 66 75
59 65 74
57 65 74
59 66 75
95 105 119
196 215 241
208 228 255
208 228 255
208 228 255
208 228 255
208 228 255
208 228 255
208 228 255
208 228 255
208 228 255
208 228 255
208 228 255
208 228 255
208 228 255
208 228 255
208 228 255
208 228 255
209 228 255
209 228 255
209 229 255
209 229 255
209 229 255
209 229 255
209 229 255
209 229 255
209 229 255
209 229 255
209 229 255
209 229 255
209 229 255
209 229 255
209 229 255
209 229 255
209 229 255
209 229 255
209 229 255
209 229 255
209 229 255
209 229 255
210 229 255
210 229 255
210 229 255
210 229 255
210 229 255
210 229 255
210 229 255
210 229 255
210 229 255
210 229 255
210 229 255
210 229 255
210 229 255
210 229 255
210 229 255
210 229 255
210 229 255
210 229 255
210 229 255
210 230 255
210 230 255
211 230 255
211 230 255
211 230 255
211 230 255
211 230 255
211 230 255
211 230 255
211 230 255
211 230 255
211 230 255
211 230 255
211 230 255
211 230 255
211 230 255
211 230 255
211 230 255
211 230 255
211 230 255
211 230 255
211 230 255
211 230 255
211 230 255
211 230 255
211 230 255
212 230 255
212 230 255
212 230 255
212 230 255
212 230 255
212 230 255
212 230 255
212 230 255
212 230 255
212 230 255
212 230 255
212 230 255
212 230 255
212 230 255
212 230 255
212 230 255
212 230 255
212 230 255
212 231 255
212 231 255
212 231 255
212 231 255
212 231 255
212 231 255
212 231 255
212 231 255
213 231 255
213 231 255
213 231 255
213 231 255
213 231 255
213 231 255
213 231 255
213 231 255
213 231 255
213 231 255
213 231 255
213 231 255
213 231 255
213 231 255
213 231 255
213 231 255
213 231 255
213 231 255
213 231 255
213 231 255
213 231 255
213 231 255
213 231 255
213 231 255
213 231 255
213 231 255
213 231 255
213 231 255
213 231 255
213 231 255
213 231 255
214 231 255
214 231 255
214 231 255
214 231 255
214 231 255
214 231 255
214 231 255
214 231 255
214 231 255
214 231 255
214 231 255
214 231 255
214 231 255
214 232 255
214 231 255
214 231 255
214 231 255
214 231 255
214 231 255
214 231 255
214 231 255
214 231 255
214 231 255
214 231 255
214 231 255
214 231 255
214 231 255
214 231 255
214 231 255
214 231 255
214 231 255
214 231 255
213 231 255
213 231 255
213 231 255
213 231 255
213 231 255
213 231 255
213 231 255
213 231 255
213 231 255
213 231 255
213 231 255
213 231 255
213 231 255
213 231 255
213 231 255
213 231 255
213 231 255
213 231 255
213 231 255
213 231 255
213 231 255
213 231 255
213 231 255
213 231 255
213 231 255
213 231 255
213 231 255
213 231 255
213 231 255
213 231 255
213 231 255
212 231 255
212 231 255
212 231 255
212 231 255
212 231 255
212 231 255
212 231 255
212 231 255
212 230 255
212 230 255
212 230 255
212 230 255
212 230 255
212 230 255
212 230 255
212 230 255
212 230 255
212 230 255
212 230 255
212 230 255
212 230 255
212 230 255
212 230 255
212 230 255
212 230 255
211 230 255
211 230 255
211 230 255
211 230 255
211 230 255
211 230 255
211 230 255
211 230 255
211 230 255
211 230 255
211 230 255
211 230 255
211 230 255
211 230 255
211 230 255
211 230 255
211 230 255
211 230 255
211 230 255
211 230 255
211 230 255
211 230 255
211 230 255
211 230 255
210 230 255
210 230 255
210 229 255
210 229 255
210 229 255
210 229 255
210 229 255
210 229 255
210 229 255
210 229 255
210 229 255
210 229 255
210 229 255
210 229 255
210 229 255
210 229 255
210 229 255
210 229 255
210 229 255
210 229 255
210 229 255
210 229 255
209 229 255
209 229 255
209 229 255
209 229 255
209 229 255
209 229 255
209 229 255
209 229 255
209 229 255
209 229 255
209 229 255
209 229 255
209 229 255
209 229 255
209 229 255
209 229 255
209 229 255
209 229 255
209 229 255
209 229 255
209 228 255
209 228 255
208 228 255
208 228 255
208 228 255
208 228 255
208 228 255
208 228 255
208 228 255
208 228 255
208 228 255
200 220 246
100 110 124
59 66 75
59 65 74
60 66 75
57 63 72
60 66 75
60 67 76
59 66 75
59 66 75
58 64 73
58 65 74
58 64 72
60 66 75
62 69 78
58 64 73
59 66 74
57 64 72
56 62 70
59 65 74
58 65 74
58 65 73
58 64 73
58 64 73
57 63 72
55 62 70
58 64 74
59 65 74
56 63 71
58 65 73
59 65 74
56 62 71
57 64 72
55 62 71
60 67 76
57 63 72
57 63 71
57 63 72
58 64 73
54 60 68
57 64 72
58 65 73
58 64 72
55 61 69
58 64 73
57 63 72
57 63 72
56 63 72
57 64 73
58 65 74
55 61 70
58 64 72
58 65 74
59 65 74
57 63 72
59 65 74
55 61 70
58 65 73
58 65 73
59 65 74
58 65 74
57 64 72
56 63 71
58 64 72
57 64 72
56 62 70
57 64 73
54 61 69
57 64 72
55 61 69
57 64 72
56 62 71
57 64 73
57 63 72
55 62 70
56 63 72
56 63 71
59 66 75
57 64 72
57 63 71
57 63 71
59 66 75
58 65 74
58 65 74
59 66 74
58 65 73
57 63 72
57 64 72
59 65 74
59 65 74
60 67 76
60 66 75
58 65 74
58 65 74
101 111 125
198 217 243
208 228 255
208 228 255
208 228 255
208 228 255
208 228 255
208 228 255
208 228 255
208 228 255
208 228 255
209 228 255
209 229 255
209 229 255
209 229 255
209 229 255
209 229 255
209 229 255
209 229 255
209 229 255
209 229 255
209 229 255
209 229 255
209 229 255
209 229 255
209 229 255
209 229 255
209 229 255
209 229 255
209 229 255
209 229 255
209 229 255
209 229 255
210 229 255
210 229 255
210 229 255
210 229 255
210 229 255
210 229 255
210 229 255
210 229 255
210 229 255
210 229 255
210 229 255
210 229 255
210 229 255
210 229 255
210 229 255
210 229 255
210 229 255
210 229 255
210 229 255
210 229 255
210 230 255
210 230 255
210 230 255
211 230 255
211 230 255
211 230 255
211 230 255
211 230 255
211 230 255
211 230 255
211 230 255
211 230 255
211 230 255
211 230 255
211 230 255
211 230 255
211 230 255
211 230 255
211 230 255
211 230 255
211 230 255
211 230 255
211 230 255
211 230 255
211 230 255
211 230 255
212 230 255
212 230 255
212 230 255
212 230 255
212 230 255
212 230 255
212 230 255
212 230 255
212 230 255
212 230 255
212 230 255
212 230 255
212 230 255
212 230 255
212 230 255
212 230 255
212 230 255
212 230 255
212 231 255
212 231 255
212 231 255
212 231 255
212 231 255
212 231 255
212 231 255
213 231 255
213 231 255
213 231 255
213 231 255
213 231 255
213 231 255
213 231 255
213 231 255
213 231 255
213 231 255
213 231 255
213 231 255
213 231 255
213 231 255
213 231 255
213 231 255
213 231 255
213 231 255
213 231 255
213 231 255
213 231 255
213 231 255
213 231 255
213 231 255
213 231 255
213 231 255
213 231 255
213 231 255
213 231 255
213 231 255
213 231 255
214 231 255
214 231 255
214 231 255
214 231 255
214 231 255
214 231 255
214 231 255
214 231 255
214 231 255
214 231 255
214 231 255
214 231 255
214 231 255
214 231 255
214 231 255
214 231 255
214 231 255
214 231 255
214 232 255
214 232 255
214 232 255
214 232 255
214 232 255
214 232 255
214 232 255
214 232 255
214 231 255
214 231 255
214 231 255
214 231 255
214 231 255
214 231 255
214 231 255
214 231 255
214 231 255
214 231 255
214 231 255
214 231 255
214 231 255
214 231 255
214 231 255
214 231 255
214 231 255
214 231 255
213 231 255
213 231 255
213 231 255
213 231 255
213 231 255
213 231 255
213 231 255
213 231 255
213 231 255
213 231 255
213 231 255
213 231 255
213 231 255
213 231 255
213 231 255
213 231 255
213 231 255
213 231 255
213 231 255
213 231 255
213 231 255
213 231 255
213 231 255
213 231 255
213 231 255
213 231 255
213 231 255
213 231 255
213 231 255
213 231 255
212 231 255
212 231 255
212 231 255
212 231 255
212 231 255
212 231 255
212 231 255
212 231 255
212 230 255
212 230 255
212 230 255
212 230 255
212 230 255
212 230 255
212 230 255
212 230 255
212 230 255
212 230 255
212 230 255
212 230 255
212 230 255
212 230 255
212 230 255
212 230 255
212 230 255
211 230 255
211 230 255
211 230 255
211 230 255
211 230 255
211 230 255
211 230 255
211 230 255
211 230 255
211 230 255
211 230 255
211 230 255
211 230 255
211 230 255
211 230 255
211 230 255
211 230 255
211 230 255
211 230 255
211 230 255
211 230 255
211 230 255
211 230 255
211 230 255
210 230 255
210 230 255
210 229 255
210 229 255
210 229 255
210 229 255
210 229 255
210 229 255
210 229 255
210 229 255
210 229 255
210 229 255
210 229 255
210 229 255
210 229 255
210 229 255
210 229 255
210 229 255
210 229 255
210 229 255
210 229 255
210 229 255
209 229 255
209 229 255
209 229 255
209 229 255
209 229 255
209 229 255
209 229 255
209 229 255
209 229 255
209 229 255
209 229 255
209 229 255
209 229 255
209 229 255
209 229 255
209 229 255
209 229 255
209 229 255
209 229 255
209 229 255
209 229 255
209 229 255
209 228 255
209 228 255
208 228 255
206 226 253
115 126 141
59 66 75
60 67 76
60 67 76
59 66 75
56 63 72
58 65 74
59 66 75
56 63 71
58 64 73
57 63 72
60 67 76
59 65 74
57 64 72
59 65 74
59 66 75
58 65 74
58 65 73
56 62 71
57 63 72
58 64 72
57 63 72
56 63 72
58 64 73
59 66 74
57 64 72
60 67 76
57 63 72
61 68 77
60 67 76
59 65 74
55 62 70
55 61 70
59 65 74
59 66 74
59 66 74
57 63 72
55 61 69
58 65 74
60 67 76
57 63 72
58 64 72
57 64 72
58 65 74
55 61 69
57 63 72
58 65 74
55 62 71
56 62 70
58 64 72
57 63 72
58 65 74
59 65 74
57 64 72
58 64 73
55 61 70
56 63 72
57 63 72
60 67 76
58 65 73
56 62 70
54 60 68
57 64 72
56 63 71
57 64 73
57 64 72
59 66 75
58 64 73
59 66 74
55 60 68
57 63 72
56 62 71
58 64 73
59 66 74
57 63 71
58 65 73
55 61 70
59 65 74
57 64 72
56 62 71
59 65 74
58 65 74
59 65 74
58 64 73
58 64 73
60 67 76
56 63 72
56 62 71
58 64 73
57 63 72
59 65 74
60 66 75
59 65 74
60 66 75
57 63 72
101 111 125
202 222 248
208 228 255
209 228 255
209 228 255
209 229 255
209 229 255
209 229 255
209 229 255
209 229 255
209 229 255
209 229 255
209 229 255
209 229 255
209 229 255
209 229 255
209 229 255
209 229 255
209 229 255
209 229 255
209 229 255
209 229 255
209 229 255
209 229 255
209 229 255
209 229 255
209 229 255
210 229 255
210 229 255
210 229 255
210 229 255
210 229 255
210 229 255
210 229 255
210 229 255
210 229 255
210 229 255
210 229 255
210 229 255
210 229 255
210 229 255
210 229 255
210 229 255
210 229 255
210 229 255
210 229 255
210 229 255
210 230 255
210 230 255
210 230 255
211 230 255
211 230 255
211 230 255
211 230 255
211 230 255
211 230 255
211 230 255
211 230 255
211 230 255
211 230 255
211 230 255
211 230 255
211 230 255
211 230 255
211 230 255
211 230 255
211 230 255
211 230 255
211 230 255
211 230 255
211 230 255
211 230 255
212 230 255
212 230 255
212 230 255
212 230 255
212 230 255
212 230 255
212 230 255
212 230 255
212 230 255
212 230 255
212 230 255
212 230 255
212 230 255
212 230 255
212 230 255
212 230 255
212 230 255
212 230 255
212 231 255
212 231 255
212 231 255
212 231 255
212 231 255
212 231 255
212 231 255
212 231 255
213 231 255
213 231 255
213 231 255
213 231 255
213 231 255
213 231 255
213 231 255
213 231 255
213 231 255
213 231 255
213 231 255
213 231 255
213 231 255
213 231 255
213 231 255
213 231 255
213 231 255
213 231 255
213 231 255
213 231 255
213 231 255
213 231 255
213 231 255
213 231 255
213 231 255
213 231 255
213 231 255
213 231 255
213 231 255
213 231 255
214 231 255
214 231 255
214 231 255
214 231 255
214 231 255
214 231 255
214 231 255
214 231 255
214 231 255
214 231 255
214 231 255
214 231 255
214 231 255
214 231 255
214 231 255
214 231 255
214 231 255
214 231 255
214 232 255
214 232 255
214 232 255
214 232 255
214 232 255
214 232 255
214 232 255
214 232 255
214 232 255
214 232 255
214 232 255
214 232 255
214 232 255
214 232 255
214 232 255
214 232 255
214 232 255
214 232 255
214 232 255
214 232 255
214 231 255
214 231 255
214 231 255
214 231 255
214 231 255
214 231 255
214 231 255
214 231 255
214 231 255
214 231 255
214 231 255
214 231 255
214 231 255
214 231 255
214 231 255
214 231 255
214 231 255
213 231 255
213 231 255
213 231 255
213 231 255
213 231 255
213 231 255
213 231 255
213 231 255
213 231 255
213 231 255
213 231 255
213 231 255
213 231 255
213 231 255
213 231 255
213 231 255
213 231 255
213 231 255
213 231 255
213 231 255
213 231 255
213 231 255
213 231 255
213 231 255
213 231 255
213 231 255
213 231 255
213 231 255
213 231 255
213 231 255
212 231 255
212 231 255
212 231 255
212 231 255
212 231 255
212 231 255
212 231 255
212 231 255
212 230 255
212 230 255
212 230 255
212 230 255
212 230 255
212 230 255
212 230 255
212 230 255
212 230 255
212 230 255
212 230 255
212 230 255
212 230 255
212 230 255
212 230 255
212 230 255
212 230 255
212 230 255
211 230 255
211 230 255
211 230 255
211 230 255
211 230 255
211 230 255
211 230 255
211 230 255
211 230 255
211 230 255
211 230 255
211 230 255
211 230 255
211 230 255
211 230 255
211 230 255
211 230 255
211 230 255
211 230 255
211 230 255
211 230 255
211 230 255
211 230 255
210 230 255
210 230 255
210 230 255
210 229 255
210 229 255
210 229 255
210 229 255
210 229 255
210 229 255
210 229 255
210 229 255
210 229 255
210 229 255
210 229 255
210 229 255
210 229 255
210 229 255
210 229 255
210 229 255
210 229 255
210 229 255
210 229 255
210 229 255
209 229 255
209 229 255
209 229 255
209 229 255
209 229 255
209 229 255
209 229 255
209 229 255
209 229 255
209 229 255
209 229 255
209 229 255
209 229 255
209 229 255
209 229 255
209 229 255
209 229 255
209 229 255
209 229 255
115 127 142
57 64 72
57 64 73
59 66 74
57 63 72
59 66 74
59 65 74
55 62 71
57 64 74
58 65 74
57 64 72
56 62 71
55 62 71
60 66 75
55 61 70
55 62 70
58 64 72
58 65 74
55 61 70
56 62 70
56 62 71
58 64 72
57 63 72
58 64 73
56 62 70
58 65 74
55 62 70
57 63 72
57 64 72
55 62 70
56 62 70
59 66 74
56 62 70
58 64 73
58 65 74
57 64 72
57 63 71
55 62 71
59 66 75
59 65 74
57 64 72
58 64 72
56 63 72
57 63 72
58 64 73
55 62 71
57 63 71
56 62 71
55 62 70
58 65 74
53 60 68
57 63 72
55 61 69
58 65 74
56 62 71
54 60 68
57 63 71
57 63 71
56 62 71
58 65 73
56 63 72
57 64 72
55 62 70
58 65 74
58 65 74
58 64 72
58 64 73
55 61 70
57 63 71
56 62 71
57 64 72
58 65 73
58 65 73
55 61 69
58 65 73
58 64 73
56 63 71
56 62 70
57 64 72
59 66 75
56 62 71
55 62 71
56 62 70
58 64 73
56 63 72
58 64 72
57 63 72
57 64 72
57 64 73
58 64 73
56 62 71
58 64 73
58 65 73
61 67 76
59 66 74
58 65 74
58 65 74
111 122 137
209 229 255
209 229 255
209 229 255
209 229 255
209 229 255
209 229 255
209 229 255
209 229 255
209 229 255
209 229 255
209 229 255
209 229 255
209 229 255
209 229 255
209 229 255
209 229 255
209 229 255
209 229 255
209 229 255
210 229 255
210 229 255
210 229 255
210 229 255
210 229 255
210 229 255
210 229 255
210 229 255
210 229 255
210 229 255
210 229 255
210 229 255
210 229 255
210 229 255
210 229 255
210 229 255
210 229 255
210 229 255
210 229 255
210 229 255
210 230 255
210 230 255
210 230 255
211 230 255
211 230 255
211 230 255
211 230 255
211 230 255
211 230 255
211 230 255
211 230 255
211 230 255
211 230 255
211 230 255
211 230 255
211 230 255
211 230 255
211 230 255
211 230 255
211 230 255
211 230 255
211 230 255
211 230 255
211 230 255
211 230 255
211 230 255
212 230 255
212 230 255
212 230 255
212 230 255
212 230 255
212 230 255
212 230 255
212 230 255
212 230 255
212 230 255
212 230 255
212 230 255
212 230 255
212 230 255
212 230 255
212 230 255
212 230 255
212 230 255
212 231 255
212 231 255
212 231 255
212 231 255
212 231 255
212 231 255
212 231 255
212 231 255
213 231 255
213 231 255
213 231 255
213 231 255
213 231 255
213 231 255
213 231 255
213 231 255
213 231 255
213 231 255
213 231 255
213 231 255
213 231 255
213 231 255
213 231 255
213 231 255
213 231 255
213 231 255
213 231 255
213 231 255
213 231 255
213 231 255
213 231 255
213 231 255
213 231 255
213 231 255
213 231 255
213 231 255
213 231 255
213 231 255
214 231 255
214 231 255
214 231 255
214 231 255
214 231 255
214 231 255
214 231 255
214 231 255
214 231 255
214 231 255
214 231 255
214 231 255
214 231 255
214 231 255
214 231 255
214 231 255
214 231 255
214 232 255
214 232 255
214 232 255
214 232 255
214 232 255
214 232 255
214 232 255
214 232 255
214 232 255
214 232 255
214 232 255
214 232 255
214 232 255
215 232 255
214 232 255
214 232 255
214 232 255
214 232 255
214 232 255
214 232 255
214 232 255
214 232 255
214 232 255
214 232 255
214 232 255
214 232 255
214 232 255
214 232 255
214 232 255
214 232 255
214 232 255
214 232 255
214 231 255
214 231 255
214 231 255
214 231 255
214 231 255
214 231 255
214 231 255
214 231 255
214 231 255
214 231 255
214 231 255
214 231 255
214 231 255
214 231 255
214 231 255
214 231 255
214 231 255
213 231 255
213 231 255
213 231 255
213 231 255
213 231 255
213 231 255
213 231 255
213 231 255
213 231 255
213 231 255
213 231 255
213 231 255
213 231 255
213 231 255
213 231 255
213 231 255
213 231 255
213 231 255
213 231 255
213 231 255
213 231 255
213 231 255
213 231 255
213 231 255
213 231 255
213 231 255
213 231 255
213 231 255
213 231 255
213 231 255
212 231 255
212 231 255
212 231 255
212 231 255
212 231 255
212 231 255
212 231 255
212 230 255
212 230 255
212 230 255
212 230 255
212 230 255
212 230 255
212 230 255
212 230 255
212 230 255
212 230 255
212 230 255
212 230 255
212 230 255
212 230 255
212 230 255
212 230 255
212 230 255
212 230 255
211 230 255
211 230 255
211 230 255
211 230 255
211 230 255
211 230 255
211 230 255
211 230 255
211 230 255
211 230 255
211 230 255
211 230 255
211 230 255
211 230 255
211 230 255
211 230 255
211 230 255
211 230 255
211 230 255
211 230 255
211 230 255
211 230 255
211 230 255
211 230 255
210 230 255
210 230 255
210 229 255
210 229 255
210 229 255
210 229 255
210 229 255
210 229 255
210 229 255
210 229 255
210 229 255
210 229 255
210 229 255
210 229 255
210 229 255
210 229 255
210 229 255
210 229 255
210 229 255
210 229 255
210 229 255
210 229 255
210 229 255
209 229 255
209 229 255
209 229 255
209 229 255
209 229 255
209 229 255
209 229 255
209 229 255
209 229 255
209 229 255
209 229 255
209 229 255
140 153 172
58 65 74
59 66 75
60 66 75
55 62 71
57 64 73
57 63 72
57 63 71
58 65 73
58 65 74
55 61 69
57 63 72
58 65 74
56 62 71
55 62 70
60 66 75
57 64 72
55 62 70
56 62 70
55 62 70
59 65 74
55 60 68
57 64 72
57 64 73
57 64 73
56 62 70
58 64 72
58 65 74
58 65 73
56 62 70
56 62 70
57 63 71
57 63 72
58 64 72
56 63 72
57 63 72
59 65 74
57 64 72
57 63 72
58 64 72
58 64 73
56 63 71
57 63 72
57 63 71
58 64 72
56 62 71
55 60 68
58 64 72
57 63 71
58 64 73
55 61 70
56 63 72
57 64 73
56 63 71
59 65 74
57 63 71
58 65 74
58 64 73
58 64 72
55 62 71
57 63 71
58 64 73
57 64 72
57 63 72
58 65 74
58 64 72
55 62 70
61 67 76
55 62 70
58 64 74
57 63 72
57 64 72
56 62 70
56 62 70
58 65 73
59 65 74
56 62 70
56 63 71
57 64 72
58 64 73
57 64 72
56 62 71
56 62 70
57 63 72
58 65 74
57 63 72
55 61 70
58 65 74
56 62 69
57 64 73
56 62 71
58 65 74
57 64 74
53 59 67
58 65 73
57 63 72
57 64 73
57 64 74
57 64 74
134 147 165
209 229 255
209 229 255
209 229 255
209 229 255
209 229 255
209 229 255
209 229 255
209 229 255
209 229 255
209 229 255
209 229 255
209 229 255
210 229 255
210 229 255
210 229 255
210 229 255
210 229 255
210 229 255
210 229 255
210 229 255
210 229 255
210 229 255
210 229 255
210 229 255
210 229 255
210 229 255
210 229 255
210 229 255
210 229 255
210 229 255
210 229 255
210 229 255
210 229 255
210 230 255
210 230 255
210 230 255
211 230 255
211 230 255
211 230 255
211 230 255
211 230 255
211 230 255
211 230 255
211 230 255
211 230 255
211 230 255
211 230 255
211 230 255
211 230 255
211 230 255
211 230 255
211 230 255
211 230 255
211 230 255
211 230 255
211 230 255
211 230 255
211 230 255
211 230 255
212 230 255
212 230 255
212 230 255
212 230 255
212 230 255
212 230 255
212 230 255
212 230 255
212 230 255
212 230 255
212 230 255
212 230 255
212 230 255
212 230 255
212 230 255
212 230 255
212 230 255
212 231 255
212 231 255
212 231 255
212 231 255
212 231 255
212 231 255
212 231 255
212 231 255
213 231 255
213 231 255
213 231 255
213 231 255
213 231 255
213 231 255
213 231 255
213 231 255
213 231 255
213 231 255
213 231 255
213 231 255
213 231 255
213 231 255
213 231 255
213 231 255
213 231 255
213 231 255
213 231 255
213 231 255
213 231 255
213 231 255
213 231 255
213 231 255
213 231 255
213 231 255
213 231 255
213 231 255
213 231 255
213 231 255
214 231 255
214 231 255
214 231 255
214 231 255
214 231 255
214 231 255
214 231 255
214 231 255
214 231 255
214 231 255
214 231 255
214 231 255
214 231 255
214 231 255
214 231 255
214 231 255
214 231 255
214 232 255
214 232 255
214 232 255
214 232 255
214 232 255
214 232 255
214 232 255
214 232 255
214 232 255
214 232 255
214 232 255
214 232 255
214 232 255
214 232 255
214 232 255
214 232 255
214 232 255
214 232 255
215 232 255
215 232 255
215 232 255
215 232 255
215 232 255
215 232 255
215 232 255
215 232 255
214 232 255
214 232 255
214 232 255
214 232 255
214 232 255
214 232 255
214 232 255
214 232 255
214 232 255
214 232 255
214 232 255
214 232 255
214 232 255
214 232 255
214 232 255
214 232 255
214 232 255
214 232 255
214 231 255
214 231 255
214 231 255
214 231 255
214 231 255
214 231 255
214 231 255
214 231 255
214 231 255
214 231 255
214 231 255
214 231 255
214 231 255
214 231 255
214 231 255
214 231 255
214 231 255
213 231 255
213 231 255
213 231 255
213 231 255
213 231 255
213 231 255
213 231 255
213 231 255
213 231 255
213 231 255
213 231 255
213 231 255
213 231 255
213 231 255
213 231 255
213 231 255
213 231 255
213 231 255
213 231 255
213 231 255
213 231 255
213 231 255
213 231 255
213 231 255
213 231 255
213 231 255
213 231 255
213 231 255
213 231 255
212 231 255
212 231 255
212 231 255
212 231 255
212 231 255
212 231 255
212 231 255
212 231 255
212 230 255
212 230 255
212 230 255
212 230 255
212 230 255
212 230 255
212 230 255
212 230 255
212 230 255
212 230 255
212 230 255
212 230 255
212 230 255
212 230 255
212 230 255
212 230 255
212 230 255
212 230 255
211 230 255
211 230 255
211 230 255
211 230 255
211 230 255
211 230 255
211 230 255
211 230 255
211 230 255
211 230 255
211 230 255
211 230 255
211 230 255
211 230 255
211 230 255
211 230 255
211 230 255
211 230 255
211 230 255
211 230 255
211 230 255
211 230 255
211 230 255
210 230 255
210 230 255
210 230 255
210 229 255
210 229 255
210 229 255
210 229 255
210 229 255
210 229 255
210 229 255
210 229 255
210 229 255
210 229 255
210 229 255
210 229 255
210 229 255
210 229 255
210 229 255
210 229 255
210 229 255
210 229 255
210 229 255
210 229 255
210 229 255
210 229 255
209 229 255
209 229 255
209 229 255
209 229 255
168 184 205
57 64 73
59 66 74
57 64 72
55 61 70
55 61 69
60 66 75
59 66 75
58 64 73
57 64 73
58 65 73
60 66 75
54 61 69
59 65 74
58 64 73
56 63 71
56 63 72
58 64 72
58 64 73
59 65 74
59 65 74
57 63 72
58 64 73
57 63 71
56 63 71
56 62 70
57 64 72
57 64 72
56 63 71
59 65 73
55 61 70
59 66 75
56 62 70
57 64 72
58 64 72
57 63 72
57 63 72
57 63 72
56 62 70
55 61 69
56 62 71
55 62 70
58 65 74
55 61 69
55 61 70
56 62 71
55 61 70
57 63 72
55 61 69
55 61 70
54 60 69
56 63 71
57 63 71
56 62 70
56 62 70
58 64 73
55 61 69
57 63 72
56 62 70
56 62 71
58 65 74
57 63 72
58 65 73
56 63 71
56 63 71
56 62 70
58 65 73
56 62 71
57 63 72
57 63 71
59 65 74
57 63 72
58 65 74
52 58 66
56 63 72
57 63 71
58 65 73
56 62 70
57 63 72
59 66 74
56 62 71
58 64 73
58 64 73
55 62 70
55 62 70
56 62 71
57 64 72
54 61 69
58 65 74
56 62 71
56 63 71
56 62 70
56 62 70
59 66 74
55 61 69
58 65 74
57 64 73
56 63 72
57 64 73
59 65 74
61 68 77
159 174 194
209 229 255
209 229 255
209 229 255
209 229 255
210 229 255
210 229 255
210 229 255
210 229 255
210 229 255
210 229 255
210 229 255
210 229 255
210 229 255
210 229 255
210 229 255
210 229 255
210 229 255
210 229 255
210 229 255
210 229 255
210 229 255
210 229 255
210 229 255
210 229 255
210 229 255
210 229 255
210 230 255
210 230 255
210 230 255
211 230 255
211 230 255
211 230 255
211 230 255
211 230 255
211 230 255
211 230 255
211 230 255
211 230 255
211 230 255
211 230 255
211 230 255
211 230 255
211 230 255
211 230 255
211 230 255
211 230 255
211 230 255
211 230 255
211 230 255
211 230 255
211 230 255
211 230 255
212 230 255
212 230 255
212 230 255
212 230 255
212 230 255
212 230 255
212 230 255
212 230 255
212 230 255
212 230 255
212 230 255
212 230 255
212 230 255
212 230 255
212 230 255
212 230 255
212 230 255
212 230 255
212 231 255
212 231 255
212 231 255
212 231 255
212 231 255
212 231 255
212 231 255
212 231 255
213 231 255
213 231 255
213 231 255
213 231 255
213 231 255
213 231 255
213 231 255
213 231 255
213 231 255
213 231 255
213 231 255
213 231 255
213 231 255
213 231 255
213 231 255
213 231 255
213 231 255
213 231 255
213 231 255
213 231 255
213 231 255
213 231 255
213 231 255
213 231 255
213 231 255
213 231 255
213 231 255
213 231 255
213 231 255
214 231 255
214 231 255
214 231 255
214 231 255
214 231 255
214 231 255
214 231 255
214 231 255
214 231 255
214 231 255
214 231 255
214 231 255
214 231 255
214 231 255
214 231 255
214 231 255
214 231 255
214 232 255
214 232 255
214 232 255
214 232 255
214 232 255
214 232 255
214 232 255
214 232 255
214 232 255
214 232 255
214 232 255
214 232 255
214 232 255
214 232 255
214 232 255
214 232 255
214 232 255
214 232 255
215 232 255
215 232 255
215 232 255
215 232 255
215 232 255
215 232 255
215 232 255
215 232 255
215 232 255
215 232 255
215 232 255
215 232 255
215 232 255
215 232 255
215 232 255
215 232 255
215 232 255
215 232 255
215 232 255
215 232 255
214 232 255
214 232 255
214 232 255
214 232 255
214 232 255
214 232 255
214 232 255
214 232 255
214 232 255
214 232 255
214 232 255
214 232 255
214 232 255
214 232 255
214 232 255
214 232 255
214 232 255
214 232 255
214 231 255
214 231 255
214 231 255
214 231 255
214 231 255
214 231 255
214 231 255
214 231 255
214 231 255
214 231 255
214 231 255
214 231 255
214 231 255
214 231 255
214 231 255
214 231 255
214 231 255
213 231 255
213 231 255
213 231 255
213 231 255
213 231 255
213 231 255
213 231 255
213 231 255
213 231 255
213 231 255
213 231 255
213 231 255
213 231 255
213 231 255
213 231 255
213 231 255
213 231 255
213 231 255
213 231 255
213 231 255
213 231 255
213 231 255
213 231 255
213 231 255
213 231 255
213 231 255
213 231 255
213 231 255
213 231 255
212 231 255
212 231 255
212 231 255
212 231 255
212 231 255
212 231 255
212 231 255
212 231 255
212 230 255
212 230 255
212 230 255
212 230 255
212 230 255
212 230 255
212 230 255
212 230 255
212 230 255
212 230 255
212 230 255
212 230 255
212 230 255
212 230 255
212 230 255
212 230 255
212 230 255
211 230 255
211 230 255
211 230 255
211 230 255
211 230 255
211 230 255
211 230 255
211 230 255
211 230 255
211 230 255
211 230 255
211 230 255
211 230 255
211 230 255
211 230 255
211 230 255
211 230 255
211 230 255
211 230 255
211 230 255
211 230 255
211 230 255
211 230 255
211 230 255
210 230 255
210 230 255
210 230 255
210 229 255
210 229 255
210 229 255
210 229 255
210 229 255
210 229 255
210 229 255
210 229 255
210 229 255
210 229 255
210 229 255
210 229 255
210 229 255
210 229 255
210 229 255
210 229 255
210 229 255
210 229 255
210 229 255
184 201 225
68 75 85
56 63 72
58 65 74
55 62 70
56 63 72
55 61 70
56 63 72
59 65 74
58 64 73
58 64 72
58 65 73
58 64 72
57 63 71
58 64 73
56 63 72
55 62 71
57 64 72
59 65 74
55 61 69
55 61 69
56 63 71
56 62 70
60 66 75
58 65 74
57 63 71
57 63 72
58 64 72
58 64 73
54 60 68
56 62 70
56 62 70
59 65 74
57 63 71
56 63 72
55 61 69
55 61 70
57 63 71
57 64 73
55 62 70
58 64 73
56 62 71
57 64 72
57 63 72
57 63 71
58 64 73
55 61 69
59 65 74
58 63 72
58 64 73
60 66 75
54 60 68
57 64 72
57 63 72
54 60 68
57 63 71
55 61 69
57 63 71
56 63 71
58 64 73
59 66 74
56 62 71
58 65 74
57 63 72
57 64 72
56 62 70
57 64 72
56 62 70
56 63 71
58 65 73
59 65 74
58 64 72
57 63 72
55 61 69
56 62 71
58 65 74
58 64 73
55 61 69
54 60 69
56 62 70
58 64 73
55 61 69
57 63 71
58 65 74
58 64 73
55 61 69
55 61 70
56 63 72
58 64 73
56 62 71
57 64 72
56 63 72
53 59 67
58 65 73
57 63 71
59 65 74
59 66 75
58 64 73
61 67 76
59 66 75
57 64 73
58 65 74
65 73 82
189 207 231
210 229 255
210 229 255
210 229 255
210 229 255
210 229 255
210 229 255
210 229 255
210 229 255
210 229 255
210 229 255
210 229 255
210 229 255
210 229 255
210 229 255
210 229 255
210 229 255
210 229 255
210 229 255
210 229 255
210 230 255
210 230 255
210 230 255
211 230 255
211 230 255
211 230 255
211 230 255
211 230 255
211 230 255
211 230 255
211 230 255
211 230 255
211 230 255
211 230 255
211 230 255
211 230 255
211 230 255
211 230 255
211 230 255
211 230 255
211 230 255
211 230 255
211 230 255
211 230 255
211 230 255
211 230 255
211 230 255
212 230 255
212 230 255
212 230 255
212 230 255
212 230 255
212 230 255
212 230 255
212 230 255
212 230 255
212 230 255
212 230 255
212 230 255
212 230 255
212 230 255
212 230 255
212 230 255
212 230 255
212 231 255
212 231 255
212 231 255
212 231 255
212 231 255
212 231 255
212 231 255
212 231 255
213 231 255
213 231 255
213 231 255
213 231 255
213 231 255
213 231 255
213 231 255
213 231 255
213 231 255
213 231 255
213 231 255
213 231 255
213 231 255
213 231 255
213 231 255
213 231 255
213 231 255
213 231 255
213 231 255
213 231 255
213 231 255
213 231 255
213 231 255
213 231 255
213 231 255
213 231 255
213 231 255
213 231 255
213 231 255
214 231 255
214 231 255
214 231 255
214 231 255
214 231 255
214 231 255
214 231 255
214 231 255
214 231 255
214 231 255
214 231 255
214 231 255
214 231 255
214 231 255
214 231 255
214 231 255
214 231 255
214 232 255
214 232 255
214 232 255
214 232 255
214 232 255
214 232 255
214 232 255
214 232 255
214 232 255
214 232 255
214 232 255
214 232 255
214 232 255
214 232 255
214 232 255
214 232 255
214 232 255
214 232 255
215 232 255
215 232 255
215 232 255
215 232 255
215 232 255
215 232 255
215 232 255
215 232 255
215 232 255
215 232 255
215 232 255
215 232 255
215 232 255
215 232 255
215 232 255
215 232 255
215 232 255
215 232 255
215 232 255
215 232 255
215 232 255
215 232 255
215 232 255
215 232 255
215 232 255
215 232 255
215 232 255
215 232 255
215 232 255
215 232 255
215 232 255
215 232 255
215 232 255
214 232 255
214 232 255
214 232 255
214 232 255
214 232 255
214 232 255
214 232 255
214 232 255
214 232 255
214 232 255
214 232 255
214 232 255
214 232 255
214 232 255
214 232 255
214 232 255
214 232 255
214 232 255
214 231 255
214 231 255
214 231 255
214 231 255
214 231 255
214 231 255
214 231 255
214 231 255
214 231 255
214 231 255
214 231 255
214 231 255
214 231 255
214 231 255
214 231 255
214 231 255
213 231 255
213 231 255
213 231 255
213 231 255
213 231 255
213 231 255
213 231 255
213 231 255
213 231 255
213 231 255
213 231 255
213 231 255
213 231 255
213 231 255
213 231 255
213 231 255
213 231 255
213 231 255
213 231 255
213 231 255
213 231 255
213 231 255
213 231 255
213 231 255
213 231 255
213 231 255
213 231 255
213 231 255
212 231 255
212 231 255
212 231 255
212 231 255
212 231 255
212 231 255
212 231 255
212 231 255
212 230 255
212 230 255
212 230 255
212 230 255
212 230 255
212 230 255
212 230 255
212 230 255
212 230 255
212 230 255
212 230 255
212 230 255
212 230 255
212 230 255
212 230 255
212 230 255
212 230 255
212 230 255
211 230 255
211 230 255
211 230 255
211 230 255
211 230 255
211 230 255
211 230 255
211 230 255
211 230 255
211 230 255
211 230 255
211 230 255
211 230 255
211 230 255
211 230 255
211 230 255
211 230 255
211 230 255
211 230 255
211 230 255
211 230 255
211 230 255
211 230 255
211 230 255
211 230 255
210 230 255
210 230 255
210 230 255
210 229 255
210 229 255
210 229 255
210 229 255
210 229 255
210 229 255
210 229 255
210 229 255
210 229 255
210 229 255
210 229 255
203 222 247
89 97 109
60 66 75
60 67 76
57 63 72
56 63 71
57 64 73
58 64 73
58 65 74
54 60 68
57 64 72
58 65 74
58 64 73
56 62 71
58 64 72
57 64 72
59 66 75
57 63 72
56 63 72
58 64 72
58 64 72
58 64 73
55 61 70
58 64 72
54 60 68
57 63 72
56 62 70
56 62 71
55 62 70
58 64 72
56 63 71
57 63 72
53 59 67
57 63 71
58 64 73
55 61 69
54 61 69
56 62 71
57 64 72
57 64 72
56 62 70
58 64 73
58 64 72
57 63 72
54 60 68
54 60 68
54 60 68
56 62 71
56 62 71
57 62 70
58 65 73
57 63 72
58 64 73
59 65 73
56 62 70
56 62 70
55 61 69
58 64 72
57 63 72
53 59 67
56 62 70
55 61 69
54 60 68
59 65 74
57 64 72
57 63 71
57 63 72
55 61 69
55 61 70
56 62 70
55 61 70
58 64 73
59 65 74
55 61 69
59 65 73
57 63 71
56 62 70
55 62 70
58 64 73
57 64 72
55 60 68
55 61 69
58 64 73
58 64 72
56 62 71
56 62 70
57 63 72
58 64 72
57 63 72
58 65 73
57 64 73
57 64 72
58 65 74
57 63 71
57 63 71
57 63 71
58 64 73
58 64 73
56 62 70
57 63 72
57 64 72
59 66 74
56 63 72
57 64 72
99 108 121
199 217 242
210 229 255
210 229 255
210 229 255
210 229 255
210 229 255
210 229 255
210 229 255
210 229 255
210 229 255
210 229 255
210 229 255
210 230 255
210 230 255
210 230 255
211 230 255
211 230 255
211 230 255
211 230 255
211 230 255
211 230 255
211 230 255
211 230 255
211 230 255
211 230 255
211 230 255
211 230 255
211 230 255
211 230 255
211 230 255
211 230 255
211 230 255
211 230 255
211 230 255
211 230 255
211 230 255
211 230 255
211 230 255
211 230 255
211 230 255
212 230 255
212 230 255
212 230 255
212 230 255
212 230 255
212 230 255
212 230 255
212 230 255
212 230 255
212 230 255
212 230 255
212 230 255
212 230 255
212 230 255
212 230 255
212 230 255
212 230 255
212 230 255
212 231 255
212 231 255
212 231 255
212 231 255
212 231 255
212 231 255
212 231 255
212 231 255
213 231 255
213 231 255
213 231 255
213 231 255
213 231 255
213 231 255
213 231 255
213 231 255
213 231 255
213 231 255
213 231 255
213 231 255
213 231 255
213 231 255
213 231 255
213 231 255
213 231 255
213 231 255
213 231 255
213 231 255
213 231 255
213 231 255
213 231 255
213 231 255
213 231 255
213 231 255
213 231 255
213 231 255
214 231 255
214 231 255
214 231 255
214 231 255
214 231 255
214 231 255
214 231 255
214 231 255
214 231 255
214 231 255
214 231 255
214 231 255
214 231 255
214 231 255
214 231 255
214 231 255
214 231 255
214 232 255
214 232 255
214 232 255
214 232 255
214 232 255
214 232 255
214 232 255
214 232 255
214 232 255
214 232 255
214 232 255
214 232 255
214 232 255
214 232 255
214 232 255
214 232 255
214 232 255
215 232 255
215 232 255
215 232 255
215 232 255
215 232 255
215 232 255
215 232 255
215 232 255
215 232 255
215 232 255
215 232 255
215 232 255
215 232 255
215 232 255
215 232 255
215 232 255
215 232 255
215 232 255
215 232 255
215 232 255
215 232 255
215 232 255
215 232 255
215 232 255
215 232 255
215 232 255
215 232 255
215 232 255
215 232 255
215 232 255
215 232 255
215 232 255
215 232 255
215 232 255
215 232 255
215 232 255
215 232 255
215 232 255
215 232 255
215 232 255
215 232 255
215 232 255
215 232 255
215 232 255
215 232 255
215 232 255
215 232 255
214 232 255
214 232 255
214 232 255
214 232 255
214 232 255
214 232 255
214 232 255
214 232 255
214 232 255
214 232 255
214 232 255
214 232 255
214 232 255
214 232 255
214 232 255
214 232 255
214 232 255
214 231 255
214 231 255
214 231 255
214 231 255
214 231 255
214 231 255
214 231 255
214 231 255
214 231 255
214 231 255
214 231 255
214 231 255
214 231 255
214 231 255
214 231 255
214 231 255
213 231 255
213 231 255
213 231 255
213 231 255
213 231 255
213 231 255
213 231 255
213 231 255
213 231 255
213 231 255
213 231 255
213 231 255
213 231 255
213 231 255
213 231 255
213 231 255
213 231 255
213 231 255
213 231 255
213 231 255
213 231 255
213 231 255
213 231 255
213 231 255
213 231 255
213 231 255
213 231 255
213 231 255
213 231 255
212 231 255
212 231 255
212 231 255
212 231 255
212 231 255
212 231 255
212 231 255
212 230 255
212 230 255
212 230 255
212 230 255
212 230 255
212 230 255
212 230 255
212 230 255
212 230 255
212 230 255
212 230 255
212 230 255
212 230 255
212 230 255
212 230 255
212 230 255
212 230 255
212 230 255
211 230 255
211 230 255
211 230 255
211 230 255
211 230 255
211 230 255
211 230 255
211 230 255
211 230 255
211 230 255
211 230 255
211 230 255
211 230 255
211 230 255
211 230 255
211 230 255
211 230 255
211 230 255
211 230 255
211 230 255
211 230 255
211 230 255
211 230 255
211 230 255
211 230 255
210 230 255
210 230 255
210 230 255
210 229 255
210 229 255
210 229 255
210 229 255
210 229 255
134 147 164
58 64 73
60 66 74
58 64 72
58 65 74
58 64 72
58 65 74
55 61 69
58 65 73
56 62 70
56 63 72
59 65 73
55 61 69
56 62 71
55 61 70
56 63 71
59 65 73
56 62 70
59 65 74
57 64 72
55 61 70
59 66 75
59 65 74
58 64 73
58 64 72
54 60 68
57 63 72
56 62 70
55 61 69
57 63 72
57 63 72
58 65 73
58 64 73
55 61 70
57 63 72
57 64 72
55 62 70
58 64 73
57 63 72
54 60 69
58 64 72
56 62 70
58 64 72
55 61 70
57 63 71
58 64 72
55 61 69
58 64 72
58 64 73
58 65 73
56 62 70
57 63 72
57 63 71
59 65 73
56 62 71
57 63 72
57 63 72
56 62 70
58 64 72
58 65 73
55 61 69
55 62 70
56 62 70
57 63 71
57 64 72
57 63 72
55 61 70
58 64 73
55 61 69
57 64 72
57 64 72
55 61 70
56 63 71
56 62 70
55 61 70
56 62 70
56 62 70
56 62 70
57 63 72
58 65 73
58 64 73
53 59 67
56 63 72
55 62 70
54 61 69
53 59 67
56 62 70
56 62 70
53 59 67
56 62 71
59 66 74
59 65 74
59 66 74
59 66 74
55 61 69
57 64 72
58 65 74
57 63 72
54 60 68
58 64 73
57 64 72
58 65 74
60 67 76
59 65 74
57 64 72
132 145 162
210 229 255
210 229 255
210 229 255
210 229 255
210 229 255
210 230 255
210 230 255
210 230 255
211 230 255
211 230 255
211 230 255
211 230 255
211 230 255
211 230 255
211 230 255
211 230 255
211 230 255
211 230 255
211 230 255
211 230 255
211 230 255
211 230 255
211 230 255
211 230 255
211 230 255
211 230 255
211 230 255
211 230 255
211 230 255
211 230 255
211 230 255
211 230 255
211 230 255
212 230 255
212 230 255
212 230 255
212 230 255
212 230 255
212 230 255
212 230 255
212 230 255
212 230 255
212 230 255
212 230 255
212 230 255
212 230 255
212 230 255
212 230 255
212 230 255
212 230 255
212 230 255
212 231 255
212 231 255
212 231 255
212 231 255
212 231 255
212 231 255
212 231 255
213 231 255
213 231 255
213 231 255
213 231 255
213 231 255
213 231 255
213 231 255
213 231 255
213 231 255
213 231 255
213 231 255
213 231 255
213 231 255
213 231 255
213 231 255
213 231 255
213 231 255
213 231 255
213 231 255
213 231 255
213 231 255
213 231 255
213 231 255
213 231 255
213 231 255
213 231 255
213 231 255
213 231 255
213 231 255
214 231 255
214 231 255
214 231 255
214 231 255
214 231 255
214 231 255
214 231 255
214 231 255
214 231 255
214 231 255
214 231 255
214 231 255
214 231 255
214 231 255
214 231 255
214 231 255
214 232 255
214 232 255
214 232 255
214 232 255
214 232 255
214 232 255
214 232 255
214 232 255
214 232 255
214 232 255
214 232 255
214 232 255
214 232 255
214 232 255
214 232 255
214 232 255
214 232 255
215 232 255
215 232 255
215 232 255
215 232 255
215 232 255
215 232 255
215 232 255
215 232 255
215 232 255
215 232 255
215 232 255
215 232 255
215 232 255
215 232 255
215 232 255
215 232 255
215 232 255
215 232 255
215 232 255
215 232 255
215 232 255
215 232 255
215 232 255
215 232 255
215 232 255
215 232 255
215 232 255
215 232 255
215 232 255
215 232 255
215 232 255
215 232 255
215 232 255
215 232 255
215 232 255
215 232 255
215 232 255
215 232 255
215 232 255
215 232 255
215 232 255
215 232 255
215 232 255
215 232 255
215 232 255
215 232 255
215 232 255
215 232 255
215 232 255
215 232 255
215 232 255
215 232 255
215 232 255
215 232 255
215 232 255
215 232 255
215 232 255
215 232 255
215 232 255
215 232 255
214 232 255
214 232 255
214 232 255
214 232 255
214 232 255
214 232 255
214 232 255
214 232 255
214 232 255
214 232 255
214 232 255
214 232 255
214 232 255
214 232 255
214 232 255
214 232 255
214 232 255
214 231 255
214 231 255
214 231 255
214 231 255
214 231 255
214 231 255
214 231 255
214 231 255
214 231 255
214 231 255
214 231 255
214 231 255
214 231 255
214 231 255
214 231 255
214 231 255
213 231 255
213 231 255
213 231 255
213 231 255
213 231 255
213 231 255
213 231 255
213 231 255
213 231 255
213 231 255
213 231 255
213 231 255
213 231 255
213 231 255
213 231 255
213 231 255
213 231 255
213 231 255
213 231 255
213 231 255
213 231 255
213 231 255
213 231 255
213 231 255
213 231 255
213 231 255
213 231 255
213 231 255
212 231 255
212 231 255
212 231 255
212 231 255
212 231 255
212 231 255
212 231 255
212 231 255
212 230 255
212 230 255
212 230 255
212 230 255
212 230 255
212 230 255
212 230 255
212 230 255
212 230 255
212 230 255
212 230 255
212 230 255
212 230 255
212 230 255
212 230 255
212 230 255
212 230 255
212 230 255
211 230 255
211 230 255
211 230 255
211 230 255
211 230 255
211 230 255
211 230 255
211 230 255
211 230 255
211 230 255
211 230 255
211 230 255
211 230 255
211 230 255
211 230 255
211 230 255
211 230 255
211 230 255
211 230 255
211 230 255
211 230 255
211 230 255
211 230 255
211 230 255
211 230 255
211 230 255
174 190 212
58 64 73
58 64 73
56 62 70
57 64 72
57 64 72
56 62 71
57 64 74
57 63 72
57 64 72
57 63 72
59 66 74
59 66 74
58 65 73
55 60 68
53 59 67
56 62 70
58 64 73
57 64 72
55 62 70
59 65 74
57 63 71
59 66 74
54 60 69
57 63 71
58 64 72
56 62 69
56 62 71
56 62 71
56 63 71
53 59 67
56 62 70
58 64 73
56 62 71
57 63 71
55 61 69
56 62 70
55 61 69
52 58 66
56 62 71
57 63 72
58 64 72
53 58 66
57 62 70
58 64 72
57 63 71
54 60 68
57 63 71
56 62 70
55 61 69
56 62 70
58 65 73
53 59 67
56 62 69
54 60 69
55 61 69
55 61 69
56 62 70
55 62 70
54 60 69
57 63 71
55 61 69
58 65 73
55 61 69
56 63 71
53 59 67
56 62 71
56 62 70
55 61 69
56 62 71
54 60 68
56 62 71
54 60 68
58 65 74
55 61 69
55 61 69
56 62 70
55 60 68
56 62 70
56 62 70
59 65 73
56 62 70
57 64 72
55 61 69
58 65 73
55 61 69
60 66 75
56 63 71
57 63 72
57 63 72
58 64 72
59 65 74
58 64 72
57 64 72
57 63 71
56 63 71
55 61 70
54 61 69
58 64 72
55 61 69
57 63 72
54 60 69
57 63 72
58 65 73
57 64 72
56 62 71
58 64 73
178 195 217
211 230 255
211 230 255
211 230 255
211 230 255
211 230 255
211 230 255
211 230 255
211 230 255
211 230 255
211 230 255
211 230 255
211 230 255
211 230 255
211 230 255
211 230 255
211 230 255
211 230 255
211 230 255
211 230 255
211 230 255
211 230 255
211 230 255
211 230 255
211 230 255
211 230 255
212 230 255
212 230 255
212 230 255
212 230 255
212 230 255
212 230 255
212 230 255
212 230 255
212 230 255
212 230 255
212 230 255
212 230 255
212 230 255
212 230 255
212 230 255
212 230 255
212 230 255
212 230 255
212 230 255
212 231 255
212 231 255
212 231 255
212 231 255
212 231 255
212 231 255
212 231 255
213 231 255
213 231 255
213 231 255
213 231 255
213 231 255
213 231 255
213 231 255
213 231 255
213 231 255
213 231 255
213 231 255
213 231 255
213 231 255
213 231 255
213 231 255
213 231 255
213 231 255
213 231 255
213 231 255
213 231 255
213 231 255
213 231 255
213 231 255
213 231 255
213 231 255
213 231 255
213 231 255
213 231 255
213 231 255
214 231 255
214 231 255
214 231 255
214 231 255
214 231 255
214 231 255
214 231 255
214 231 255
214 231 255
214 231 255
214 231 255
214 231 255
214 231 255
214 231 255
214 231 255
214 231 255
214 232 255
214 232 255
214 232 255
214 232 255
214 232 255
214 232 255
214 232 255
214 232 255
214 232 255
214 232 255
214 232 255
214 232 255
214 232 255
214 232 255
214 232 255
214 232 255
214 232 255
215 232 255
215 232 255
215 232 255
215 232 255
215 232 255
215 232 255
215 232 255
215 232 255
215 232 255
215 232 255
215 232 255
215 232 255
215 232 255
215 232 255
215 232 255
215 232 255
215 232 255
215 232 255
215 232 255
215 232 255
215 232 255
215 232 255
215 232 255
215 232 255
215 232 255
215 232 255
215 232 255
215 232 255
215 232 255
215 232 255
215 232 255
215 232 255
215 232 255
215 232 255
215 232 255
215 232 255
215 232 255
215 232 255
215 232 255
215 232 255
215 232 255
215 232 255
215 232 255
215 232 255
215 232 255
215 232 255
215 232 255
215 232 255
215 232 255
215 232 255
215 232 255
215 232 255
215 232 255
215 232 255
215 232 255
215 232 255
215 232 255
215 232 255
215 232 255
215 232 255
215 232 255
215 232 255
215 232 255
215 232 255
215 232 255
215 232 255
215 232 255
215 232 255
215 232 255
215 232 255
215 232 255
215 232 255
215 232 255
214 232 255
214 232 255
214 232 255
214 232 255
214 232 255
214 232 255
214 232 255
214 232 255
214 232 255
214 232 255
214 232 255
214 232 255
214 232 255
214 232 255
214 232 255
214 232 255
214 231 255
214 231 255
214 231 255
214 231 255
214 231 255
214 231 255
214 231 255
214 231 255
214 231 255
214 231 255
214 231 255
214 231 255
214 231 255
214 231 255
214 231 255
214 231 255
213 231 255
213 231 255
213 231 255
213 231 255
213 231 255
213 231 255
213 231 255
213 231 255
213 231 255
213 231 255
213 231 255
213 231 255
213 231 255
213 231 255
213 231 255
213 231 255
213 231 255
213 231 255
213 231 255
213 231 255
213 231 255
213 231 255
213 231 255
213 231 255
213 231 255
213 231 255
213 231 255
213 231 255
213 231 255
212 231 255
212 231 255
212 231 255
212 231 255
212 231 255
212 231 255
212 231 255
212 231 255
212 230 255
212 230 255
212 230 255
212 230 255
212 230 255
212 230 255
212 230 255
212 230 255
212 230 255
212 230 255
212 230 255
212 230 255
212 230 255
212 230 255
212 230 255
212 230 255
212 230 255
212 230 255
211 230 255
211 230 255
211 230 255
211 230 255
211 230 255
211 230 255
211 230 255
211 230 255
211 230 255
211 230 255
211 230 255
211 230 255
211 230 255
211 230 255
211 230 255
211 230 255
211 230 255
211 230 255
205 223 248
82 90 101
56 62 71
58 65 74
58 64 72
55 61 69
55 61 70
57 64 72
57 63 71
57 63 72
59 66 74
57 64 72
56 63 71
57 63 72
56 62 70
56 62 71
55 61 69
55 62 70
57 63 72
55 61 69
56 63 72
60 66 75
57 63 72
58 65 74
56 61 69
58 65 74
57 63 71
54 59 67
54 59 67
55 61 70
56 62 71
57 63 72
56 62 71
59 65 74
55 61 70
57 64 72
57 63 71
54 61 69
56 63 71
58 65 74
55 60 68
55 61 69
57 64 72
57 63 71
55 61 70
57 63 72
55 61 70
57 63 72
57 63 72
55 61 69
55 61 69
57 63 71
54 61 69
56 63 71
53 59 67
56 62 70
55 61 69
54 60 68
56 62 70
56 62 70
56 63 71
56 63 71
56 61 69
55 61 69
54 60 68
52 58 66
56 62 71
55 62 70
55 61 69
55 61 69
58 64 73
56 62 70
57 63 71
55 61 69
54 60 68
57 63 71
55 62 70
57 63 71
55 62 70
56 61 69
56 62 70
53 59 66
56 62 71
58 64 73
57 63 72
53 59 66
59 65 74
53 58 66
56 62 70
58 64 72
56 62 70
56 62 70
55 61 69
58 64 72
58 65 73
56 62 71
54 60 69
54 60 68
54 60 68
55 61 70
57 63 72
56 62 70
58 64 73
58 65 74
55 61 70
55 61 70
60 66 75
57 63 72
73 81 91
199 217 241
211 230 255
211 230 255
211 230 255
211 230 255
211 230 255
211 230 255
211 230 255
211 230 255
211 230 255
211 230 255
211 230 255
211 230 255
211 230 255
211 230 255
211 230 255
211 230 255
211 230 255
212 230 255
212 230 255
212 230 255
212 230 255
212 230 255
212 230 255
212 230 255
212 230 255
212 230 255
212 230 255
212 230 255
212 230 255
212 230 255
212 230 255
212 230 255
212 230 255
212 230 255
212 230 255
212 230 255
212 230 255
212 231 255
212 231 255
212 231 255
212 231 255
212 231 255
212 231 255
212 231 255
213 231 255
213 231 255
213 231 255
213 231 255
213 231 255
213 231 255
213 231 255
213 231 255
213 231 255
213 231 255
213 231 255
213 231 255
213 231 255
213 231 255
213 231 255
213 231 255
213 231 255
213 231 255
213 231 255
213 231 255
213 231 255
213 231 255
213 231 255
213 231 255
213 231 255
213 231 255
213 231 255
213 231 255
213 231 255
214 231 255
214 231 255
214 231 255
214 231 255
214 231 255
214 231 255
214 231 255
214 231 255
214 231 255
214 231 255
214 231 255
214 231 255
214 231 255
214 231 255
214 231 255
214 231 255
214 232 255
214 232 255
214 232 255
214 232 255
214 232 255
214 232 255
214 232 255
214 232 255
214 232 255
214 232 255
214 232 255
214 232 255
214 232 255
214 232 255
214 232 255
214 232 255
215 232 255
215 232 255
215 232 255
215 232 255
215 232 255
215 232 255
215 232 255
215 232 255
215 232 255
215 232 255
215 232 255
215 232 255
215 232 255
215 232 255
215 232 255
215 232 255
215 232 255
215 232 255
215 232 255
215 232 255
215 232 255
215 232 255
215 232 255
215 232 255
215 232 255
215 232 255
215 232 255
215 232 255
215 232 255
215 232 255
215 232 255
215 232 255
215 232 255
215 232 255
215 232 255
215 232 255
215 232 255
215 232 255
215 232 255
215 232 255
216 232 255
216 232 255
216 232 255
216 232 255
216 232 255
216 232 255
215 232 255
215 232 255
215 232 255
215 232 255
215 232 255
215 232 255
215 232 255
215 232 255
215 232 255
215 232 255
215 232 255
215 232 255
215 232 255
215 232 255
215 232 255
215 232 255
215 232 255
215 232 255
215 232 255
215 232 255
215 232 255
215 232 255
215 232 255
215 232 255
215 232 255
215 232 255
215 232 255
215 232 255
215 232 255
215 232 255
215 232 255
215 232 255
215 232 255
215 232 255
215 232 255
215 232 255
215 232 255
215 232 255
215 232 255
215 232 255
214 232 255
214 232 255
214 232 255
214 232 255
214 232 255
214 232 255
214 232 255
214 232 255
214 232 255
214 232 255
214 232 255
214 232 255
214 232 255
214 232 255
214 232 255
214 232 255
214 232 255
214 231 255
214 231 255
214 231 255
214 231 255
214 231 255
214 231 255
214 231 255
214 231 255
214 231 255
214 231 255
214 231 255
214 231 255
214 231 255
214 231 255
214 231 255
214 231 255
213 231 255
213 231 255
213 231 255
213 231 255
213 231 255
213 231 255
213 231 255
213 231 255
213 231 255
213 231 255
213 231 255
213 231 255
213 231 255
213 231 255
213 231 255
213 231 255
213 231 255
213 231 255
213 231 255
213 231 255
213 231 255
213 231 255
213 231 255
213 231 255
213 231 255
213 231 255
213 231 255
213 231 255
212 231 255
212 231 255
212 231 255
212 231 255
212 231 255
212 231 255
212 231 255
212 231 255
212 230 255
212 230 255
212 230 255
212 230 255
212 230 255
212 230 255
212 230 255
212 230 255
212 230 255
212 230 255
212 230 255
212 230 255
212 230 255
212 230 255
212 230 255
212 230 255
212 230 255
212 230 255
212 230 255
211 230 255
211 230 255
211 230 255
211 230 255
211 230 255
211 230 255
211 230 255
211 230 255
211 230 255
211 230 255
211 230 255
123 134 150
54 61 69
55 61 69
56 63 72
58 64 72
57 64 72
57 64 72
57 63 72
57 64 72
55 61 69
59 65 74
56 62 70
55 61 70
56 62 70
56 63 71
56 62 71
59 65 74
53 59 67
57 63 71
57 63 71
56 62 70
54 60 68
56 62 71
54 60 68
57 63 71
57 63 71
58 65 73
54 60 69
56 63 71
55 61 69
56 62 71
56 63 71
58 64 73
54 61 69
57 63 72
57 63 71
57 64 72
53 59 67
57 63 71
55 61 69
56 62 70
55 61 69
55 61 69
58 65 73
54 60 68
57 63 72
55 61 70
55 61 69
57 63 72
56 61 69
54 60 68
53 59 67
59 65 74
56 62 69
55 61 70
56 62 70
57 63 72
58 64 72
56 62 70
56 62 70
56 63 71
56 62 70
58 64 72
56 62 71
53 59 67
57 63 72
56 62 70
58 64 72
58 65 73
58 64 72
59 65 74
53 59 67
56 62 71
55 61 69
56 62 70
55 61 69
57 63 72
55 61 70
58 64 72
55 62 70
54 60 69
56 62 70
56 62 71
54 60 67
55 61 69
55 61 70
56 63 71
56 61 69
57 64 72
57 63 72
54 61 69
57 63 72
56 62 70
57 63 71
58 64 73
57 63 71
59 65 73
55 61 70
56 62 70
56 62 70
57 64 72
55 62 70
56 62 71
56 62 70
58 64 73
57 64 72
59 66 74
55 62 71
57 64 72
129 141 157
211 230 255
211 230 255
211 230 255
211 230 255
211 230 255
211 230 255
211 230 255
211 230 255
211 230 255
211 230 255
212 230 255
212 230 255
212 230 255
212 230 255
212 230 255
212 230 255
212 230 255
212 230 255
212 230 255
212 230 255
212 230 255
212 230 255
212 230 255
212 230 255
212 230 255
212 230 255
212 230 255
212 230 255
212 230 255
212 230 255
212 231 255
212 231 255
212 231 255
212 231 255
212 231 255
212 231 255
212 231 255
212 231 255
213 231 255
213 231 255
213 231 255
213 231 255
213 231 255
213 231 255
213 231 255
213 231 255
213 231 255
213 231 255
213 231 255
213 231 255
213 231 255
213 231 255
213 231 255
213 231 255
213 231 255
213 231 255
213 231 255
213 231 255
213 231 255
213 231 255
213 231 255
213 231 255
213 231 255
213 231 255
213 231 255
213 231 255
214 231 255
214 231 255
214 231 255
214 231 255
214 231 255
214 231 255
214 231 255
214 231 255
214 231 255
214 231 255
214 231 255
214 231 255
214 231 255
214 231 255
214 231 255
214 231 255
214 232 255
214 232 255
214 232 255
214 232 255
214 232 255
214 232 255
214 232 255
214 232 255
214 232 255
214 232 255
214 232 255
214 232 255
214 232 255
214 232 255
214 232 255
214 232 255
215 232 255
215 232 255
215 232 255
215 232 255
215 232 255
215 232 255
215 232 255
215 232 255
215 232 255
215 232 255
215 232 255
215 232 255
215 232 255
215 232 255
215 232 255
215 232 255
215 232 255
215 232 255
215 232 255
215 232 255
215 232 255
215 232 255
215 232 255
215 232 255
215 232 255
215 232 255
215 232 255
215 232 255
215 232 255
215 232 255
215 232 255
215 232 255
215 232 255
215 232 255
215 232 255
215 232 255
215 232 255
215 232 255
215 232 255
215 232 255
215 232 255
216 232 255
216 232 255
216 232 255
216 232 255
216 232 255
216 232 255
216 232 255
216 232 255
216 232 255
216 232 255
216 232 255
216 232 255
216 232 255
216 232 255
216 232 255
216 232 255
216 232 255
216 232 255
216 232 255
216 232 255
215 232 255
215 232 255
215 232 255
215 232 255
215 232 255
215 232 255
215 232 255
215 232 255
215 232 255
215 232 255
215 232 255
215 232 255
215 232 255
215 232 255
215 232 255
215 232 255
215 232 255
215 232 255
215 232 255
215 232 255
215 232 255
215 232 255
215 232 255
215 232 255
215 232 255
215 232 255
215 232 255
215 232 255
215 232 255
215 232 255
215 232 255
215 232 255
215 232 255
215 232 255
215 232 255
215 232 255
215 232 255
215 232 255
215 232 255
214 232 255
214 232 255
214 232 255
214 232 255
214 232 255
214 232 255
214 232 255
214 232 255
214 232 255
214 232 255
214 232 255
214 232 255
214 232 255
214 232 255
214 232 255
214 232 255
214 232 255
214 231 255
214 231 255
214 231 255
214 231 255
214 231 255
214 231 255
214 231 255
214 231 255
214 231 255
214 231 255
214 231 255
214 231 255
214 231 255
214 231 255
214 231 255
214 231 255
213 231 255
213 231 255
213 231 255
213 231 255
213 231 255
213 231 255
213 231 255
213 231 255
213 231 255
213 231 255
213 231 255
213 231 255
213 231 255
213 231 255
213 231 255
213 231 255
213 231 255
213 231 255
213 231 255
213 231 255
213 231 255
213 231 255
213 231 255
213 231 255
213 231 255
213 231 255
213 231 255
213 231 255
212 231 255
212 231 255
212 231 255
212 231 255
212 231 255
212 231 255
212 231 255
212 231 255
212 230 255
212 230 255
212 230 255
212 230 255
212 230 255
212 230 255
212 230 255
212 230 255
212 230 255
212 230 255
212 230 255
212 230 255
212 230 255
212 230 255
212 230 255
212 230 255
212 230 255
212 230 255
212 230 255
212 230 255
211 230 255
211 230 255
182 198 221
53 59 67
58 65 73
54 61 69
57 63 72
56 62 71
57 64 73
53 59 67
57 63 71
56 63 72
57 63 72
56 61 69
55 61 69
56 62 71
54 60 68
55 61 69
53 59 67
56 62 70
54 60 68
54 60 69
58 64 72
56 62 71
56 62 71
60 66 75
55 61 70
55 61 69
56 62 69
58 64 73
55 61 69
56 62 70
55 61 69
55 61 69
54 60 67
57 63 71
55 61 69
53 59 67
55 61 69
55 61 69
57 63 71
54 60 68
56 62 71
55 61 69
54 60 68
55 62 70
55 61 69
57 63 72
58 64 72
54 60 68
55 61 69
53 59 67
53 58 66
56 61 69
56 63 72
56 62 70
56 62 70
55 61 69
57 63 72
52 58 66
56 62 70
55 61 70
56 62 70
57 62 70
57 63 72
54 60 67
54 60 69
56 63 71
57 64 72
56 62 70
55 61 69
52 58 66
55 62 70
55 61 69
59 65 74
55 61 69
54 60 68
56 62 71
52 58 66
56 62 70
57 63 71
58 64 73
55 61 69
55 62 70
56 62 70
56 62 70
57 63 71
55 61 69
54 60 67
58 65 74
55 61 69
54 60 68
53 59 68
56 62 71
57 63 72
58 64 73
57 63 71
57 63 71
57 62 70
54 59 67
54 61 69
59 65 73
60 66 75
55 62 70
53 59 67
57 63 72
55 61 69
57 64 72
54 61 69
58 65 73
55 61 69
57 64 72
59 66 74
177 193 214
211 230 255
211 230 255
212 230 255
212 230 255
212 230 255
212 230 255
212 230 255
212 230 255
212 230 255
212 230 255
212 230 255
212 230 255
212 230 255
212 230 255
212 230 255
212 230 255
212 230 255
212 230 255
212 230 255
212 230 255
212 230 255
212 230 255
212 231 255
212 231 255
212 231 255
212 231 255
212 231 255
212 231 255
212 231 255
212 231 255
213 231 255
213 231 255
213 231 255
213 231 255
213 231 255
213 231 255
213 231 255
213 231 255
213 231 255
213 231 255
213 231 255
213 231 255
213 231 255
213 231 255
213 231 255
213 231 255
213 231 255
213 231 255
213 231 255
213 231 255
213 231 255
213 231 255
213 231 255
213 231 255
213 231 255
213 231 255
213 231 255
213 231 255
214 231 255
214 231 255
214 231 255
214 231 255
214 231 255
214 231 255
214 231 255
214 231 255
214 231 255
214 231 255
214 231 255
214 231 255
214 231 255
214 231 255
214 231 255
214 231 255
214 232 255
214 232 255
214 232 255
214 232 255
214 232 255
214 232 255
214 232 255
214 232 255
214 232 255
214 232 255
214 232 255
214 232 255
214 232 255
214 232 255
214 232 255
214 232 255
215 232 255
215 232 255
215 232 255
215 232 255
215 232 255
215 232 255
215 232 255
215 232 255
215 232 255
215 232 255
215 232 255
215 232 255
215 232 255
215 232 255
215 232 255
215 232 255
215 232 255
215 232 255
215 232 255
215 232 255
215 232 255
215 232 255
215 232 255
215 232 255
215 232 255
215 232 255
215 232 255
215 232 255
215 232 255
215 232 255
215 232 255
215 232 255
215 232 255
215 232 255
215 232 255
215 232 255
215 232 255
215 232 255
215 232 255
215 232 255
216 232 255
216 232 255
216 232 255
216 232 255
216 232 255
216 232 255
216 232 255
216 232 255
216 232 255
216 232 255
216 232 255
216 232 255
216 232 255
216 232 255
216 233 255
216 233 255
216 233 255
216 233 255
216 233 255
216 233 255
216 233 255
216 232 255
216 232 255
216 232 255
216 232 255
216 232 255
216 232 255
216 232 255
216 232 255
216 232 255
216 232 255
216 232 255
216 232 255
216 232 255
216 232 255
215 232 255
215 232 255
215 232 255
215 232 255
215 232 255
215 232 255
215 232 255
215 232 255
215 232 255
215 232 255
215 232 255
215 232 255
215 232 255
215 232 255
215 232 255
215 232 255
215 232 255
215 232 255
215 232 255
215 232 255
215 232 255
215 232 255
215 232 255
215 232 255
215 232 255
215 232 255
215 232 255
215 232 255
215 232 255
215 232 255
215 232 255
215 232 255
215 232 255
215 232 255
215 232 255
215 232 255
215 232 255
215 232 255
215 232 255
214 232 255
214 232 255
214 232 255
214 232 255
214 232 255
214 232 255
214 232 255
214 232 255
214 232 255
214 232 255
214 232 255
214 232 255
214 232 255
214 232 255
214 232 255
214 232 255
214 231 255
214 231 255
214 231 255
214 231 255
214 231 255
214 231 255
214 231 255
214 231 255
214 231 255
214 231 255
214 231 255
214 231 255
214 231 255
214 231 255
214 231 255
214 231 255
213 231 255
213 231 255
213 231 255
213 231 255
213 231 255
213 231 255
213 231 255
213 231 255
213 231 255
213 231 255
213 231 255
213 231 255
213 231 255
213 231 255
213 231 255
213 231 255
213 231 255
213 231 255
213 231 255
213 231 255
213 231 255
213 231 255
213 231 255
213 231 255
213 231 255
213 231 255
213 231 255
213 231 255
213 231 255
212 231 255
212 231 255
212 231 255
212 231 255
212 231 255
212 231 255
212 231 255
212 231 255
212 230 255
212 230 255
212 230 255
212 230 255
212 230 255
212 230 255
212 230 255
212 230 255
212 230 255
212 230 255
212 230 255
212 230 255
212 230 255
212 230 255
210 228 253
92 101 113
57 64 72
58 65 74
58 64 72
57 64 72
55 61 70
55 61 70
56 62 71
56 61 69
57 63 71
55 62 70
54 60 69
57 64 72
53 59 67
57 63 71
54 60 68
56 63 71
57 63 71
56 62 71
58 65 73
57 63 72
55 61 69
51 57 64
58 64 72
56 62 69
55 61 69
56 62 70
55 61 69
55 61 69
56 62 70
55 61 69
55 61 69
58 64 72
55 60 68
55 61 69
52 58 66
57 63 71
56 62 70
54 60 68
56 62 69
56 62 70
56 62 70
56 62 71
52 58 66
55 61 69
54 60 68
58 64 73
56 63 72
53 58 66
56 62 70
57 64 72
53 59 67
54 60 69
57 64 72
55 61 70
54 60 68
56 62 69
55 61 69
55 61 69
56 62 70
56 62 70
58 64 73
56 63 71
53 59 67
55 61 70
55 61 69
53 59 67
54 60 69
57 63 71
53 59 66
57 63 71
55 61 69
54 60 68
53 59 67
54 60 68
57 64 72
54 59 67
55 61 69
54 60 68
55 61 69
56 62 71
57 63 71
56 63 71
56 61 70
56 62 70
54 60 68
54 60 69
54 60 69
55 61 70
55 61 68
57 63 71
53 59 67
57 63 72
57 63 72
53 59 67
54 60 68
55 60 67
55 61 70
58 64 73
58 65 74
58 64 72
54 61 69
54 60 68
55 61 70
57 63 72
56 62 70
56 63 71
58 64 73
55 61 69
58 63 71
54 61 69
101 110 123
207 225 250
212 230 255
212 230 255
212 230 255
212 230 255
212 230 255
212 230 255
212 230 255
212 230 255
212 230 255
212 230 255
212 230 255
212 230 255
212 230 255
212 231 255
212 231 255
212 231 255
212 231 255
212 231 255
212 231 255
212 231 255
212 231 255
212 231 255
213 231 255
213 231 255
213 231 255
213 231 255
213 231 255
213 231 255
213 231 255
213 231 255
213 231 255
213 231 255
213 231 255
213 231 255
213 231 255
213 231 255
213 231 255
213 231 255
213 231 255
213 231 255
213 231 255
213 231 255
213 231 255
213 231 255
213 231 255
213 231 255
213 231 255
213 231 255
213 231 255
213 231 255
213 231 255
214 231 255
214 231 255
214 231 255
214 231 255
214 231 255
214 231 255
214 231 255
214 231 255
214 231 255
214 231 255
214 231 255
214 231 255
214 231 255
214 231 255
214 231 255
214 232 255
214 232 255
214 232 255
214 232 255
214 232 255
214 232 255
214 232 255
214 232 255
214 232 255
214 232 255
214 232 255
214 232 255
214 232 255
214 232 255
214 232 255
214 232 255
214 232 255
215 232 255
215 232 255
215 232 255
215 232 255
215 232 255
215 232 255
215 232 255
215 232 255
215 232 255
215 232 255
215 232 255
215 232 255
215 232 255
215 232 255
215 232 255
215 232 255
215 232 255
215 232 255
215 232 255
215 232 255
215 232 255
215 232 255
215 232 255
215 232 255
215 232 255
215 232 255
215 232 255
215 232 255
215 232 255
215 232 255
215 232 255
215 232 255
215 232 255
215 232 255
215 232 255
215 232 255
215 232 255
215 232 255
215 232 255
216 232 255
216 232 255
216 232 255
216 232 255
216 232 255
216 232 255
216 232 255
216 232 255
216 232 255
216 232 255
216 232 255
216 232 255
216 232 255
216 232 255
216 233 255
216 233 255
216 233 255
216 233 255
216 233 255
216 233 255
216 233 255
216 233 255
216 233 255
216 233 255
216 233 255
216 233 255
216 233 255
216 233 255
216 233 255
216 233 255
216 233 255
216 233 255
216 233 255
216 233 255
216 233 255
216 233 255
216 232 255
216 232 255
216 232 255
216 232 255
216 232 255
216 232 255
216 232 255
216 232 255
216 232 255
216 232 255
216 232 255
216 232 255
216 232 255
216 232 255
215 232 255
215 232 255
215 232 255
215 232 255
215 232 255
215 232 255
215 232 255
215 232 255
215 232 255
215 232 255
215 232 255
215 232 255
215 232 255
215 232 255
215 232 255
215 232 255
215 232 255
215 232 255
215 232 255
215 232 255
215 232 255
215 232 255
215 232 255
215 232 255
215 232 255
215 232 255
215 232 255
215 232 255
215 232 255
215 232 255
215 232 255
215 232 255
215 232 255
215 232 255
215 232 255
215 232 255
215 232 255
215 232 255
215 232 255
214 232 255
214 232 255
214 232 255
214 232 255
214 232 255
214 232 255
214 232 255
214 232 255
214 232 255
214 232 255
214 232 255
214 232 255
214 232 255
214 232 255
214 232 255
214 232 255
214 231 255
214 231 255
214 231 255
214 231 255
214 231 255
214 231 255
214 231 255
214 231 255
214 231 255
214 231 255
214 231 255
214 231 255
214 231 255
214 231 255
214 231 255
213 231 255
213 231 255
213 231 255
213 231 255
213 231 255
213 231 255
213 231 255
213 231 255
213 231 255
213 231 255
213 231 255
213 231 255
213 231 255
213 231 255
213 231 255
213 231 255
213 231 255
213 231 255
213 231 255
213 231 255
213 231 255
213 231 255
213 231 255
213 231 255
213 231 255
213 231 255
213 231 255
213 231 255
213 231 255
213 231 255
212 231 255
212 231 255
212 231 255
212 231 255
212 231 255
212 231 255
212 231 255
212 231 255
212 230 255
212 230 255
212 230 255
212 230 255
212 230 255
212 230 255
157 170 189
57 63 72
59 65 74
55 61 69
55 61 69
57 63 72
52 58 66
54 60 68
55 61 69
56 62 70
55 61 69
58 64 73
56 62 70
57 63 71
56 62 70
56 62 71
55 61 69
55 61 69
56 62 70
57 63 71
54 60 68
55 61 69
57 63 72
54 60 68
55 61 69
51 56 64
55 61 69
52 58 66
55 61 69
57 64 72
56 63 71
55 61 70
55 61 69
55 60 68
53 59 67
58 65 74
58 64 73
55 61 69
57 63 72
56 63 71
56 62 70
55 61 68
54 60 67
56 62 70
56 63 71
53 58 66
57 64 72
53 59 67
56 62 70
54 60 67
57 63 72
55 61 69
54 60 69
55 61 69
56 62 70
56 62 70
53 59 67
55 61 69
54 61 69
54 60 68
56 62 70
56 62 70
55 61 69
54 60 69
58 65 74
56 63 71
55 62 70
57 63 72
54 60 67
57 64 72
56 62 70
54 60 68
55 61 69
54 60 68
53 59 67
55 62 70
56 61 69
57 64 72
56 62 70
55 61 69
56 61 69
57 63 71
54 60 68
58 64 73
55 61 69
57 63 72
56 62 70
57 63 71
52 58 67
51 57 65
53 59 66
56 62 70
55 61 69
56 62 70
57 63 71
56 62 70
55 61 69
56 62 70
57 63 72
55 61 69
58 65 73
57 63 71
56 62 70
55 61 69
56 62 70
54 60 68
54 61 69
57 63 72
56 62 71
57 64 72
57 64 73
58 64 73
54 60 69
162 176 196
212 230 255
212 230 255
212 230 255
212 230 255
212 230 255
212 230 255
212 231 255
212 231 255
212 231 255
212 231 255
212 231 255
212 231 255
212 231 255
212 231 255
213 231 255
213 231 255
213 231 255
213 231 255
213 231 255
213 231 255
213 231 255
213 231 255
213 231 255
213 231 255
213 231 255
213 231 255
213 231 255
213 231 255
213 231 255
213 231 255
213 231 255
213 231 255
213 231 255
213 231 255
213 231 255
213 231 255
213 231 255
213 231 255
213 231 255
213 231 255
213 231 255
213 231 255
213 231 255
213 231 255
214 231 255
214 231 255
214 231 255
214 231 255
214 231 255
214 231 255
214 231 255
214 231 255
214 231 255
214 231 255
214 231 255
214 231 255
214 231 255
214 231 255
214 231 255
214 231 255
214 232 255
214 232 255
214 232 255
214 232 255
214 232 255
214 232 255
214 232 255
214 232 255
214 232 255
214 232 255
214 232 255
214 232 255
214 232 255
214 232 255
214 232 255
214 232 255
215 232 255
215 232 255
215 232 255
215 232 255
215 232 255
215 232 255
215 232 255
215 232 255
215 232 255
215 232 255
215 232 255
215 232 255
215 232 255
215 232 255
215 232 255
215 232 255
215 232 255
215 232 255
215 232 255
215 232 255
215 232 255
215 232 255
215 232 255
215 232 255
215 232 255
215 232 255
215 232 255
215 232 255
215 232 255
215 232 255
215 232 255
215 232 255
215 232 255
215 232 255
215 232 255
215 232 255
215 232 255
215 232 255
216 232 255
216 232 255
216 232 255
216 232 255
216 232 255
216 232 255
216 232 255
216 232 255
216 232 255
216 232 255
216 232 255
216 232 255
216 232 255
216 232 255
216 233 255
216 233 255
216 233 255
216 233 255
216 233 255
216 233 255
216 233 255
216 233 255
216 233 255
216 233 255
216 233 255
216 233 255
216 233 255
216 233 255
216 233 255
216 233 255
216 233 255
216 233 255
216 233 255
216 233 255
216 233 255
216 233 255
216 233 255
216 233 255
216 233 255
216 233 255
216 233 255
216 233 255
216 233 255
216 233 255
216 233 255
216 233 255
216 233 255
216 233 255
216 233 255
216 233 255
216 233 255
216 233 255
216 232 255
216 232 255
216 232 255
216 232 255
216 232 255
216 232 255
216 232 255
216 232 255
216 232 255
216 232 255
216 232 255
216 232 255
216 232 255
216 232 255
215 232 255
215 232 255
215 232 255
215 232 255
215 232 255
215 232 255
215 232 255
215 232 255
215 232 255
215 232 255
215 232 255
215 232 255
215 232 255
215 232 255
215 232 255
215 232 255
215 232 255
215 232 255
215 232 255
215 232 255
215 232 255
215 232 255
215 232 255
215 232 255
215 232 255
215 232 255
215 232 255
215 232 255
215 232 255
215 232 255
215 232 255
215 232 255
215 232 255
215 232 255
215 232 255
215 232 255
215 232 255
215 232 255
214 232 255
214 232 255
214 232 255
214 232 255
214 232 255
214 232 255
214 232 255
214 232 255
214 232 255
214 232 255
214 232 255
214 232 255
214 232 255
214 232 255
214 232 255
214 232 255
214 231 255
214 231 255
214 231 255
214 231 255
214 231 255
214 231 255
214 231 255
214 231 255
214 231 255
214 231 255
214 231 255
214 231 255
214 231 255
214 231 255
214 231 255
214 231 255
213 231 255
213 231 255
213 231 255
213 231 255
213 231 255
213 231 255
213 231 255
213 231 255
213 231 255
213 231 255
213 231 255
213 231 255
213 231 255
213 231 255
213 231 255
213 231 255
213 231 255
213 231 255
213 231 255
213 231 255
213 231 255
213 231 255
213 231 255
213 231 255
213 231 255
213 231 255
213 231 255
213 231 255
213 231 255
213 231 255
212 231 255
212 231 255
212 231 255
212 231 255
212 231 255
204 222 246
65 71 80
54 60 67
55 61 69
56 62 71
53 59 67
55 61 69
53 59 66
56 62 71
56 62 70
58 63 71
56 62 69
55 61 70
55 61 69
55 62 70
53 60 68
55 61 70
55 61 69
54 60 68
55 61 69
54 59 67
56 62 71
59 65 74
56 62 70
56 62 69
53 59 67
55 61 69
56 63 71
56 62 70
57 63 72
56 62 71
53 59 66
55 61 69
56 62 70
55 61 70
54 60 69
56 62 70
53 59 67
56 62 70
56 63 71
56 63 71
54 59 67
53 59 67
58 64 72
54 60 68
53 59 67
54 60 68
55 60 68
54 59 67
54 60 68
55 61 70
57 63 71
56 62 70
56 62 71
53 58 66
57 63 72
57 63 71
56 62 70
55 61 69
57 63 71
57 63 71
55 61 70
55 61 69
55 61 70
56 62 70
51 57 64
54 60 68
54 60 68
56 62 70
57 63 71
57 63 71
54 60 67
57 63 71
60 66 74
54 59 67
54 60 68
54 60 69
53 59 67
55 61 70
59 66 74
59 65 73
55 61 69
56 62 70
54 60 67
55 61 70
57 63 71
56 62 70
54 60 68
58 64 73
55 62 70
57 63 71
57 63 72
52 58 66
55 60 68
57 63 72
53 59 67
52 58 66
57 64 72
57 63 71
58 64 72
54 60 68
55 61 70
58 64 72
55 61 69
54 60 68
56 63 71
56 62 71
58 64 73
55 61 69
55 61 70
56 63 71
57 63 72
54 61 69
58 65 73
77 85 95
201 219 242
212 231 255
212 231 255
212 231 255
212 231 255
212 231 255
213 231 255
213 231 255
213 231 255
213 231 255
213 231 255
213 231 255
213 231 255
213 231 255
213 231 255
213 231 255
213 231 255
213 231 255
213 231 255
213 231 255
213 231 255
213 231 255
213 231 255
213 231 255
213 231 255
213 231 255
213 231 255
213 231 255
213 231 255
213 231 255
213 231 255
213 231 255
213 231 255
213 231 255
213 231 255
213 231 255
214 231 255
214 231 255
214 231 255
214 231 255
214 231 255
214 231 255
214 231 255
214 231 255
214 231 255
214 231 255
214 231 255
214 231 255
214 231 255
214 231 255
214 231 255
214 231 255
214 232 255
214 232 255
214 232 255
214 232 255
214 232 255
214 232 255
214 232 255
214 232 255
214 232 255
214 232 255
214 232 255
214 232 255
214 232 255
214 232 255
214 232 255
214 232 255
215 232 255
215 232 255
215 232 255
215 232 255
215 232 255
215 232 255
215 232 255
215 232 255
215 232 255
215 232 255
215 232 255
215 232 255
215 232 255
215 232 255
215 232 255
215 232 255
215 232 255
215 232 255
215 232 255
215 232 255
215 232 255
215 232 255
215 232 255
215 232 255
215 232 255
215 232 255
215 232 255
215 232 255
215 232 255
215 232 255
215 232 255
215 232 255
215 232 255
215 232 255
215 232 255
215 232 255
215 232 255
215 232 255
216 232 255
216 232 255
216 232 255
216 232 255
216 232 255
216 232 255
216 232 255
216 232 255
216 232 255
216 232 255
216 232 255
216 232 255
216 232 255
216 232 255
216 233 255
216 233 255
216 233 255
216 233 255
216 233 255
216 233 255
216 233 255
216 233 255
216 233 255
216 233 255
216 233 255
216 233 255
216 233 255
216 233 255
216 233 255
216 233 255
216 233 255
216 233 255
216 233 255
216 233 255
216 233 255
216 233 255
216 233 255
216 233 255
216 233 255
216 233 255
216 233 255
216 233 255
216 233 255
216 233 255
216 233 255
216 233 255
216 233 255
216 233 255
216 233 255
216 233 255
216 233 255
216 233 255
216 233 255
216 233 255
216 233 255
216 233 255
216 233 255
216 233 255
216 233 255
216 233 255
216 233 255
216 233 255
216 233 255
216 233 255
216 233 255
216 233 255
216 233 255
216 232 255
216 232 255
216 232 255
216 232 255
216 232 255
216 232 255
216 232 255
216 232 255
216 232 255
216 232 255
216 232 255
216 232 255
216 232 255
216 232 255
216 232 255
215 232 255
215 232 255
215 232 255
215 232 255
215 232 255
215 232 255
215 232 255
215 232 255
215 232 255
215 232 255
215 232 255
215 232 255
215 232 255
215 232 255
215 232 255
215 232 255
215 232 255
215 232 255
215 232 255
215 232 255
215 232 255
215 232 255
215 232 255
215 232 255
215 232 255
215 232 255
215 232 255
215 232 255
215 232 255
215 232 255
215 232 255
215 232 255
215 232 255
215 232 255
215 232 255
215 232 255
215 232 255
214 232 255
214 232 255
214 232 255
214 232 255
214 232 255
214 232 255
214 232 255
214 232 255
214 232 255
214 232 255
214 232 255
214 232 255
214 232 255
214 232 255
214 232 255
214 232 255
214 231 255
214 231 255
214 231 255
214 231 255
214 231 255
214 231 255
214 231 255
214 231 255
214 231 255
214 231 255
214 231 255
214 231 255
214 231 255
214 231 255
214 231 255
214 231 255
213 231 255
213 231 255
213 231 255
213 231 255
213 231 255
213 231 255
213 231 255
213 231 255
213 231 255
213 231 255
213 231 255
213 231 255
213 231 255
213 231 255
213 231 255
213 231 255
213 231 255
213 231 255
213 231 255
213 231 255
213 231 255
213 231 255
213 231 255
213 231 255
213 231 255
213 231 255
213 231 255
213 231 255
148 161 179
54 60 68
58 64 72
53 59 67
56 62 70
55 60 68
56 62 70
56 62 71
56 62 70
56 62 70
57 63 71
55 61 69
54 60 68
54 61 69
55 61 69
57 63 72
55 61 69
55 61 69
57 63 72
54 61 69
55 61 68
56 62 70
56 62 70
54 60 67
56 62 70
53 59 67
54 60 68
57 64 72
54 60 69
53 59 67
55 61 69
54 60 67
55 61 69
55 61 69
54 61 69
55 61 69
55 61 69
56 63 71
57 62 70
55 61 69
55 61 69
56 62 71
56 62 70
56 63 72
56 62 70
54 59 67
53 58 66
57 63 70
53 59 67
55 61 68
53 58 66
54 60 68
57 62 70
54 61 69
50 56 63
55 61 68
54 60 68
53 59 66
54 61 69
55 61 68
55 61 69
55 61 69
54 60 68
55 61 69
53 59 67
53 59 67
55 61 69
53 59 67
55 61 69
57 63 72
56 61 69
54 60 69
56 62 70
52 58 65
55 61 68
56 62 69
54 60 68
53 59 67
55 61 69
56 62 70
56 62 70
57 63 71
53 59 66
55 61 69
53 59 67
53 59 67
56 62 70
55 61 69
54 59 67
54 60 67
53 59 67
54 60 68
56 62 71
54 60 68
54 59 67
59 65 74
54 60 68
53 59 67
53 59 67
55 61 70
54 60 68
58 64 72
56 62 70
56 62 70
54 60 67
57 63 71
55 62 70
57 63 71
57 64 72
55 61 69
56 62 70
56 62 70
57 63 72
55 61 69
56 62 71
167 182 201
213 231 255
213 231 255
213 231 255
213 231 255
213 231 255
213 231 255
213 231 255
213 231 255
213 231 255
213 231 255
213 231 255
213 231 255
213 231 255
213 231 255
213 231 255
213 231 255
213 231 255
213 231 255
213 231 255
213 231 255
213 231 255
213 231 255
213 231 255
213 231 255
213 231 255
213 231 255
213 231 255
213 231 255
214 231 255
214 231 255
214 231 255
214 231 255
214 231 255
214 231 255
214 231 255
214 231 255
214 231 255
214 231 255
214 231 255
214 231 255
214 231 255
214 231 255
214 231 255
214 231 255
214 232 255
214 232 255
214 232 255
214 232 255
214 232 255
214 232 255
214 232 255
214 232 255
214 232 255
214 232 255
214 232 255
214 232 255
214 232 255
214 232 255
214 232 255
214 232 255
215 232 255
215 232 255
215 232 255
215 232 255
215 232 255
215 232 255
215 232 255
215 232 255
215 232 255
215 232 255
215 232 255
215 232 255
215 232 255
215 232 255
215 232 255
215 232 255
215 232 255
215 232 255
215 232 255
215 232 255
215 232 255
215 232 255
215 232 255
215 232 255
215 232 255
215 232 255
215 232 255
215 232 255
215 232 255
215 232 255
215 232 255
215 232 255
215 232 255
215 232 255
215 232 255
215 232 255
215 232 255
216 232 255
216 232 255
216 232 255
216 232 255
216 232 255
216 232 255
216 232 255
216 232 255
216 232 255
216 232 255
216 232 255
216 232 255
216 232 255
216 232 255
216 233 255
216 233 255
216 233 255
216 233 255
216 233 255
216 233 255
216 233 255
216 233 255
216 233 255
216 233 255
216 233 255
216 233 255
216 233 255
216 233 255
216 233 255
216 233 255
216 233 255
216 233 255
216 233 255
216 233 255
216 233 255
216 233 255
216 233 255
216 233 255
216 233 255
216 233 255
216 233 255
216 233 255
216 233 255
216 233 255
216 233 255
217 233 255
217 233 255
217 233 255
217 233 255
217 233 255
216 233 255
216 233 255
216 233 255
216 233 255
216 233 255
216 233 255
216 233 255
216 233 255
216 233 255
216 233 255
216 233 255
216 233 255
216 233 255
216 233 255
216 233 255
216 233 255
216 233 255
216 233 255
216 233 255
216 233 255
216 233 255
216 233 255
216 233 255
216 233 255
216 233 255
216 233 255
216 233 255
216 233 255
216 233 255
216 233 255
216 233 255
216 233 255
216 233 255
216 233 255
216 232 255
216 232 255
216 232 255
216 232 255
216 232 255
216 232 255
216 232 255
216 232 255
216 232 255
216 232 255
216 232 255
216 232 255
216 232 255
216 232 255
215 232 255
215 232 255
215 232 255
215 232 255
215 232 255
215 232 255
215 232 255
215 232 255
215 232 255
215 232 255
215 232 255
215 232 255
215 232 255
215 232 255
215 232 255
215 232 255
215 232 255
215 232 255
215 232 255
215 232 255
215 232 255
215 232 255
215 232 255
215 232 255
215 232 255
215 232 255
215 232 255
215 232 255
215 232 255
215 232 255
215 232 255
215 232 255
215 232 255
215 232 255
215 232 255
215 232 255
215 232 255
214 232 255
214 232 255
214 232 255
214 232 255
214 232 255
214 232 255
214 232 255
214 232 255
214 232 255
214 232 255
214 232 255
214 232 255
214 232 255
214 232 255
214 232 255
214 232 255
214 231 255
214 231 255
214 231 255
214 231 255
214 231 255
214 231 255
214 231 255
214 231 255
214 231 255
214 231 255
214 231 255
214 231 255
214 231 255
214 231 255
214 231 255
214 231 255
213 231 255
213 231 255
213 231 255
213 231 255
213 231 255
213 231 255
213 231 255
213 231 255
213 231 255
213 231 255
213 231 255
213 231 255
213 231 255
213 231 255
213 231 255
213 231 255
213 231 255
213 231 255
213 231 255
204 221 245
67 74 83
57 63 71
58 64 72
56 62 70
57 63 72
57 63 72
57 64 72
53 59 67
55 61 69
56 62 70
55 62 70
52 57 65
56 62 70
54 59 66
56 62 71
57 63 72
56 62 71
57 63 71
56 62 71
56 61 69
55 61 69
55 61 69
51 57 65
53 59 67
60 66 75
55 61 69
56 63 71
54 60 68
53 58 66
56 62 70
54 60 68
56 62 70
54 60 68
54 60 68
53 59 67
56 61 69
56 62 71
56 63 71
55 61 69
52 58 66
52 58 66
55 61 69
55 61 69
56 62 70
56 62 71
56 62 70
56 62 70
55 61 69
55 61 69
57 63 72
53 58 66
55 61 69
56 61 69
57 64 72
54 60 68
56 63 71
55 60 68
55 61 69
54 60 68
56 62 70
56 62 71
54 60 67
54 61 69
54 60 68
56 62 70
55 61 69
54 60 68
56 61 69
54 60 67
56 61 69
55 61 70
55 61 69
52 58 66
56 62 70
53 59 67
55 61 68
54 60 68
53 59 66
52 58 66
55 61 69
54 60 68
57 64 72
55 61 69
50 56 64
56 62 70
56 62 70
58 65 73
52 57 65
58 64 72
55 60 68
55 61 69
57 63 71
57 63 71
53 58 66
58 64 72
57 62 70
53 58 66
56 62 71
55 61 69
57 64 72
53 59 66
57 63 71
55 61 70
54 60 68
54 60 68
58 64 72
54 60 67
54 60 68
56 62 70
55 61 69
56 62 70
55 61 70
56 62 70
58 64 73
56 63 72
71 78 87
202 219 242
213 231 255
213 231 255
213 231 255
213 231 255
213 231 255
213 231 255
213 231 255
213 231 255
213 231 255
213 231 255
213 231 255
213 231 255
213 231 255
213 231 255
213 231 255
213 231 255
213 231 255
213 231 255
214 231 255
214 231 255
214 231 255
214 231 255
214 231 255
214 231 255
214 231 255
214 231 255
214 231 255
214 231 255
214 231 255
214 231 255
214 231 255
214 231 255
214 231 255
214 231 255
214 231 255
214 232 255
214 232 255
214 232 255
214 232 255
214 232 255
214 232 255
214 232 255
214 232 255
214 232 255
214 232 255
214 232 255
214 232 255
214 232 255
214 232 255
214 232 255
214 232 255
215 232 255
215 232 255
215 232 255
215 232 255
215 232 255
215 232 255
215 232 255
215 232 255
215 232 255
215 232 255
215 232 255
215 232 255
215 232 255
215 232 255
215 232 255
215 232 255
215 232 255
215 232 255
215 232 255
215 232 255
215 232 255
215 232 255
215 232 255
215 232 255
215 232 255
215 232 255
215 232 255
215 232 255
215 232 255
215 232 255
215 232 255
215 232 255
215 232 255
215 232 255
215 232 255
215 232 255
215 232 255
216 232 255
216 232 255
216 232 255
216 232 255
216 232 255
216 232 255
216 232 255
216 232 255
216 232 255
216 232 255
216 232 255
216 232 255
216 232 255
216 232 255
216 233 255
216 233 255
216 233 255
216 233 255
216 233 255
216 233 255
216 233 255
216 233 255
216 233 255
216 233 255
216 233 255
216 233 255
216 233 255
216 233 255
216 233 255
216 233 255
216 233 255
216 233 255
216 233 255
216 233 255
216 233 255
216 233 255
216 233 255
216 233 255
216 233 255
216 233 255
216 233 255
216 233 255
216 233 255
216 233 255
216 233 255
216 233 255
216 233 255
216 233 255
217 233 255
217 233 255
217 233 255
217 233 255
217 233 255
217 233 255
217 233 255
217 233 255
217 233 255
217 233 255
217 233 255
217 233 255
217 233 255
217 233 255
217 233 255
217 233 255
217 233 255
217 233 255
217 233 255
216 233 255
216 233 255
216 233 255
216 233 255
216 233 255
216 233 255
216 233 255
216 233 255
216 233 255
216 233 255
216 233 255
216 233 255
216 233 255
216 233 255
216 233 255
216 233 255
216 233 255
216 233 255
216 233 255
216 233 255
216 233 255
216 233 255
216 233 255
216 233 255
216 233 255
216 233 255
216 233 255
216 233 255
216 233 255
216 233 255
216 233 255
216 233 255
216 233 255
216 233 255
216 232 255
216 232 255
216 232 255
216 232 255
216 232 255
216 232 255
216 232 255
216 232 255
216 232 255
216 232 255
216 232 255
216 232 255
216 232 255
215 232 255
215 232 255
215 232 255
215 232 255
215 232 255
215 232 255
215 232 255
215 232 255
215 232 255
215 232 255
215 232 255
215 232 255
215 232 255
215 232 255
215 232 255
215 232 255
215 232 255
215 232 255
215 232 255
215 232 255
215 232 255
215 232 255
215 232 255
215 232 255
215 232 255
215 232 255
215 232 255
215 232 255
215 232 255
215 232 255
215 232 255
215 232 255
215 232 255
215 232 255
215 232 255
215 232 255
215 232 255
214 232 255
214 232 255
214 232 255
214 232 255
214 232 255
214 232 255
214 232 255
214 232 255
214 232 255
214 232 255
214 232 255
214 232 255
214 232 255
214 232 255
214 232 255
214 232 255
214 231 255
214 231 255
214 231 255
214 231 255
214 231 255
214 231 255
214 231 255
214 231 255
214 231 255
214 231 255
214 231 255
214 231 255
214 231 255
214 231 255
214 231 255
214 231 255
214 231 255
213 231 255
213 231 255
213 231 255
213 231 255
213 231 255
213 231 255
213 231 255
213 231 255
213 231 255
213 231 255
142 154 171
59 65 74
58 64 73
54 60 68
58 65 73
55 61 69
56 62 70
56 62 70
55 61 69
57 63 71
57 62 70
56 63 71
57 63 72
57 63 72
55 61 69
55 61 69
55 61 69
53 59 67
56 62 70
54 59 67
54 60 69
56 62 70
55 61 69
56 62 71
53 59 67
57 63 71
56 62 70
53 59 67
56 62 70
56 62 70
54 60 68
56 62 71
52 58 65
55 61 69
55 61 69
54 60 68
53 59 67
52 58 66
55 61 69
56 61 69
52 58 66
53 58 66
56 62 70
53 59 68
54 60 67
52 57 65
56 62 70
55 61 69
56 62 70
52 58 65
55 61 69
52 58 66
53 59 67
55 61 69
54 59 67
53 59 67
53 58 66
53 59 67
56 63 71
56 62 70
57 62 70
54 60 68
54 60 68
53 59 67
54 60 68
57 63 72
55 60 68
54 61 69
57 64 72
54 59 67
55 61 69
53 59 67
57 63 71
56 62 70
55 61 69
53 59 67
55 60 68
55 60 68
54 60 67
54 60 68
56 62 70
56 62 70
55 61 69
54 60 67
57 63 71
54 60 68
53 59 67
56 63 71
55 61 69
54 60 67
55 61 70
54 60 68
51 57 64
55 61 69
54 60 68
57 63 72
56 62 70
56 61 69
56 62 70
54 60 68
54 60 68
54 60 69
53 59 67
55 61 70
56 63 71
56 62 70
56 62 70
58 64 72
56 62 70
53 58 66
57 63 71
56 62 70
57 63 72
56 62 70
56 62 70
56 62 70
55 61 70
151 163 181
213 231 255
213 231 255
213 231 255
213 231 255
213 231 255
213 231 255
213 231 255
213 231 255
213 231 255
213 231 255
214 231 255
214 231 255
214 231 255
214 231 255
214 231 255
214 231 255
214 231 255
214 231 255
214 231 255
214 231 255
214 231 255
214 231 255
214 231 255
214 231 255
214 231 255
214 231 255
214 231 255
214 232 255
214 232 255
214 232 255
214 232 255
214 232 255
214 232 255
214 232 255
214 232 255
214 232 255
214 232 255
214 232 255
214 232 255
214 232 255
214 232 255
214 232 255
214 232 255
215 232 255
215 232 255
215 232 255
215 232 255
215 232 255
215 232 255
215 232 255
215 232 255
215 232 255
215 232 255
215 232 255
215 232 255
215 232 255
215 232 255
215 232 255
215 232 255
215 232 255
215 232 255
215 232 255
215 232 255
215 232 255
215 232 255
215 232 255
215 232 255
215 232 255
215 232 255
215 232 255
215 232 255
215 232 255
215 232 255
215 232 255
215 232 255
215 232 255
215 232 255
215 232 255
215 232 255
215 232 255
216 232 255
216 232 255
216 232 255
216 232 255
216 232 255
216 232 255
216 232 255
216 232 255
216 232 255
216 232 255
216 232 255
216 232 255
216 232 255
216 233 255
216 233 255
216 233 255
216 233 255
216 233 255
216 233 255
216 233 255
216 233 255
216 233 255
216 233 255
216 233 255
216 233 255
216 233 255
216 233 255
216 233 255
216 233 255
216 233 255
216 233 255
216 233 255
216 233 255
216 233 255
216 233 255
216 233 255
216 233 255
216 233 255
216 233 255
216 233 255
216 233 255
216 233 255
216 233 255
216 233 255
216 233 255
216 233 255
216 233 255
217 233 255
217 233 255
217 233 255
217 233 255
217 233 255
217 233 255
217 233 255
217 233 255
217 233 255
217 233 255
217 233 255
217 233 255
217 233 255
217 233 255
217 233 255
217 233 255
217 233 255
217 233 255
217 233 255
217 233 255
217 233 255
217 233 255
217 233 255
217 233 255
217 233 255
217 233 255
217 233 255
217 233 255
217 233 255
217 233 255
217 233 255
217 233 255
217 233 255
217 233 255
217 233 255
217 233 255
217 233 255
217 233 255
216 233 255
216 233 255
216 233 255
216 233 255
216 233 255
216 233 255
216 233 255
216 233 255
216 233 255
216 233 255
216 233 255
216 233 255
216 233 255
216 233 255
216 233 255
216 233 255
216 233 255
216 233 255
216 233 255
216 233 255
216 233 255
216 233 255
216 233 255
216 233 255
216 233 255
216 233 255
216 233 255
216 233 255
216 233 255
216 233 255
216 233 255
216 233 255
216 232 255
216 232 255
216 232 255
216 232 255
216 232 255
216 232 255
216 232 255
216 232 255
216 232 255
216 232 255
216 232 255
216 232 255
216 232 255
215 232 255
215 232 255
215 232 255
215 232 255
215 232 255
215 232 255
215 232 255
215 232 255
215 232 255
215 232 255
215 232 255
215 232 255
215 232 255
215 232 255
215 232 255
215 232 255
215 232 255
215 232 255
215 232 255
215 232 255
215 232 255
215 232 255
215 232 255
215 232 255
215 232 255
215 232 255
215 232 255
215 232 255
215 232 255
215 232 255
215 232 255
215 232 255
215 232 255
215 232 255
215 232 255
215 232 255
215 232 255
214 232 255
214 232 255
214 232 255
214 232 255
214 232 255
214 232 255
214 232 255
214 232 255
214 232 255
214 232 255
214 232 255
214 232 255
214 232 255
214 232 255
214 232 255
214 232 255
214 232 255
214 231 255
214 231 255
214 231 255
214 231 255
214 231 255
214 231 255
214 231 255
214 231 255
214 231 255
214 231 255
214 231 255
214 231 255
214 231 255
214 231 255
214 231 255
214 231 255
214 231 255
205 223 246
80 87 97
55 61 69
56 63 71
55 61 69
58 64 72
55 61 70
56 62 70
56 61 69
52 58 65
57 63 71
56 62 71
57 64 72
58 64 72
57 63 71
55 61 69
54 59 67
52 57 65
53 59 67
57 63 71
54 60 68
54 60 68
55 61 69
57 63 72
56 62 70
54 60 67
56 62 69
56 62 70
55 61 70
54 60 68
53 58 66
54 60 67
55 61 70
51 57 64
55 61 69
56 62 70
55 61 68
55 61 69
56 62 70
54 59 67
54 59 67
55 60 68
54 60 68
56 62 70
55 61 69
56 62 70
56 62 70
54 60 68
51 56 63
54 60 68
48 54 62
54 60 68
55 60 68
58 64 73
55 62 70
52 58 66
54 60 67
54 59 66
55 61 69
53 59 67
52 58 65
54 60 68
54 60 67
55 61 69
55 61 69
54 60 68
54 60 68
52 58 66
53 59 67
53 58 66
53 59 67
55 60 68
57 63 72
54 59 67
54 60 68
57 63 71
53 59 67
52 57 65
54 60 68
50 56 64
57 63 72
55 61 69
51 57 65
56 62 70
55 61 70
55 60 68
52 58 65
53 59 66
54 60 69
56 62 70
56 63 71
51 57 65
53 58 66
56 62 70
55 61 69
55 61 69
55 61 69
56 61 69
54 59 67
57 63 71
56 62 70
56 62 70
56 62 71
56 62 70
53 59 67
54 59 67
55 61 69
55 61 69
53 59 67
52 58 65
53 59 67
57 63 72
55 61 69
55 61 69
56 62 69
54 60 68
57 63 72
55 61 69
82 89 100
208 226 249
214 231 255
214 231 255
214 231 255
214 231 255
214 231 255
214 231 255
214 231 255
214 231 255
214 231 255
214 231 255
214 231 255
214 231 255
214 231 255
214 231 255
214 231 255
214 231 255
214 231 255
214 232 255
214 232 255
214 232 255
214 232 255
214 232 255
214 232 255
214 232 255
214 232 255
214 232 255
214 232 255
214 232 255
214 232 255
214 232 255
214 232 255
214 232 255
214 232 255
214 232 255
215 232 255
215 232 255
215 232 255
215 232 255
215 232 255
215 232 255
215 232 255
215 232 255
215 232 255
215 232 255
215 232 255
215 232 255
215 232 255
215 232 255
215 232 255
215 232 255
215 232 255
215 232 255
215 232 255
215 232 255
215 232 255
215 232 255
215 232 255
215 232 255
215 232 255
215 232 255
215 232 255
215 232 255
215 232 255
215 232 255
215 232 255
215 232 255
215 232 255
215 232 255
215 232 255
215 232 255
216 232 255
216 232 255
216 232 255
216 232 255
216 232 255
216 232 255
216 232 255
216 232 255
216 232 255
216 232 255
216 232 255
216 232 255
216 232 255
216 232 255
216 233 255
216 233 255
216 233 255
216 233 255
216 233 255
216 233 255
216 233 255
216 233 255
216 233 255
216 233 255
216 233 255
216 233 255
216 233 255
216 233 255
216 233 255
216 233 255
216 233 255
216 233 255
216 233 255
216 233 255
216 233 255
216 233 255
216 233 255
216 233 255
216 233 255
216 233 255
216 233 255
216 233 255
216 233 255
216 233 255
216 233 255
216 233 255
216 233 255
217 233 255
217 233 255
217 233 255
217 233 255
217 233 255
217 233 255
217 233 255
217 233 255
217 233 255
217 233 255
217 233 255
217 233 255
217 233 255
217 233 255
217 233 255
217 233 255
217 233 255
217 233 255
217 233 255
217 233 255
217 233 255
217 233 255
217 233 255
217 233 255
217 233 255
217 233 255
217 233 255
217 233 255
217 233 255
217 233 255
217 233 255
217 233 255
217 233 255
217 233 255
217 233 255
217 233 255
217 233 255
217 233 255
217 233 255
217 233 255
217 233 255
217 233 255
217 233 255
217 233 255
217 233 255
217 233 255
217 233 255
217 233 255
217 233 255
217 233 255
217 233 255
217 233 255
217 233 255
217 233 255
217 233 255
217 233 255
216 233 255
216 233 255
216 233 255
216 233 255
216 233 255
216 233 255
216 233 255
216 233 255
216 233 255
216 233 255
216 233 255
216 233 255
216 233 255
216 233 255
216 233 255
216 233 255
216 233 255
216 233 255
216 233 255
216 233 255
216 233 255
216 233 255
216 233 255
216 233 255
216 233 255
216 233 255
216 233 255
216 233 255
216 233 255
216 233 255
216 233 255
216 233 255
216 232 255
216 232 255
216 232 255
216 232 255
216 232 255
216 232 255
216 232 255
216 232 255
216 232 255
216 232 255
216 232 255
216 232 255
216 232 255
215 232 255
215 232 255
215 232 255
215 232 255
215 232 255
215 232 255
215 232 255
215 232 255
215 232 255
215 232 255
215 232 255
215 232 255
215 232 255
215 232 255
215 232 255
215 232 255
215 232 255
215 232 255
215 232 255
215 232 255
215 232 255
215 232 255
215 232 255
215 232 255
215 232 255
215 232 255
215 232 255
215 232 255
215 232 255
215 232 255
215 232 255
215 232 255
215 232 255
215 232 255
215 232 255
215 232 255
215 232 255
215 232 255
214 232 255
214 232 255
214 232 255
214 232 255
214 232 255
214 232 255
214 232 255
214 232 255
214 232 255
214 232 255
214 232 255
214 232 255
214 232 255
214 232 255
214 232 255
214 232 255
214 232 255
214 231 255
214 231 255
214 231 255
214 231 255
214 231 255
214 231 255
214 231 255
160 174 192
57 62 70
56 62 70
56 62 70
55 62 70
56 63 71
56 61 69
53 59 67
56 62 70
57 64 72
54 60 68
55 61 70
56 62 70
54 60 68
53 59 67
54 60 68
55 61 68
56 62 70
54 60 68
54 60 68
56 62 70
52 58 66
56 62 69
56 61 69
57 63 71
57 63 71
55 61 70
54 60 68
52 58 66
54 60 68
52 57 65
58 64 72
55 61 69
53 59 66
57 63 71
54 60 67
58 65 73
57 63 71
53 59 66
55 61 69
54 60 68
54 60 67
55 61 69
56 62 70
55 61 68
54 59 67
56 61 69
56 62 70
54 60 68
55 61 69
52 58 65
56 61 69
56 62 70
56 62 70
54 60 68
53 59 67
55 61 69
56 62 70
53 59 67
55 61 69
53 59 67
53 59 67
55 61 69
54 60 67
52 57 64
55 61 69
55 61 69
53 59 66
53 59 67
54 60 68
55 61 68
56 61 69
54 60 68
50 56 63
54 61 69
55 61 69
57 63 71
53 59 67
53 59 67
54 60 69
55 62 70
54 59 67
56 61 69
56 62 70
52 58 66
55 61 68
53 59 66
54 61 69
54 60 68
56 62 71
56 62 70
53 59 67
56 63 71
54 60 67
54 60 67
55 61 70
52 58 66
56 62 71
56 62 69
58 64 72
54 60 68
53 59 67
54 60 68
57 63 71
52 57 65
55 61 69
55 61 70
58 64 72
56 62 71
55 61 69
57 63 72
55 61 70
56 62 70
53 59 67
54 59 67
57 63 71
53 59 67
57 63 72
58 65 73
154 167 185
214 231 255
214 231 255
214 231 255
214 231 255
214 231 255
214 231 255
214 231 255
214 232 255
214 232 255
214 232 255
214 232 255
214 232 255
214 232 255
214 232 255
214 232 255
214 232 255
214 232 255
214 232 255
214 232 255
214 232 255
214 232 255
214 232 255
214 232 255
214 232 255
214 232 255
215 232 255
215 232 255
215 232 255
215 232 255
215 232 255
215 232 255
215 232 255
215 232 255
215 232 255
215 232 255
215 232 255
215 232 255
215 232 255
215 232 255
215 232 255
215 232 255
215 232 255
215 232 255
215 232 255
215 232 255
215 232 255
215 232 255
215 232 255
215 232 255
215 232 255
215 232 255
215 232 255
215 232 255
215 232 255
215 232 255
215 232 255
215 232 255
215 232 255
215 232 255
215 232 255
215 232 255
216 232 255
216 232 255
216 232 255
216 232 255
216 232 255
216 232 255
216 232 255
216 232 255
216 232 255
216 232 255
216 232 255
216 232 255
216 232 255
216 232 255
216 233 255
216 233 255
216 233 255
216 233 255
216 233 255
216 233 255
216 233 255
216 233 255
216 233 255
216 233 255
216 233 255
216 233 255
216 233 255
216 233 255
216 233 255
216 233 255
216 233 255
216 233 255
216 233 255
216 233 255
216 233 255
216 233 255
216 233 255
216 233 255
216 233 255
216 233 255
216 233 255
216 233 255
216 233 255
216 233 255
216 233 255
216 233 255
217 233 255
217 233 255
217 233 255
217 233 255
217 233 255
217 233 255
217 233 255
217 233 255
217 233 255
217 233 255
217 233 255
217 233 255
217 233 255
217 233 255
217 233 255
217 233 255
217 233 255
217 233 255
217 233 255
217 233 255
217 233 255
217 233 255
217 233 255
217 233 255
217 233 255
217 233 255
217 233 255
217 233 255
217 233 255
217 233 255
217 233 255
217 233 255
217 233 255
217 233 255
217 233 255
217 233 255
217 233 255
217 233 255
217 233 255
217 233 255
217 233 255
217 233 255
217 233 255
217 233 255
217 233 255
217 233 255
217 233 255
217 233 255
217 233 255
217 233 255
217 233 255
217 233 255
217 233 255
217 233 255
217 233 255
217 233 255
217 233 255
217 233 255
217 233 255
217 233 255
217 233 255
217 233 255
217 233 255
217 233 255
217 233 255
217 233 255
217 233 255
217 233 255
217 233 255
217 233 255
217 233 255
217 233 255
217 233 255
217 233 255
217 233 255
217 233 255
216 233 255
216 233 255
216 233 255
216 233 255
216 233 255
216 233 255
216 233 255
216 233 255
216 233 255
216 233 255
216 233 255
216 233 255
216 233 255
216 233 255
216 233 255
216 233 255
216 233 255
216 233 255
216 233 255
216 233 255
216 233 255
216 233 255
216 233 255
216 233 255
216 233 255
216 233 255
216 233 255
216 233 255
216 233 255
216 233 255
216 233 255
216 232 255
216 232 255
216 232 255
216 232 255
216 232 255
216 232 255
216 232 255
216 232 255
216 232 255
216 232 255
216 232 255
216 232 255
216 232 255
215 232 255
215 232 255
215 232 255
215 232 255
215 232 255
215 232 255
215 232 255
215 232 255
215 232 255
215 232 255
215 232 255
215 232 255
215 232 255
215 232 255
215 232 255
215 232 255
215 232 255
215 232 255
215 232 255
215 232 255
215 232 255
215 232 255
215 232 255
215 232 255
215 232 255
215 232 255
215 232 255
215 232 255
215 232 255
215 232 255
215 232 255
215 232 255
215 232 255
215 232 255
215 232 255
215 232 255
215 232 255
215 232 255
214 232 255
214 232 255
214 232 255
214 232 255
214 232 255
214 232 255
214 232 255
214 232 255
214 232 255
214 232 255
214 232 255
214 232 255
214 232 255
214 232 255
213 231 254
92 100 112
53 58 66
57 63 72
57 62 70
55 61 69
52 58 66
51 57 65
57 63 71
55 60 68
57 63 72
56 62 69
56 62 71
54 60 68
55 61 69
54 59 67
54 60 68
52 58 66
54 60 68
54 60 68
54 60 68
56 62 70
56 62 70
57 63 71
55 61 69
55 61 70
54 59 67
50 56 63
57 63 71
55 61 69
55 61 69
52 58 66
54 60 67
55 61 69
58 64 72
54 60 68
55 60 68
53 59 67
55 60 68
56 62 70
55 61 69
55 61 68
55 61 69
54 60 68
51 57 65
56 61 69
55 61 69
55 61 69
52 58 65
56 61 69
58 63 71
53 59 67
53 59 67
55 61 69
55 61 69
54 60 67
58 64 72
54 60 69
52 58 66
52 57 65
53 59 67
52 58 66
53 59 67
56 63 71
53 58 66
57 63 72
52 58 66
53 59 66
54 60 67
56 62 70
58 64 72
55 61 69
51 57 64
54 60 68
53 59 67
55 60 68
53 59 68
54 60 67
52 57 65
53 59 67
52 58 65
52 58 66
54 60 67
59 65 73
53 59 66
52 58 65
51 56 64
54 60 68
55 61 68
56 61 69
54 59 67
53 58 66
53 59 66
53 59 66
53 58 65
54 60 69
51 57 64
51 57 65
54 60 68
53 59 67
54 60 68
53 59 67
53 59 67
56 62 69
56 62 70
56 62 70
55 61 69
57 63 71
57 63 71
56 62 69
54 59 67
55 60 68
55 61 69
57 63 71
55 60 68
54 60 68
57 63 71
57 63 72
59 65 73
57 63 72
100 110 122
214 232 255
214 232 255
214 232 255
214 232 255
214 232 255
214 232 255
214 232 255
214 232 255
214 232 255
214 232 255
214 232 255
214 232 255
214 232 255
214 232 255
214 232 255
215 232 255
215 232 255
215 232 255
215 232 255
215 232 255
215 232 255
215 232 255
215 232 255
215 232 255
215 232 255
215 232 255
215 232 255
215 232 255
215 232 255
215 232 255
215 232 255
215 232 255
215 232 255
215 232 255
215 232 255
215 232 255
215 232 255
215 232 255
215 232 255
215 232 255
215 232 255
215 232 255
215 232 255
215 232 255
215 232 255
215 232 255
215 232 255
215 232 255
215 232 255
215 232 255
215 232 255
215 232 255
215 232 255
216 232 255
216 232 255
216 232 255
216 232 255
216 232 255
216 232 255
216 232 255
216 232 255
216 232 255
216 232 255
216 232 255
216 232 255
216 232 255
216 233 255
216 233 255
216 233 255
216 233 255
216 233 255
216 233 255
216 233 255
216 233 255
216 233 255
216 233 255
216 233 255
216 233 255
216 233 255
216 233 255
216 233 255
216 233 255
216 233 255
216 233 255
216 233 255
216 233 255
216 233 255
216 233 255
216 233 255
216 233 255
216 233 255
216 233 255
216 233 255
216 233 255
216 233 255
216 233 255
216 233 255
217 233 255
217 233 255
217 233 255
217 233 255
217 233 255
217 233 255
217 233 255
217 233 255
217 233 255
217 233 255
217 233 255
217 233 255
217 233 255
217 233 255
217 233 255
217 233 255
217 233 255
217 233 255
217 233 255
217 233 255
217 233 255
217 233 255
217 233 255
217 233 255
217 233 255
217 233 255
217 233 255
217 233 255
217 233 255
217 233 255
217 233 255
217 233 255
217 233 255
217 233 255
217 233 255
217 233 255
217 233 255
217 233 255
217 233 255
217 233 255
217 233 255
217 233 255
217 233 255
217 233 255
217 233 255
217 233 255
217 233 255
217 233 255
217 233 255
217 233 255
217 233 255
217 233 255
217 233 255
217 233 255
217 233 255
217 233 255
217 233 255
217 233 255
217 233 255
217 233 255
217 233 255
217 233 255
217 233 255
217 233 255
217 233 255
217 233 255
217 233 255
217 233 255
217 233 255
217 233 255
217 233 255
217 233 255
217 233 255
217 233 255
217 233 255
217 233 255
217 233 255
217 233 255
217 233 255
217 233 255
217 233 255
217 233 255
217 233 255
217 233 255
217 233 255
217 233 255
217 233 255
217 233 255
217 233 255
217 233 255
217 233 255
217 233 255
217 233 255
217 233 255
217 233 255
216 233 255
216 233 255
216 233 255
216 233 255
216 233 255
216 233 255
216 233 255
216 233 255
216 233 255
216 233 255
216 233 255
216 233 255
216 233 255
216 233 255
216 233 255
216 233 255
216 233 255
216 233 255
216 233 255
216 233 255
216 233 255
216 233 255
216 233 255
216 233 255
216 233 255
216 233 255
216 233 255
216 233 255
216 233 255
216 233 255
216 233 255
216 233 255
216 232 255
216 232 255
216 232 255
216 232 255
216 232 255
216 232 255
216 232 255
216 232 255
216 232 255
216 232 255
216 232 255
216 232 255
216 232 255
215 232 255
215 232 255
215 232 255
215 232 255
215 232 255
215 232 255
215 232 255
215 232 255
215 232 255
215 232 255
215 232 255
215 232 255
215 232 255
215 232 255
215 232 255
215 232 255
215 232 255
215 232 255
215 232 255
215 232 255
215 232 255
215 232 255
215 232 255
215 232 255
215 232 255
215 232 255
215 232 255
215 232 255
215 232 255
215 232 255
215 232 255
215 232 255
215 232 255
215 232 255
215 232 255
215 232 255
215 232 255
215 232 255
214 232 255
214 232 255
214 232 255
214 232 255
188 203 224
52 57 65
53 58 66
57 63 71
55 61 69
55 61 69
55 61 69
53 59 67
53 59 66
56 62 70
54 60 67
55 60 68
55 61 69
53 58 66
54 60 67
56 62 69
54 59 67
54 59 67
52 58 66
56 62 69
52 58 66
53 59 66
55 61 69
53 59 66
55 61 68
56 62 71
53 59 67
58 64 72
53 58 66
52 58 65
53 58 66
55 61 69
53 59 66
53 58 66
52 57 64
53 59 66
52 58 66
57 63 71
54 60 68
55 61 68
54 60 67
58 64 72
52 58 65
55 61 68
54 59 67
52 57 64
53 59 66
56 62 70
51 56 64
53 58 66
54 60 68
55 61 69
51 57 64
56 62 69
52 58 65
52 57 65
54 60 68
55 61 69
53 59 66
54 59 67
56 61 69
53 59 66
57 63 71
55 60 68
54 59 67
56 62 70
55 61 69
56 62 69
54 59 67
52 58 65
52 58 65
56 62 70
55 62 70
55 61 69
56 61 68
52 58 65
54 60 67
55 61 68
53 59 67
56 62 70
56 62 71
56 62 70
51 57 65
55 61 69
52 58 66
55 60 68
55 61 69
54 60 68
56 62 70
53 58 65
53 59 66
56 62 70
55 61 69
55 61 69
54 60 68
56 62 70
49 55 62
56 62 70
55 61 69
55 61 68
55 60 68
55 61 69
56 62 70
54 60 68
57 63 71
55 61 69
53 59 66
54 60 67
54 60 68
53 58 66
54 60 68
58 64 72
54 60 68
53 58 66
58 64 72
53 59 66
54 60 69
54 60 68
58 63 71
58 64 72
57 64 72
185 200 221
214 232 255
214 232 255
214 232 255
214 232 255
215 232 255
215 232 255
215 232 255
215 232 255
215 232 255
215 232 255
215 232 255
215 232 255
215 232 255
215 232 255
215 232 255
215 232 255
215 232 255
215 232 255
215 232 255
215 232 255
215 232 255
215 232 255
215 232 255
215 232 255
215 232 255
215 232 255
215 232 255
215 232 255
215 232 255
215 232 255
215 232 255
215 232 255
215 232 255
215 232 255
215 232 255
215 232 255
215 232 255
215 232 255
215 232 255
215 232 255
215 232 255
215 232 255
215 232 255
216 232 255
216 232 255
216 232 255
216 232 255
216 232 255
216 232 255
216 232 255
216 232 255
216 232 255
216 232 255
216 232 255
216 232 255
216 232 255
216 233 255
216 233 255
216 233 255
216 233 255
216 233 255
216 233 255
216 233 255
216 233 255
216 233 255
216 233 255
216 233 255
216 233 255
216 233 255
216 233 255
216 233 255
216 233 255
216 233 255
216 233 255
216 233 255
216 233 255
216 233 255
216 233 255
216 233 255
216 233 255
216 233 255
216 233 255
216 233 255
216 233 255
216 233 255
216 233 255
217 233 255
217 233 255
217 233 255
217 233 255
217 233 255
217 233 255
217 233 255
217 233 255
217 233 255
217 233 255
217 233 255
217 233 255
217 233 255
217 233 255
217 233 255
217 233 255
217 233 255
217 233 255
217 233 255
217 233 255
217 233 255
217 233 255
217 233 255
217 233 255
217 233 255
217 233 255
217 233 255
217 233 255
217 233 255
217 233 255
217 233 255
217 233 255
217 233 255
217 233 255
217 233 255
217 233 255
217 233 255
217 233 255
217 233 255
217 233 255
217 233 255
217 233 255
217 233 255
217 233 255
217 233 255
217 233 255
217 233 255
217 233 255
217 233 255
217 233 255
217 233 255
217 233 255
217 233 255
218 233 255
218 233 255
218 233 255
218 233 255
217 233 255
217 233 255
217 233 255
217 233 255
217 233 255
217 233 255
217 233 255
217 233 255
217 233 255
217 233 255
217 233 255
217 233 255
217 233 255
217 233 255
217 233 255
217 233 255
217 233 255
217 233 255
217 233 255
217 233 255
217 233 255
217 233 255
217 233 255
217 233 255
217 233 255
217 233 255
217 233 255
217 233 255
217 233 255
217 233 255
217 233 255
217 233 255
217 233 255
217 233 255
217 233 255
217 233 255
217 233 255
217 233 255
217 233 255
217 233 255
217 233 255
217 233 255
217 233 255
217 233 255
217 233 255
217 233 255
217 233 255
217 233 255
217 233 255
217 233 255
217 233 255
217 233 255
217 233 255
217 233 255
217 233 255
217 233 255
217 233 255
217 233 255
216 233 255
216 233 255
216 233 255
216 233 255
216 233 255
216 233 255
216 233 255
216 233 255
216 233 255
216 233 255
216 233 255
216 233 255
216 233 255
216 233 255
216 233 255
216 233 255
216 233 255
216 233 255
216 233 255
216 233 255
216 233 255
216 233 255
216 233 255
216 233 255
216 233 255
216 233 255
216 233 255
216 233 255
216 233 255
216 233 255
216 233 255
216 232 255
216 232 255
216 232 255
216 232 255
216 232 255
216 232 255
216 232 255
216 232 255
216 232 255
216 232 255
216 232 255
216 232 255
216 232 255
215 232 255
215 232 255
215 232 255
215 232 255
215 232 255
215 232 255
215 232 255
215 232 255
215 232 255
215 232 255
215 232 255
215 232 255
215 232 255
215 232 255
215 232 255
215 232 255
215 232 255
215 232 255
215 232 255
215 232 255
215 232 255
215 232 255
215 232 255
215 232 255
215 232 255
215 232 255
215 232 255
215 232 255
215 232 255
215 232 255
215 232 255
215 232 255
215 232 255
127 138 152
55 61 69
54 60 68
54 60 68
54 60 67
55 61 69
55 61 68
57 63 70
57 63 71
51 57 65
51 57 64
58 64 71
54 60 68
52 58 65
53 58 66
51 57 65
53 59 66
53 58 66
57 63 71
53 58 66
54 61 69
50 56 63
55 61 69
56 62 70
54 59 66
58 64 72
53 58 66
52 58 65
55 61 68
54 59 67
54 60 68
58 64 72
57 63 71
56 62 70
55 60 68
51 57 65
53 59 67
57 63 72
56 62 70
56 62 70
55 60 68
53 59 67
53 59 66
53 58 66
52 58 66
55 61 69
55 60 67
52 58 65
53 59 67
54 60 68
53 59 67
55 61 69
52 58 65
54 60 68
58 64 72
57 63 72
53 59 66
54 60 67
52 58 65
53 59 66
53 59 67
52 57 65
55 61 69
55 61 69
57 63 71
53 59 66
54 60 68
52 57 65
55 61 69
55 61 68
57 62 70
54 60 67
55 61 69
53 59 66
52 57 65
53 59 67
53 59 66
54 60 67
57 63 72
53 58 65
55 61 69
49 55 62
52 58 65
57 63 71
51 57 65
51 57 65
53 59 66
55 60 68
54 59 67
56 62 69
51 56 63
54 61 69
56 62 70
50 55 63
55 61 69
53 59 66
53 58 66
50 56 64
53 59 66
56 62 70
55 61 69
54 60 68
52 58 66
55 60 68
51 57 64
54 59 66
48 54 60
51 57 64
53 58 66
52 58 65
51 56 64
56 62 70
55 61 69
55 61 69
55 61 69
52 58 66
54 60 67
56 62 70
56 62 69
56 62 69
54 60 68
149 161 178
215 232 255
215 232 255
215 232 255
215 232 255
215 232 255
215 232 255
215 232 255
215 232 255
215 232 255
215 232 255
215 232 255
215 232 255
215 232 255
215 232 255
215 232 255
215 232 255
215 232 255
215 232 255
215 232 255
215 232 255
215 232 255
215 232 255
215 232 255
215 232 255
215 232 255
215 232 255
215 232 255
215 232 255
215 232 255
215 232 255
215 232 255
215 232 255
216 232 255
216 232 255
216 232 255
216 232 255
216 232 255
216 232 255
216 232 255
216 232 255
216 232 255
216 232 255
216 232 255
216 232 255
216 232 255
216 233 255
216 233 255
216 233 255
216 233 255
216 233 255
216 233 255
216 233 255
216 233 255
216 233 255
216 233 255
216 233 255
216 233 255
216 233 255
216 233 255
216 233 255
216 233 255
216 233 255
216 233 255
216 233 255
216 233 255
216 233 255
216 233 255
216 233 255
216 233 255
216 233 255
216 233 255
216 233 255
216 233 255
216 233 255
216 233 255
216 233 255
217 233 255
217 233 255
217 233 255
217 233 255
217 233 255
217 233 255
217 233 255
217 233 255
217 233 255
217 233 255
217 233 255
217 233 255
217 233 255
217 233 255
217 233 255
217 233 255
217 233 255
217 233 255
217 233 255
217 233 255
217 233 255
217 233 255
217 233 255
217 233 255
217 233 255
217 233 255
217 233 255
217 233 255
217 233 255
217 233 255
217 233 255
217 233 255
217 233 255
217 233 255
217 233 255
217 233 255
217 233 255
217 233 255
217 233 255
217 233 255
217 233 255
217 233 255
217 233 255
217 233 255
217 233 255
217 233 255
217 233 255
217 233 255
217 233 255
217 233 255
217 233 255
217 233 255
217 233 255
217 233 255
217 233 255
217 233 255
217 233 255
217 233 255
218 233 255
218 233 255
218 233 255
218 233 255
218 233 255
218 234 255
218 234 255
218 234 255
218 234 255
218 234 255
218 234 255
218 234 255
218 234 255
218 234 255
218 233 255
218 233 255
218 233 255
218 233 255
218 233 255
218 233 255
218 233 255
217 233 255
217 233 255
217 233 255
217 233 255
217 233 255
217 233 255
217 233 255
217 233 255
217 233 255
217 233 255
217 233 255
217 233 255
217 233 255
217 233 255
217 233 255
217 233 255
217 233 255
217 233 255
217 233 255
217 233 255
217 233 255
217 233 255
217 233 255
217 233 255
217 233 255
217 233 255
217 233 255
217 233 255
217 233 255
217 233 255
217 233 255
217 233 255
217 233 255
217 233 255
217 233 255
217 233 255
217 233 255
217 233 255
217 233 255
217 233 255
217 233 255
217 233 255
217 233 255
217 233 255
217 233 255
217 233 255
217 233 255
217 233 255
217 233 255
217 233 255
217 233 255
217 233 255
217 233 255
217 233 255
217 233 255
217 233 255
217 233 255
216 233 255
216 233 255
216 233 255
216 233 255
216 233 255
216 233 255
216 233 255
216 233 255
216 233 255
216 233 255
216 233 255
216 233 255
216 233 255
216 233 255
216 233 255
216 233 255
216 233 255
216 233 255
216 233 255
216 233 255
216 233 255
216 233 255
216 233 255
216 233 255
216 233 255
216 233 255
216 233 255
216 233 255
216 233 255
216 233 255
216 233 255
216 232 255
216 232 255
216 232 255
216 232 255
216 232 255
216 232 255
216 232 255
216 232 255
216 232 255
216 232 255
216 232 255
216 232 255
216 232 255
215 232 255
215 232 255
215 232 255
215 232 255
215 232 255
215 232 255
215 232 255
215 232 255
215 232 255
215 232 255
215 232 255
215 232 255
215 232 255
215 232 255
215 232 255
215 232 255
215 232 255
215 232 255
215 232 255
215 232 255
215 232 255
210 226 249
68 75 83
57 63 71
52 57 65
54 60 68
56 62 70
55 61 69
52 58 65
54 60 69
55 61 68
55 60 68
53 58 66
51 57 64
56 61 69
55 61 69
57 63 71
52 58 66
54 60 67
54 60 67
55 61 69
52 57 65
51 57 64
51 56 64
54 59 67
53 59 67
53 58 66
55 61 69
56 62 70
56 61 69
53 59 66
52 57 65
54 60 67
55 60 68
54 60 67
56 61 69
53 59 66
54 60 68
58 64 72
54 60 67
53 59 66
54 60 68
53 58 66
54 60 67
57 62 70
54 60 68
54 60 68
54 60 68
54 60 68
56 61 69
53 58 66
53 59 66
55 61 69
56 62 70
53 58 66
56 62 70
54 60 67
54 60 67
59 65 73
56 62 70
54 60 67
51 57 65
54 59 67
54 60 68
53 59 66
54 60 68
53 59 66
52 58 66
57 62 70
55 61 69
51 56 64
50 55 62
54 60 67
55 61 68
53 58 66
55 60 68
52 58 65
56 61 69
54 60 67
56 62 70
56 62 70
54 59 66
55 61 68
52 57 65
55 61 68
49 55 63
56 61 69
54 59 67
51 57 65
53 59 66
54 60 68
56 61 69
57 64 72
54 60 69
54 59 67
51 57 64
52 58 65
52 57 64
56 62 70
51 56 63
54 60 68
53 59 66
57 63 71
54 60 68
53 59 67
54 60 68
55 60 68
54 60 68
53 59 66
54 59 67
54 60 68
54 60 67
54 60 67
55 61 69
54 60 68
56 62 70
55 61 69
54 60 68
54 60 68
52 57 64
56 61 69
54 60 68
49 54 61
61 68 76
214 231 254
215 232 255
215 232 255
215 232 255
215 232 255
215 232 255
215 232 255
215 232 255
215 232 255
215 232 255
215 232 255
215 232 255
215 232 255
215 232 255
215 232 255
215 232 255
215 232 255
215 232 255
215 232 255
215 232 255
215 232 255
215 232 255
216 232 255
216 232 255
216 232 255
216 232 255
216 232 255
216 232 255
216 232 255
216 232 255
216 232 255
216 232 255
216 232 255
216 232 255
216 232 255
216 233 255
216 233 255
216 233 255
216 233 255
216 233 255
216 233 255
216 233 255
216 233 255
216 233 255
216 233 255
216 233 255
216 233 255
216 233 255
216 233 255
216 233 255
216 233 255
216 233 255
216 233 255
216 233 255
216 233 255
216 233 255
216 233 255
216 233 255
216 233 255
216 233 255
216 233 255
216 233 255
216 233 255
216 233 255
216 233 255
216 233 255
217 233 255
217 233 255
217 233 255
217 233 255
217 233 255
217 233 255
217 233 255
217 233 255
217 233 255
217 233 255
217 233 255
217 233 255
217 233 255
217 233 255
217 233 255
217 233 255
217 233 255
217 233 255
217 233 255
217 233 255
217 233 255
217 233 255
217 233 255
217 233 255
217 233 255
217 233 255
217 233 255
217 233 255
217 233 255
217 233 255
217 233 255
217 233 255
217 233 255
217 233 255
217 233 255
217 233 255
217 233 255
217 233 255
217 233 255
217 233 255
217 233 255
217 233 255
217 233 255
217 233 255
217 233 255
217 233 255
217 233 255
217 233 255
217 233 255
217 233 255
217 233 255
217 233 255
217 233 255
217 233 255
217 233 255
217 233 255
218 233 255
218 233 255
218 233 255
218 233 255
218 233 255
218 233 255
218 233 255
218 233 255
218 234 255
218 234 255
218 234 255
218 234 255
218 234 255
218 234 255
218 234 255
218 234 255
218 234 255
218 234 255
218 234 255
218 234 255
218 234 255
218 234 255
218 234 255
218 234 255
218 234 255
218 234 255
218 234 255
218 234 255
218 234 255
218 234 255
218 234 255
218 234 255
218 234 255
218 234 255
218 234 255
218 234 255
218 234 255
218 234 255
218 233 255
218 233 255
218 233 255
218 233 255
218 233 255
218 233 255
218 233 255
217 233 255
217 233 255
217 233 255
217 233 255
217 233 255
217 233 255
217 233 255
217 233 255
217 233 255
217 233 255
217 233 255
217 233 255
217 233 255
217 233 255
217 233 255
217 233 255
217 233 255
217 233 255
217 233 255
217 233 255
217 233 255
217 233 255
217 233 255
217 233 255
217 233 255
217 233 255
217 233 255
217 233 255
217 233 255
217 233 255
217 233 255
217 233 255
217 233 255
217 233 255
217 233 255
217 233 255
217 233 255
217 233 255
217 233 255
217 233 255
217 233 255
217 233 255
217 233 255
217 233 255
217 233 255
217 233 255
217 233 255
217 233 255
217 233 255
217 233 255
217 233 255
217 233 255
217 233 255
217 233 255
217 233 255
217 233 255
216 233 255
216 233 255
216 233 255
216 233 255
216 233 255
216 233 255
216 233 255
216 233 255
216 233 255
216 233 255
216 233 255
216 233 255
216 233 255
216 233 255
216 233 255
216 233 255
216 233 255
216 233 255
216 233 255
216 233 255
216 233 255
216 233 255
216 233 255
216 233 255
216 233 255
216 233 255
216 233 255
216 233 255
216 233 255
216 233 255
216 232 255
216 232 255
216 232 255
216 232 255
216 232 255
216 232 255
216 232 255
216 232 255
216 232 255
216 232 255
216 232 255
216 232 255
216 232 255
216 232 255
215 232 255
215 232 255
215 232 255
215 232 255
215 232 255
215 232 255
215 232 255
215 232 255
215 232 255
215 232 255
178 192 212
54 60 68
56 63 72
52 58 65
56 62 70
53 58 66
56 62 70
51 57 65
55 61 68
55 61 69
53 58 66
53 58 66
55 61 69
52 58 66
54 60 68
51 56 63
53 59 67
53 58 66
53 59 67
53 59 67
56 62 70
55 61 68
50 56 64
53 59 66
56 61 69
53 59 67
54 60 67
57 62 70
54 60 69
53 59 67
53 58 66
53 59 67
53 59 66
51 57 64
52 57 65
52 58 65
53 59 67
53 59 66
53 58 66
56 61 69
56 62 69
54 60 67
54 60 67
53 59 66
53 59 67
53 58 65
51 57 64
54 61 69
55 61 69
54 60 68
54 60 67
54 60 67
52 57 65
55 61 68
54 60 67
55 61 68
54 60 67
51 57 64
55 60 68
54 60 68
54 60 68
53 59 66
54 59 67
52 58 66
53 58 65
54 60 67
55 61 69
56 62 70
57 63 72
54 60 68
56 62 70
52 57 64
54 60 68
54 60 68
53 59 66
55 61 69
55 61 69
52 58 66
54 59 67
55 61 69
51 56 63
56 62 69
56 62 70
52 57 65
54 60 67
54 60 67
54 59 66
53 59 67
58 64 71
57 63 72
54 60 68
51 56 63
55 61 69
53 58 65
55 61 69
55 61 69
51 56 64
55 61 69
56 63 71
56 62 70
56 62 70
54 60 67
53 58 66
56 62 69
54 60 68
53 59 66
56 62 70
53 59 66
50 56 63
51 56 64
56 62 70
52 58 65
56 62 70
57 63 71
53 59 66
53 60 68
54 59 67
54 60 68
55 61 68
54 60 68
53 59 67
55 61 69
55 61 69
178 192 211
215 232 255
215 232 255
215 232 255
215 232 255
215 232 255
215 232 255
215 232 255
215 232 255
215 232 255
215 232 255
216 232 255
216 232 255
216 232 255
216 232 255
216 232 255
216 232 255
216 232 255
216 232 255
216 232 255
216 232 255
216 232 255
216 232 255
216 232 255
216 233 255
216 233 255
216 233 255
216 233 255
216 233 255
216 233 255
216 233 255
216 233 255
216 233 255
216 233 255
216 233 255
216 233 255
216 233 255
216 233 255
216 233 255
216 233 255
216 233 255
216 233 255
216 233 255
216 233 255
216 233 255
216 233 255
216 233 255
216 233 255
216 233 255
216 233 255
216 233 255
216 233 255
216 233 255
216 233 255
216 233 255
217 233 255
217 233 255
217 233 255
217 233 255
217 233 255
217 233 255
217 233 255
217 233 255
217 233 255
217 233 255
217 233 255
217 233 255
217 233 255
217 233 255
217 233 255
217 233 255
217 233 255
217 233 255
217 233 255
217 233 255
217 233 255
217 233 255
217 233 255
217 233 255
217 233 255
217 233 255
217 233 255
217 233 255
217 233 255
217 233 255
217 233 255
217 233 255
217 233 255
217 233 255
217 233 255
217 233 255
217 233 255
217 233 255
217 233 255
217 233 255
217 233 255
217 233 255
217 233 255
217 233 255
217 233 255
217 233 255
217 233 255
217 233 255
217 233 255
217 233 255
217 233 255
217 233 255
217 233 255
217 233 255
217 233 255
217 233 255
218 233 255
218 233 255
218 233 255
218 233 255
218 233 255
218 233 255
218 233 255
218 234 255
218 234 255
218 234 255
218 234 255
218 234 255
218 234 255
218 234 255
218 234 255
218 234 255
218 234 255
218 234 255
218 234 255
218 234 255
218 234 255
218 234 255
218 234 255
218 234 255
218 234 255
218 234 255
218 234 255
218 234 255
218 234 255
218 234 255
218 234 255
218 234 255
218 234 255
218 234 255
218 234 255
218 234 255
218 234 255
218 234 255
218 234 255
218 234 255
218 234 255
218 234 255
218 234 255
218 234 255
218 234 255
218 234 255
218 234 255
218 234 255
218 234 255
218 234 255
218 234 255
218 234 255
218 234 255
218 234 255
218 234 255
218 234 255
218 234 255
218 234 255
218 234 255
218 234 255
218 234 255
218 233 255
218 233 255
218 233 255
218 233 255
218 233 255
218 233 255
218 233 255
217 233 255
217 233 255
217 233 255
217 233 255
217 233 255
217 233 255
217 233 255
217 233 255
217 233 255
217 233 255
217 233 255
217 233 255
217 233 255
217 233 255
217 233 255
217 233 255
217 233 255
217 233 255
217 233 255
217 233 255
217 233 255
217 233 255
217 233 255
217 233 255
217 233 255
217 233 255
217 233 255
217 233 255
217 233 255
217 233 255
217 233 255
217 233 255
217 233 255
217 233 255
217 233 255
217 233 255
217 233 255
217 233 255
217 233 255
217 233 255
217 233 255
217 233 255
217 233 255
217 233 255
217 233 255
217 233 255
217 233 255
217 233 255
217 233 255
217 233 255
217 233 255
217 233 255
217 233 255
217 233 255
217 233 255
216 233 255
216 233 255
216 233 255
216 233 255
216 233 255
216 233 255
216 233 255
216 233 255
216 233 255
216 233 255
216 233 255
216 233 255
216 233 255
216 233 255
216 233 255
216 233 255
216 233 255
216 233 255
216 233 255
216 233 255
216 233 255
216 233 255
216 233 255
216 233 255
216 233 255
216 233 255
216 233 255
216 233 255
216 233 255
216 233 255
216 233 255
216 233 255
216 232 255
216 232 255
216 232 255
216 232 255
216 232 255
216 232 255
216 232 255
216 232 255
216 232 255
216 232 255
216 232 255
142 153 169
53 59 66
54 60 67
54 60 68
56 62 70
51 56 64
54 59 67
54 59 67
54 60 67
56 62 69
53 58 66
53 59 67
54 59 66
55 61 69
55 61 69
53 59 66
53 60 68
54 59 67
52 57 64
54 60 68
56 62 71
55 60 68
55 61 69
55 61 68
55 61 69
51 56 64
53 59 67
52 58 65
54 60 67
50 56 63
55 61 69
54 59 67
51 57 64
54 60 69
53 59 67
52 58 66
54 60 68
52 58 66
51 57 64
51 56 64
55 61 69
53 59 66
53 59 66
55 61 70
51 56 64
54 60 68
55 61 69
54 59 67
51 57 64
55 61 69
52 58 66
56 62 69
53 58 66
53 58 65
54 60 68
49 55 62
52 58 66
53 58 66
56 61 69
53 58 66
51 56 64
56 62 70
54 60 68
53 59 66
52 58 66
54 59 67
53 59 67
52 58 66
51 57 65
52 58 65
51 57 64
52 58 66
53 58 66
51 57 64
51 57 65
55 60 68
53 59 67
54 60 68
53 59 67
54 60 68
49 55 62
56 62 70
56 62 70
54 60 68
50 56 63
54 59 67
58 64 72
56 61 69
54 59 67
53 59 66
54 60 67
51 57 64
54 60 68
53 58 66
55 60 67
57 63 71
56 62 70
52 57 65
52 58 66
54 59 67
52 58 66
54 59 67
52 58 66
55 61 69
54 59 67
53 59 67
53 59 66
54 60 68
57 63 71
53 58 66
53 59 66
55 61 70
52 57 64
56 62 69
55 61 69
57 63 71
55 61 69
53 59 67
55 61 68
59 65 74
52 57 65
52 58 66
55 61 69
134 145 160
216 232 255
216 232 255
216 232 255
216 232 255
216 232 255
216 232 255
216 232 255
216 232 255
216 232 255
216 232 255
216 232 255
216 233 255
216 233 255
216 233 255
216 233 255
216 233 255
216 233 255
216 233 255
216 233 255
216 233 255
216 233 255
216 233 255
216 233 255
216 233 255
216 233 255
216 233 255
216 233 255
216 233 255
216 233 255
216 233 255
216 233 255
216 233 255
216 233 255
216 233 255
216 233 255
216 233 255
216 233 255
216 233 255
216 233 255
216 233 255
216 233 255
216 233 255
216 233 255
217 233 255
217 233 255
217 233 255
217 233 255
217 233 255
217 233 255
217 233 255
217 233 255
217 233 255
217 233 255
217 233 255
217 233 255
217 233 255
217 233 255
217 233 255
217 233 255
217 233 255
217 233 255
217 233 255
217 233 255
217 233 255
217 233 255
217 233 255
217 233 255
217 233 255
217 233 255
217 233 255
217 233 255
217 233 255
217 233 255
217 233 255
217 233 255
217 233 255
217 233 255
217 233 255
217 233 255
217 233 255
217 233 255
217 233 255
217 233 255
217 233 255
217 233 255
217 233 255
217 233 255
217 233 255
217 233 255
217 233 255
217 233 255
217 233 255
217 233 255
217 233 255
217 233 255
217 233 255
217 233 255
217 233 255
218 233 255
218 233 255
218 233 255
218 233 255
218 233 255
218 233 255
218 233 255
218 234 255
218 234 255
218 234 255
218 234 255
218 234 255
218 234 255
218 234 255
218 234 255
218 234 255
218 234 255
218 234 255
218 234 255
218 234 255
218 234 255
218 234 255
218 234 255
218 234 255
218 234 255
218 234 255
218 234 255
218 234 255
218 234 255
218 234 255
218 234 255
218 234 255
218 234 255
218 234 255
218 234 255
218 234 255
218 234 255
218 234 255
218 234 255
218 234 255
218 234 255
218 234 255
218 234 255
218 234 255
218 234 255
218 234 255
218 234 255
218 234 255
218 234 255
218 234 255
218 234 255
218 234 255
218 234 255
218 234 255
218 234 255
218 234 255
218 234 255
218 234 255
218 234 255
218 234 255
218 234 255
218 234 255
218 234 255
218 234 255
218 234 255
218 234 255
218 234 255
218 234 255
218 234 255
218 234 255
218 234 255
218 234 255
218 234 255
218 234 255
218 234 255
218 234 255
218 234 255
218 234 255
218 234 255
218 234 255
218 234 255
218 234 255
218 234 255
218 234 255
218 234 255
218 233 255
218 233 255
218 233 255
218 233 255
218 233 255
218 233 255
218 233 255
217 233 255
217 233 255
217 233 255
217 233 255
217 233 255
217 233 255
217 233 255
217 233 255
217 233 255
217 233 255
217 233 255
217 233 255
217 233 255
217 233 255
217 233 255
217 233 255
217 233 255
217 233 255
217 233 255
217 233 255
217 233 255
217 233 255
217 233 255
217 233 255
217 233 255
217 233 255
217 233 255
217 233 255
217 233 255
217 233 255
217 233 255
217 233 255
217 233 255
217 233 255
217 233 255
217 233 255
217 233 255
217 233 255
217 233 255
217 233 255
217 233 255
217 233 255
217 233 255
217 233 255
217 233 255
217 233 255
217 233 255
217 233 255
217 233 255
217 233 255
217 233 255
217 233 255
217 233 255
217 233 255
216 233 255
216 233 255
216 233 255
216 233 255
216 233 255
216 233 255
216 233 255
216 233 255
216 233 255
216 233 255
216 233 255
216 233 255
216 233 255
216 233 255
216 233 255
216 233 255
216 233 255
216 233 255
216 233 255
216 233 255
216 233 255
216 233 255
216 233 255
216 233 255
216 233 255
216 233 255
216 233 255
216 233 255
216 233 255
216 233 255
216 233 255
215 231 254
68 75 84
56 62 70
50 56 63
55 61 69
53 59 67
55 60 68
53 59 67
52 58 65
55 61 69
54 60 68
53 59 67
55 61 69
53 59 66
54 59 67
53 58 66
57 63 71
54 59 67
51 56 63
54 60 68
55 61 69
55 60 68
52 57 65
54 60 67
56 62 70
52 58 66
53 58 66
55 61 69
52 58 66
52 58 66
52 57 65
53 59 66
54 59 67
55 61 68
56 62 69
53 58 66
54 60 67
52 58 66
54 59 67
52 58 66
54 60 67
52 58 65
53 59 67
54 59 66
55 61 68
52 57 65
53 58 65
52 57 64
50 55 63
53 59 66
54 60 67
52 58 66
53 59 67
53 59 67
52 57 65
53 59 66
53 59 67
54 60 67
53 58 66
54 59 67
50 56 63
51 56 64
56 62 69
53 59 67
54 59 67
54 60 67
51 57 65
55 61 69
53 58 65
53 59 67
52 58 65
53 58 66
55 61 68
52 58 66
54 59 67
55 61 69
54 60 68
54 60 68
49 53 60
52 58 65
55 60 68
51 56 63
54 60 68
55 60 68
53 58 65
56 61 69
54 60 67
52 58 66
57 63 71
55 61 69
53 59 67
54 60 68
54 60 67
55 61 69
52 58 65
52 57 65
52 58 66
51 56 64
48 53 60
55 61 69
53 58 66
51 57 65
55 61 69
53 58 66
51 57 64
50 56 63
53 58 66
55 61 69
54 60 68
54 60 67
51 56 64
53 58 66
56 62 70
51 56 64
51 56 64
57 63 70
54 60 67
54 59 67
54 60 68
56 62 70
53 59 66
55 61 69
55 61 69
53 59 66
69 76 85
214 230 253
216 233 255
216 233 255
216 233 255
216 233 255
216 233 255
216 233 255
216 233 255
216 233 255
216 233 255
216 233 255
216 233 255
216 233 255
216 233 255
216 233 255
216 233 255
216 233 255
216 233 255
216 233 255
216 233 255
216 233 255
216 233 255
216 233 255
216 233 255
216 233 255
216 233 255
216 233 255
216 233 255
216 233 255
216 233 255
216 233 255
217 233 255
217 233 255
217 233 255
217 233 255
217 233 255
217 233 255
217 233 255
217 233 255
217 233 255
217 233 255
217 233 255
217 233 255
217 233 255
217 233 255
217 233 255
217 233 255
217 233 255
217 233 255
217 233 255
217 233 255
217 233 255
217 233 255
217 233 255
217 233 255
217 233 255
217 233 255
217 233 255
217 233 255
217 233 255
217 233 255
217 233 255
217 233 255
217 233 255
217 233 255
217 233 255
217 233 255
217 233 255
217 233 255
217 233 255
217 233 255
217 233 255
217 233 255
217 233 255
217 233 255
217 233 255
217 233 255
217 233 255
217 233 255
217 233 255
217 233 255
217 233 255
217 233 255
217 233 255
217 233 255
217 233 255
218 233 255
218 233 255
218 233 255
218 233 255
218 233 255
218 233 255
218 234 255
218 234 255
218 234 255
218 234 255
218 234 255
218 234 255
218 234 255
218 234 255
218 234 255
218 234 255
218 234 255
218 234 255
218 234 255
218 234 255
218 234 255
218 234 255
218 234 255
218 234 255
218 234 255
218 234 255
218 234 255
218 234 255
218 234 255
218 234 255
218 234 255
218 234 255
218 234 255
218 234 255
218 234 255
218 234 255
218 234 255
218 234 255
218 234 255
218 234 255
218 234 255
218 234 255
218 234 255
218 234 255
218 234 255
218 234 255
218 234 255
218 234 255
218 234 255
218 234 255
218 234 255
218 234 255
218 234 255
218 234 255
218 234 255
218 234 255
218 234 255
218 234 255
218 234 255
218 234 255
218 234 255
218 234 255
218 234 255
218 234 255
218 234 255
218 234 255
218 234 255
218 234 255
218 234 255
218 234 255
218 234 255
218 234 255
218 234 255
218 234 255
218 234 255
218 234 255
218 234 255
218 234 255
218 234 255
218 234 255
218 234 255
218 234 255
218 234 255
218 234 255
218 234 255
218 234 255
218 234 255
218 234 255
218 234 255
218 234 255
218 234 255
218 234 255
218 234 255
218 234 255
218 234 255
218 234 255
218 234 255
218 234 255
218 234 255
218 234 255
218 234 255
218 234 255
218 234 255
218 234 255
218 234 255
218 234 255
218 234 255
218 234 255
218 234 255
218 234 255
218 233 255
218 233 255
218 233 255
218 233 255
218 233 255
218 233 255
218 233 255
217 233 255
217 233 255
217 233 255
217 233 255
217 233 255
217 233 255
217 233 255
217 233 255
217 233 255
217 233 255
217 233 255
217 233 255
217 233 255
217 233 255
217 233 255
217 233 255
217 233 255
217 233 255
217 233 255
217 233 255
217 233 255
217 233 255
217 233 255
217 233 255
217 233 255
217 233 255
217 233 255
217 233 255
217 233 255
217 233 255
217 233 255
217 233 255
217 233 255
217 233 255
217 233 255
217 233 255
217 233 255
217 233 255
217 233 255
217 233 255
217 233 255
217 233 255
217 233 255
217 233 255
217 233 255
217 233 255
217 233 255
217 233 255
217 233 255
217 233 255
217 233 255
217 233 255
217 233 255
217 233 255
216 233 255
216 233 255
216 233 255
216 233 255
216 233 255
216 233 255
216 233 255
216 233 255
216 233 255
216 233 255
216 233 255
216 233 255
216 233 255
216 233 255
216 233 255
216 233 255
216 233 255
216 233 255
178 192 211
53 58 66
52 57 64
53 59 67
55 61 69
55 61 69
53 59 66
54 60 68
51 57 64
50 55 62
51 56 64
56 62 70
53 59 67
57 63 71
55 61 69
55 60 68
56 61 69
54 59 66
54 59 67
54 60 68
53 59 67
54 60 68
55 60 68
56 61 69
53 59 67
53 59 66
54 60 68
56 62 70
51 56 64
53 58 65
54 59 67
55 61 69
53 59 67
53 58 65
54 59 67
50 56 63
52 58 65
54 60 68
53 58 66
53 59 67
53 59 66
54 60 67
52 57 65
53 58 66
50 56 63
54 59 67
52 57 65
54 59 66
53 58 66
54 60 68
54 59 67
54 59 67
54 60 68
54 60 68
51 56 63
54 60 67
52 57 65
53 58 65
54 60 68
52 57 64
53 58 65
53 59 67
51 57 65
51 56 63
53 59 67
55 61 69
55 61 69
55 60 68
54 60 68
53 59 66
54 60 68
55 60 68
51 56 64
54 60 69
53 58 65
55 61 69
51 57 65
57 63 70
54 60 68
55 61 69
54 60 68
54 60 69
55 61 68
55 61 68
53 58 65
56 61 69
55 61 69
51 56 63
55 60 68
56 62 70
56 62 70
56 62 70
52 58 65
54 60 68
52 58 65
53 59 66
54 60 68
54 59 67
56 62 70
52 58 66
54 60 67
54 60 68
51 57 64
51 57 64
52 58 65
54 60 67
53 59 66
52 58 65
54 59 67
57 63 71
54 59 67
52 58 65
56 62 69
50 56 63
53 58 66
54 60 68
53 58 66
53 59 66
51 57 65
55 61 69
58 65 73
56 62 70
55 61 69
53 58 66
53 59 67
181 195 214
216 233 255
216 233 255
216 233 255
216 233 255
216 233 255
216 233 255
216 233 255
216 233 255
216 233 255
216 233 255
216 233 255
216 233 255
216 233 255
216 233 255
216 233 255
216 233 255
216 233 255
216 233 255
217 233 255
217 233 255
217 233 255
217 233 255
217 233 255
217 233 255
217 233 255
217 233 255
217 233 255
217 233 255
217 233 255
217 233 255
217 233 255
217 233 255
217 233 255
217 233 255
217 233 255
217 233 255
217 233 255
217 233 255
217 233 255
217 233 255
217 233 255
217 233 255
217 233 255
217 233 255
217 233 255
217 233 255
217 233 255
217 233 255
217 233 255
217 233 255
217 233 255
217 233 255
217 233 255
217 233 255
217 233 255
217 233 255
217 233 255
217 233 255
217 233 255
217 233 255
217 233 255
217 233 255
217 233 255
217 233 255
217 233 255
217 233 255
217 233 255
217 233 255
217 233 255
217 233 255
217 233 255
217 233 255
218 233 255
218 233 255
218 233 255
218 233 255
218 233 255
218 233 255
218 234 255
218 234 255
218 234 255
218 234 255
218 234 255
218 234 255
218 234 255
218 234 255
218 234 255
218 234 255
218 234 255
218 234 255
218 234 255
218 234 255
218 234 255
218 234 255
218 234 255
218 234 255
218 234 255
218 234 255
218 234 255
218 234 255
218 234 255
218 234 255
218 234 255
218 234 255
218 234 255
218 234 255
218 234 255
218 234 255
218 234 255
218 234 255
218 234 255
218 234 255
218 234 255
218 234 255
218 234 255
218 234 255
218 234 255
218 234 255
218 234 255
218 234 255
218 234 255
218 234 255
218 234 255
218 234 255
218 234 255
218 234 255
218 234 255
218 234 255
218 234 255
218 234 255
218 234 255
218 234 255
218 234 255
218 234 255
218 234 255
218 234 255
218 234 255
219 234 255
219 234 255
219 234 255
218 234 255
218 234 255
218 234 255
218 234 255
218 234 255
218 234 255
218 234 255
218 234 255
218 234 255
218 234 255
218 234 255
218 234 255
218 234 255
218 234 255
218 234 255
218 234 255
218 234 255
218 234 255
218 234 255
218 234 255
218 234 255
218 234 255
218 234 255
218 234 255
218 234 255
218 234 255
218 234 255
218 234 255
218 234 255
218 234 255
218 234 255
218 234 255
218 234 255
218 234 255
218 234 255
218 234 255
218 234 255
218 234 255
218 234 255
218 234 255
218 234 255
218 234 255
218 234 255
218 234 255
218 234 255
218 234 255
218 234 255
218 234 255
218 234 255
218 234 255
218 234 255
218 234 255
218 234 255
218 234 255
218 234 255
218 234 255
218 234 255
218 234 255
218 234 255
218 234 255
218 234 255
218 234 255
218 234 255
218 234 255
218 234 255
218 234 255
218 234 255
218 234 255
218 234 255
218 233 255
218 233 255
218 233 255
218 233 255
218 233 255
218 233 255
217 233 255
217 233 255
217 233 255
217 233 255
217 233 255
217 233 255
217 233 255
217 233 255
217 233 255
217 233 255
217 233 255
217 233 255
217 233 255
217 233 255
217 233 255
217 233 255
217 233 255
217 233 255
217 233 255
217 233 255
217 233 255
217 233 255
217 233 255
217 233 255
217 233 255
217 233 255
217 233 255
217 233 255
217 233 255
217 233 255
217 233 255
217 233 255
217 233 255
217 233 255
217 233 255
217 233 255
217 233 255
217 233 255
217 233 255
217 233 255
217 233 255
217 233 255
217 233 255
217 233 255
217 233 255
217 233 255
217 233 255
217 233 255
217 233 255
217 233 255
217 233 255
217 233 255
217 233 255
217 233 255
217 233 255
217 233 255
216 233 255
216 233 255
216 233 255
152 164 181
51 56 64
55 61 68
49 54 61
53 59 67
53 59 66
54 59 66
51 57 65
52 58 66
53 59 67
52 57 64
52 58 65
54 60 68
54 59 67
55 61 69
56 62 69
49 54 61
56 62 69
52 58 66
54 60 67
52 58 65
54 60 68
55 61 68
55 60 68
54 59 67
53 59 66
54 60 68
54 60 67
53 59 67
54 60 68
53 59 66
52 58 65
53 59 66
50 56 64
54 60 67
55 60 68
53 59 66
54 60 67
51 56 63
53 58 66
52 57 65
53 58 65
53 59 66
53 58 66
55 60 67
52 58 66
54 60 67
57 63 71
53 59 66
53 58 66
53 59 66
52 58 65
53 58 66
54 60 67
51 56 64
52 57 65
53 59 67
52 57 64
55 61 69
54 60 67
55 61 69
54 59 67
53 58 66
49 55 62
53 58 66
52 57 64
52 58 65
51 56 64
53 58 65
53 58 65
50 55 62
50 55 61
55 61 68
54 60 67
52 57 65
53 59 66
56 62 70
50 56 64
51 57 64
50 55 63
56 61 69
53 59 66
54 60 67
55 61 69
56 62 70
55 60 68
52 57 65
54 59 67
53 59 67
54 59 67
56 62 70
52 58 65
52 57 65
52 58 65
53 59 66
53 58 66
50 55 62
51 56 63
53 58 65
53 59 67
55 60 68
55 61 69
55 61 69
53 59 67
55 60 68
52 57 65
51 57 64
52 57 65
54 60 67
56 61 69
50 55 62
51 56 64
54 60 68
54 60 67
54 60 68
54 60 67
53 59 67
53 59 67
53 59 66
54 59 67
54 60 67
55 60 68
57 62 70
53 58 66
54 60 67
150 162 178
216 233 255
216 233 255
216 233 255
217 233 255
217 233 255
217 233 255
217 233 255
217 233 255
217 233 255
217 233 255
217 233 255
217 233 255
217 233 255
217 233 255
217 233 255
217 233 255
217 233 255
217 233 255
217 233 255
217 233 255
217 233 255
217 233 255
217 233 255
217 233 255
217 233 255
217 233 255
217 233 255
217 233 255
217 233 255
217 233 255
217 233 255
217 233 255
217 233 255
217 233 255
217 233 255
217 233 255
217 233 255
217 233 255
217 233 255
217 233 255
217 233 255
217 233 255
217 233 255
217 233 255
217 233 255
217 233 255
217 233 255
217 233 255
217 233 255
217 233 255
217 233 255
217 233 255
217 233 255
217 233 255
217 233 255
217 233 255
217 233 255
217 233 255
217 233 255
218 233 255
218 233 255
218 233 255
218 233 255
218 233 255
218 233 255
218 234 255
218 234 255
218 234 255
218 234 255
218 234 255
218 234 255
218 234 255
218 234 255
218 234 255
218 234 255
218 234 255
218 234 255
218 234 255
218 234 255
218 234 255
218 234 255
218 234 255
218 234 255
218 234 255
218 234 255
218 234 255
218 234 255
218 234 255
218 234 255
218 234 255
218 234 255
218 234 255
218 234 255
218 234 255
218 234 255
218 234 255
218 234 255
218 234 255
218 234 255
218 234 255
218 234 255
218 234 255
218 234 255
218 234 255
218 234 255
218 234 255
218 234 255
218 234 255
218 234 255
218 234 255
218 234 255
218 234 255
218 234 255
218 234 255
218 234 255
218 234 255
218 234 255
218 234 255
218 234 255
218 234 255
218 234 255
218 234 255
218 234 255
218 234 255
218 234 255
218 234 255
218 234 255
218 234 255
218 234 255
218 234 255
218 234 255
218 234 255
218 234 255
218 234 255
219 234 255
219 234 255
219 234 255
219 234 255
219 234 255
219 234 255
219 234 255
219 234 255
219 234 255
219 234 255
219 234 255
219 234 255
219 234 255
219 234 255
219 234 255
219 234 255
219 234 255
219 234 255
219 234 255
219 234 255
219 234 255
219 234 255
219 234 255
218 234 255
218 234 255
218 234 255
218 234 255
218 234 255
218 234 255
218 234 255
218 234 255
218 234 255
218 234 255
218 234 255
218 234 255
218 234 255
218 234 255
218 234 255
218 234 255
218 234 255
218 234 255
218 234 255
218 234 255
218 234 255
218 234 255
218 234 255
218 234 255
218 234 255
218 234 255
218 234 255
218 234 255
218 234 255
218 234 255
218 234 255
218 234 255
218 234 255
218 234 255
218 234 255
218 234 255
218 234 255
218 234 255
218 234 255
218 234 255
218 234 255
218 234 255
218 234 255
218 234 255
218 234 255
218 234 255
218 234 255
218 234 255
218 234 255
218 234 255
218 234 255
218 234 255
218 234 255
218 234 255
218 234 255
218 234 255
218 234 255
218 234 255
218 234 255
218 234 255
218 234 255
218 234 255
218 234 255
218 234 255
218 234 255
218 234 255
218 233 255
218 233 255
218 233 255
218 233 255
218 233 255
218 233 255
217 233 255
217 233 255
217 233 255
217 233 255
217 233 255
217 233 255
217 233 255
217 233 255
217 233 255
217 233 255
217 233 255
217 233 255
217 233 255
217 233 255
217 233 255
217 233 255
217 233 255
217 233 255
217 233 255
217 233 255
217 233 255
217 233 255
217 233 255
217 233 255
217 233 255
217 233 255
217 233 255
217 233 255
217 233 255
217 233 255
217 233 255
217 233 255
217 233 255
217 233 255
217 233 255
217 233 255
217 233 255
217 233 255
217 233 255
217 233 255
217 233 255
217 233 255
217 233 255
217 233 255
217 233 255
96 104 115
49 54 62
53 59 66
55 60 68
54 60 68
55 60 67
53 59 66
50 56 62
50 56 63
51 57 64
54 59 67
53 58 66
50 56 63
56 62 70
54 59 67
49 55 62
53 58 65
52 58 66
57 62 70
53 59 66
53 58 65
56 63 71
51 57 64
51 57 65
51 56 63
51 56 64
53 58 66
51 56 63
54 59 66
53 59 67
55 60 68
54 59 67
50 56 63
53 59 66
53 59 66
55 61 69
53 59 66
55 61 69
54 59 67
52 58 65
54 59 67
53 58 66
54 59 66
53 59 66
54 60 67
48 53 60
53 59 67
54 59 67
51 56 63
51 57 65
53 58 66
52 58 66
50 56 63
55 61 69
51 57 64
52 57 65
52 58 66
52 58 65
56 61 69
51 56 63
54 60 68
52 57 65
55 61 68
52 57 64
55 60 68
54 60 68
52 57 65
53 59 67
53 58 65
53 59 67
53 59 66
54 59 66
52 57 65
55 61 69
51 56 63
52 58 65
53 59 67
50 55 62
51 57 64
54 60 68
53 59 67
53 59 67
53 59 67
56 62 69
54 59 66
54 59 66
54 59 67
54 60 67
52 58 66
56 62 70
51 57 65
54 59 67
53 59 66
51 56 64
54 60 68
50 55 62
54 60 67
52 58 65
54 59 67
51 57 65
53 59 67
52 57 65
53 58 65
54 59 67
54 60 68
52 57 65
52 58 65
54 59 67
56 61 69
55 61 69
51 57 65
58 64 72
53 59 67
55 60 68
54 60 67
54 60 68
52 58 65
52 58 66
52 57 65
56 62 70
52 58 66
53 59 66
57 63 71
55 60 68
53 59 66
115 125 137
217 233 255
217 233 255
217 233 255
217 233 255
217 233 255
217 233 255
217 233 255
217 233 255
217 233 255
217 233 255
217 233 255
217 233 255
217 233 255
217 233 255
217 233 255
217 233 255
217 233 255
217 233 255
217 233 255
217 233 255
217 233 255
217 233 255
217 233 255
217 233 255
217 233 255
217 233 255
217 233 255
217 233 255
217 233 255
217 233 255
217 233 255
217 233 255
217 233 255
217 233 255
217 233 255
217 233 255
217 233 255
217 233 255
217 233 255
217 233 255
217 233 255
217 233 255
217 233 255
217 233 255
218 233 255
218 233 255
218 233 255
218 233 255
218 233 255
218 233 255
218 233 255
218 234 255
218 234 255
218 234 255
218 234 255
218 234 255
218 234 255
218 234 255
218 234 255
218 234 255
218 234 255
218 234 255
218 234 255
218 234 255
218 234 255
218 234 255
218 234 255
218 234 255
218 234 255
218 234 255
218 234 255
218 234 255
218 234 255
218 234 255
218 234 255
218 234 255
218 234 255
218 234 255
218 234 255
218 234 255
218 234 255
218 234 255
218 234 255
218 234 255
218 234 255
218 234 255
218 234 255
218 234 255
218 234 255
218 234 255
218 234 255
218 234 255
218 234 255
218 234 255
218 234 255
218 234 255
218 234 255
218 234 255
218 234 255
218 234 255
218 234 255
218 234 255
218 234 255
218 234 255
218 234 255
218 234 255
218 234 255
218 234 255
218 234 255
218 234 255
218 234 255
218 234 255
218 234 255
218 234 255
218 234 255
218 234 255
218 234 255
218 234 255
219 234 255
219 234 255
219 234 255
219 234 255
219 234 255
219 234 255
219 234 255
219 234 255
219 234 255
219 234 255
219 234 255
219 234 255
219 234 255
219 234 255
219 234 255
219 234 255
219 234 255
219 234 255
219 234 255
219 234 255
219 234 255
219 234 255
219 234 255
219 234 255
219 234 255
219 234 255
219 234 255
219 234 255
219 234 255
219 234 255
219 234 255
219 234 255
219 234 255
219 234 255
219 234 255
219 234 255
219 234 255
219 234 255
219 234 255
219 234 255
219 234 255
219 234 255
219 234 255
219 234 255
219 234 255
219 234 255
219 234 255
219 234 255
219 234 255
219 234 255
219 234 255
219 234 255
219 234 255
219 234 255
219 234 255
218 234 255
218 234 255
218 234 255
218 234 255
218 234 255
218 234 255
218 234 255
218 234 255
218 234 255
218 234 255
218 234 255
218 234 255
218 234 255
218 234 255
218 234 255
218 234 255
218 234 255
218 234 255
218 234 255
218 234 255
218 234 255
218 234 255
218 234 255
218 234 255
218 234 255
218 234 255
218 234 255
218 234 255
218 234 255
218 234 255
218 234 255
218 234 255
218 234 255
218 234 255
218 234 255
218 234 255
218 234 255
218 234 255
218 234 255
218 234 255
218 234 255
218 234 255
218 234 255
218 234 255
218 234 255
218 234 255
218 234 255
218 234 255
218 234 255
218 234 255
218 234 255
218 234 255
218 234 255
218 234 255
218 234 255
218 234 255
218 234 255
218 234 255
218 234 255
218 234 255
218 234 255
218 234 255
218 234 255
218 234 255
218 234 255
218 233 255
218 233 255
218 233 255
218 233 255
218 233 255
218 233 255
218 233 255
217 233 255
217 233 255
217 233 255
217 233 255
217 233 255
217 233 255
217 233 255
217 233 255
217 233 255
217 233 255
217 233 255
217 233 255
217 233 255
217 233 255
217 233 255
217 233 255
217 233 255
217 233 255
217 233 255
217 233 255
217 233 255
217 233 255
217 233 255
217 233 255
217 233 255
217 233 255
217 233 255
217 233 255
214 230 252
62 68 76
53 58 66
53 59 66
52 57 64
53 59 66
53 58 66
55 61 69
56 61 68
55 60 68
50 56 63
53 58 66
53 59 66
55 61 68
53 58 66
51 56 63
53 58 66
55 61 69
51 57 64
54 59 67
53 58 66
52 58 66
52 58 65
54 60 68
53 58 66
52 58 66
54 60 68
52 58 65
55 61 70
52 57 65
51 57 64
53 59 66
49 55 62
51 57 65
52 58 66
51 56 64
52 58 66
53 58 66
52 58 65
50 55 62
52 57 64
54 60 67
52 58 65
55 61 69
51 56 64
56 62 70
51 57 64
56 61 69
57 63 70
49 55 61
55 60 67
52 57 64
52 57 64
55 61 69
53 58 65
52 57 64
50 56 63
55 61 68
54 60 68
52 57 64
51 56 62
54 59 66
53 58 66
54 60 67
51 57 64
54 59 67
55 61 68
53 58 65
53 59 66
50 55 62
51 57 64
52 57 65
52 58 65
51 56 64
52 57 65
52 57 64
54 59 67
52 58 65
50 56 63
54 60 67
51 57 64
51 56 64
52 58 65
53 58 66
51 57 65
53 58 66
53 59 66
54 60 68
53 59 66
55 61 68
52 57 65
55 61 68
50 55 62
52 57 65
54 59 67
53 58 66
51 56 63
50 56 63
50 55 62
55 61 69
51 57 64
54 60 67
52 58 65
54 60 68
52 57 64
56 61 69
57 62 70
48 54 61
55 61 68
54 60 68
51 56 64
55 61 69
55 61 68
53 58 66
54 59 66
54 59 66
53 59 66
54 60 67
51 57 64
54 60 67
53 58 65
53 59 66
51 56 63
55 61 69
53 59 66
55 60 68
61 67 75
210 225 247
217 233 255
217 233 255
217 233 255
217 233 255
217 233 255
217 233 255
217 233 255
217 233 255
217 233 255
217 233 255
217 233 255
217 233 255
217 233 255
217 233 255
217 233 255
217 233 255
217 233 255
217 233 255
217 233 255
217 233 255
217 233 255
217 233 255
217 233 255
217 233 255
217 233 255
217 233 255
217 233 255
217 233 255
217 233 255
218 233 255
218 233 255
218 233 255
218 233 255
218 233 255
218 233 255
218 234 255
218 234 255
218 234 255
218 234 255
218 234 255
218 234 255
218 234 255
218 234 255
218 234 255
218 234 255
218 234 255
218 234 255
218 234 255
218 234 255
218 234 255
218 234 255
218 234 255
218 234 255
218 234 255
218 234 255
218 234 255
218 234 255
218 234 255
218 234 255
218 234 255
218 234 255
218 234 255
218 234 255
218 234 255
218 234 255
218 234 255
218 234 255
218 234 255
218 234 255
218 234 255
218 234 255
218 234 255
218 234 255
218 234 255
218 234 255
218 234 255
218 234 255
218 234 255
218 234 255
218 234 255
218 234 255
218 234 255
218 234 255
218 234 255
218 234 255
218 234 255
218 234 255
218 234 255
218 234 255
218 234 255
218 234 255
218 234 255
218 234 255
218 234 255
218 234 255
218 234 255
218 234 255
218 234 255
218 234 255
218 234 255
219 234 255
219 234 255
219 234 255
219 234 255
219 234 255
219 234 255
219 234 255
219 234 255
219 234 255
219 234 255
219 234 255
219 234 255
219 234 255
219 234 255
219 234 255
219 234 255
219 234 255
219 234 255
219 234 255
219 234 255
219 234 255
219 234 255
219 234 255
219 234 255
219 234 255
219 234 255
219 234 255
219 234 255
219 234 255
219 234 255
219 234 255
219 234 255
219 234 255
219 234 255
219 234 255
219 234 255
219 234 255
219 234 255
219 234 255
219 234 255
219 234 255
219 234 255
219 234 255
219 234 255
219 234 255
219 234 255
219 234 255
219 234 255
219 234 255
219 234 255
219 234 255
219 234 255
219 234 255
219 234 255
219 234 255
219 234 255
219 234 255
219 234 255
219 234 255
219 234 255
219 234 255
219 234 255
219 234 255
219 234 255
219 234 255
219 234 255
219 234 255
219 234 255
219 234 255
219 234 255
219 234 255
219 234 255
219 234 255
219 234 255
219 234 255
219 234 255
219 234 255
219 234 255
219 234 255
219 234 255
219 234 255
219 234 255
219 234 255
219 234 255
219 234 255
219 234 255
219 234 255
219 234 255
218 234 255
218 234 255
218 234 255
218 234 255
218 234 255
218 234 255
218 234 255
218 234 255
218 234 255
218 234 255
218 234 255
218 234 255
218 234 255
218 234 255
218 234 255
218 234 255
218 234 255
218 234 255
218 234 255
218 234 255
218 234 255
218 234 255
218 234 255
218 234 255
218 234 255
218 234 255
218 234 255
218 234 255
218 234 255
218 234 255
218 234 255
218 234 255
218 234 255
218 234 255
218 234 255
218 234 255
218 234 255
218 234 255
218 234 255
218 234 255
218 234 255
218 234 255
218 234 255
218 234 255
218 234 255
218 234 255
218 234 255
218 234 255
218 234 255
218 234 255
218 234 255
218 234 255
218 234 255
218 234 255
218 234 255
218 234 255
218 234 255
218 234 255
218 234 255
218 234 255
218 234 255
218 234 255
218 234 255
218 234 255
218 234 255
218 233 255
218 233 255
218 233 255
218 233 255
218 233 255
218 233 255
218 233 255
217 233 255
217 233 255
217 233 255
217 233 255
217 233 255
217 233 255
217 233 255
217 233 255
217 233 255
217 233 255
217 233 255
217 233 255
199 214 234
55 60 68
54 60 68
52 57 65
53 59 66
52 58 65
53 58 66
54 60 68
55 60 68
51 56 63
56 62 70
53 59 67
55 60 68
53 59 67
53 58 66
49 54 61
54 59 67
54 59 67
49 54 61
52 57 64
56 61 69
52 58 65
53 59 66
55 60 68
49 54 62
58 65 73
51 56 63
53 58 65
53 58 66
50 55 62
52 58 66
52 58 65
54 59 67
56 61 69
55 61 69
52 57 65
52 58 65
50 55 62
53 58 66
54 60 67
54 59 67
51 56 64
51 57 65
50 56 63
53 58 65
54 60 68
54 59 67
50 56 63
51 57 64
55 61 69
52 58 65
52 58 66
51 57 64
56 62 70
51 57 64
53 59 67
53 59 66
52 57 65
52 57 64
51 56 63
54 59 67
54 60 67
53 58 66
52 58 65
52 57 65
50 56 63
54 60 67
55 60 68
52 57 64
55 60 66
52 58 65
50 55 62
53 59 66
51 57 64
53 58 65
56 62 70
52 57 64
53 59 66
54 60 68
53 58 66
54 59 67
54 59 66
56 62 70
47 52 59
51 56 64
58 64 72
54 59 67
53 58 66
56 62 69
54 60 67
57 63 70
52 58 66
52 58 65
52 57 64
55 61 69
53 59 66
52 58 65
54 60 67
54 59 66
52 57 64
53 58 66
50 55 62
54 59 66
53 59 66
51 56 63
54 60 67
55 60 68
54 60 67
54 60 68
52 58 65
54 60 68
53 58 66
54 60 68
52 57 65
52 57 65
51 57 64
57 63 71
53 59 66
55 60 68
54 59 66
53 59 67
51 56 63
54 60 68
56 62 70
53 59 67
52 58 65
52 57 65
187 201 220
217 233 255
217 233 255
217 233 255
217 233 255
217 233 255
217 233 255
217 233 255
217 233 255
217 233 255
217 233 255
217 233 255
217 233 255
218 233 255
218 233 255
218 233 255
218 233 255
218 233 255
218 233 255
218 234 255
218 234 255
218 234 255
218 234 255
218 234 255
218 234 255
218 234 255
218 234 255
218 234 255
218 234 255
218 234 255
218 234 255
218 234 255
218 234 255
218 234 255
218 234 255
218 234 255
218 234 255
218 234 255
218 234 255
218 234 255
218 234 255
218 234 255
218 234 255
218 234 255
218 234 255
218 234 255
218 234 255
218 234 255
218 234 255
218 234 255
218 234 255
218 234 255
218 234 255
218 234 255
218 234 255
218 234 255
218 234 255
218 234 255
218 234 255
218 234 255
218 234 255
218 234 255
218 234 255
218 234 255
218 234 255
218 234 255
218 234 255
218 234 255
218 234 255
218 234 255
218 234 255
218 234 255
218 234 255
218 234 255
218 234 255
218 234 255
218 234 255
218 234 255
218 234 255
218 234 255
218 234 255
218 234 255
218 234 255
218 234 255
219 234 255
219 234 255
219 234 255
219 234 255
219 234 255
219 234 255
219 234 255
219 234 255
219 234 255
219 234 255
219 234 255
219 234 255
219 234 255
219 234 255
219 234 255
219 234 255
219 234 255
219 234 255
219 234 255
219 234 255
219 234 255
219 234 255
219 234 255
219 234 255
219 234 255
219 234 255
219 234 255
219 234 255
219 234 255
219 234 255
219 234 255
219 234 255
219 234 255
219 234 255
219 234 255
219 234 255
219 234 255
219 234 255
219 234 255
219 234 255
219 234 255
219 234 255
219 234 255
219 234 255
219 234 255
219 234 255
219 234 255
219 234 255
219 234 255
219 234 255
219 234 255
219 234 255
219 234 255
219 234 255
219 234 255
219 234 255
219 234 255
219 234 255
219 234 255
219 234 255
219 234 255
219 234 255
219 234 255
219 234 255
219 234 255
219 234 255
219 234 255
219 234 255
219 234 255
219 234 255
219 234 255
219 234 255
219 234 255
219 234 255
219 234 255
219 234 255
219 234 255
219 234 255
219 234 255
219 234 255
219 234 255
219 234 255
219 234 255
219 234 255
219 234 255
219 234 255
219 234 255
219 234 255
219 234 255
219 234 255
219 234 255
219 234 255
219 234 255
219 234 255
219 234 255
219 234 255
219 234 255
219 234 255
219 234 255
219 234 255
219 234 255
219 234 255
219 234 255
219 234 255
219 234 255
219 234 255
219 234 255
219 234 255
219 234 255
219 234 255
219 234 255
219 234 255
219 234 255
219 234 255
219 234 255
219 234 255
219 234 255
219 234 255
219 234 255
219 234 255
219 234 255
219 234 255
219 234 255
219 234 255
218 234 255
218 234 255
218 234 255
218 234 255
218 234 255
218 234 255
218 234 255
218 234 255
218 234 255
218 234 255
218 234 255
218 234 255
218 234 255
218 234 255
218 234 255
218 234 255
218 234 255
218 234 255
218 234 255
218 234 255
218 234 255
218 234 255
218 234 255
218 234 255
218 234 255
218 234 255
218 234 255
218 234 255
218 234 255
218 234 255
218 234 255
218 234 255
218 234 255
218 234 255
218 234 255
218 234 255
218 234 255
218 234 255
218 234 255
218 234 255
218 234 255
218 234 255
218 234 255
218 234 255
218 234 255
218 234 255
218 234 255
218 234 255
218 234 255
218 234 255
218 234 255
218 234 255
218 234 255
218 234 255
218 234 255
218 234 255
218 234 255
218 234 255
218 234 255
218 234 255
218 234 255
218 234 255
218 234 255
218 234 255
218 234 255
165 177 194
51 57 64
53 58 66
55 61 69
53 59 67
53 59 66
56 62 69
53 59 66
55 60 68
50 55 63
53 58 66
53 59 67
51 56 64
49 55 62
51 57 64
54 60 68
56 61 69
51 56 63
51 56 63
53 58 65
52 58 65
51 56 63
52 58 65
49 54 61
54 59 67
52 58 65
55 61 69
53 58 66
53 59 67
49 54 60
49 54 61
53 59 66
51 57 64
50 56 64
52 57 65
50 55 62
52 57 65
51 57 64
51 57 65
52 58 65
58 64 72
56 62 69
50 55 61
51 57 65
50 55 63
56 62 69
53 59 66
50 55 61
51 56 64
50 55 63
54 59 67
53 59 66
52 58 65
53 58 65
52 58 66
51 56 63
55 60 68
50 56 63
52 58 65
52 58 65
53 58 66
56 62 69
51 57 64
53 59 67
53 59 67
54 59 67
51 57 64
54 59 67
52 58 65
51 56 63
53 58 65
55 60 67
50 56 63
54 59 66
54 60 67
55 61 69
51 57 65
48 53 60
53 59 66
53 59 66
52 58 65
53 59 66
53 58 66
55 60 67
54 59 67
51 57 64
50 56 63
54 60 67
54 59 67
54 60 67
49 55 62
52 58 65
53 59 66
52 57 64
50 55 63
53 59 67
53 58 65
53 58 65
53 58 66
53 58 66
51 56 64
52 58 66
54 60 67
49 55 62
52 57 64
52 57 64
53 58 66
53 59 66
56 62 70
55 61 68
54 60 67
54 60 67
53 59 66
54 59 66
48 53 61
51 57 64
55 61 69
54 59 66
55 61 68
53 58 66
52 58 65
51 56 63
54 59 67
56 62 70
56 61 69
54 60 67
51 57 65
169 182 199
218 234 255
218 234 255
218 234 255
218 234 255
218 234 255
218 234 255
218 234 255
218 234 255
218 234 255
218 234 255
218 234 255
218 234 255
218 234 255
218 234 255
218 234 255
218 234 255
218 234 255
218 234 255
218 234 255
218 234 255
218 234 255
218 234 255
218 234 255
218 234 255
218 234 255
218 234 255
218 234 255
218 234 255
218 234 255
218 234 255
218 234 255
218 234 255
218 234 255
218 234 255
218 234 255
218 234 255
218 234 255
218 234 255
218 234 255
218 234 255
218 234 255
218 234 255
218 234 255
218 234 255
218 234 255
218 234 255
218 234 255
218 234 255
218 234 255
218 234 255
218 234 255
218 234 255
218 234 255
218 234 255
218 234 255
218 234 255
218 234 255
218 234 255
218 234 255
218 234 255
218 234 255
218 234 255
218 234 255
218 234 255
218 234 255
218 234 255
219 234 255
219 234 255
219 234 255
219 234 255
219 234 255
219 234 255
219 234 255
219 234 255
219 234 255
219 234 255
219 234 255
219 234 255
219 234 255
219 234 255
219 234 255
219 234 255
219 234 255
219 234 255
219 234 255
219 234 255
219 234 255
219 234 255
219 234 255
219 234 255
219 234 255
219 234 255
219 234 255
219 234 255
219 234 255
219 234 255
219 234 255
219 234 255
219 234 255
219 234 255
219 234 255
219 234 255
219 234 255
219 234 255
219 234 255
219 234 255
219 234 255
219 234 255
219 234 255
219 234 255
219 234 255
219 234 255
219 234 255
219 234 255
219 234 255
219 234 255
219 234 255
219 234 255
219 234 255
219 234 255
219 234 255
219 234 255
219 234 255
219 234 255
219 234 255
219 234 255
219 234 255
219 234 255
219 234 255
219 234 255
219 234 255
219 234 255
219 234 255
219 234 255
219 234 255
219 234 255
219 234 255
219 234 255
219 234 255
219 234 255
219 234 255
219 234 255
219 234 255
219 234 255
219 234 255
219 234 255
219 234 255
219 234 255
219 234 255
219 234 255
219 234 255
219 234 255
219 234 255
219 234 255
219 234 255
219 234 255
219 234 255
219 234 255
219 234 255
219 234 255
219 234 255
219 234 255
219 234 255
219 234 255
219 234 255
219 234 255
219 234 255
219 234 255
219 234 255
219 234 255
219 234 255
219 234 255
219 234 255
219 234 255
219 234 255
219 234 255
219 234 255
219 234 255
219 234 255
219 234 255
219 234 255
219 234 255
219 234 255
219 234 255
219 234 255
219 234 255
219 234 255
219 234 255
219 234 255
219 234 255
219 234 255
219 234 255
219 234 255
219 234 255
219 234 255
219 234 255
219 234 255
219 234 255
219 234 255
219 234 255
219 234 255
219 234 255
219 234 255
219 234 255
219 234 255
219 234 255
219 234 255
219 234 255
219 234 255
219 234 255
219 234 255
219 234 255
219 234 255
219 234 255
219 234 255
219 234 255
219 234 255
219 234 255
219 234 255
219 234 255
219 234 255
219 234 255
219 234 255
219 234 255
218 234 255
219 234 255
218 234 255
218 234 255
218 234 255
218 234 255
218 234 255
218 234 255
218 234 255
218 234 255
218 234 255
218 234 255
218 234 255
218 234 255
218 234 255
218 234 255
218 234 255
218 234 255
218 234 255
218 234 255
218 234 255
218 234 255
218 234 255
218 234 255
218 234 255
218 234 255
218 234 255
218 234 255
218 234 255
218 234 255
218 234 255
218 234 255
218 234 255
218 234 255
218 234 255
218 234 255
218 234 255
218 234 255
218 234 255
218 234 255
218 234 255
218 234 255
218 234 255
218 234 255
218 234 255
218 234 255
218 234 255
218 234 255
134 144 158
51 57 64
54 60 68
50 55 62
53 59 67
52 57 65
52 58 65
48 53 60
56 62 70
55 61 69
54 59 67
52 57 65
51 56 63
54 59 67
52 57 65
55 61 69
54 59 66
55 61 69
51 57 65
51 56 63
53 58 65
51 57 64
52 57 64
51 57 64
55 61 68
51 57 64
56 61 69
53 59 67
53 58 66
49 55 62
50 55 63
50 56 63
54 60 67
54 59 67
52 58 65
54 60 67
52 58 65
50 55 62
55 60 68
53 59 66
55 60 68
55 61 68
52 58 65
53 59 67
52 58 66
51 56 63
55 61 68
53 58 65
49 54 60
51 57 64
52 57 65
54 59 67
53 59 67
53 58 66
52 58 65
54 59 67
53 59 67
51 57 65
52 57 65
51 56 63
49 55 62
53 58 65
53 59 66
52 57 64
52 58 65
53 58 65
51 56 64
53 59 67
50 55 62
52 57 65
52 58 65
53 59 66
54 59 66
51 56 63
52 58 65
54 59 66
52 58 65
54 60 67
54 60 67
53 58 66
53 58 66
49 54 61
51 56 63
53 58 65
52 58 65
53 59 66
51 57 64
52 57 64
52 58 65
50 56 63
50 55 62
53 59 66
53 58 66
54 59 67
55 61 68
54 59 67
52 57 65
52 58 65
50 55 62
55 60 68
50 56 64
52 57 65
53 58 65
54 59 67
51 56 63
51 57 64
48 54 60
51 57 64
54 60 67
56 61 69
53 58 65
53 58 66
54 60 67
52 57 65
54 60 67
52 57 65
50 55 62
54 60 67
51 57 64
52 57 65
54 59 66
53 58 66
53 59 66
56 62 69
51 56 63
51 56 63
56 62 70
129 139 153
218 234 255
218 234 255
218 234 255
218 234 255
218 234 255
218 234 255
218 234 255
218 234 255
218 234 255
218 234 255
218 234 255
218 234 255
218 234 255
218 234 255
218 234 255
218 234 255
218 234 255
218 234 255
218 234 255
218 234 255
218 234 255
218 234 255
218 234 255
218 234 255
218 234 255
218 234 255
218 234 255
218 234 255
218 234 255
218 234 255
218 234 255
218 234 255
218 234 255
218 234 255
218 234 255
218 234 255
218 234 255
218 234 255
218 234 255
218 234 255
218 234 255
218 234 255
218 234 255
218 234 255
218 234 255
218 234 255
218 234 255
219 234 255
219 234 255
219 234 255
219 234 255
219 234 255
219 234 255
219 234 255
219 234 255
219 234 255
219 234 255
219 234 255
219 234 255
219 234 255
219 234 255
219 234 255
219 234 255
219 234 255
219 234 255
219 234 255
219 234 255
219 234 255
219 234 255
219 234 255
219 234 255
219 234 255
219 234 255
219 234 255
219 234 255
219 234 255
219 234 255
219 234 255
219 234 255
219 234 255
219 234 255
219 234 255
219 234 255
219 234 255
219 234 255
219 234 255
219 234 255
219 234 255
219 234 255
219 234 255
219 234 255
219 234 255
219 234 255
219 234 255
219 234 255
219 234 255
219 234 255
219 234 255
219 234 255
219 234 255
219 234 255
219 234 255
219 234 255
219 234 255
219 234 255
219 234 255
219 234 255
219 234 255
219 234 255
219 234 255
219 234 255
219 234 255
219 234 255
219 234 255
219 234 255
219 234 255
219 234 255
219 234 255
219 234 255
219 234 255
219 234 255
219 234 255
219 234 255
219 234 255
219 234 255
219 234 255
219 234 255
219 234 255
219 234 255
219 234 255
219 234 255
219 234 255
219 234 255
219 234 255
219 234 255
219 234 255
220 235 255
219 235 255
219 235 255
219 235 255
219 235 255
219 235 255
219 235 255
219 235 255
219 235 255
219 235 255
219 235 255
219 235 255
219 235 255
219 235 255
219 235 255
219 235 255
219 235 255
219 234 255
219 234 255
219 234 255
219 234 255
219 234 255
219 234 255
219 234 255
219 234 255
219 234 255
219 234 255
219 234 255
219 234 255
219 234 255
219 234 255
219 234 255
219 234 255
219 234 255
219 234 255
219 234 255
219 234 255
219 234 255
219 234 255
219 234 255
219 234 255
219 234 255
219 234 255
219 234 255
219 234 255
219 234 255
219 234 255
219 234 255
219 234 255
219 234 255
219 234 255
219 234 255
219 234 255
219 234 255
219 234 255
219 234 255
219 234 255
219 234 255
219 234 255
219 234 255
219 234 255
219 234 255
219 234 255
219 234 255
219 234 255
219 234 255
219 234 255
219 234 255
219 234 255
219 234 255
219 234 255
219 234 255
219 234 255
219 234 255
219 234 255
219 234 255
219 234 255
219 234 255
219 234 255
219 234 255
219 234 255
219 234 255
219 234 255
219 234 255
219 234 255
219 234 255
219 234 255
219 234 255
219 234 255
219 234 255
219 234 255
219 234 255
219 234 255
219 234 255
219 234 255
219 234 255
219 234 255
219 234 255
219 234 255
219 234 255
219 234 255
219 234 255
219 234 255
219 234 255
219 234 255
219 234 255
219 234 255
219 234 255
219 234 255
219 234 255
218 234 255
218 234 255
218 234 255
218 234 255
218 234 255
218 234 255
218 234 255
218 234 255
218 234 255
218 234 255
218 234 255
218 234 255
218 234 255
218 234 255
218 234 255
218 234 255
218 234 255
218 234 255
218 234 255
218 234 255
218 234 255
218 234 255
218 234 255
218 234 255
218 234 255
218 234 255
111 120 132
54 59 67
53 58 66
54 60 69
52 58 65
50 55 63
53 59 67
52 57 65
53 59 66
54 60 67
48 53 60
52 58 65
52 58 66
55 61 69
52 57 65
52 57 64
49 55 62
50 55 62
51 57 64
54 59 67
52 57 64
53 58 66
52 57 64
53 59 67
55 61 68
53 58 66
56 61 69
56 61 68
50 56 63
56 62 70
50 56 63
51 56 64
54 60 68
52 58 65
53 59 66
53 58 66
51 56 63
51 57 65
51 56 63
51 56 62
55 61 70
53 59 67
52 57 64
53 59 66
51 57 64
54 60 67
52 57 64
51 56 63
51 57 64
51 57 64
51 56 64
51 57 64
50 55 62
51 57 64
48 54 61
49 55 61
53 58 66
51 57 64
51 57 64
48 53 60
48 53 59
54 60 67
53 59 66
50 55 62
53 59 66
50 56 63
51 56 63
50 55 62
52 58 65
48 53 60
48 53 60
53 58 66
51 56 64
57 63 70
53 59 67
52 57 65
50 56 63
51 56 63
47 53 60
51 56 63
50 56 63
56 61 69
51 56 63
51 56 63
51 57 64
52 58 65
55 60 68
52 58 65
51 57 64
55 60 68
54 59 67
56 62 69
52 57 64
56 62 70
56 61 69
51 56 64
53 58 66
52 57 65
53 58 66
53 59 66
54 59 67
53 58 66
51 57 64
53 58 66
52 57 65
50 55 62
54 59 66
53 58 65
52 57 65
54 60 67
54 60 68
52 57 65
49 55 63
51 57 64
52 57 65
51 56 64
54 60 67
54 59 66
51 57 64
49 54 61
51 57 64
52 57 65
53 58 66
54 60 67
55 61 69
54 60 67
52 57 65
104 112 123
218 234 255
218 234 255
218 234 255
218 234 255
218 234 255
218 234 255
218 234 255
218 234 255
218 234 255
218 234 255
218 234 255
218 234 255
218 234 255
218 234 255
218 234 255
218 234 255
218 234 255
218 234 255
218 234 255
218 234 255
218 234 255
218 234 255
218 234 255
218 234 255
218 234 255
218 234 255
218 234 255
219 234 255
219 234 255
219 234 255
219 234 255
219 234 255
219 234 255
219 234 255
219 234 255
219 234 255
219 234 255
219 234 255
219 234 255
219 234 255
219 234 255
219 234 255
219 234 255
219 234 255
219 234 255
219 234 255
219 234 255
219 234 255
219 234 255
219 234 255
219 234 255
219 234 255
219 234 255
219 234 255
219 234 255
219 234 255
219 234 255
219 234 255
219 234 255
219 234 255
219 234 255
219 234 255
219 234 255
219 234 255
219 234 255
219 234 255
219 234 255
219 234 255
219 234 255
219 234 255
219 234 255
219 234 255
219 234 255
219 234 255
219 234 255
219 234 255
219 234 255
219 234 255
219 234 255
219 234 255
219 234 255
219 234 255
219 234 255
219 234 255
219 234 255
219 234 255
219 234 255
219 234 255
219 234 255
219 234 255
219 234 255
219 234 255
219 234 255
219 234 255
219 234 255
219 234 255
219 234 255
219 234 255
219 234 255
219 234 255
219 234 255
219 234 255
219 234 255
219 234 255
219 234 255
219 234 255
219 234 255
219 234 255
219 234 255
219 234 255
219 234 255
219 234 255
219 234 255
219 234 255
219 234 255
219 234 255
219 234 255
219 234 255
219 234 255
219 234 255
219 234 255
219 235 255
219 235 255
219 235 255
219 235 255
219 235 255
219 235 255
219 235 255
219 235 255
219 235 255
219 235 255
219 235 255
219 235 255
219 235 255
219 235 255
219 235 255
220 235 255
220 235 255
220 235 255
220 235 255
220 235 255
220 235 255
220 235 255
220 235 255
220 235 255
220 235 255
220 235 255
220 235 255
220 235 255
220 235 255
220 235 255
220 235 255
220 235 255
220 235 255
220 235 255
220 235 255
220 235 255
220 235 255
220 235 255
220 235 255
220 235 255
220 235 255
219 235 255
219 235 255
219 235 255
219 235 255
219 235 255
219 235 255
219 235 255
219 235 255
219 235 255
219 235 255
219 235 255
219 235 255
219 235 255
219 235 255
219 235 255
219 234 255
219 234 255
219 234 255
219 234 255
219 234 255
219 234 255
219 234 255
219 234 255
219 234 255
219 234 255
219 234 255
219 234 255
219 234 255
219 234 255
219 234 255
219 234 255
219 234 255
219 234 255
219 234 255
219 234 255
219 234 255
219 234 255
219 234 255
219 234 255
219 234 255
219 234 255
219 234 255
219 234 255
219 234 255
219 234 255
219 234 255
219 234 255
219 234 255
219 234 255
219 234 255
219 234 255
219 234 255
219 234 255
219 234 255
219 234 255
219 234 255
219 234 255
219 234 255
219 234 255
219 234 255
219 234 255
219 234 255
219 234 255
219 234 255
219 234 255
219 234 255
219 234 255
219 234 255
219 234 255
219 234 255
219 234 255
219 234 255
219 234 255
219 234 255
219 234 255
219 234 255
219 234 255
219 234 255
219 234 255
219 234 255
219 234 255
219 234 255
219 234 255
219 234 255
219 234 255
219 234 255
219 234 255
219 234 255
219 234 255
219 234 255
219 234 255
219 234 255
219 234 255
219 234 255
219 234 255
219 234 255
219 234 255
219 234 255
219 234 255
219 234 255
219 234 255
219 234 255
219 234 255
219 234 255
219 234 255
219 234 255
219 234 255
219 234 255
218 234 255
218 234 255
69 75 84
53 59 66
54 59 67
56 61 69
54 60 67
53 59 66
51 56 64
52 57 65
50 55 63
52 57 65
51 56 64
51 57 64
53 59 67
53 58 65
56 61 68
49 55 61
52 58 65
52 57 64
52 58 65
54 59 66
51 56 63
50 55 62
55 60 68
49 55 62
52 57 65
57 63 70
54 60 67
53 59 66
53 58 65
51 56 64
51 57 64
54 59 66
54 59 66
55 60 68
51 56 63
52 57 64
52 58 65
52 57 64
54 60 68
54 59 66
53 58 66
57 62 70
53 58 66
54 59 66
52 58 65
50 56 63
51 57 64
51 57 64
50 55 62
52 58 65
49 55 61
52 57 64
54 59 66
53 59 67
52 58 65
52 57 64
50 56 63
53 59 66
50 55 62
52 57 65
55 60 68
52 58 65
53 58 66
53 59 66
49 54 61
55 60 68
50 55 62
51 56 63
54 60 67
52 58 65
50 55 62
52 57 65
52 57 65
53 58 65
46 51 58
53 59 66
53 59 67
51 56 63
54 60 67
53 58 66
50 55 62
51 57 65
51 56 63
54 60 67
51 56 62
52 57 64
52 57 64
55 60 68
54 59 67
50 55 62
53 59 67
53 58 66
53 58 66
51 56 63
54 60 67
50 56 63
50 56 63
47 52 59
54 59 67
49 54 61
52 57 65
51 56 63
53 58 66
49 55 62
52 57 65
54 60 67
53 58 66
55 60 68
56 62 70
51 56 64
56 61 69
52 58 65
55 60 67
51 56 63
53 59 66
53 59 66
53 58 65
52 57 64
54 59 67
52 57 65
54 59 66
53 58 66
52 57 64
52 57 64
53 58 65
48 53 60
53 59 67
74 80 89
218 234 255
218 234 255
218 234 255
219 234 255
219 234 255
219 234 255
219 234 255
219 234 255
219 234 255
219 234 255
219 234 255
219 234 255
219 234 255
219 234 255
219 234 255
219 234 255
219 234 255
219 234 255
219 234 255
219 234 255
219 234 255
219 234 255
219 234 255
219 234 255
219 234 255
219 234 255
219 234 255
219 234 255
219 234 255
219 234 255
219 234 255
219 234 255
219 234 255
219 234 255
219 234 255
219 234 255
219 234 255
219 234 255
219 234 255
219 234 255
219 234 255
219 234 255
219 234 255
219 234 255
219 234 255
219 234 255
219 234 255
219 234 255
219 234 255
219 234 255
219 234 255
219 234 255
219 234 255
219 234 255
219 234 255
219 234 255
219 234 255
219 234 255
219 234 255
219 234 255
219 234 255
219 234 255
219 234 255
219 234 255
219 234 255
219 234 255
219 234 255
219 234 255
219 234 255
219 234 255
219 234 255
219 234 255
219 234 255
219 234 255
219 234 255
219 234 255
219 234 255
219 234 255
219 234 255
219 234 255
219 234 255
219 234 255
219 234 255
219 234 255
219 234 255
219 234 255
219 234 255
219 234 255
219 234 255
219 234 255
219 234 255
219 234 255
219 234 255
219 234 255
219 234 255
219 235 255
219 235 255
219 235 255
219 235 255
219 235 255
219 235 255
219 235 255
219 235 255
219 235 255
219 235 255
219 235 255
219 235 255
219 235 255
219 235 255
219 235 255
220 235 255
220 235 255
220 235 255
220 235 255
220 235 255
220 235 255
220 235 255
220 235 255
220 235 255
220 235 255
220 235 255
220 235 255
220 235 255
220 235 255
220 235 255
220 235 255
220 235 255
220 235 255
220 235 255
220 235 255
220 235 255
220 235 255
220 235 255
220 235 255
220 235 255
220 235 255
220 235 255
220 235 255
220 235 255
220 235 255
220 235 255
220 235 255
220 235 255
220 235 255
220 235 255
220 235 255
220 235 255
220 235 255
220 235 255
220 235 255
220 235 255
220 235 255
220 235 255
220 235 255
220 235 255
220 235 255
220 235 255
220 235 255
220 235 255
220 235 255
220 235 255
220 235 255
220 235 255
220 235 255
220 235 255
220 235 255
220 235 255
220 235 255
220 235 255
220 235 255
220 235 255
220 235 255
220 235 255
220 235 255
220 235 255
220 235 255
220 235 255
220 235 255
220 235 255
220 235 255
220 235 255
220 235 255
220 235 255
220 235 255
220 235 255
220 235 255
220 235 255
220 235 255
219 235 255
219 235 255
219 235 255
219 235 255
219 235 255
219 235 255
219 235 255
219 235 255
219 235 255
219 235 255
219 235 255
219 235 255
219 235 255
219 235 255
219 235 255
219 235 255
219 234 255
219 234 255
219 234 255
219 234 255
219 234 255
219 234 255
219 234 255
219 234 255
219 234 255
219 234 255
219 234 255
219 234 255
219 234 255
219 234 255
219 234 255
219 234 255
219 234 255
219 234 255
219 234 255
219 234 255
219 234 255
219 234 255
219 234 255
219 234 255
219 234 255
219 234 255
219 234 255
219 234 255
219 234 255
219 234 255
219 234 255
219 234 255
219 234 255
219 234 255
219 234 255
219 234 255
219 234 255
219 234 255
219 234 255
219 234 255
219 234 255
219 234 255
219 234 255
219 234 255
219 234 255
219 234 255
219 234 255
219 234 255
219 234 255
219 234 255
219 234 255
219 234 255
219 234 255
219 234 255
219 234 255
219 234 255
219 234 255
219 234 255
219 234 255
219 234 255
219 234 255
219 234 255
219 234 255
219 234 255
219 234 255
219 234 255
219 234 255
212 227 248
51 56 63
55 60 68
53 59 66
50 56 63
52 57 65
49 54 60
54 59 67
53 59 67
49 54 61
50 55 62
55 60 67
50 56 63
52 58 66
51 56 63
50 56 63
52 58 65
51 56 64
51 56 63
49 54 61
52 57 65
52 57 65
48 54 61
51 56 63
51 56 63
52 58 65
51 57 64
51 56 63
48 53 60
52 57 64
53 58 65
54 60 67
52 57 65
51 56 63
52 57 65
53 59 66
51 56 64
54 60 68
52 57 64
51 56 62
52 57 65
55 60 68
56 61 68
51 56 63
52 57 65
56 61 69
52 58 65
53 59 66
48 53 60
53 58 65
54 60 67
49 55 61
51 56 63
50 56 63
49 54 61
54 59 67
52 57 64
52 57 64
52 58 65
52 57 65
50 56 63
52 57 64
51 56 62
49 54 61
52 57 65
53 59 67
52 57 65
51 56 63
52 57 64
54 59 67
52 57 65
53 58 65
48 53 59
49 54 60
51 56 64
52 58 65
54 60 67
56 61 69
54 59 67
54 60 67
51 56 64
53 59 67
54 59 66
53 59 66
48 54 61
56 62 69
49 54 61
49 54 61
49 55 62
53 59 67
51 56 62
53 58 65
52 57 65
49 55 62
53 58 65
51 57 64
54 59 67
49 55 62
51 56 64
54 59 66
54 59 66
51 56 63
52 57 64
51 57 64
53 59 67
52 58 65
53 59 67
50 55 62
52 57 65
52 58 65
50 55 62
53 58 66
54 59 67
51 56 64
53 59 66
53 58 66
51 56 64
49 55 62
52 58 66
51 57 64
50 56 63
54 59 66
51 57 64
54 59 67
52 57 64
54 59 66
50 55 62
53 59 67
52 58 65
211 226 247
219 234 255
219 234 255
219 234 255
219 234 255
219 234 255
219 234 255
219 234 255
219 234 255
219 234 255
219 234 255
219 234 255
219 234 255
219 234 255
219 234 255
219 234 255
219 234 255
219 234 255
219 234 255
219 234 255
219 234 255
219 234 255
219 234 255
219 234 255
219 234 255
219 234 255
219 234 255
219 234 255
219 234 255
219 234 255
219 234 255
219 234 255
219 234 255
219 234 255
219 234 255
219 234 255
219 234 255
219 234 255
219 234 255
219 234 255
219 234 255
219 234 255
219 234 255
219 234 255
219 234 255
219 234 255
219 234 255
219 234 255
219 234 255
219 234 255
219 234 255
219 234 255
219 234 255
219 234 255
219 234 255
219 234 255
219 234 255
219 234 255
219 234 255
219 234 255
219 234 255
219 234 255
219 234 255
219 234 255
219 234 255
219 234 255
219 234 255
219 234 255
219 234 255
219 234 255
219 235 255
219 235 255
219 235 255
219 235 255
219 235 255
219 235 255
219 235 255
219 235 255
219 235 255
219 235 255
219 235 255
219 235 255
219 235 255
219 235 255
220 235 255
220 235 255
220 235 255
220 235 255
220 235 255
220 235 255
220 235 255
220 235 255
220 235 255
220 235 255
220 235 255
220 235 255
220 235 255
220 235 255
220 235 255
220 235 255
220 235 255
220 235 255
220 235 255
220 235 255
220 235 255
220 235 255
220 235 255
220 235 255
220 235 255
220 235 255
220 235 255
220 235 255
220 235 255
220 235 255
220 235 255
220 235 255
220 235 255
220 235 255
220 235 255
220 235 255
220 235 255
220 235 255
220 235 255
220 235 255
220 235 255
220 235 255
220 235 255
220 235 255
220 235 255
220 235 255
220 235 255
220 235 255
220 235 255
220 235 255
220 235 255
220 235 255
220 235 255
220 235 255
220 235 255
220 235 255
220 235 255
220 235 255
220 235 255
220 235 255
220 235 255
220 235 255
220 235 255
220 235 255
220 235 255
220 235 255
220 235 255
220 235 255
220 235 255
220 235 255
220 235 255
220 235 255
220 235 255
220 235 255
220 235 255
220 235 255
220 235 255
220 235 255
220 235 255
220 235 255
220 235 255
220 235 255
220 235 255
220 235 255
220 235 255
220 235 255
220 235 255
220 235 255
220 235 255
220 235 255
220 235 255
220 235 255
220 235 255
220 235 255
220 235 255
220 235 255
220 235 255
220 235 255
220 235 255
220 235 255
220 235 255
220 235 255
220 235 255
220 235 255
220 235 255
220 235 255
220 235 255
220 235 255
220 235 255
220 235 255
220 235 255
220 235 255
220 235 255
220 235 255
220 235 255
220 235 255
220 235 255
220 235 255
220 235 255
220 235 255
220 235 255
220 235 255
220 235 255
220 235 255
220 235 255
220 235 255
220 235 255
220 235 255
220 235 255
220 235 255
220 235 255
220 235 255
220 235 255
219 235 255
219 235 255
220 235 255
219 235 255
219 235 255
219 235 255
219 235 255
219 235 255
219 235 255
219 235 255
219 235 255
219 235 255
219 235 255
219 235 255
219 234 255
219 234 255
219 234 255
219 234 255
219 234 255
219 234 255
219 234 255
219 234 255
219 234 255
219 234 255
219 234 255
219 234 255
219 234 255
219 234 255
219 234 255
219 234 255
219 234 255
219 234 255
219 234 255
219 234 255
219 234 255
219 234 255
219 234 255
219 234 255
219 234 255
219 234 255
219 234 255
219 234 255
219 234 255
219 234 255
219 234 255
219 234 255
219 234 255
219 234 255
219 234 255
219 234 255
219 234 255
219 234 255
219 234 255
219 234 255
197 211 230
52 58 65
54 59 67
53 58 66
52 58 65
46 51 58
55 61 68
50 56 63
50 55 62
50 55 62
51 56 63
54 60 68
52 57 65
52 58 65
51 56 64
52 57 64
52 58 65
49 54 61
52 57 64
51 57 64
56 61 69
50 55 62
55 60 68
50 56 63
52 57 65
54 59 66
52 57 64
52 58 65
51 56 63
50 55 63
50 55 62
51 56 63
50 56 63
53 58 66
47 52 59
51 56 63
51 56 62
52 57 65
52 57 65
54 60 67
52 58 65
53 59 66
53 58 65
53 58 65
51 57 64
54 59 66
52 57 64
55 60 67
51 56 63
51 57 64
54 59 67
51 57 64
54 59 66
50 55 62
53 58 66
52 57 64
52 57 64
51 56 63
53 59 66
50 55 61
49 55 62
54 59 67
51 57 65
49 54 60
49 54 61
53 58 65
52 57 65
54 59 67
51 56 63
53 59 67
50 55 62
50 55 62
52 58 65
52 57 65
52 57 65
56 61 69
51 56 63
52 58 65
51 56 63
55 61 69
52 57 64
54 60 67
52 58 65
54 60 67
50 55 62
56 61 69
52 58 65
54 60 67
55 61 68
52 58 65
49 54 61
52 57 65
54 59 67
49 54 61
50 56 64
49 54 60
53 59 66
52 57 65
52 58 65
52 57 64
49 55 62
50 55 62
49 55 61
51 57 64
53 58 65
51 57 65
51 56 63
51 56 64
53 58 65
50 55 62
52 57 63
51 56 64
52 57 64
52 57 64
52 58 65
50 56 63
51 56 64
53 58 65
50 55 63
51 56 64
54 60 68
48 53 60
47 53 60
53 58 66
53 59 67
50 55 62
48 53 60
51 56 63
52 57 64
195 209 228
219 234 255
219 234 255
219 234 255
219 234 255
219 234 255
219 234 255
219 234 255
219 234 255
219 234 255
219 234 255
219 234 255
219 234 255
219 234 255
219 234 255
219 234 255
219 234 255
219 234 255
219 234 255
219 234 255
219 234 255
219 234 255
219 234 255
219 234 255
219 234 255
219 234 255
219 234 255
219 234 255
219 234 255
219 234 255
219 234 255
219 234 255
219 234 255
219 234 255
219 234 255
219 234 255
219 234 255
219 234 255
219 234 255
219 234 255
219 234 255
219 235 255
219 235 255
219 235 255
219 235 255
219 235 255
219 235 255
219 235 255
219 235 255
219 235 255
219 235 255
219 235 255
219 235 255
219 235 255
220 235 255
219 235 255
220 235 255
220 235 255
220 235 255
220 235 255
220 235 255
220 235 255
220 235 255
220 235 255
220 235 255
220 235 255
220 235 255
220 235 255
220 235 255
220 235 255
220 235 255
220 235 255
220 235 255
220 235 255
220 235 255
220 235 255
220 235 255
220 235 255
220 235 255
220 235 255
220 235 255
220 235 255
220 235 255
220 235 255
220 235 255
220 235 255
220 235 255
220 235 255
220 235 255
220 235 255
220 235 255
220 235 255
220 235 255
220 235 255
220 235 255
220 235 255
220 235 255
220 235 255
220 235 255
220 235 255
220 235 255
220 235 255
220 235 255
220 235 255
220 235 255
220 235 255
220 235 255
220 235 255
220 235 255
220 235 255
220 235 255
220 235 255
220 235 255
220 235 255
220 235 255
220 235 255
220 235 255
220 235 255
220 235 255
220 235 255
220 235 255
220 235 255
220 235 255
220 235 255
220 235 255
220 235 255
220 235 255
220 235 255
220 235 255
220 235 255
220 235 255
220 235 255
220 235 255
220 235 255
220 235 255
220 235 255
220 235 255
220 235 255
220 235 255
220 235 255
220 235 255
220 235 255
220 235 255
220 235 255
220 235 255
220 235 255
220 235 255
220 235 255
220 235 255
220 235 255
220 235 255
220 235 255
220 235 255
220 235 255
220 235 255
220 235 255
220 235 255
220 235 255
220 235 255
220 235 255
220 235 255
220 235 255
220 235 255
220 235 255
220 235 255
220 235 255
220 235 255
220 235 255
220 235 255
220 235 255
220 235 255
220 235 255
220 235 255
220 235 255
220 235 255
220 235 255
220 235 255
220 235 255
220 235 255
220 235 255
220 235 255
220 235 255
220 235 255
220 235 255
220 235 255
220 235 255
220 235 255
220 235 255
220 235 255
220 235 255
220 235 255
220 235 255
220 235 255
220 235 255
220 235 255
220 235 255
220 235 255
220 235 255
220 235 255
220 235 255
220 235 255
220 235 255
220 235 255
220 235 255
220 235 255
220 235 255
220 235 255
220 235 255
220 235 255
220 235 255
220 235 255
220 235 255
220 235 255
220 235 255
220 235 255
220 235 255
220 235 255
220 235 255
220 235 255
220 235 255
220 235 255
220 235 255
220 235 255
220 235 255
220 235 255
220 235 255
220 235 255
220 235 255
220 235 255
220 235 255
220 235 255
220 235 255
220 235 255
220 235 255
220 235 255
220 235 255
220 235 255
220 235 255
220 235 255
220 235 255
220 235 255
220 235 255
220 235 255
220 235 255
220 235 255
220 235 255
220 235 255
220 235 255
220 235 255
219 235 255
219 235 255
219 235 255
219 235 255
219 235 255
219 235 255
219 235 255
219 235 255
219 235 255
219 235 255
219 235 255
219 235 255
219 235 255
219 235 255
219 235 255
219 235 255
219 234 255
219 234 255
219 234 255
219 234 255
219 234 255
219 234 255
185 198 216
52 57 64
51 56 62
52 57 64
52 57 64
52 57 64
53 58 66
54 60 67
46 51 57
52 57 64
50 55 61
52 58 65
51 57 65
52 57 65
54 60 67
53 58 65
51 56 63
53 58 66
53 58 65
52 57 64
51 56 64
53 59 67
52 57 64
50 56 63
54 59 67
53 59 66
51 56 63
53 58 66
53 58 65
54 59 66
55 60 68
52 57 65
51 56 63
53 58 66
52 58 65
53 59 67
53 59 66
51 57 64
55 60 67
52 58 66
54 60 68
53 59 66
54 59 67
51 57 64
52 57 65
55 61 68
50 55 62
53 59 66
50 55 62
53 58 65
54 59 66
51 56 63
50 56 63
51 56 63
49 54 60
48 53 60
53 59 66
53 58 65
51 56 63
56 61 69
51 57 64
50 55 62
52 57 64
53 59 67
49 54 61
54 60 67
50 55 62
53 59 66
50 55 62
50 55 62
49 54 61
50 56 63
54 59 67
49 54 61
45 49 55
49 54 61
48 53 60
51 57 64
51 57 65
52 57 64
51 56 63
50 55 62
51 57 64
50 56 62
51 56 62
51 57 65
54 59 67
50 55 61
52 58 65
54 59 66
50 56 63
55 61 69
51 57 65
51 56 63
53 58 65
51 56 63
50 55 62
52 57 64
52 58 65
51 56 63
51 56 63
51 57 64
52 57 64
51 56 64
52 57 65
54 59 67
55 60 68
54 60 68
51 56 64
55 60 68
52 57 64
53 59 66
50 55 62
51 57 64
51 56 63
50 56 63
49 54 61
52 57 64
51 56 64
52 57 65
51 57 64
51 57 65
53 58 65
51 56 63
53 58 65
51 56 63
54 60 67
51 57 64
51 57 63
175 188 205
219 234 255
219 234 255
219 234 255
219 234 255
219 234 255
219 235 255
219 234 255
219 235 255
219 235 255
219 235 255
219 235 255
219 235 255
219 235 255
219 235 255
219 235 255
219 235 255
219 235 255
219 235 255
219 235 255
219 235 255
220 235 255
219 235 255
220 235 255
220 235 255
220 235 255
220 235 255
220 235 255
220 235 255
220 235 255
220 235 255
220 235 255
220 235 255
220 235 255
220 235 255
220 235 255
220 235 255
220 235 255
220 235 255
220 235 255
220 235 255
220 235 255
220 235 255
220 235 255
220 235 255
220 235 255
220 235 255
220 235 255
220 235 255
220 235 255
220 235 255
220 235 255
220 235 255
220 235 255
220 235 255
220 235 255
220 235 255
220 235 255
220 235 255
220 235 255
220 235 255
220 235 255
220 235 255
220 235 255
220 235 255
220 235 255
220 235 255
220 235 255
220 235 255
220 235 255
220 235 255
220 235 255
220 235 255
220 235 255
220 235 255
220 235 255
220 235 255
220 235 255
220 235 255
220 235 255
220 235 255
220 235 255
220 235 255
220 235 255
220 235 255
220 235 255
220 235 255
220 235 255
220 235 255
220 235 255
220 235 255
220 235 255
220 235 255
220 235 255
220 235 255
220 235 255
220 235 255
220 235 255
220 235 255
220 235 255
220 235 255
220 235 255
220 235 255
220 235 255
220 235 255
220 235 255
220 235 255
220 235 255
220 235 255
220 235 255
220 235 255
220 235 255
220 235 255
220 235 255
220 235 255
220 235 255
220 235 255
220 235 255
220 235 255
220 235 255
220 235 255
220 235 255
220 235 255
220 235 255
220 235 255
220 235 255
220 235 255
220 235 255
220 235 255
220 235 255
220 235 255
220 235 255
220 235 255
220 235 255
220 235 255
220 235 255
220 235 255
220 235 255
220 235 255
220 235 255
220 235 255
220 235 255
220 235 255
220 235 255
220 235 255
220 235 255
220 235 255
220 235 255
220 235 255
220 235 255
220 235 255
220 235 255
220 235 255
220 235 255
220 235 255
220 235 255
220 235 255
220 235 255
220 235 255
220 235 255
220 235 255
220 235 255
220 235 255
220 235 255
220 235 255
220 235 255
220 235 255
220 235 255
220 235 255
220 235 255
220 235 255
220 235 255
220 235 255
220 235 255
220 235 255
220 235 255
220 235 255
220 235 255
220 235 255
220 235 255
220 235 255
220 235 255
220 235 255
220 235 255
220 235 255
220 235 255
220 235 255
220 235 255
220 235 255
220 235 255
220 235 255
220 235 255
220 235 255
220 235 255
220 235 255
220 235 255
220 235 255
220 235 255
220 235 255
220 235 255
220 235 255
220 235 255
220 235 255
220 235 255
220 235 255
220 235 255
220 235 255
220 235 255
220 235 255
220 235 255
220 235 255
220 235 255
220 235 255
220 235 255
220 235 255
220 235 255
220 235 255
220 235 255
220 235 255
220 235 255
220 235 255
220 235 255
220 235 255
220 235 255
220 235 255
220 235 255
220 235 255
220 235 255
220 235 255
220 235 255
220 235 255
220 235 255
220 235 255
220 235 255
220 235 255
220 235 255
220 235 255
220 235 255
220 235 255
220 235 255
220 235 255
220 235 255
220 235 255
220 235 255
220 235 255
220 235 255
220 235 255
220 235 255
220 235 255
220 235 255
220 235 255
220 235 255
220 235 255
220 235 255
220 235 255
220 235 255
220 235 255
220 235 255
220 235 255
220 235 255
220 235 255
220 235 255
220 235 255
220 235 255
220 235 255
220 235 255
220 235 255
220 235 255
220 235 255
220 235 255
220 235 255
162 174 189
52 58 65
49 54 60
56 61 68
53 58 66
49 55 62
54 60 67
54 59 67
55 60 68
51 56 64
50 55 62
51 56 64
51 57 64
52 57 64
50 55 62
48 53 60
52 58 65
51 56 63
52 57 64
53 59 66
52 58 65
51 57 64
51 57 64
50 56 63
47 52 59
53 58 66
51 56 64
52 57 64
49 54 61
52 57 64
50 56 63
49 54 61
53 58 65
52 57 65
49 54 60
50 56 63
51 56 64
51 56 63
47 51 58
53 59 66
54 60 67
50 55 61
53 58 66
54 60 67
50 55 62
46 51 58
54 59 67
51 57 64
51 56 64
54 59 67
50 55 61
54 60 67
51 56 63
52 57 64
50 55 62
50 56 63
51 56 63
55 60 68
54 59 66
51 56 64
51 57 64
52 57 64
50 55 63
55 60 68
53 59 66
50 56 63
52 58 65
54 59 66
53 58 66
50 56 63
53 58 65
52 57 64
54 60 67
52 57 65
49 54 61
52 57 64
51 56 63
52 58 65
52 57 64
53 59 66
50 55 62
51 57 64
51 57 64
50 56 63
47 52 59
49 54 61
51 57 64
47 52 58
52 57 65
50 56 63
53 59 66
52 58 65
52 57 64
52 58 66
50 55 62
48 53 60
51 57 64
50 55 61
50 55 62
54 59 67
50 56 63
50 55 62
50 56 64
53 58 66
55 61 68
54 59 66
52 58 65
50 56 63
50 56 63
51 57 65
52 57 64
50 55 62
50 55 62
50 55 62
51 56 64
51 57 64
49 54 62
50 55 61
47 53 60
52 57 64
51 56 63
53 59 66
54 59 66
53 58 65
55 61 68
51 56 64
53 58 66
52 57 64
52 57 65
167 178 194
220 235 255
220 235 255
220 235 255
220 235 255
220 235 255
220 235 255
220 235 255
220 235 255
220 235 255
220 235 255
220 235 255
220 235 255
220 235 255
220 235 255
220 235 255
220 235 255
220 235 255
220 235 255
220 235 255
220 235 255
220 235 255
220 235 255
220 235 255
220 235 255
220 235 255
220 235 255
220 235 255
220 235 255
220 235 255
220 235 255
220 235 255
220 235 255
220 235 255
220 235 255
220 235 255
220 235 255
220 235 255
220 235 255
220 235 255
220 235 255
220 235 255
220 235 255
220 235 255
220 235 255
220 235 255
220 235 255
220 235 255
220 235 255
220 235 255
220 235 255
220 235 255
220 235 255
220 235 255
220 235 255
220 235 255
220 235 255
220 235 255
220 235 255
220 235 255
220 235 255
220 235 255
220 235 255
220 235 255
220 235 255
220 235 255
220 235 255
220 235 255
220 235 255
220 235 255
220 235 255
220 235 255
220 235 255
220 235 255
220 235 255
220 235 255
220 235 255
220 235 255
220 235 255
220 235 255
220 235 255
220 235 255
220 235 255
220 235 255
220 235 255
220 235 255
220 235 255
220 235 255
220 235 255
220 235 255
220 235 255
220 235 255
220 235 255
220 235 255
220 235 255
220 235 255
220 235 255
220 235 255
220 235 255
220 235 255
220 235 255
220 235 255
220 235 255
220 235 255
220 235 255
220 235 255
220 235 255
220 235 255
220 235 255
220 235 255
220 235 255
220 235 255
220 235 255
220 235 255
220 235 255
220 235 255
220 235 255
220 235 255
220 235 255
220 235 255
220 235 255
220 235 255
220 235 255
220 235 255
220 235 255
220 235 255
220 235 255
220 235 255
220 235 255
220 235 255
220 235 255
220 235 255
220 235 255
220 235 255
220 235 255
220 235 255
220 235 255
220 235 255
220 235 255
220 235 255
220 235 255
220 235 255
220 235 255
220 235 255
220 235 255
220 235 255
220 235 255
220 235 255
220 235 255
220 235 255
220 235 255
220 235 255
220 235 255
220 235 255
220 235 255
220 235 255
220 235 255
220 235 255
220 235 255
220 235 255
220 235 255
220 235 255
220 235 255
220 235 255
220 235 255
220 235 255
220 235 255
220 235 255
220 235 255
220 235 255
220 235 255
220 235 255
220 235 255
220 235 255
220 235 255
220 235 255
220 235 255
220 235 255
220 235 255
220 235 255
220 235 255
220 235 255
220 235 255
220 235 255
220 235 255
220 235 255
220 235 255
220 235 255
220 235 255
220 235 255
220 235 255
220 235 255
220 235 255
220 235 255
220 235 255
220 235 255
220 235 255
220 235 255
220 235 255
220 235 255
220 235 255
220 235 255
220 235 255
220 235 255
220 235 255
220 235 255
220 235 255
220 235 255
220 235 255
220 235 255
220 235 255
220 235 255
220 235 255
220 235 255
220 235 255
220 235 255
220 235 255
220 235 255
220 235 255
220 235 255
220 235 255
220 235 255
220 235 255
220 235 255
220 235 255
220 235 255
220 235 255
220 235 255
220 235 255
220 235 255
220 235 255
220 235 255
220 235 255
220 235 255
220 235 255
220 235 255
220 235 255
220 235 255
220 235 255
220 235 255
220 235 255
220 235 255
220 235 255
220 235 255
220 235 255
220 235 255
220 235 255
220 235 255
220 235 255
220 235 255
220 235 255
220 235 255
220 235 255
220 235 255
220 235 255
220 235 255
220 235 255
220 235 255
220 235 255
220 235 255
220 235 255
220 235 255
220 235 255
220 235 255
220 235 255
220 235 255
220 235 255
220 235 255
220 235 255
220 235 255
220 235 255
162 173 189
51 56 62
51 56 64
52 57 64
51 56 63
52 57 64
53 58 65
50 56 64
51 57 64
49 54 61
52 57 64
52 57 64
48 53 60
52 57 64
51 57 64
53 58 65
52 58 66
50 56 63
50 56 63
49 54 61
52 57 65
55 61 68
53 58 65
52 57 64
53 58 66
55 61 68
52 57 64
51 56 63
49 55 62
50 55 62
48 53 60
50 56 63
50 55 62
49 55 62
51 56 64
53 58 65
49 54 60
53 58 65
48 53 60
52 57 64
49 54 61
51 56 63
51 56 63
52 57 64
49 54 61
52 58 65
53 58 65
50 56 63
52 57 64
51 57 64
52 57 65
51 56 63
50 55 63
52 57 65
50 56 63
54 60 67
52 57 64
52 58 65
51 56 63
52 57 65
49 54 60
53 58 65
53 58 65
52 57 64
51 56 63
54 60 67
51 56 63
51 57 64
51 56 63
52 58 65
51 56 63
53 58 66
53 58 66
51 56 63
52 57 64
53 59 67
50 55 62
49 54 60
49 54 61
48 53 60
51 57 64
51 56 63
54 59 67
54 59 66
52 57 64
52 58 66
50 55 61
52 57 64
50 55 62
51 56 63
54 60 68
49 55 62
51 56 63
52 57 65
49 55 62
51 56 63
52 57 64
53 59 66
54 60 67
54 60 67
53 58 65
53 58 65
53 58 66
51 56 63
48 53 60
47 52 58
54 59 67
55 60 68
49 54 61
50 55 62
49 54 61
53 59 66
49 54 61
52 57 64
53 58 66
54 60 67
50 55 62
55 61 69
50 55 62
50 55 62
53 58 66
53 59 66
51 56 64
52 57 65
51 56 63
49 55 61
54 59 67
55 60 67
56 61 69
166 178 194
220 235 255
220 235 255
220 235 255
220 235 255
220 235 255
220 235 255
220 235 255
220 235 255
220 235 255
220 235 255
220 235 255
220 235 255
220 235 255
220 235 255
220 235 255
220 235 255
220 235 255
220 235 255
220 235 255
220 235 255
220 235 255
220 235 255
220 235 255
220 235 255
220 235 255
220 235 255
220 235 255
220 235 255
220 235 255
220 235 255
220 235 255
220 235 255
220 235 255
220 235 255
220 235 255
220 235 255
220 235 255
220 235 255
220 235 255
220 235 255
220 235 255
220 235 255
220 235 255
220 235 255
220 235 255
220 235 255
220 235 255
220 235 255
220 235 255
220 235 255
220 235 255
220 235 255
220 235 255
220 235 255
220 235 255
220 235 255
220 235 255
220 235 255
220 235 255
220 235 255
220 235 255
220 235 255
220 235 255
220 235 255
220 235 255
220 235 255
220 235 255
220 235 255
220 235 255
220 235 255
220 235 255
220 235 255
220 235 255
220 235 255
220 235 255
220 235 255
220 235 255
220 235 255
220 235 255
220 235 255
220 235 255
220 235 255
220 235 255
220 235 255
220 235 255
220 235 255
220 235 255
220 235 255
220 235 255
220 235 255
220 235 255
220 235 255
220 235 255
220 235 255
220 235 255
220 235 255
220 235 255
220 235 255
220 235 255
220 235 255
220 235 255
220 235 255
220 235 255
220 235 255
220 235 255
220 235 255
220 235 255
220 235 255
220 235 255
220 235 255
220 235 255
220 235 255
220 235 255
220 235 255
220 235 255
220 235 255
220 235 255
220 235 255
220 235 255
220 235 255
220 235 255
220 235 255
220 235 255
220 235 255
220 235 255
220 235 255
220 235 255
220 235 255
220 235 255
220 235 255
220 235 255
220 235 255
220 235 255
220 235 255
220 235 255
221 235 255
221 235 255
221 235 255
221 235 255
221 235 255
221 235 255
221 235 255
221 235 255
221 235 255
221 235 255
221 235 255
221 235 255
221 235 255
221 235 255
221 235 255
221 235 255
221 235 255
221 235 255
221 235 255
221 235 255
221 235 255
221 235 255
221 235 255
221 235 255
221 235 255
221 235 255
221 235 255
221 235 255
221 235 255
221 235 255
221 235 255
221 235 255
221 235 255
221 235 255
221 235 255
221 235 255
221 235 255
221 235 255
221 235 255
221 235 255
221 235 255
221 235 255
221 235 255
221 235 255
221 235 255
221 235 255
221 235 255
221 235 255
221 235 255
221 235 255
220 235 255
221 235 255
221 235 255
220 235 255
220 235 255
220 235 255
220 235 255
220 235 255
220 235 255
220 235 255
220 235 255
220 235 255
220 235 255
220 235 255
220 235 255
220 235 255
220 235 255
220 235 255
220 235 255
220 235 255
220 235 255
220 235 255
220 235 255
220 235 255
220 235 255
220 235 255
220 235 255
220 235 255
220 235 255
220 235 255
220 235 255
220 235 255
220 235 255
220 235 255
220 235 255
220 235 255
220 235 255
220 235 255
220 235 255
220 235 255
220 235 255
220 235 255
220 235 255
220 235 255
220 235 255
220 235 255
220 235 255
220 235 255
220 235 255
220 235 255
220 235 255
220 235 255
220 235 255
220 235 255
220 235 255
220 235 255
220 235 255
220 235 255
220 235 255
220 235 255
220 235 255
220 235 255
220 235 255
220 235 255
220 235 255
220 235 255
220 235 255
220 235 255
220 235 255
220 235 255
220 235 255
220 235 255
220 235 255
220 235 255
220 235 255
220 235 255
220 235 255
220 235 255
220 235 255
220 235 255
220 235 255
220 235 255
220 235 255
220 235 255
220 235 255
158 168 183
53 58 65
51 56 63
54 60 67
50 55 62
49 54 61
51 56 63
52 57 64
51 57 64
48 53 60
49 54 61
52 57 63
50 56 63
50 55 62
52 57 64
49 54 61
51 56 64
55 61 68
47 52 58
53 58 65
53 59 66
52 58 66
53 59 67
48 54 61
56 61 69
51 57 64
54 60 67
53 59 66
51 56 63
52 58 65
54 59 67
49 54 60
52 57 64
51 57 64
53 59 66
51 56 62
51 56 63
53 59 66
51 56 64
48 53 60
49 54 61
52 57 65
52 57 65
52 57 64
49 54 61
51 56 63
51 57 65
52 57 64
50 56 63
48 53 59
52 57 65
52 58 65
49 54 61
50 55 62
55 60 67
51 57 65
49 54 61
51 56 64
52 57 65
51 56 63
48 54 61
52 57 64
49 54 61
50 55 62
53 58 66
51 56 63
48 53 60
51 56 64
53 58 66
55 60 67
49 54 61
49 55 62
51 56 64
51 56 63
52 57 65
51 56 63
51 56 63
51 56 64
52 57 65
51 57 64
53 58 65
53 58 66
49 54 61
51 56 64
52 57 64
54 59 66
50 55 62
53 59 66
49 54 61
49 55 62
52 57 64
50 55 62
51 56 63
52 57 64
48 53 60
50 55 62
49 54 61
49 55 62
51 57 64
52 57 65
52 58 66
51 56 63
51 56 63
49 54 61
51 56 63
50 55 62
48 53 60
52 57 65
53 58 66
53 58 65
52 57 64
48 53 59
49 54 61
51 56 63
48 53 60
52 57 65
53 58 65
53 59 66
53 59 66
52 57 65
51 56 64
48 54 61
52 58 65
51 56 64
50 56 63
52 57 65
45 50 56
53 59 66
53 59 67
143 153 167
220 235 255
220 235 255
220 235 255
220 235 255
220 235 255
220 235 255
220 235 255
220 235 255
220 235 255
220 235 255
220 235 255
220 235 255
220 235 255
220 235 255
220 235 255
220 235 255
220 235 255
220 235 255
220 235 255
220 235 255
220 235 255
220 235 255
220 235 255
220 235 255
220 235 255
220 235 255
220 235 255
220 235 255
220 235 255
220 235 255
220 235 255
220 235 255
220 235 255
220 235 255
220 235 255
220 235 255
220 235 255
220 235 255
220 235 255
220 235 255
220 235 255
220 235 255
220 235 255
220 235 255
220 235 255
220 235 255
220 235 255
220 235 255
220 235 255
220 235 255
220 235 255
220 235 255
220 235 255
220 235 255
220 235 255
220 235 255
220 235 255
220 235 255
220 235 255
220 235 255
220 235 255
220 235 255
220 235 255
220 235 255
220 235 255
220 235 255
220 235 255
220 235 255
220 235 255
220 235 255
220 235 255
220 235 255
220 235 255
220 235 255
220 235 255
220 235 255
220 235 255
220 235 255
220 235 255
220 235 255
220 235 255
220 235 255
221 235 255
220 235 255
221 235 255
221 235 255
220 235 255
221 235 255
221 235 255
221 235 255
221 235 255
221 235 255
221 235 255
221 235 255
221 235 255
221 235 255
221 235 255
221 235 255
221 235 255
221 235 255
221 235 255
221 235 255
221 235 255
221 235 255
221 235 255
221 235 255
221 235 255
221 235 255
221 235 255
221 235 255
221 235 255
221 235 255
221 235 255
221 235 255
221 235 255
221 235 255
221 235 255
221 235 255
221 235 255
221 235 255
221 235 255
221 235 255
221 235 255
221 235 255
221 235 255
221 235 255
221 235 255
221 235 255
221 235 255
221 235 255
221 235 255
221 235 255
221 235 255
221 235 255
221 235 255
221 235 255
221 235 255
221 235 255
221 235 255
221 235 255
221 235 255
221 235 255
221 235 255
221 235 255
221 235 255
221 235 255
221 235 255
221 235 255
221 235 255
221 235 255
221 235 255
221 235 255
221 235 255
221 235 255
221 235 255
221 235 255
221 235 255
221 235 255
221 235 255
221 235 255
221 235 255
221 235 255
221 235 255
221 235 255
221 235 255
221 235 255
221 235 255
221 235 255
221 235 255
221 235 255
221 235 255
221 235 255
221 235 255
221 235 255
221 235 255
221 235 255
221 235 255
221 235 255
221 235 255
221 235 255
221 235 255
221 235 255
221 235 255
221 235 255
221 235 255
221 235 255
221 235 255
221 235 255
221 235 255
221 235 255
221 235 255
221 235 255
221 235 255
221 235 255
221 235 255
221 235 255
221 235 255
221 235 255
221 235 255
221 235 255
221 235 255
221 235 255
221 235 255
221 235 255
221 235 255
221 235 255
221 235 255
221 235 255
221 235 255
221 235 255
221 235 255
221 235 255
221 235 255
221 235 255
221 235 255
221 235 255
221 235 255
221 235 255
221 235 255
221 235 255
221 235 255
221 235 255
221 235 255
221 235 255
221 235 255
221 235 255
221 235 255
221 235 255
221 235 255
221 235 255
221 235 255
221 235 255
221 235 255
221 235 255
221 235 255
221 235 255
221 235 255
221 235 255
221 235 255
221 235 255
221 235 255
221 235 255
221 235 255
221 235 255
221 235 255
221 235 255
221 235 255
221 235 255
221 235 255
221 235 255
221 235 255
221 235 255
221 235 255
221 235 255
221 235 255
221 235 255
221 235 255
221 235 255
221 235 255
221 235 255
221 235 255
221 235 255
221 235 255
221 235 255
220 235 255
221 235 255
220 235 255
220 235 255
220 235 255
220 235 255
145 155 169
48 53 60
49 54 61
54 59 67
48 53 60
53 58 65
50 56 63
51 57 64
52 57 64
52 57 63
52 58 65
49 54 61
46 52 58
49 54 61
50 55 62
55 60 68
53 58 65
51 55 62
50 55 62
51 56 63
51 56 64
48 53 59
52 58 65
51 56 63
50 55 62
52 58 65
49 54 61
53 58 66
52 57 65
52 58 65
49 54 61
53 59 66
51 56 63
51 56 63
49 54 61
53 58 66
52 58 65
53 58 65
51 57 64
51 56 63
48 53 59
52 58 66
52 58 66
51 56 63
49 53 60
54 60 67
53 58 66
49 54 60
49 54 60
51 56 63
49 54 61
51 56 63
50 55 62
52 58 65
51 57 64
51 56 63
50 56 63
49 54 60
51 56 64
52 58 65
51 56 63
46 51 58
49 54 60
46 51 58
48 53 60
49 54 61
50 55 62
50 55 62
50 55 62
48 53 60
51 56 63
53 58 65
49 54 61
51 56 63
50 56 63
48 53 60
49 54 61
51 56 63
51 57 64
49 54 61
51 56 63
51 57 64
49 55 62
52 57 64
50 55 61
55 60 67
50 55 62
52 58 65
50 55 63
53 59 66
49 54 61
50 56 63
48 54 60
50 56 62
50 55 62
51 56 63
48 53 60
51 56 64
51 56 63
51 57 64
51 57 65
53 59 67
50 55 62
53 58 66
51 56 63
52 57 64
54 60 67
53 58 66
56 61 69
50 55 61
48 53 59
54 60 68
52 57 64
50 56 63
52 57 64
49 54 61
49 55 62
46 50 57
54 59 66
51 56 62
53 58 65
52 58 65
51 56 63
49 54 60
51 56 63
54 60 67
47 52 59
53 58 65
51 57 64
143 153 167
220 235 255
220 235 255
221 235 255
220 235 255
220 235 255
221 235 255
220 235 255
221 235 255
221 235 255
221 235 255
221 235 255
221 235 255
221 235 255
221 235 255
221 235 255
221 235 255
221 235 255
221 235 255
221 235 255
221 235 255
221 235 255
221 235 255
221 235 255
221 235 255
221 235 255
221 235 255
221 235 255
221 235 255
221 235 255
221 235 255
221 235 255
221 235 255
221 235 255
221 235 255
221 235 255
221 235 255
221 235 255
221 235 255
221 235 255
221 235 255
221 235 255
221 235 255
221 235 255
221 235 255
221 235 255
221 235 255
221 235 255
221 235 255
221 235 255
221 235 255
221 235 255
221 235 255
221 235 255
221 235 255
221 235 255
221 235 255
221 235 255
221 235 255
221 235 255
221 235 255
221 235 255
221 235 255
221 235 255
221 235 255
221 235 255
221 235 255
221 235 255
221 235 255
221 235 255
221 235 255
221 235 255
221 235 255
221 235 255
221 235 255
221 235 255
221 235 255
221 235 255
221 235 255
221 235 255
221 235 255
221 235 255
221 235 255
221 235 255
221 235 255
221 235 255
221 235 255
221 235 255
221 235 255
221 235 255
221 235 255
221 235 255
221 235 255
221 235 255
221 235 255
221 235 255
221 235 255
221 235 255
221 235 255
221 235 255
221 235 255
221 235 255
221 235 255
221 235 255
221 235 255
221 235 255
221 235 255
221 235 255
221 235 255
221 235 255
221 235 255
221 235 255
221 235 255
221 235 255
221 235 255
221 235 255
221 235 255
221 235 255
221 235 255
221 235 255
221 235 255
221 235 255
221 235 255
221 235 255
221 235 255
221 235 255
221 235 255
221 235 255
221 235 255
221 235 255
221 235 255
221 235 255
221 235 255
221 235 255
221 235 255
221 235 255
221 235 255
221 235 255
221 235 255
221 235 255
221 235 255
221 235 255
221 235 255
221 235 255
221 235 255
221 235 255
221 235 255
221 235 255
221 235 255
221 235 255
221 235 255
221 235 255
221 235 255
221 235 255
221 235 255
221 235 255
221 235 255
221 235 255
221 235 255
221 235 255
221 235 255
221 235 255
221 235 255
221 235 255
221 235 255
221 235 255
221 235 255
221 235 255
221 235 255
221 235 255
221 235 255
221 235 255
221 235 255
221 235 255
221 235 255
221 235 255
221 235 255
221 235 255
221 235 255
221 235 255
221 235 255
221 235 255
221 235 255
221 235 255
221 235 255
221 235 255
221 235 255
221 235 255
221 235 255
221 235 255
221 235 255
221 235 255
221 235 255
221 235 255
221 235 255
221 235 255
221 235 255
221 235 255
221 235 255
221 235 255
221 235 255
221 235 255
221 235 255
221 235 255
221 235 255
221 235 255
221 235 255
221 235 255
221 235 255
221 235 255
221 235 255
221 235 255
221 235 255
221 235 255
221 235 255
221 235 255
221 235 255
221 235 255
221 235 255
221 235 255
221 235 255
221 235 255
221 235 255
221 235 255
221 235 255
221 235 255
221 235 255
221 235 255
221 235 255
221 235 255
221 235 255
221 235 255
221 235 255
221 235 255
221 235 255
221 235 255
221 235 255
221 235 255
221 235 255
221 235 255
221 235 255
221 235 255
221 235 255
221 235 255
221 235 255
221 235 255
221 235 255
221 235 255
221 235 255
221 235 255
221 235 255
221 235 255
221 235 255
221 235 255
221 235 255
221 235 255
221 235 255
221 235 255
221 235 255
221 235 255
221 235 255
221 235 255
221 235 255
221 235 255
221 235 255
221 235 255
221 235 255
221 235 255
221 235 255
221 235 255
221 235 255
147 157 172
51 57 64
52 58 65
48 53 60
49 54 61
51 56 64
51 56 64
52 57 64
49 54 61
47 52 59
52 57 65
52 57 64
51 56 63
53 59 66
51 56 64
49 54 61
49 55 61
52 58 65
51 56 64
49 55 61
50 55 62
55 60 67
53 58 66
48 53 59
51 56 63
53 58 66
53 59 66
51 56 62
51 56 63
51 56 63
48 53 60
52 57 64
51 57 64
52 57 65
52 57 64
49 54 60
51 56 64
50 56 63
51 56 63
52 57 64
50 55 62
46 51 58
49 54 61
55 60 67
53 58 65
48 53 59
48 53 60
51 56 63
48 52 59
50 55 62
50 55 63
50 56 63
51 56 64
51 56 63
52 57 64
50 55 62
47 51 58
49 54 61
48 53 59
46 50 56
50 55 62
46 51 57
50 55 62
52 57 65
47 53 59
47 53 59
51 56 63
51 56 63
51 56 63
49 55 61
52 58 66
51 57 64
51 56 63
50 55 62
48 53 60
52 57 64
51 56 62
50 55 62
52 57 64
53 59 66
51 56 63
50 55 62
48 52 59
52 57 64
53 58 65
50 55 62
50 55 62
53 58 65
52 57 65
50 55 62
51 57 64
54 60 68
51 56 63
54 59 66
50 55 62
50 55 62
52 58 65
51 56 64
52 57 65
52 57 65
46 51 57
51 56 63
52 57 64
54 59 66
52 57 64
50 55 62
54 60 67
52 58 65
49 54 60
51 56 63
52 57 64
55 60 68
51 57 64
50 54 61
51 57 64
53 58 66
52 57 65
52 57 64
52 58 65
51 56 63
47 53 59
51 57 64
54 60 67
50 55 62
51 57 64
49 54 61
51 56 63
50 55 61
53 58 65
143 153 167
221 235 255
221 235 255
221 235 255
221 235 255
221 235 255
221 235 255
221 235 255
221 235 255
221 235 255
221 235 255
221 235 255
221 235 255
221 235 255
221 235 255
221 235 255
221 235 255
221 235 255
221 235 255
221 235 255
221 235 255
221 235 255
221 235 255
221 235 255
221 235 255
221 235 255
221 235 255
221 235 255
221 235 255
221 235 255
221 235 255
221 235 255
221 235 255
221 235 255
221 235 255
221 235 255
221 235 255
221 235 255
221 235 255
221 235 255
221 235 255
221 235 255
221 235 255
221 235 255
221 235 255
221 235 255
221 235 255
221 235 255
221 235 255
221 235 255
221 235 255
221 235 255
221 235 255
221 235 255
221 235 255
221 235 255
221 235 255
221 235 255
221 235 255
221 235 255
221 235 255
221 235 255
221 235 255
221 235 255
221 235 255
221 235 255
221 235 255
221 235 255
221 235 255
221 235 255
221 235 255
221 235 255
221 235 255
221 235 255
221 235 255
221 235 255
221 235 255
221 235 255
221 235 255
221 235 255
221 235 255
221 235 255
221 235 255
221 235 255
221 235 255
221 235 255
221 235 255
221 235 255
221 235 255
221 235 255
221 235 255
221 235 255
221 235 255
221 235 255
221 235 255
221 235 255
221 235 255
221 235 255
221 235 255
221 235 255
221 235 255
221 235 255
221 235 255
221 235 255
221 235 255
221 235 255
221 235 255
221 235 255
221 235 255
221 235 255
221 235 255
221 235 255
221 235 255
221 235 255
221 235 255
221 235 255
221 235 255
221 235 255
221 235 255
221 235 255
221 235 255
221 235 255
221 235 255
221 235 255
221 235 255
221 235 255
221 235 255
221 235 255
221 235 255
221 235 255
221 235 255
221 235 255
221 235 255
221 235 255
221 235 255
221 235 255
221 235 255
221 235 255
221 235 255
221 235 255
221 235 255
221 235 255
221 235 255
221 235 255
221 235 255
221 235 255
221 235 255
221 235 255
221 235 255
221 235 255
221 235 255
221 235 255
221 235 255
221 235 255
221 235 255
221 235 255
221 235 255
221 235 255
221 235 255
221 235 255
221 235 255
221 235 255
221 235 255
221 235 255
221 235 255
221 235 255
221 235 255
221 235 255
221 235 255
221 235 255
221 235 255
221 235 255
221 235 255
221 235 255
221 235 255
221 235 255
221 235 255
221 235 255
221 235 255
221 235 255
221 235 255
221 235 255
221 235 255
221 235 255
221 235 255
221 235 255
221 235 255
221 235 255
221 235 255
221 235 255
221 235 255
221 235 255
221 235 255
221 235 255
221 235 255
221 235 255
221 235 255
221 235 255
221 235 255
221 235 255
221 235 255
221 235 255
221 235 255
221 235 255
221 235 255
221 235 255
221 235 255
221 235 255
221 235 255
221 235 255
221 235 255
221 235 255
221 235 255
221 235 255
221 235 255
221 235 255
221 235 255
221 235 255
221 235 255
221 235 255
221 235 255
221 235 255
221 235 255
221 235 255
221 235 255
221 235 255
221 235 255
221 235 255
221 235 255
221 235 255
221 235 255
221 235 255
221 235 255
221 235 255
221 235 255
221 235 255
221 235 255
221 235 255
221 235 255
221 235 255
221 235 255
221 235 255
221 235 255
221 235 255
221 235 255
221 235 255
221 235 255
221 235 255
221 235 255
221 235 255
221 235 255
221 235 255
221 235 255
221 235 255
221 235 255
221 235 255
221 235 255
221 235 255
221 235 255
221 235 255
221 235 255
221 235 255
221 235 255
221 235 255
221 235 255
221 235 255
221 235 255
221 235 255
221 235 255
221 235 255
221 235 255
129 138 150
47 52 58
51 56 63
48 54 60
51 57 64
49 55 61
52 58 65
50 56 63
52 57 64
53 58 66
50 55 61
49 54 61
51 56 62
51 56 63
52 58 65
48 53 59
51 56 63
52 58 66
50 55 61
51 56 62
52 57 64
49 54 61
50 56 63
50 55 61
50 55 63
48 53 59
51 56 64
49 55 62
52 57 65
51 56 63
51 56 63
48 53 60
52 57 64
49 54 61
52 58 65
50 55 62
53 59 66
50 56 63
53 59 66
53 58 65
50 55 62
52 57 64
53 58 65
48 53 60
51 56 63
51 56 63
49 54 61
50 55 62
48 53 59
51 56 63
50 56 63
51 56 62
52 57 64
50 55 62
48 52 59
52 57 65
49 54 61
49 53 60
51 56 63
51 56 63
52 58 65
52 58 65
52 57 65
50 56 63
51 57 64
53 59 66
47 52 59
49 54 61
53 59 66
50 55 61
52 57 65
48 52 58
49 54 60
50 55 62
50 55 62
53 58 66
52 57 64
54 59 66
48 53 59
48 53 60
53 58 65
49 54 61
50 56 62
50 55 62
50 55 61
49 54 60
52 58 65
51 57 64
46 51 57
53 59 66
49 55 62
49 53 60
54 60 67
49 54 61
52 58 65
54 59 66
52 57 64
53 58 65
53 58 65
46 51 58
49 55 62
47 52 58
52 57 64
48 53 60
52 57 64
50 55 61
51 56 63
48 53 60
51 56 62
50 55 62
48 53 59
49 54 61
47 52 59
53 59 66
55 60 67
52 57 64
49 54 60
49 53 60
50 55 61
51 56 63
49 54 61
53 58 65
50 55 62
54 59 66
51 56 63
48 53 59
54 59 66
52 57 65
55 60 68
146 156 170
221 235 255
221 235 255
221 235 255
221 235 255
221 235 255
221 235 255
221 235 255
221 235 255
221 235 255
221 235 255
221 235 255
221 235 255
221 235 255
221 235 255
221 235 255
221 235 255
221 235 255
221 235 255
221 235 255
221 235 255
221 235 255
221 235 255
221 235 255
221 235 255
221 235 255
221 235 255
221 235 255
221 235 255
221 235 255
221 235 255
221 235 255
221 235 255
221 235 255
221 235 255
221 235 255
221 235 255
221 235 255
221 235 255
221 235 255
221 235 255
221 235 255
221 235 255
221 235 255
221 235 255
221 235 255
221 235 255
221 235 255
221 235 255
221 235 255
221 235 255
221 235 255
221 235 255
221 235 255
221 235 255
221 235 255
221 235 255
221 235 255
221 235 255
221 235 255
221 235 255
221 235 255
221 235 255
221 235 255
221 235 255
221 235 255
221 235 255
221 235 255
221 235 255
221 235 255
221 235 255
221 235 255
221 235 255
221 235 255
221 235 255
221 235 255
221 235 255
221 235 255
221 235 255
221 235 255
221 235 255
221 235 255
221 235 255
221 235 255
221 235 255
221 235 255
221 235 255
221 235 255
221 235 255
221 235 255
221 235 255
221 235 255
221 235 255
221 235 255
221 235 255
221 235 255
221 235 255
221 235 255
221 235 255
221 235 255
221 235 255
221 235 255
221 235 255
221 235 255
221 235 255
221 235 255
221 235 255
221 235 255
221 235 255
221 235 255
221 235 255
221 235 255
221 235 255
221 235 255
221 235 255
221 235 255
221 235 255
221 235 255
221 235 255
221 235 255
221 235 255
221 235 255
221 235 255
221 235 255
221 235 255
221 235 255
221 235 255
221 235 255
221 235 255
221 235 255
221 235 255
221 235 255
221 235 255
221 235 255
221 235 255
221 235 255
221 236 255
221 236 255
221 236 255
221 236 255
221 236 255
221 236 255
221 236 255
221 236 255
221 236 255
221 236 255
221 236 255
221 236 255
221 236 255
221 236 255
221 236 255
221 236 255
221 236 255
221 236 255
221 236 255
221 236 255
221 236 255
221 236 255
221 236 255
221 236 255
221 236 255
221 236 255
221 236 255
221 236 255
221 236 255
221 236 255
221 236 255
221 236 255
221 236 255
221 236 255
221 236 255
221 236 255
221 236 255
221 236 255
221 236 255
221 236 255
221 236 255
221 236 255
221 236 255
221 236 255
221 236 255
221 236 255
221 236 255
221 236 255
221 236 255
221 236 255
221 236 255
221 236 255
221 236 255
221 236 255
221 236 255
221 236 255
221 236 255
221 236 255
221 236 255
221 236 255
221 236 255
221 236 255
221 236 255
221 236 255
221 236 255
221 236 255
221 236 255
221 236 255
221 236 255
221 236 255
221 236 255
221 236 255
221 236 255
221 236 255
221 236 255
221 236 255
221 236 255
221 236 255
221 236 255
221 236 255
221 236 255
221 236 255
221 236 255
221 236 255
221 236 255
221 236 255
221 236 255
221 236 255
221 236 255
221 236 255
221 236 255
221 236 255
221 236 255
221 236 255
221 236 255
221 236 255
221 236 255
221 236 255
221 236 255
221 236 255
221 236 255
221 236 255
221 236 255
221 236 255
221 236 255
221 236 255
221 236 255
221 236 255
221 236 255
221 236 255
221 236 255
221 236 255
221 236 255
221 236 255
221 236 255
221 236 255
221 236 255
221 236 255
221 236 255
221 236 255
221 236 255
221 236 255
221 236 255
221 236 255
221 236 255
221 236 255
221 236 255
221 236 255
221 236 255
221 236 255
221 236 255
221 236 255
221 236 255
221 236 255
221 236 255
129 138 150
45 49 56
50 55 62
52 57 65
51 56 62
51 56 64
50 55 62
51 56 63
52 57 64
49 54 61
48 53 60
49 54 61
47 52 59
47 52 59
54 59 67
48 53 60
49 54 61
47 52 58
51 56 62
52 57 64
46 51 57
52 57 65
51 57 64
48 53 60
51 56 63
50 55 62
50 55 62
50 56 63
52 58 65
46 51 57
54 59 67
50 55 62
51 56 62
49 54 61
52 57 64
51 56 63
53 59 66
47 52 58
54 60 67
47 52 59
48 53 59
54 59 67
54 60 67
53 59 66
51 56 63
50 55 62
53 58 65
49 54 61
46 51 58
49 54 61
48 54 60
50 55 62
49 55 61
50 55 63
52 58 65
51 56 63
52 57 65
50 55 62
51 56 63
51 56 63
52 57 65
53 58 65
48 53 60
50 55 61
50 55 62
48 53 60
52 57 64
50 55 62
51 56 63
49 54 60
52 57 64
48 53 59
51 56 63
49 55 62
52 58 65
53 59 66
47 52 59
51 56 63
52 57 65
48 53 59
52 58 65
51 56 63
51 56 62
49 54 61
50 55 62
46 51 57
52 58 65
53 58 65
52 57 63
51 56 63
50 56 63
50 55 61
50 55 62
48 53 59
49 54 61
51 56 63
53 58 65
49 54 60
50 55 62
47 51 58
49 54 60
51 56 63
52 57 64
48 53 60
51 56 63
51 56 63
50 55 62
51 56 63
48 52 59
48 53 60
52 57 64
51 56 63
50 55 61
48 53 59
53 59 66
50 56 63
48 53 60
47 52 58
49 54 61
53 58 65
53 58 66
49 54 61
51 57 64
49 54 61
52 57 65
54 59 67
51 56 63
49 54 60
48 53 59
143 153 166
221 236 255
221 236 255
221 236 255
221 236 255
221 236 255
221 236 255
221 236 255
221 236 255
221 236 255
221 236 255
221 236 255
221 236 255
221 236 255
221 236 255
221 236 255
221 236 255
221 236 255
221 236 255
221 236 255
221 236 255
221 236 255
221 236 255
221 236 255
221 236 255
221 236 255
221 236 255
221 236 255
221 236 255
221 236 255
221 236 255
221 236 255
221 236 255
221 236 255
221 236 255
221 236 255
221 236 255
221 236 255
221 236 255
221 236 255
221 236 255
221 236 255
221 236 255
221 236 255
221 236 255
221 236 255
221 236 255
221 236 255
221 236 255
221 236 255
221 236 255
221 236 255
221 236 255
221 236 255
221 236 255
221 236 255
221 236 255
221 236 255
221 236 255
221 236 255
221 236 255
221 236 255
221 236 255
221 236 255
221 236 255
221 236 255
221 236 255
221 236 255
221 236 255
221 236 255
221 236 255
221 236 255
221 236 255
221 236 255
221 236 255
221 236 255
221 236 255
221 236 255
221 236 255
221 236 255
221 236 255
221 236 255
221 236 255
221 236 255
221 236 255
221 236 255
221 236 255
221 236 255
221 236 255
221 236 255
221 236 255
221 236 255
221 236 255
221 236 255
221 236 255
221 236 255
221 236 255
221 236 255
221 236 255
221 236 255
221 236 255
221 236 255
221 236 255
221 236 255
221 236 255
221 236 255
221 236 255
221 236 255
221 236 255
221 236 255
221 236 255
221 236 255
221 236 255
221 236 255
221 236 255
221 236 255
221 236 255
221 236 255
221 236 255
221 236 255
221 236 255
221 236 255
221 236 255
221 236 255
221 236 255
221 236 255
221 236 255
221 236 255
221 236 255
221 236 255
221 236 255
221 236 255
221 236 255
221 236 255
221 236 255
221 236 255
221 236 255
221 236 255
221 236 255
221 236 255
221 236 255
221 236 255
221 236 255
221 236 255
221 236 255
221 236 255
221 236 255
221 236 255
221 236 255
221 236 255
221 236 255
221 236 255
221 236 255
221 236 255
221 236 255
221 236 255
221 236 255
221 236 255
221 236 255
221 236 255
221 236 255
221 236 255
221 236 255
221 236 255
221 236 255
221 236 255
221 236 255
221 236 255
221 236 255
221 236 255
221 236 255
221 236 255
221 236 255
221 236 255
221 236 255
221 236 255
221 236 255
221 236 255
221 236 255
221 236 255
221 236 255
221 236 255
221 236 255
222 236 255
221 236 255
221 236 255
222 236 255
221 236 255
221 236 255
222 236 255
222 236 255
222 236 255
222 236 255
222 236 255
222 236 255
222 236 255
222 236 255
222 236 255
222 236 255
222 236 255
222 236 255
222 236 255
222 236 255
222 236 255
222 236 255
222 236 255
222 236 255
222 236 255
222 236 255
222 236 255
222 236 255
222 236 255
222 236 255
222 236 255
222 236 255
222 236 255
222 236 255
222 236 255
222 236 255
222 236 255
222 236 255
222 236 255
222 236 255
222 236 255
222 236 255
222 236 255
222 236 255
222 236 255
222 236 255
222 236 255
222 236 255
222 236 255
222 236 255
222 236 255
222 236 255
222 236 255
222 236 255
222 236 255
222 236 255
222 236 255
222 236 255
222 236 255
222 236 255
222 236 255
222 236 255
222 236 255
222 236 255
222 236 255
222 236 255
222 236 255
222 236 255
222 236 255
222 236 255
222 236 255
222 236 255
222 236 255
222 236 255
222 236 255
222 236 255
222 236 255
222 236 255
222 236 255
222 236 255
222 236 255
222 236 255
222 236 255
222 236 255
222 236 255
222 236 255
222 236 255
222 236 255
139 148 161
50 55 62
51 56 62
51 56 63
55 60 68
51 56 63
49 55 62
49 54 61
48 53 60
51 56 64
49 54 60
49 54 60
49 54 61
52 57 63
49 54 61
48 53 60
51 56 62
50 55 62
53 59 66
50 56 63
51 56 64
53 59 66
54 60 67
53 59 66
49 55 62
51 56 63
56 61 69
52 57 64
53 58 66
50 55 62
48 53 60
52 57 64
48 53 60
49 54 61
51 56 63
54 59 66
52 57 64
47 52 58
49 53 59
50 55 61
51 56 63
53 59 66
49 54 61
50 55 62
48 53 59
48 53 60
52 57 65
51 57 64
50 56 63
48 53 60
51 56 63
49 54 61
53 59 66
50 55 62
47 52 59
47 52 58
52 58 65
49 54 61
51 56 63
49 54 61
53 59 66
51 56 64
50 55 61
49 54 60
52 57 64
53 58 65
50 55 61
45 51 57
50 56 63
52 57 64
49 54 61
50 55 62
46 51 57
50 56 63
48 53 60
52 57 65
50 55 62
49 54 61
50 56 63
53 58 65
50 55 62
50 55 62
51 56 63
49 54 61
50 56 63
51 56 63
49 54 61
52 58 65
52 57 64
48 54 60
51 56 63
51 56 63
52 58 65
52 57 64
51 56 63
47 52 59
52 57 64
51 56 63
49 53 60
55 60 67
49 54 60
49 54 60
47 52 58
50 55 61
49 54 60
50 56 63
51 57 64
49 54 60
53 59 66
48 53 59
56 62 70
46 51 57
47 52 59
51 56 63
52 57 64
49 54 60
50 55 62
48 53 59
51 56 63
47 51 57
53 58 65
49 54 61
50 56 63
49 54 61
49 54 61
47 52 59
50 55 63
50 55 62
50 55 62
138 147 160
222 236 255
222 236 255
222 236 255
222 236 255
222 236 255
222 236 255
222 236 255
222 236 255
222 236 255
222 236 255
222 236 255
222 236 255
222 236 255
222 236 255
222 236 255
222 236 255
222 236 255
222 236 255
222 236 255
222 236 255
222 236 255
222 236 255
222 236 255
222 236 255
222 236 255
222 236 255
222 236 255
222 236 255
222 236 255
222 236 255
222 236 255
222 236 255
222 236 255
222 236 255
222 236 255
222 236 255
222 236 255
222 236 255
222 236 255
222 236 255
222 236 255
222 236 255
222 236 255
222 236 255
222 236 255
222 236 255
222 236 255
222 236 255
222 236 255
222 236 255
222 236 255
222 236 255
222 236 255
222 236 255
222 236 255
222 236 255
222 236 255
222 236 255
222 236 255
222 236 255
222 236 255
222 236 255
222 236 255
222 236 255
222 236 255
222 236 255
222 236 255
222 236 255
222 236 255
222 236 255
222 236 255
222 236 255
222 236 255
222 236 255
222 236 255
222 236 255
222 236 255
222 236 255
222 236 255
222 236 255
222 236 255
222 236 255
221 236 255
221 236 255
222 236 255
221 236 255
221 236 255
221 236 255
221 236 255
221 236 255
221 236 255
221 236 255
221 236 255
221 236 255
221 236 255
221 236 255
221 236 255
221 236 255
221 236 255
221 236 255
221 236 255
221 236 255
221 236 255
221 236 255
221 236 255
221 236 255
221 236 255
221 236 255
221 236 255
221 236 255
221 236 255
221 236 255
221 236 255
221 236 255
221 236 255
221 236 255
221 236 255
221 236 255
221 236 255
221 236 255
221 236 255
221 236 255
221 236 255
221 236 255
221 236 255
221 236 255
221 236 255
221 236 255
221 236 255
221 236 255
221 236 255
221 236 255
221 236 255
221 236 255
221 236 255
222 236 255
222 236 255
222 236 255
222 236 255
222 236 255
222 236 255
222 236 255
222 236 255
222 236 255
222 236 255
222 236 255
222 236 255
222 236 255
222 236 255
222 236 255
222 236 255
222 236 255
222 236 255
222 236 255
222 236 255
222 236 255
222 236 255
222 236 255
222 236 255
222 236 255
222 236 255
222 236 255
222 236 255
222 236 255
222 236 255
222 236 255
222 236 255
222 236 255
222 236 255
222 236 255
222 236 255
222 236 255
222 236 255
222 236 255
222 236 255
222 236 255
222 236 255
222 236 255
222 236 255
222 236 255
222 236 255
222 236 255
222 236 255
222 236 255
222 236 255
222 236 255
222 236 255
222 236 255
222 236 255
222 236 255
222 236 255
222 236 255
222 236 255
222 236 255
222 236 255
222 236 255
222 236 255
222 236 255
222 236 255
222 236 255
222 236 255
222 236 255
222 236 255
222 236 255
222 236 255
222 236 255
222 236 255
222 236 255
222 236 255
222 236 255
222 236 255
222 236 255
222 236 255
222 236 255
222 236 255
222 236 255
222 236 255
222 236 255
222 236 255
222 236 255
222 236 255
222 236 255
222 236 255
222 236 255
222 236 255
222 236 255
222 236 255
222 236 255
222 236 255
222 236 255
222 236 255
222 236 255
222 236 255
222 236 255
222 236 255
222 236 255
222 236 255
222 236 255
222 236 255
222 236 255
222 236 255
222 236 255
222 236 255
222 236 255
222 236 255
222 236 255
222 236 255
222 236 255
222 236 255
222 236 255
222 236 255
222 236 255
222 236 255
222 236 255
222 236 255
222 236 255
222 236 255
222 236 255
222 236 255
222 236 255
222 236 255
222 236 255
222 236 255
222 236 255
222 236 255
222 236 255
222 236 255
222 236 255
222 236 255
222 236 255
159 169 184
53 59 66
50 55 61
47 51 58
49 54 61
48 53 59
47 52 58
48 53 60
48 53 60
50 55 62
51 56 63
52 57 64
51 56 63
51 57 64
52 57 65
45 50 56
52 57 64
52 57 64
44 49 55
52 57 64
49 54 61
49 54 61
50 55 62
50 55 62
50 55 62
49 54 60
48 53 59
51 56 63
49 54 61
49 54 61
51 56 63
48 53 60
43 47 54
53 58 66
47 52 59
50 55 62
53 58 65
53 58 66
51 56 63
47 52 58
50 55 62
48 53 59
52 58 64
53 58 66
48 53 59
50 55 62
46 51 58
47 52 58
51 55 62
51 56 63
51 56 63
54 59 66
48 53 60
46 51 57
53 58 65
49 54 60
47 52 59
53 58 65
51 57 64
52 58 65
52 57 64
49 54 61
52 57 65
48 52 58
50 55 61
51 56 64
50 55 62
46 51 57
51 56 62
50 55 61
53 58 66
48 53 60
50 55 62
50 55 62
50 55 61
52 57 65
52 57 64
52 57 64
49 54 60
47 52 58
50 55 62
50 56 63
53 58 65
51 56 63
46 51 57
49 54 61
48 53 60
47 52 58
48 53 59
47 52 58
51 56 63
51 56 63
50 55 62
48 53 60
52 57 64
51 56 63
45 49 55
54 59 66
51 56 64
48 53 60
48 53 60
51 56 64
49 53 60
50 55 62
52 57 64
50 55 61
52 57 64
50 55 62
51 56 63
53 59 66
49 54 60
55 60 68
49 54 60
48 53 60
48 53 59
50 55 61
49 54 61
49 54 61
53 58 66
50 55 62
50 55 62
50 55 61
49 54 61
46 50 57
50 55 62
51 56 63
50 55 62
51 56 63
49 54 61
158 169 183
222 236 255
222 236 255
222 236 255
222 236 255
222 236 255
222 236 255
222 236 255
222 236 255
222 236 255
222 236 255
222 236 255
222 236 255
222 236 255
222 236 255
222 236 255
222 236 255
222 236 255
222 236 255
222 236 255
222 236 255
222 236 255
222 236 255
222 236 255
222 236 255
222 236 255
222 236 255
222 236 255
222 236 255
222 236 255
222 236 255
222 236 255
222 236 255
222 236 255
222 236 255
222 236 255
222 236 255
222 236 255
222 236 255
222 236 255
222 236 255
222 236 255
222 236 255
222 236 255
222 236 255
222 236 255
222 236 255
222 236 255
222 236 255
222 236 255
222 236 255
222 236 255
222 236 255
222 236 255
222 236 255
222 236 255
222 236 255
222 236 255
222 236 255
222 236 255
222 236 255
222 236 255
222 236 255
222 236 255
222 236 255
222 236 255
222 236 255
222 236 255
222 236 255
222 236 255
222 236 255
222 236 255
222 236 255
222 236 255
222 236 255
222 236 255
222 236 255
222 236 255
222 236 255
222 236 255
222 236 255
222 236 255
222 236 255
222 236 255
222 236 255
222 236 255
222 236 255
222 236 255
222 236 255
222 236 255
222 236 255
222 236 255
222 236 255
222 236 255
222 236 255
222 236 255
222 236 255
222 236 255
222 236 255
222 236 255
222 236 255
222 236 255
222 236 255
222 236 255
222 236 255
222 236 255
222 236 255
222 236 255
222 236 255
222 236 255
222 236 255
222 236 255
222 236 255
222 236 255
222 236 255
222 236 255
222 236 255
222 236 255
222 236 255
222 236 255
222 236 255
222 236 255
222 236 255
222 236 255
222 236 255
222 236 255
222 236 255
222 236 255
222 236 255
222 236 255
222 236 255
222 236 255
222 236 255
222 236 255
222 236 255
222 236 255
222 236 255
222 236 255
222 236 255
222 236 255
222 236 255
222 236 255
222 236 255
222 236 255
222 236 255
222 236 255
222 236 255
222 236 255
222 236 255
222 236 255
222 236 255
222 236 255
222 236 255
222 236 255
222 236 255
222 236 255
222 236 255
222 236 255
222 236 255
222 236 255
222 236 255
222 236 255
222 236 255
222 236 255
222 236 255
222 236 255
222 236 255
222 236 255
222 236 255
222 236 255
222 236 255
222 236 255
222 236 255
222 236 255
222 236 255
222 236 255
222 236 255
222 236 255
222 236 255
222 236 255
222 236 255
222 236 255
222 236 255
222 236 255
222 236 255
222 236 255
222 236 255
222 236 255
222 236 255
222 236 255
222 236 255
222 236 255
222 236 255
222 236 255
222 236 255
222 236 255
222 236 255
222 236 255
222 236 255
222 236 255
222 236 255
222 236 255
222 236 255
222 236 255
222 236 255
222 236 255
222 236 255
222 236 255
222 236 255
222 236 255
222 236 255
222 236 255
222 236 255
222 236 255
222 236 255
222 236 255
222 236 255
222 236 255
222 236 255
222 236 255
222 236 255
222 236 255
222 236 255
222 236 255
222 236 255
222 236 255
222 236 255
222 236 255
222 236 255
222 236 255
222 236 255
222 236 255
222 236 255
222 236 255
222 236 255
222 236 255
222 236 255
222 236 255
222 236 255
222 236 255
222 236 255
222 236 255
222 236 255
222 236 255
222 236 255
222 236 255
222 236 255
222 236 255
222 236 255
222 236 255
222 236 255
222 236 255
222 236 255
222 236 255
222 236 255
222 236 255
222 236 255
222 236 255
222 236 255
222 236 255
222 236 255
222 236 255
222 236 255
222 236 255
222 236 255
222 236 255
222 236 255
222 236 255
222 236 255
222 236 255
222 236 255
144 153 166
47 52 59
52 57 64
48 53 60
46 51 58
49 55 62
47 53 59
51 56 62
52 57 64
49 54 60
51 56 63
50 55 61
52 57 63
50 55 62
51 56 63
51 57 64
53 58 65
46 51 58
50 55 62
49 54 60
51 57 64
50 55 61
50 55 62
54 60 66
48 53 60
48 53 60
52 57 65
48 53 59
48 54 60
48 53 60
49 53 60
50 55 63
51 57 64
51 56 63
52 57 65
46 50 56
47 51 58
50 55 62
53 59 66
48 53 60
48 53 59
45 50 56
49 54 61
50 55 62
50 55 62
52 58 64
51 56 63
50 55 62
50 54 61
51 56 64
47 52 58
51 56 63
50 55 62
48 52 59
50 55 61
49 53 60
46 51 58
55 60 67
47 52 58
50 55 62
48 53 59
51 56 62
51 56 63
52 57 64
50 55 62
50 55 62
51 56 63
48 53 59
52 57 64
49 54 61
54 59 66
47 52 59
52 57 65
53 58 65
48 53 59
54 60 67
53 58 65
48 53 59
51 56 63
49 54 61
45 49 56
49 54 61
49 54 61
49 54 61
51 57 64
51 56 63
47 52 58
52 57 65
51 56 63
50 55 61
49 53 60
50 55 62
53 58 65
50 55 62
50 55 61
49 54 61
49 54 61
50 55 62
51 56 63
50 55 62
48 53 60
49 54 60
49 54 61
47 51 57
48 53 60
47 52 58
47 52 58
52 57 63
50 55 62
49 54 60
50 55 62
49 54 61
50 55 62
51 56 63
51 56 63
48 53 60
50 55 62
51 56 63
50 55 62
47 52 58
52 57 65
53 59 65
49 54 60
47 52 58
49 54 61
49 54 61
52 57 64
50 55 62
50 55 62
149 159 172
222 236 255
222 236 255
222 236 255
222 236 255
222 236 255
222 236 255
222 236 255
222 236 255
222 236 255
222 236 255
222 236 255
222 236 255
222 236 255
222 236 255
222 236 255
222 236 255
222 236 255
222 236 255
222 236 255
222 236 255
222 236 255
222 236 255
222 236 255
222 236 255
222 236 255
222 236 255
222 236 255
222 236 255
222 236 255
222 236 255
222 236 255
222 236 255
222 236 255
222 236 255
222 236 255
222 236 255
222 236 255
222 236 255
222 236 255
222 236 255
222 236 255
222 236 255
222 236 255
222 236 255
222 236 255
222 236 255
222 236 255
222 236 255
222 236 255
222 236 255
222 236 255
222 236 255
222 236 255
222 236 255
222 236 255
222 236 255
222 236 255
222 236 255
222 236 255
222 236 255
222 236 255
222 236 255
222 236 255
222 236 255
222 236 255
222 236 255
222 236 255
222 236 255
222 236 255
222 236 255
222 236 255
222 236 255
222 236 255
222 236 255
222 236 255
222 236 255
222 236 255
222 236 255
222 236 255
222 236 255
222 236 255
222 236 255
222 236 255
222 236 255
222 236 255
222 236 255
222 236 255
222 236 255
222 236 255
222 236 255
222 236 255
222 236 255
222 236 255
222 236 255
222 236 255
222 236 255
222 236 255
222 236 255
222 236 255
222 236 255
222 236 255
222 236 255
222 236 255
222 236 255
222 236 255
222 236 255
222 236 255
222 236 255
222 236 255
222 236 255
222 236 255
222 236 255
222 236 255
222 236 255
222 236 255
222 236 255
222 236 255
222 236 255
222 236 255
222 236 255
222 236 255
222 236 255
222 236 255
222 236 255
222 236 255
222 236 255
222 236 255
222 236 255
222 236 255
222 236 255
222 236 255
222 236 255
222 236 255
222 236 255
222 236 255
222 236 255
222 236 255
222 236 255
222 236 255
222 236 255
222 236 255
222 236 255
222 236 255
222 236 255
222 236 255
222 236 255
222 236 255
222 236 255
222 236 255
222 236 255
222 236 255
222 236 255
222 236 255
222 236 255
222 236 255
222 236 255
222 236 255
222 236 255
222 236 255
222 236 255
222 236 255
222 236 255
222 236 255
222 236 255
222 236 255
222 236 255
222 236 255
222 236 255
222 236 255
222 236 255
222 236 255
222 236 255
222 236 255
222 236 255
222 236 255
222 236 255
222 236 255
222 236 255
222 236 255
222 236 255
222 236 255
222 236 255
222 236 255
222 236 255
222 236 255
222 236 255
222 236 255
222 236 255
222 236 255
222 236 255
222 236 255
222 236 255
222 236 255
222 236 255
222 236 255
222 236 255
222 236 255
222 236 255
222 236 255
222 236 255
222 236 255
222 236 255
222 236 255
222 236 255
222 236 255
222 236 255
222 236 255
222 236 255
222 236 255
222 236 255
222 236 255
222 236 255
222 236 255
222 236 255
222 236 255
222 236 255
222 236 255
222 236 255
222 236 255
222 236 255
222 236 255
222 236 255
222 236 255
222 236 255
222 236 255
222 236 255
222 236 255
222 236 255
222 236 255
222 236 255
222 236 255
222 236 255
222 236 255
222 236 255
222 236 255
222 236 255
222 236 255
222 236 255
222 236 255
222 236 255
222 236 255
222 236 255
222 236 255
222 236 255
222 236 255
222 236 255
222 236 255
222 236 255
222 236 255
222 236 255
222 236 255
222 236 255
222 236 255
222 236 255
222 236 255
222 236 255
222 236 255
222 236 255
222 236 255
222 236 255
222 236 255
222 236 255
222 236 255
222 236 255
222 236 255
222 236 255
222 236 255
222 236 255
222 236 255
222 236 255
163 173 188
49 54 61
49 55 61
49 53 60
51 56 63
48 53 59
50 55 61
50 55 62
50 55 62
50 55 62
50 55 61
47 52 58
49 54 60
48 53 60
49 53 60
46 51 57
49 54 61
48 53 59
45 50 56
52 57 64
50 56 62
48 53 60
46 52 58
49 54 61
52 57 64
51 56 63
53 59 66
50 55 62
52 58 65
49 54 61
49 54 61
47 51 58
45 50 57
50 55 62
49 55 62
51 57 64
53 58 66
51 56 63
50 55 62
49 53 60
52 58 65
45 50 57
53 59 66
51 56 63
52 57 65
48 53 60
50 55 61
52 57 64
50 55 62
51 56 63
51 56 62
50 55 61
51 57 63
46 51 58
48 52 59
49 54 61
51 57 64
50 55 62
50 55 62
48 53 60
49 54 61
51 56 63
50 55 62
51 56 64
52 57 64
51 56 64
48 53 59
46 51 58
52 57 65
46 51 58
49 54 61
51 57 64
51 56 62
52 57 64
48 53 59
48 53 59
51 56 63
45 49 55
50 55 61
44 49 55
48 53 59
49 54 61
47 52 59
49 54 60
49 54 61
50 55 62
50 55 62
50 54 61
50 55 62
50 55 62
50 55 62
49 54 61
52 57 64
51 57 64
49 54 60
50 55 62
50 55 62
52 57 64
46 51 57
49 55 61
50 55 63
50 55 62
48 53 59
52 57 63
48 53 59
46 50 56
48 53 60
51 56 62
48 53 59
49 54 61
49 54 61
48 53 60
53 58 65
49 54 61
46 51 57
48 53 59
52 58 65
51 56 63
54 59 66
50 55 62
52 57 64
48 53 59
49 54 61
48 53 60
52 57 65
49 54 60
51 56 63
52 57 65
48 53 60
166 177 192
222 236 255
222 236 255
222 236 255
222 236 255
222 236 255
222 236 255
222 236 255
222 236 255
222 236 255
222 236 255
222 236 255
222 236 255
222 236 255
222 236 255
222 236 255
222 236 255
222 236 255
222 236 255
222 236 255
222 236 255
222 236 255
222 236 255
222 236 255
222 236 255
222 236 255
222 236 255
222 236 255
222 236 255
222 236 255
222 236 255
222 236 255
222 236 255
222 236 255
222 236 255
222 236 255
222 236 255
222 236 255
222 236 255
222 236 255
222 236 255
222 236 255
222 236 255
222 236 255
222 236 255
222 236 255
222 236 255
222 236 255
222 236 255
222 236 255
222 236 255
222 236 255
222 236 255
222 236 255
222 236 255
222 236 255
222 236 255
222 236 255
222 236 255
222 236 255
222 236 255
222 236 255
222 236 255
222 236 255
222 236 255
222 236 255
222 236 255
222 236 255
222 236 255
222 236 255
222 236 255
222 236 255
222 236 255
222 236 255
222 236 255
222 236 255
222 236 255
222 236 255
222 236 255
222 236 255
222 236 255
222 236 255
222 236 255
222 236 255
222 236 255
222 236 255
222 236 255
222 236 255
222 236 255
222 236 255
222 236 255
222 236 255
222 236 255
222 236 255
222 236 255
222 236 255
222 236 255
222 236 255
222 236 255
222 236 255
222 236 255
222 236 255
222 236 255
222 236 255
222 236 255
222 236 255
222 236 255
222 236 255
222 236 255
222 236 255
222 236 255
222 236 255
222 236 255
222 236 255
222 236 255
222 236 255
222 236 255
222 236 255
222 236 255
222 236 255
222 236 255
222 236 255
222 236 255
222 236 255
222 236 255
222 236 255
222 236 255
222 236 255
222 236 255
222 236 255
222 236 255
222 236 255
222 236 255
222 236 255
222 236 255
222 236 255
222 236 255
222 236 255
222 236 255
222 236 255
222 236 255
222 236 255
222 236 255
222 236 255
222 236 255
222 236 255
222 236 255
222 236 255
222 236 255
222 236 255
222 236 255
222 236 255
222 236 255
222 236 255
222 236 255
222 236 255
222 236 255
222 236 255
222 236 255
222 236 255
222 236 255
222 236 255
222 236 255
222 236 255
222 236 255
222 236 255
222 236 255
222 236 255
222 236 255
222 236 255
222 236 255
222 236 255
222 236 255
222 236 255
222 236 255
222 236 255
222 236 255
222 236 255
222 236 255
222 236 255
222 236 255
222 236 255
222 236 255
222 236 255
222 236 255
222 236 255
222 236 255
222 236 255
222 236 255
222 236 255
222 236 255
222 236 255
222 236 255
222 236 255
222 236 255
222 236 255
222 236 255
222 236 255
222 236 255
222 236 255
222 236 255
222 236 255
222 236 255
222 236 255
222 236 255
222 236 255
222 236 255
222 236 255
222 236 255
222 236 255
222 236 255
222 236 255
222 236 255
222 236 255
222 236 255
222 236 255
222 236 255
222 236 255
222 236 255
222 236 255
222 236 255
222 236 255
222 236 255
222 236 255
222 236 255
222 236 255
222 236 255
223 236 255
223 236 255
223 236 255
223 236 255
223 236 255
223 236 255
223 236 255
223 236 255
223 236 255
223 236 255
223 236 255
223 236 255
223 236 255
223 236 255
223 236 255
223 236 255
223 236 255
223 236 255
223 236 255
223 236 255
223 236 255
223 236 255
223 236 255
223 236 255
223 236 255
223 236 255
223 236 255
223 236 255
223 236 255
223 236 255
223 236 255
223 236 255
223 236 255
223 236 255
223 236 255
223 236 255
223 236 255
223 236 255
223 236 255
223 236 255
223 236 255
223 236 255
223 236 255
223 236 255
168 178 193
50 55 61
49 54 60
47 51 58
50 55 62
53 59 66
48 53 59
49 55 61
51 56 63
49 55 61
49 54 62
47 52 58
51 56 63
51 56 63
50 55 61
52 57 64
50 55 62
46 51 58
50 54 61
48 52 58
48 53 60
46 51 57
46 51 57
50 55 62
51 56 63
49 55 61
54 59 66
46 51 58
50 54 61
51 56 63
50 55 62
51 56 64
48 53 59
49 53 60
51 56 63
45 50 56
49 54 61
49 54 60
52 57 64
51 56 63
52 57 64
48 54 61
51 56 63
50 55 62
51 57 64
50 55 62
49 54 61
50 55 62
48 54 61
45 50 56
49 54 61
46 51 57
49 55 62
49 53 60
50 55 61
50 55 62
51 56 63
51 56 63
52 57 64
50 55 62
55 60 68
49 54 60
48 53 60
48 53 60
50 55 62
50 55 62
51 56 63
48 53 59
52 57 64
50 55 62
51 56 63
51 56 63
52 57 64
50 55 61
52 57 64
52 57 64
49 54 61
50 55 61
44 49 55
50 55 62
49 54 62
49 54 61
44 49 55
49 54 60
51 57 64
50 55 62
50 56 63
53 58 65
51 57 64
56 61 69
51 56 63
49 54 61
50 56 63
53 58 66
51 56 63
52 58 65
49 54 61
49 54 61
52 57 64
51 57 64
50 55 62
52 57 64
51 57 64
50 55 61
51 56 63
48 53 59
52 57 64
50 54 61
49 54 61
50 55 62
46 51 57
45 49 55
51 56 63
52 57 65
52 57 63
47 52 58
46 51 57
47 52 58
51 56 63
50 55 61
48 53 60
49 53 60
49 54 61
49 54 61
43 47 53
50 55 62
50 55 62
49 54 61
48 53 59
175 186 202
223 236 255
223 236 255
223 236 255
223 236 255
223 236 255
223 236 255
223 236 255
223 236 255
223 236 255
223 236 255
223 236 255
223 236 255
223 236 255
223 236 255
223 236 255
223 236 255
223 236 255
223 236 255
223 236 255
223 236 255
223 236 255
223 236 255
223 236 255
223 236 255
223 236 255
223 236 255
223 236 255
223 236 255
223 236 255
223 236 255
223 236 255
223 236 255
223 236 255
223 236 255
223 236 255
223 236 255
223 236 255
223 236 255
223 236 255
223 236 255
223 236 255
223 236 255
223 236 255
223 236 255
222 236 255
222 236 255
222 236 255
222 236 255
222 236 255
222 236 255
222 236 255
222 236 255
222 236 255
222 236 255
222 236 255
222 236 255
222 236 255
222 236 255
222 236 255
222 236 255
222 236 255
222 236 255
222 236 255
222 236 255
222 236 255
222 236 255
222 236 255
222 236 255
222 236 255
222 236 255
222 236 255
222 236 255
222 236 255
222 236 255
222 236 255
222 236 255
222 236 255
222 236 255
222 236 255
222 236 255
222 236 255
222 236 255
222 236 255
222 236 255
222 236 255
222 236 255
222 236 255
222 236 255
222 236 255
222 236 255
222 236 255
222 236 255
222 236 255
222 236 255
222 236 255
222 236 255
222 236 255
222 236 255
222 236 255
222 236 255
222 236 255
222 236 255
222 236 255
222 236 255
222 236 255
222 236 255
222 236 255
222 236 255
222 236 255
222 236 255
222 236 255
222 236 255
222 236 255
222 236 255
222 236 255
222 236 255
222 236 255
222 236 255
222 236 255
222 236 255
222 236 255
222 236 255
222 236 255
222 236 255
222 236 255
222 236 255
222 236 255
222 236 255
222 236 255
222 236 255
222 236 255
222 236 255
222 236 255
222 236 255
222 236 255
222 236 255
222 236 255
222 236 255
222 236 255
222 236 255
222 236 255
222 236 255
222 236 255
222 236 255
222 236 255
222 236 255
222 236 255
222 236 255
222 236 255
222 236 255
222 236 255
222 236 255
222 236 255
222 236 255
222 236 255
222 236 255
222 236 255
222 236 255
222 236 255
222 236 255
222 236 255
222 236 255
222 236 255
222 236 255
222 236 255
222 236 255
222 236 255
222 236 255
222 236 255
222 236 255
222 236 255
222 236 255
222 236 255
222 236 255
222 236 255
222 236 255
222 236 255
222 236 255
222 236 255
222 236 255
222 236 255
222 236 255
222 236 255
222 236 255
222 236 255
222 236 255
222 236 255
222 236 255
222 236 255
223 236 255
223 236 255
223 236 255
223 236 255
223 236 255
223 236 255
223 236 255
223 236 255
223 236 255
223 236 255
223 236 255
223 236 255
223 236 255
223 236 255
223 236 255
223 236 255
223 236 255
223 236 255
223 236 255
223 236 255
223 236 255
223 236 255
223 236 255
223 236 255
223 236 255
223 236 255
223 236 255
223 236 255
223 236 255
223 236 255
223 236 255
223 236 255
223 236 255
223 236 255
223 236 255
223 236 255
223 236 255
223 236 255
223 236 255
223 236 255
223 236 255
223 236 255
223 236 255
223 236 255
223 236 255
223 236 255
223 236 255
223 236 255
223 236 255
223 236 255
223 236 255
223 236 255
223 236 255
223 236 255
223 236 255
223 236 255
223 236 255
223 236 255
223 236 255
223 236 255
223 236 255
223 236 255
223 236 255
223 236 255
223 236 255
223 236 255
223 236 255
223 237 255
223 237 255
223 237 255
223 237 255
223 237 255
223 237 255
223 237 255
223 237 255
223 237 255
223 237 255
223 237 255
223 237 255
223 237 255
223 237 255
182 193 209
49 54 61
52 56 63
46 51 57
50 55 62
51 56 63
51 56 63
49 54 61
50 55 61
49 54 60
53 58 65
52 58 65
48 53 60
47 52 58
47 51 57
47 52 58
49 54 61
49 54 61
47 52 59
48 53 59
42 47 53
51 56 63
46 51 57
48 53 59
48 53 60
50 54 61
49 53 60
50 55 62
47 52 59
49 53 60
48 53 59
50 55 61
53 58 65
45 49 55
51 56 63
45 50 56
50 55 62
50 55 61
52 57 64
49 54 61
47 52 58
50 55 61
46 52 58
52 57 64
48 53 60
50 55 63
49 55 62
48 53 59
49 54 60
46 51 57
49 54 60
45 50 57
50 55 62
49 54 61
53 58 66
50 55 62
48 53 59
47 52 59
51 56 64
46 51 57
48 53 60
50 56 62
50 55 62
52 57 64
50 55 62
47 52 58
51 56 62
47 52 59
50 55 62
50 55 61
49 53 60
49 54 61
53 58 65
48 53 59
51 56 63
52 57 64
49 53 59
45 49 56
50 56 63
52 58 65
50 56 63
52 58 65
50 55 61
53 58 65
46 50 57
51 56 63
48 53 59
48 53 60
49 55 62
52 57 64
50 55 62
52 57 64
51 56 62
48 53 60
50 55 62
50 55 62
47 52 58
51 56 63
52 58 65
46 51 57
50 55 62
51 56 63
47 52 59
49 54 61
47 51 58
50 55 61
52 57 63
50 55 62
53 58 65
52 57 64
49 54 60
51 56 63
48 52 59
47 52 59
48 53 60
49 53 60
51 56 63
46 51 57
48 53 60
47 51 58
53 59 66
48 53 60
49 54 60
50 55 61
51 56 62
51 56 62
46 50 57
46 51 58
48 53 60
177 188 203
223 237 255
223 237 255
223 237 255
223 237 255
223 237 255
223 237 255
223 237 255
223 237 255
223 237 255
223 237 255
223 237 255
223 237 255
223 237 255
223 237 255
223 237 255
223 236 255
223 236 255
223 236 255
223 236 255
223 236 255
223 236 255
223 236 255
223 236 255
223 236 255
223 236 255
223 236 255
223 236 255
223 236 255
223 236 255
223 236 255
223 236 255
223 236 255
223 236 255
223 236 255
223 236 255
223 236 255
223 236 255
223 236 255
223 236 255
223 236 255
223 236 255
223 236 255
223 236 255
223 236 255
223 236 255
223 236 255
223 236 255
223 236 255
223 236 255
223 236 255
223 236 255
223 236 255
223 236 255
223 236 255
223 236 255
223 236 255
223 236 255
223 236 255
223 236 255
223 236 255
223 236 255
223 236 255
223 236 255
223 236 255
223 236 255
223 236 255
223 236 255
223 236 255
223 236 255
223 236 255
223 236 255
223 236 255
223 236 255
223 236 255
223 236 255
223 236 255
223 236 255
223 236 255
223 236 255
223 236 255
222 236 255
223 236 255
222 236 255
222 236 255
222 236 255
222 236 255
222 236 255
222 236 255
222 236 255
222 236 255
222 236 255
222 236 255
222 236 255
222 236 255
222 236 255
222 236 255
222 236 255
222 236 255
222 236 255
222 236 255
222 236 255
222 236 255
222 236 255
222 236 255
222 236 255
222 236 255
222 236 255
222 236 255
222 236 255
222 236 255
222 236 255
222 236 255
222 236 255
222 236 255
222 236 255
222 236 255
222 236 255
222 236 255
222 236 255
222 236 255
222 236 255
222 236 255
222 236 255
222 236 255
222 236 255
222 236 255
222 236 255
222 236 255
222 236 255
222 236 255
222 236 255
222 236 255
222 236 255
222 236 255
222 236 255
222 236 255
222 236 255
222 236 255
222 236 255
222 236 255
222 236 255
222 236 255
222 236 255
222 236 255
222 236 255
222 236 255
222 236 255
222 236 255
222 236 255
222 236 255
222 236 255
222 236 255
222 236 255
222 236 255
223 236 255
223 236 255
223 236 255
223 236 255
223 236 255
223 236 255
223 236 255
223 236 255
223 236 255
223 236 255
223 236 255
223 236 255
223 236 255
223 236 255
223 236 255
223 236 255
223 236 255
223 236 255
223 236 255
223 236 255
223 236 255
223 236 255
223 236 255
223 236 255
223 236 255
223 236 255
223 236 255
223 236 255
223 236 255
223 236 255
223 236 255
223 236 255
223 236 255
223 236 255
223 236 255
223 236 255
223 236 255
223 236 255
223 236 255
223 236 255
223 236 255
223 236 255
223 236 255
223 236 255
223 236 255
223 236 255
223 236 255
223 236 255
223 236 255
223 236 255
223 236 255
223 236 255
223 236 255
223 236 255
223 236 255
223 236 255
223 236 255
223 236 255
223 236 255
223 236 255
223 236 255
223 236 255
223 236 255
223 236 255
223 236 255
223 236 255
223 236 255
223 236 255
223 236 255
223 237 255
223 237 255
223 237 255
223 237 255
223 237 255
223 237 255
223 237 255
223 237 255
223 237 255
223 237 255
223 237 255
223 237 255
223 237 255
223 237 255
223 237 255
223 237 255
223 237 255
223 237 255
223 237 255
223 237 255
223 237 255
223 237 255
223 237 255
223 237 255
223 237 255
223 237 255
223 237 255
223 237 255
223 237 255
223 237 255
223 237 255
223 237 255
223 237 255
223 237 255
223 237 255
223 237 255
223 237 255
223 237 255
223 237 255
223 237 255
223 237 255
223 237 255
223 237 255
223 237 255
223 237 255
223 237 255
223 237 255
195 207 224
50 54 61
49 54 60
50 55 62
49 54 60
49 54 61
48 52 59
51 56 62
49 54 60
51 56 63
49 54 61
50 55 62
49 55 61
48 53 59
49 54 60
49 53 60
48 53 60
52 57 64
49 54 61
49 54 60
50 56 63
49 53 60
50 55 62
49 54 61
48 53 59
48 53 60
46 50 56
49 54 60
47 52 58
52 57 64
52 56 63
47 52 58
52 57 64
47 51 57
50 55 62
51 56 63
48 53 59
47 52 58
49 54 61
46 51 58
52 57 64
49 53 59
51 56 63
48 53 59
49 53 60
48 53 60
52 58 65
48 53 59
50 55 62
47 52 58
49 54 61
50 55 61
53 57 64
50 55 61
52 57 64
49 54 61
48 53 60
49 53 59
46 51 57
49 54 60
49 55 61
52 57 64
52 57 64
49 54 61
48 53 59
50 55 62
49 53 60
46 50 57
50 56 62
48 53 60
47 53 59
51 56 63
51 56 63
52 57 64
52 57 63
50 55 61
45 50 56
51 56 62
51 56 63
47 52 58
51 56 63
50 55 62
49 55 62
53 58 64
49 54 61
48 53 59
50 55 62
50 55 62
50 55 62
49 54 61
46 51 57
48 53 60
48 52 59
51 56 63
51 57 64
52 57 65
47 52 59
51 56 63
50 55 62
46 51 58
54 59 66
49 54 60
49 53 60
49 54 61
51 56 63
51 56 63
47 52 58
51 56 63
50 55 62
53 58 65
50 55 62
50 55 62
52 57 64
49 54 60
51 56 63
48 53 59
51 56 63
46 51 57
48 53 60
48 53 59
49 55 62
50 55 63
53 58 65
49 54 61
51 56 63
49 54 60
46 50 57
50 54 61
50 55 62
198 210 227
223 237 255
223 237 255
223 237 255
223 237 255
223 237 255
223 237 255
223 237 255
223 237 255
223 237 255
223 237 255
223 237 255
223 237 255
223 237 255
223 237 255
223 237 255
223 237 255
223 237 255
223 237 255
223 237 255
223 237 255
223 237 255
223 237 255
223 237 255
223 237 255
223 237 255
223 237 255
223 237 255
223 237 255
223 237 255
223 237 255
223 237 255
223 237 255
223 237 255
223 237 255
223 237 255
223 237 255
223 237 255
223 237 255
223 237 255
223 237 255
223 237 255
223 237 255
223 237 255
223 237 255
223 237 255
223 237 255
223 237 255
223 237 255
223 236 255
223 236 255
223 236 255
223 236 255
223 236 255
223 236 255
223 236 255
223 236 255
223 236 255
223 236 255
223 236 255
223 236 255
223 236 255
223 236 255
223 236 255
223 236 255
223 236 255
223 236 255
223 236 255
223 236 255
223 236 255
223 236 255
223 236 255
223 236 255
223 236 255
223 236 255
223 236 255
223 236 255
223 236 255
223 236 255
223 236 255
223 236 255
223 236 255
223 236 255
223 236 255
223 236 255
223 236 255
223 236 255
223 236 255
223 236 255
223 236 255
223 236 255
223 236 255
223 236 255
223 236 255
223 236 255
223 236 255
223 236 255
223 236 255
223 236 255
223 236 255
223 236 255
223 236 255
223 236 255
223 236 255
223 236 255
223 236 255
223 236 255
223 236 255
223 236 255
223 236 255
223 236 255
223 236 255
223 236 255
223 236 255
223 236 255
223 236 255
223 236 255
222 236 255
222 236 255
222 236 255
222 236 255
222 236 255
222 236 255
222 236 255
222 236 255
222 236 255
222 236 255
222 236 255
222 236 255
222 236 255
222 236 255
222 236 255
222 236 255
222 236 255
222 236 255
222 236 255
223 236 255
223 236 255
223 236 255
223 236 255
223 236 255
223 236 255
223 236 255
223 236 255
223 236 255
223 236 255
223 236 255
223 236 255
223 236 255
223 236 255
223 236 255
223 236 255
223 236 255
223 236 255
223 236 255
223 236 255
223 236 255
223 236 255
223 236 255
223 236 255
223 236 255
223 236 255
223 236 255
223 236 255
223 236 255
223 236 255
223 236 255
223 236 255
223 236 255
223 236 255
223 236 255
223 236 255
223 236 255
223 236 255
223 236 255
223 236 255
223 236 255
223 236 255
223 236 255
223 236 255
223 236 255
223 236 255
223 236 255
223 236 255
223 236 255
223 236 255
223 236 255
223 236 255
223 236 255
223 236 255
223 236 255
223 236 255
223 236 255
223 236 255
223 236 255
223 236 255
223 237 255
223 237 255
223 237 255
223 237 255
223 237 255
223 237 255
223 237 255
223 237 255
223 237 255
223 237 255
223 237 255
223 237 255
223 237 255
223 237 255
223 237 255
223 237 255
223 237 255
223 237 255
223 237 255
223 237 255
223 237 255
223 237 255
223 237 255
223 237 255
223 237 255
223 237 255
223 237 255
223 237 255
223 237 255
223 237 255
223 237 255
223 237 255
223 237 255
223 237 255
223 237 255
223 237 255
223 237 255
223 237 255
223 237 255
223 237 255
223 237 255
223 237 255
223 237 255
223 237 255
223 237 255
223 237 255
223 237 255
223 237 255
223 237 255
223 237 255
223 237 255
223 237 255
223 237 255
223 237 255
223 237 255
223 237 255
223 237 255
223 237 255
223 237 255
223 237 255
223 237 255
223 237 255
223 237 255
224 237 255
224 237 255
224 237 255
224 237 255
224 237 255
224 237 255
224 237 255
224 237 255
224 237 255
224 237 255
224 237 255
224 237 255
213 225 243
50 54 61
50 55 61
47 52 58
48 53 59
49 54 60
51 56 63
51 56 63
50 55 61
50 55 62
52 57 64
47 52 58
51 56 62
47 52 58
50 55 61
47 51 58
49 54 61
47 52 59
47 52 59
50 55 61
48 53 59
51 56 64
48 53 59
52 58 65
49 54 60
51 56 63
47 52 59
51 56 63
48 53 59
47 52 59
45 50 56
47 52 58
51 56 63
48 53 60
52 57 64
49 54 60
45 49 55
45 49 55
52 57 63
50 55 61
46 51 58
50 55 62
49 54 61
44 49 55
47 52 58
46 51 57
50 55 62
49 53 59
50 55 62
48 53 59
50 55 62
51 56 63
49 54 61
51 56 63
47 52 59
50 55 62
53 59 66
53 58 65
52 57 65
48 52 59
49 54 60
47 52 58
53 58 65
52 57 64
51 56 62
49 54 61
47 52 59
46 51 58
49 54 60
48 53 60
48 53 60
52 57 63
49 54 61
50 54 61
51 56 62
49 54 60
51 56 63
50 55 61
52 56 63
49 54 60
49 54 61
46 51 58
48 53 60
49 54 61
43 47 53
53 58 65
51 56 62
48 53 59
50 54 61
48 53 60
48 53 59
49 54 60
51 56 64
50 55 62
49 54 61
49 54 60
47 51 58
48 53 60
50 55 62
46 50 57
48 53 60
47 52 58
49 54 61
48 53 59
47 52 58
50 56 63
48 53 60
49 55 62
50 55 61
51 56 63
50 55 62
45 50 57
50 55 62
49 54 60
48 52 59
48 52 59
51 55 62
51 56 63
49 54 60
48 53 59
48 52 59
46 50 56
49 54 60
49 54 61
50 55 62
50 54 61
42 46 52
51 56 63
46 51 57
216 229 247
224 237 255
224 237 255
224 237 255
224 237 255
224 237 255
224 237 255
224 237 255
224 237 255
224 237 255
224 237 255
224 237 255
223 237 255
223 237 255
223 237 255
223 237 255
223 237 255
223 237 255
223 237 255
223 237 255
223 237 255
223 237 255
223 237 255
223 237 255
223 237 255
223 237 255
223 237 255
223 237 255
223 237 255
223 237 255
223 237 255
223 237 255
223 237 255
223 237 255
223 237 255
223 237 255
223 237 255
223 237 255
223 237 255
223 237 255
223 237 255
223 237 255
223 237 255
223 237 255
223 237 255
223 237 255
223 237 255
223 237 255
223 237 255
223 237 255
223 237 255
223 237 255
223 237 255
223 237 255
223 237 255
223 237 255
223 237 255
223 237 255
223 237 255
223 237 255
223 237 255
223 237 255
223 237 255
223 237 255
223 237 255
223 237 255
223 237 255
223 237 255
223 237 255
223 237 255
223 237 255
223 237 255
223 237 255
223 237 255
223 237 255
223 237 255
223 237 255
223 236 255
223 236 255
223 236 255
223 236 255
223 236 255
223 236 255
223 236 255
223 236 255
223 236 255
223 236 255
223 236 255
223 236 255
223 236 255
223 236 255
223 236 255
223 236 255
223 236 255
223 236 255
223 236 255
223 236 255
223 236 255
223 236 255
223 236 255
223 236 255
223 236 255
223 236 255
223 236 255
223 236 255
223 236 255
223 236 255
223 236 255
223 236 255
223 236 255
223 236 255
223 236 255
223 236 255
223 236 255
223 236 255
223 236 255
223 236 255
223 236 255
223 236 255
223 236 255
223 236 255
223 236 255
223 236 255
223 236 255
223 236 255
223 236 255
223 236 255
223 236 255
223 236 255
223 236 255
223 236 255
223 236 255
223 236 255
223 236 255
223 236 255
223 236 255
223 236 255
223 236 255
223 236 255
223 236 255
223 236 255
223 236 255
223 236 255
223 236 255
223 236 255
223 236 255
223 236 255
223 236 255
223 236 255
223 236 255
223 236 255
223 236 255
223 236 255
223 236 255
223 236 255
223 236 255
223 236 255
223 236 255
223 236 255
223 236 255
223 236 255
223 236 255
223 236 255
223 236 255
223 236 255
223 236 255
223 236 255
223 236 255
223 236 255
223 237 255
223 237 255
223 237 255
223 237 255
223 237 255
223 237 255
223 237 255
223 237 255
223 237 255
223 237 255
223 237 255
223 237 255
223 237 255
223 237 255
223 237 255
223 237 255
223 237 255
223 237 255
223 237 255
223 237 255
223 237 255
223 237 255
223 237 255
223 237 255
223 237 255
223 237 255
223 237 255
223 237 255
223 237 255
223 237 255
223 237 255
223 237 255
223 237 255
223 237 255
223 237 255
223 237 255
223 237 255
223 237 255
223 237 255
223 237 255
223 237 255
223 237 255
223 237 255
223 237 255
223 237 255
223 237 255
223 237 255
223 237 255
223 237 255
223 237 255
223 237 255
223 237 255
223 237 255
223 237 255
223 237 255
223 237 255
223 237 255
223 237 255
223 237 255
223 237 255
223 237 255
223 237 255
223 237 255
223 237 255
223 237 255
223 237 255
224 237 255
224 237 255
224 237 255
224 237 255
224 237 255
224 237 255
224 237 255
224 237 255
224 237 255
224 237 255
224 237 255
224 237 255
224 237 255
224 237 255
224 237 255
224 237 255
224 237 255
224 237 255
224 237 255
224 237 255
224 237 255
224 237 255
224 237 255
224 237 255
224 237 255
224 237 255
224 237 255
224 237 255
224 237 255
224 237 255
224 237 255
224 237 255
224 237 255
224 237 255
224 237 255
224 237 255
223 236 254
72 78 85
47 52 58
46 50 57
50 55 62
50 56 63
51 56 63
48 53 60
50 54 61
43 48 54
49 54 60
49 54 60
47 52 58
50 55 62
50 55 61
49 54 60
47 52 59
51 56 63
51 56 62
50 55 62
51 56 63
48 53 60
47 52 58
46 51 57
47 52 58
50 55 62
46 51 58
48 53 60
48 53 59
50 55 62
47 52 59
46 51 57
49 54 61
50 55 61
50 55 62
48 53 59
50 54 60
48 53 60
48 53 59
50 55 62
47 52 59
46 51 57
48 53 60
51 56 63
50 55 62
50 55 61
51 56 63
49 54 61
49 54 60
50 54 61
50 55 61
53 58 65
48 53 59
48 53 59
49 54 61
47 52 58
48 54 60
47 52 59
49 53 60
46 51 57
51 56 63
48 52 59
46 51 57
48 53 59
47 52 59
44 48 55
50 55 62
51 56 63
47 51 58
47 52 59
50 55 61
52 58 65
46 50 57
49 53 59
49 54 60
51 56 63
47 52 58
46 50 56
48 52 59
50 55 62
49 55 62
47 52 58
50 55 62
49 54 61
49 54 61
48 53 59
46 51 57
51 56 63
49 54 60
47 52 59
49 54 61
51 56 63
48 52 59
48 53 59
49 54 60
45 50 56
46 51 57
49 54 61
52 57 63
50 54 61
48 53 59
49 54 61
48 53 59
44 49 56
51 56 63
49 54 60
51 56 63
50 54 61
49 54 61
47 52 59
52 57 64
49 54 61
45 49 55
46 51 57
44 48 54
50 55 62
47 52 58
43 48 54
47 52 58
47 52 58
50 55 61
51 56 63
53 58 65
48 53 60
49 54 60
49 54 60
50 56 63
46 51 58
72 78 86
221 233 252
224 237 255
224 237 255
224 237 255
224 237 255
224 237 255
224 237 255
224 237 255
224 237 255
224 237 255
224 237 255
224 237 255
224 237 255
224 237 255
224 237 255
224 237 255
224 237 255
224 237 255
224 237 255
224 237 255
224 237 255
224 237 255
224 237 255
224 237 255
224 237 255
224 237 255
224 237 255
224 237 255
224 237 255
224 237 255
224 237 255
224 237 255
224 237 255
224 237 255
224 237 255
224 237 255
224 237 255
224 237 255
223 237 255
223 237 255
223 237 255
223 237 255
223 237 255
223 237 255
223 237 255
223 237 255
223 237 255
223 237 255
223 237 255
223 237 255
223 237 255
223 237 255
223 237 255
223 237 255
223 237 255
223 237 255
223 237 255
223 237 255
223 237 255
223 237 255
223 237 255
223 237 255
223 237 255
223 237 255
223 237 255
223 237 255
223 237 255
223 237 255
223 237 255
223 237 255
223 237 255
223 237 255
223 237 255
223 237 255
223 237 255
223 237 255
223 237 255
223 237 255
223 237 255
223 237 255
223 237 255
223 237 255
223 237 255
223 237 255
223 237 255
223 237 255
223 237 255
223 237 255
223 237 255
223 237 255
223 237 255
223 237 255
223 237 255
223 237 255
223 237 255
223 237 255
223 237 255
223 237 255
223 237 255
223 237 255
223 237 255
223 237 255
223 237 255
223 237 255
223 236 255
223 236 255
223 236 255
223 236 255
223 236 255
223 236 255
223 236 255
223 236 255
223 236 255
223 236 255
223 236 255
223 236 255
223 236 255
223 236 255
223 236 255
223 236 255
223 236 255
223 236 255
223 236 255
223 236 255
223 236 255
223 236 255
223 236 255
223 236 255
223 236 255
223 236 255
223 236 255
223 236 255
223 236 255
223 236 255
223 236 255
223 236 255
223 236 255
223 236 255
223 236 255
223 236 255
223 236 255
223 236 255
223 236 255
223 236 255
223 237 255
223 237 255
223 237 255
223 237 255
223 237 255
223 237 255
223 237 255
223 237 255
223 237 255
223 237 255
223 237 255
223 237 255
223 237 255
223 237 255
223 237 255
223 237 255
223 237 255
223 237 255
223 237 255
223 237 255
223 237 255
223 237 255
223 237 255
223 237 255
223 237 255
223 237 255
223 237 255
223 237 255
223 237 255
223 237 255
223 237 255
223 237 255
223 237 255
223 237 255
223 237 255
223 237 255
223 237 255
223 237 255
223 237 255
223 237 255
223 237 255
223 237 255
223 237 255
223 237 255
223 237 255
223 237 255
223 237 255
223 237 255
223 237 255
223 237 255
223 237 255
223 237 255
223 237 255
223 237 255
223 237 255
223 237 255
223 237 255
223 237 255
223 237 255
223 237 255
223 237 255
223 237 255
223 237 255
223 237 255
223 237 255
223 237 255
224 237 255
224 237 255
224 237 255
224 237 255
224 237 255
224 237 255
224 237 255
224 237 255
224 237 255
224 237 255
224 237 255
224 237 255
224 237 255
224 237 255
224 237 255
224 237 255
224 237 255
224 237 255
224 237 255
224 237 255
224 237 255
224 237 255
224 237 255
224 237 255
224 237 255
224 237 255
224 237 255
224 237 255
224 237 255
224 237 255
224 237 255
224 237 255
224 237 255
224 237 255
224 237 255
224 237 255
224 237 255
224 237 255
224 237 255
224 237 255
224 237 255
224 237 255
224 237 255
224 237 255
224 237 255
224 237 255
224 237 255
224 237 255
224 237 255
224 237 255
224 237 255
224 237 255
224 237 255
224 237 255
224 237 255
224 237 255
224 237 255
224 237 255
224 237 255
224 237 255
224 237 255
224 237 255
106 113 122
46 51 57
50 55 61
49 54 61
49 54 60
49 53 60
49 54 60
49 53 60
44 48 54
53 58 64
50 54 61
46 51 57
46 50 57
49 54 60
52 58 65
49 54 60
50 55 62
49 54 61
47 52 58
49 54 61
49 53 60
51 57 64
49 54 61
51 56 63
48 53 59
43 48 54
46 51 57
49 54 61
53 58 65
50 55 62
50 55 61
49 55 62
50 54 61
50 55 61
46 51 58
51 56 63
45 50 56
44 49 55
49 54 60
52 57 64
45 50 56
49 54 60
47 52 58
47 52 58
50 55 61
52 57 65
50 55 61
47 52 59
49 54 61
46 51 57
48 53 59
50 55 61
50 55 62
47 52 58
44 49 55
49 53 60
49 54 61
46 51 57
48 52 58
48 53 59
49 54 60
50 55 62
49 54 61
52 57 63
47 53 60
50 55 62
48 53 59
47 51 58
47 52 58
47 52 58
45 49 55
51 56 62
50 55 62
53 58 65
49 54 61
49 55 61
51 56 64
46 51 58
47 52 59
52 57 65
46 51 57
52 57 64
49 54 61
46 50 56
49 53 59
46 51 58
48 53 60
48 53 59
48 53 59
50 55 62
50 55 62
50 55 62
51 56 63
46 51 57
51 56 63
51 56 62
45 50 56
49 54 61
50 55 62
48 53 59
49 55 62
48 52 59
47 51 58
48 53 60
46 50 56
47 51 58
47 52 59
48 53 59
50 55 62
49 54 61
47 52 59
44 49 55
52 57 64
50 54 61
50 55 61
50 55 62
50 54 61
46 51 58
48 53 59
49 54 61
49 54 61
45 50 56
49 54 61
50 54 61
48 53 59
43 48 54
48 53 59
98 105 114
224 237 255
224 237 255
224 237 255
224 237 255
224 237 255
224 237 255
224 237 255
224 237 255
224 237 255
224 237 255
224 237 255
224 237 255
224 237 255
224 237 255
224 237 255
224 237 255
224 237 255
224 237 255
224 237 255
224 237 255
224 237 255
224 237 255
224 237 255
224 237 255
224 237 255
224 237 255
224 237 255
224 237 255
224 237 255
224 237 255
224 237 255
224 237 255
224 237 255
224 237 255
224 237 255
224 237 255
224 237 255
224 237 255
224 237 255
224 237 255
224 237 255
224 237 255
224 237 255
224 237 255
224 237 255
224 237 255
224 237 255
224 237 255
224 237 255
224 237 255
224 237 255
224 237 255
224 237 255
224 237 255
224 237 255
224 237 255
224 237 255
224 237 255
224 237 255
224 237 255
223 237 255
223 237 255
223 237 255
223 237 255
223 237 255
223 237 255
223 237 255
223 237 255
223 237 255
223 237 255
223 237 255
223 237 255
223 237 255
223 237 255
223 237 255
223 237 255
223 237 255
223 237 255
223 237 255
223 237 255
223 237 255
223 237 255
223 237 255
223 237 255
223 237 255
223 237 255
223 237 255
223 237 255
223 237 255
223 237 255
223 237 255
223 237 255
223 237 255
223 237 255
223 237 255
223 237 255
223 237 255
223 237 255
223 237 255
223 237 255
223 237 255
223 237 255
223 237 255
223 237 255
223 237 255
223 237 255
223 237 255
223 237 255
223 237 255
223 237 255
223 237 255
223 237 255
223 237 255
223 237 255
223 237 255
223 237 255
223 237 255
223 237 255
223 237 255
223 237 255
223 237 255
223 237 255
223 237 255
223 237 255
223 237 255
223 237 255
223 237 255
223 237 255
223 236 255
223 236 255
223 236 255
223 236 255
223 236 255
223 236 255
223 236 255
223 236 255
223 237 255
223 237 255
223 237 255
223 237 255
223 237 255
223 237 255
223 237 255
223 237 255
223 237 255
223 237 255
223 237 255
223 237 255
223 237 255
223 237 255
223 237 255
223 237 255
223 237 255
223 237 255
223 237 255
223 237 255
223 237 255
223 237 255
223 237 255
223 237 255
223 237 255
223 237 255
223 237 255
223 237 255
223 237 255
223 237 255
223 237 255
223 237 255
223 237 255
223 237 255
223 237 255
223 237 255
223 237 255
223 237 255
223 237 255
223 237 255
223 237 255
223 237 255
223 237 255
223 237 255
223 237 255
223 237 255
223 237 255
223 237 255
223 237 255
223 237 255
223 237 255
223 237 255
223 237 255
223 237 255
223 237 255
224 237 255
224 237 255
224 237 255
224 237 255
224 237 255
224 237 255
224 237 255
224 237 255
224 237 255
224 237 255
224 237 255
224 237 255
224 237 255
224 237 255
224 237 255
224 237 255
224 237 255
224 237 255
224 237 255
224 237 255
224 237 255
224 237 255
224 237 255
224 237 255
224 237 255
224 237 255
224 237 255
224 237 255
224 237 255
224 237 255
224 237 255
224 237 255
224 237 255
224 237 255
224 237 255
224 237 255
224 237 255
224 237 255
224 237 255
224 237 255
224 237 255
224 237 255
224 237 255
224 237 255
224 237 255
224 237 255
224 237 255
224 237 255
224 237 255
224 237 255
224 237 255
224 237 255
224 237 255
224 237 255
224 237 255
224 237 255
224 237 255
224 237 255
224 237 255
224 237 255
224 237 255
224 237 255
224 237 255
224 237 255
224 237 255
224 237 255
224 237 255
224 237 255
224 237 255
224 237 255
224 237 255
224 237 255
224 237 255
224 237 255
224 237 255
224 237 255
224 237 255
224 237 255
223 236 254
219 232 250
213 225 242
127 135 146
48 53 59
45 50 56
44 49 55
47 52 58
49 55 61
49 54 60
48 53 59
40 45 50
44 48 54
46 51 57
51 56 63
49 54 60
52 57 63
49 54 61
49 54 60
50 55 62
48 53 59
49 54 60
49 54 60
45 50 56
50 55 62
47 52 58
50 55 61
48 53 60
49 54 60
48 53 60
44 48 54
46 51 57
50 55 62
50 55 62
50 55 62
50 55 61
52 57 64
46 50 56
47 51 57
47 51 57
51 56 63
49 54 60
49 54 60
48 53 59
47 52 59
50 55 61
48 52 59
49 55 62
45 49 56
49 53 60
50 54 61
48 52 59
49 54 60
54 59 66
50 55 62
51 56 63
46 50 57
47 52 58
49 54 60
50 55 62
49 54 61
49 54 61
49 55 62
50 55 62
47 52 58
50 55 63
49 53 59
48 53 60
51 55 62
46 50 57
50 55 61
49 53 60
48 53 60
45 49 55
48 53 59
49 54 60
45 50 56
49 54 60
45 49 55
49 54 60
47 52 59
47 52 58
46 51 57
50 55 62
49 54 60
48 53 59
49 53 60
50 55 62
48 53 59
48 53 60
50 55 62
49 54 60
48 53 59
47 52 58
50 55 62
47 52 59
47 52 58
47 52 58
47 52 59
44 49 55
51 56 63
48 53 59
50 55 62
44 49 55
47 52 58
49 54 61
46 51 57
48 53 59
50 55 62
49 54 61
49 54 60
51 57 64
52 57 64
49 53 60
50 55 61
45 50 56
48 53 60
54 58 65
47 52 58
47 52 58
50 54 61
48 53 59
48 53 59
48 53 59
47 52 58
48 53 59
47 52 58
49 53 60
48 53 59
51 56 62
137 145 157
211 223 240
212 224 241
222 235 253
224 237 255
224 237 255
224 237 255
224 237 255
224 237 255
224 237 255
224 237 255
224 237 255
224 237 255
224 237 255
224 237 255
224 237 255
224 237 255
224 237 255
224 237 255
224 237 255
224 237 255
224 237 255
224 237 255
224 237 255
224 237 255
224 237 255
224 237 255
224 237 255
224 237 255
224 237 255
224 237 255
224 237 255
224 237 255
224 237 255
224 237 255
224 237 255
224 237 255
224 237 255
224 237 255
224 237 255
224 237 255
224 237 255
224 237 255
224 237 255
224 237 255
224 237 255
224 237 255
224 237 255
224 237 255
224 237 255
224 237 255
224 237 255
224 237 255
224 237 255
224 237 255
224 237 255
224 237 255
224 237 255
224 237 255
224 237 255
224 237 255
224 237 255
224 237 255
224 237 255
224 237 255
224 237 255
224 237 255
224 237 255
224 237 255
224 237 255
224 237 255
224 237 255
224 237 255
224 237 255
224 237 255
224 237 255
224 237 255
224 237 255
224 237 255
224 237 255
224 237 255
224 237 255
223 237 255
223 237 255
223 237 255
223 237 255
223 237 255
223 237 255
223 237 255
223 237 255
223 237 255
223 237 255
223 237 255
223 237 255
223 237 255
223 237 255
223 237 255
223 237 255
223 237 255
223 237 255
223 237 255
223 237 255
223 237 255
223 237 255
223 237 255
223 237 255
223 237 255
223 237 255
223 237 255
223 237 255
223 237 255
223 237 255
223 237 255
223 237 255
223 237 255
223 237 255
223 237 255
223 237 255
223 237 255
223 237 255
223 237 255
223 237 255
223 237 255
223 237 255
223 237 255
223 237 255
223 237 255
223 237 255
223 237 255
223 237 255
223 237 255
223 237 255
223 237 255
223 237 255
223 237 255
223 237 255
223 237 255
223 237 255
223 237 255
223 237 255
223 237 255
223 237 255
223 237 255
223 237 255
223 237 255
223 237 255
223 237 255
223 237 255
223 237 255
223 237 255
223 237 255
223 237 255
223 237 255
223 237 255
223 237 255
223 237 255
223 237 255
223 237 255
223 237 255
223 237 255
223 237 255
223 237 255
223 237 255
223 237 255
223 237 255
223 237 255
223 237 255
223 237 255
223 237 255
223 237 255
223 237 255
224 237 255
224 237 255
224 237 255
224 237 255
224 237 255
224 237 255
224 237 255
224 237 255
224 237 255
224 237 255
224 237 255
224 237 255
224 237 255
224 237 255
224 237 255
224 237 255
224 237 255
224 237 255
224 237 255
224 237 255
224 237 255
224 237 255
224 237 255
224 237 255
224 237 255
224 237 255
224 237 255
224 237 255
224 237 255
224 237 255
224 237 255
224 237 255
224 237 255
224 237 255
224 237 255
224 237 255
224 237 255
224 237 255
224 237 255
224 237 255
224 237 255
224 237 255
224 237 255
224 237 255
224 237 255
224 237 255
224 237 255
224 237 255
224 237 255
224 237 255
224 237 255
224 237 255
224 237 255
224 237 255
224 237 255
224 237 255
224 237 255
224 237 255
224 237 255
224 237 255
224 237 255
224 237 255
224 237 255
224 237 255
224 237 255
224 237 255
224 237 255
224 237 255
224 237 255
224 237 255
224 237 255
224 237 255
224 237 255
224 237 255
224 237 255
224 237 255
224 237 255
224 237 255
224 237 255
224 237 255
224 237 255
222 235 253
220 233 251
211 223 240
205 217 234
199 211 227
194 206 222
188 200 216
174 185 200
170 181 195
156 166 180
147 156 170
148 158 171
138 148 161
130 139 151
108 117 128
99 108 119
89 97 108
81 89 100
65 73 84
62 70 80
61 69 80
56 62 71
50 55 62
43 48 54
49 54 61
50 55 61
48 53 59
48 53 60
43 47 53
46 51 58
47 53 59
45 49 55
45 49 55
50 55 62
45 50 56
48 53 59
47 52 58
49 54 61
48 53 59
45 50 56
49 54 60
46 52 58
48 53 60
48 53 60
46 51 57
50 55 62
48 52 59
44 48 54
48 53 59
46 51 57
49 54 60
47 52 58
49 54 60
46 51 57
48 53 60
47 52 58
49 54 61
46 51 57
44 49 55
49 54 61
50 55 61
49 54 61
47 52 58
47 52 58
48 53 60
48 53 59
45 50 57
47 52 58
51 56 63
51 57 64
46 51 57
50 55 62
53 59 66
48 53 59
48 53 60
46 51 57
46 51 58
48 52 58
51 57 64
45 50 56
47 51 58
49 54 61
47 52 58
47 52 59
44 49 56
49 54 60
48 53 59
53 58 65
51 56 63
48 53 59
51 56 63
50 55 61
47 52 58
50 55 61
53 58 65
46 51 57
50 55 62
45 50 56
48 53 59
49 54 61
51 56 63
47 52 58
50 55 61
46 50 56
46 51 57
52 57 63
50 55 61
44 48 54
48 52 58
48 53 59
47 51 58
45 50 56
47 51 58
51 56 63
46 50 56
48 53 60
48 53 60
46 50 56
47 52 58
49 54 61
46 51 58
48 53 59
50 55 62
48 53 59
50 55 61
48 53 59
53 58 65
49 54 61
49 53 60
47 52 59
50 55 62
47 51 57
46 51 57
48 52 59
51 56 63
50 55 62
46 51 58
46 51 57
48 53 59
46 51 57
48 52 58
52 57 64
47 52 58
47 52 59
50 55 61
47 51 57
47 52 58
49 54 60
53 60 68
61 69 80
61 69 80
61 69 80
65 73 84
101 110 121
97 105 116
110 119 131
116 125 137
131 140 153
140 149 163
160 170 185
163 173 188
159 169 183
187 198 214
176 186 201
197 208 225
198 210 226
204 216 233
216 228 246
218 231 248
224 237 255
224 237 255
224 237 255
224 237 255
224 237 255
224 237 255
224 237 255
224 237 255
224 237 255
224 237 255
224 237 255
224 237 255
224 237 255
224 237 255
224 237 255
224 237 255
224 237 255
224 237 255
224 237 255
224 237 255
224 237 255
224 237 255
224 237 255
224 237 255
224 237 255
224 237 255
224 237 255
224 237 255
224 237 255
224 237 255
224 237 255
224 237 255
224 237 255
224 237 255
224 237 255
224 237 255
224 237 255
224 237 255
224 237 255
224 237 255
224 237 255
224 237 255
224 237 255
224 237 255
224 237 255
224 237 255
224 237 255
224 237 255
224 237 255
224 237 255
224 237 255
224 237 255
224 237 255
224 237 255
224 237 255
224 237 255
224 237 255
224 237 255
224 237 255
224 237 255
224 237 255
224 237 255
224 237 255
224 237 255
224 237 255
224 237 255
224 237 255
224 237 255
224 237 255
224 237 255
224 237 255
224 237 255
224 237 255
224 237 255
224 237 255
224 237 255
224 237 255
224 237 255
224 237 255
224 237 255
224 237 255
223 237 255
223 237 255
223 237 255
223 237 255
223 237 255
223 237 255
223 237 255
223 237 255
223 237 255
223 237 255
223 237 255
223 237 255
223 237 255
223 237 255
223 237 255
223 237 255
223 237 255
223 237 255
223 237 255
223 237 255
223 237 255
223 237 255
223 237 255
223 237 255
223 237 255
223 237 255
223 237 255
223 237 255
223 237 255
223 237 255
223 237 255
223 237 255
223 237 255
223 237 255
223 237 255
223 237 255
223 237 255
223 237 255
223 237 255
223 237 255
223 237 255
223 237 255
223 237 255
223 237 255
223 237 255
223 237 255
223 237 255
223 237 255
223 237 255
223 237 255
223 237 255
224 237 255
224 237 255
224 237 255
224 237 255
224 237 255
224 237 255
224 237 255
224 237 255
224 237 255
224 237 255
224 237 255
224 237 255
224 237 255
224 237 255
224 237 255
224 237 255
224 237 255
224 237 255
224 237 255
224 237 255
224 237 255
224 237 255
224 237 255
224 237 255
224 237 255
224 237 255
224 237 255
224 237 255
224 237 255
224 237 255
224 237 255
224 237 255
224 237 255
224 237 255
224 237 255
224 237 255
224 237 255
224 237 255
224 237 255
224 237 255
224 237 255
224 237 255
224 237 255
224 237 255
224 237 255
224 237 255
224 237 255
224 237 255
224 237 255
224 237 255
224 237 255
224 237 255
224 237 255
224 237 255
224 237 255
224 237 255
224 237 255
224 237 255
224 237 255
224 237 255
224 237 255
224 237 255
224 237 255
224 237 255
224 237 255
224 237 255
224 237 255
224 237 255
224 237 255
224 237 255
224 237 255
224 237 255
224 237 255
224 237 255
224 237 255
224 237 255
224 237 255
224 237 255
224 237 255
224 237 255
224 237 255
224 237 255
224 237 255
224 237 255
221 234 252
216 229 246
206 218 235
194 206 222
193 205 221
181 192 207
174 185 200
160 170 185
143 153 166
133 142 155
135 144 157
133 142 155
81 89 100
97 105 116
89 97 108
62 70 80
62 70 80
61 70 80
61 70 80
61 70 80
62 70 80
61 70 80
61 70 80
61 70 80
61 69 80
61 69 80
61 69 80
62 70 80
61 69 80
61 70 80
62 70 80
61 69 80
61 69 80
61 70 80
62 70 80
61 69 80
55 63 72
44 48 54
47 52 58
47 51 58
46 51 57
49 54 61
44 49 55
49 54 61
46 51 57
50 55 62
45 50 56
51 55 61
49 54 60
49 54 61
46 51 57
51 56 62
46 51 57
46 50 57
49 54 60
49 54 60
46 51 57
47 52 58
49 54 60
48 53 60
49 54 61
48 53 60
48 53 59
44 49 55
46 51 58
49 54 61
45 50 56
48 53 59
44 48 54
48 52 59
50 56 62
45 49 55
45 50 56
47 52 58
49 54 60
46 50 57
53 59 66
44 49 55
47 51 57
50 55 62
50 55 61
50 55 61
49 54 60
48 53 59
45 50 56
50 55 61
49 54 60
44 48 54
48 53 60
44 49 55
49 54 61
50 55 62
47 52 58
44 48 54
50 55 62
48 52 59
48 53 60
47 52 59
47 52 59
47 51 58
50 54 61
48 53 59
48 52 59
45 49 55
49 54 60
47 51 57
51 56 63
53 58 65
48 52 59
48 53 60
44 48 54
48 53 59
44 49 55
51 56 63
46 50 56
47 52 59
43 48 54
43 48 54
49 54 61
49 53 60
47 51 57
47 52 59
52 57 64
48 52 59
49 55 62
47 52 58
46 50 57
49 55 62
48 53 59
51 57 64
46 51 56
48 53 60
46 51 56
52 57 64
50 56 62
52 57 64
50 55 61
43 46 52
45 50 56
46 51 57
49 53 60
44 49 55
48 53 59
46 50 57
50 55 62
51 57 64
48 53 59
49 53 60
48 53 60
52 57 64
47 52 58
46 50 56
48 53 59
46 51 58
48 53 59
50 55 62
47 52 58
47 52 59
46 51 57
47 51 57
50 55 62
45 49 55
46 50 56
60 67 77
62 70 80
62 70 80
61 70 80
61 69 80
62 70 80
62 70 80
61 69 80
61 70 80
61 70 80
61 69 80
62 70 80
61 69 80
61 70 80
61 70 80
60 69 80
61 69 80
62 70 80
61 70 80
61 69 80
61 69 80
65 73 84
81 89 100
75 83 94
104 112 124
120 129 141
131 141 153
135 144 157
154 164 178
169 179 194
169 179 194
183 194 210
188 200 216
194 206 222
196 207 224
207 219 236
219 232 250
224 237 255
224 237 255
224 237 255
224 237 255
224 237 255
224 237 255
224 237 255
224 237 255
224 237 255
224 237 255
224 237 255
224 237 255
224 237 255
224 237 255
224 237 255
224 237 255
224 237 255
224 237 255
224 237 255
224 237 255
224 237 255
224 237 255
224 237 255
224 237 255
224 237 255
224 237 255
224 237 255
224 237 255
224 237 255
224 237 255
224 237 255
224 237 255
224 237 255
224 237 255
224 237 255
224 237 255
224 237 255
224 237 255
224 237 255
224 237 255
224 237 255
224 237 255
224 237 255
224 237 255
224 237 255
224 237 255
224 237 255
224 237 255
224 237 255
224 237 255
224 237 255
224 237 255
224 237 255
224 237 255
224 237 255
224 237 255
224 237 255
224 237 255
224 237 255
224 237 255
224 237 255
224 237 255
224 237 255
224 237 255
224 237 255
224 237 255
224 237 255
224 237 255
224 237 255
224 237 255
224 237 255
224 237 255
224 237 255
224 237 255
224 237 255
224 237 255
224 237 255
224 237 255
224 237 255
224 237 255
224 237 255
224 237 255
224 237 255
224 237 255
223 237 255
223 237 255
223 237 255
223 237 255
223 237 255
223 237 255
223 237 255
223 237 255
223 237 255
223 237 255
223 237 255
223 237 255
223 237 255
223 237 255
223 237 255
223 237 255
224 237 255
224 237 255
224 237 255
224 237 255
224 237 255
224 237 255
224 237 255
224 237 255
224 237 255
224 237 255
224 237 255
224 237 255
224 237 255
224 237 255
224 237 255
224 237 255
224 237 255
224 237 255
224 237 255
224 237 255
224 237 255
224 237 255
224 237 255
224 237 255
224 237 255
224 237 255
224 237 255
224 237 255
224 237 255
224 237 255
224 237 255
224 237 255
224 237 255
224 237 255
224 237 255
224 237 255
224 237 255
224 237 255
224 237 255
224 237 255
224 237 255
224 237 255
224 237 255
224 237 255
224 237 255
224 237 255
224 237 255
224 237 255
224 237 255
224 237 255
224 237 255
224 237 255
224 237 255
224 237 255
224 237 255
224 237 255
224 237 255
224 237 255
224 237 255
224 237 255
224 237 255
224 237 255
224 237 255
224 237 255
224 237 255
224 237 255
224 237 255
224 237 255
224 237 255
224 237 255
224 237 255
224 237 255
224 237 255
224 237 255
224 237 255
224 237 255
224 237 255
224 237 255
224 237 255
224 237 255
224 237 255
224 237 255
224 237 255
224 237 255
224 237 255
220 233 251
218 231 248
205 217 234
196 207 224
188 200 216
177 188 203
174 185 200
157 167 181
153 163 176
142 151 164
126 135 147
114 123 135
112 121 133
99 107 119
72 80 91
61 69 80
62 70 80
60 69 80
61 70 80
61 69 80
61 70 80
61 70 80
61 69 80
61 69 80
62 70 80
62 70 80
62 70 80
62 70 80
62 70 80
61 69 80
61 69 80
61 69 80
61 70 80
61 70 80
61 69 80
61 70 80
61 70 80
61 70 80
62 70 80
62 70 80
61 69 80
62 70 80
61 69 80
62 70 80
61 70 80
62 70 80
61 70 80
62 70 80
61 70 80
61 69 80
61 70 80
60 68 79
50 54 61
47 51 58
48 53 59
45 50 56
49 54 61
44 48 55
46 51 57
45 49 55
49 54 60
48 53 60
47 52 58
48 53 59
50 55 62
49 53 60
50 55 62
46 51 57
48 53 60
50 54 61
51 56 63
49 53 60
48 53 60
46 50 57
48 53 59
45 50 56
48 52 58
44 48 54
48 53 60
48 53 60
48 53 59
49 53 59
46 51 57
45 49 56
49 54 61
46 51 57
46 51 57
46 51 57
49 54 61
46 50 56
49 53 60
46 50 56
49 54 60
47 52 58
46 50 56
48 53 59
50 54 61
47 52 58
47 52 58
48 53 59
51 56 63
48 52 59
47 51 58
45 50 56
46 51 57
47 51 57
51 55 62
48 53 59
47 51 57
49 54 60
49 54 61
47 51 57
47 52 58
48 53 60
48 53 59
47 52 58
46 51 57
48 53 60
50 55 62
50 54 61
47 52 58
51 56 63
48 53 60
49 54 61
48 52 59
47 52 58
51 56 62
47 51 57
46 51 57
50 55 61
44 49 55
49 54 61
48 53 59
49 54 61
51 56 63
48 53 59
50 55 61
46 50 56
43 47 53
50 55 61
49 54 61
46 51 57
47 52 58
49 54 60
45 49 55
46 51 57
48 53 59
49 54 60
44 48 54
46 51 57
51 56 63
50 54 61
48 52 58
48 53 60
47 52 58
44 49 55
48 53 59
46 51 57
49 54 60
54 59 66
50 55 62
50 55 61
50 55 62
47 51 58
48 53 59
44 49 55
45 50 56
45 49 56
46 50 56
48 53 59
44 48 54
49 54 61
45 50 56
50 55 61
46 50 56
46 50 56
46 51 57
50 55 62
61 69 79
61 70 80
61 69 80
61 70 80
61 69 80
61 70 80
61 69 80
61 69 80
61 70 80
62 70 80
61 70 80
61 69 80
61 70 80
61 70 80
62 70 80
61 70 80
61 70 80
61 69 80
61 70 80
62 70 80
62 70 80
62 70 80
62 70 80
61 70 80
61 70 80
61 69 80
62 70 80
62 70 80
62 70 80
62 70 80
62 70 80
61 69 80
62 70 80
61 69 80
62 70 80
61 70 80
61 70 80
69 77 87
86 94 106
92 100 111
110 119 131
131 140 153
156 166 180
157 167 181
163 173 188
174 185 200
177 188 203
197 208 225
205 217 234
209 222 239
211 223 240
223 236 254
224 237 255
224 237 255
224 237 255
224 237 255
224 237 255
224 237 255
224 237 255
224 237 255
224 237 255
224 237 255
224 237 255
224 237 255
224 237 255
224 237 255
224 237 255
224 237 255
224 237 255
224 237 255
224 237 255
224 237 255
224 237 255
224 237 255
224 237 255
224 237 255
224 237 255
224 237 255
224 237 255
224 237 255
224 237 255
224 237 255
224 237 255
224 237 255
224 237 255
224 237 255
224 237 255
224 237 255
224 237 255
224 237 255
224 237 255
224 237 255
224 237 255
224 237 255
224 237 255
224 237 255
224 237 255
224 237 255
224 237 255
224 237 255
224 237 255
224 237 255
224 237 255
224 237 255
224 237 255
224 237 255
224 237 255
224 237 255
224 237 255
224 237 255
224 237 255
224 237 255
224 237 255
224 237 255
224 237 255
224 237 255
224 237 255
224 237 255
224 237 255
224 237 255
224 237 255
224 237 255
224 237 255
224 237 255
224 237 255
224 237 255
224 237 255
224 237 255
224 237 255
224 237 255
224 237 255
224 237 255
224 237 255
224 237 255
224 237 255
224 237 255
224 237 255
224 237 255
224 237 255
224 237 255
224 237 255
224 237 255
224 237 255
224 237 255
224 237 255
224 237 255
224 237 255
224 237 255
224 237 255
224 237 255
224 237 255
224 237 255
224 237 255
224 237 255
224 237 255
224 237 255
224 237 255
224 237 255
224 237 255
224 237 255
224 237 255
224 237 255
224 237 255
224 237 255
224 237 255
224 237 255
224 237 255
224 237 255
224 237 255
224 237 255
224 237 255
224 237 255
224 237 255
224 237 255
224 237 255
224 237 255
224 237 255
224 237 255
224 237 255
224 237 255
224 237 255
224 237 255
224 237 255
224 237 255
224 237 255
224 237 255
224 237 255
224 237 255
224 237 255
224 237 255
224 237 255
224 237 255
224 237 255
224 237 255
224 237 255
224 237 255
224 237 255
224 237 255
224 237 255
224 237 255
224 237 255
224 237 255
224 237 255
224 237 255
224 237 255
224 237 255
224 237 255
225 237 255
225 237 255
221 234 252
211 223 240
199 211 227
195 206 222
191 202 218
178 189 204
154 164 178
153 163 176
154 164 178
130 139 151
108 117 128
106 114 126
89 97 108
62 70 80
61 70 80
62 70 80
61 69 80
61 70 80
62 70 80
62 70 80
61 69 80
61 70 80
61 69 80
61 69 80
61 69 80
62 70 80
61 69 80
61 70 80
61 70 80
62 70 80
61 70 80
61 70 80
61 70 80
62 70 80
61 69 80
61 70 80
61 69 80
61 70 80
61 70 80
61 69 80
62 70 80
62 70 80
62 70 80
62 70 80
61 70 80
61 70 80
61 70 80
61 70 80
61 70 80
61 69 80
61 69 80
61 69 80
61 70 80
61 70 80
62 70 80
62 70 80
61 69 80
61 70 80
62 70 80
61 69 80
61 70 80
61 70 80
61 69 80
62 70 80
61 69 80
51 57 64
49 53 60
47 52 58
48 53 60
50 55 62
46 50 56
51 56 63
51 56 63
48 53 60
47 51 57
44 48 54
48 52 58
48 53 59
46 51 57
46 51 58
47 52 58
46 51 57
44 48 54
47 52 59
46 50 56
45 50 57
46 50 56
52 57 64
47 52 59
46 51 57
48 53 59
47 52 59
52 57 63
48 53 59
48 53 60
46 50 56
47 52 58
48 53 59
48 53 60
48 53 59
48 53 59
47 52 58
48 52 58
47 52 59
43 47 54
47 52 58
47 52 58
46 51 57
49 54 61
46 50 56
51 56 62
45 50 56
45 50 57
49 54 60
51 56 63
45 49 55
48 52 59
48 53 59
51 56 62
42 47 52
45 50 56
43 48 54
45 49 56
48 53 59
43 48 54
48 53 59
47 51 57
48 53 59
48 53 59
51 56 63
50 55 61
51 56 63
46 51 57
47 52 58
49 54 61
48 52 59
47 51 58
48 53 59
47 51 57
48 53 59
49 54 60
45 50 56
43 47 53
49 54 60
45 49 56
49 54 61
49 54 61
47 52 58
50 55 62
45 49 55
50 55 62
50 55 62
47 52 59
47 52 58
48 53 59
49 54 61
48 53 59
48 52 58
45 49 55
51 56 63
45 49 55
50 54 61
45 49 55
49 54 60
49 54 61
48 53 59
45 50 56
49 54 61
46 51 58
43 48 54
50 55 62
51 56 63
48 53 59
49 54 60
48 53 60
48 53 59
51 56 63
46 50 56
49 54 60
47 51 58
48 53 60
48 53 59
48 52 59
48 53 59
45 50 56
49 54 60
47 51 58
45 49 55
43 48 54
45 49 55
51 56 64
61 70 80
61 70 80
61 69 80
62 70 80
61 70 80
61 70 80
61 69 80
61 69 80
61 70 80
61 69 80
61 70 80
61 69 80
62 70 80
62 70 80
61 69 80
61 69 80
61 70 80
62 70 80
61 70 80
62 70 80
61 69 80
61 69 80
61 69 80
62 70 80
62 70 80
62 70 80
61 69 80
61 69 80
61 69 80
62 70 80
61 69 80
61 69 80
61 70 80
61 70 80
62 70 80
61 70 80
61 69 80
61 70 80
62 70 80
62 70 80
62 70 80
61 69 80
62 70 80
61 70 80
61 69 80
61 69 80
62 70 80
61 70 80
61 69 80
60 69 80
62 70 80
62 70 80
78 86 97
103 112 123
114 123 135
128 137 149
135 144 157
135 144 157
176 186 201
177 188 203
188 200 216
192 203 220
196 207 224
216 229 246
221 234 252
225 237 255
225 237 255
224 237 255
224 237 255
224 237 255
224 237 255
224 237 255
224 237 255
224 237 255
224 237 255
224 237 255
224 237 255
224 237 255
224 237 255
224 237 255
224 237 255
224 237 255
224 237 255
224 237 255
224 237 255
224 237 255
224 237 255
224 237 255
224 237 255
224 237 255
224 237 255
224 237 255
224 237 255
224 237 255
224 237 255
224 237 255
224 237 255
224 237 255
224 237 255
224 237 255
224 237 255
224 237 255
224 237 255
224 237 255
224 237 255
224 237 255
224 237 255
224 237 255
224 237 255
224 237 255
224 237 255
224 237 255
224 237 255
224 237 255
224 237 255
224 237 255
224 237 255
224 237 255
224 237 255
224 237 255
224 237 255
224 237 255
224 237 255
224 237 255
224 237 255
224 237 255
224 237 255
224 237 255
224 237 255
224 237 255
224 237 255
224 237 255
224 237 255
224 237 255
224 237 255
224 237 255
224 237 255
224 237 255
224 237 255
224 237 255
224 237 255
224 237 255
224 237 255
224 237 255
224 237 255
224 237 255
224 237 255
224 237 255
224 237 255
224 237 255
224 237 255
224 237 255
224 237 255
224 237 255
224 237 255
224 237 255
224 237 255
224 237 255
224 237 255
224 237 255
224 237 255
224 237 255
224 237 255
224 237 255
224 237 255
224 237 255
224 237 255
224 237 255
224 237 255
224 237 255
224 237 255
224 237 255
224 237 255
224 237 255
224 237 255
224 237 255
224 237 255
224 237 255
224 237 255
224 237 255
224 237 255
224 237 255
224 237 255
224 237 255
224 237 255
224 237 255
224 237 255
224 237 255
224 237 255
224 237 255
224 237 255
224 237 255
225 237 255
225 237 255
225 237 255
225 237 255
222 235 253
207 219 236
203 215 231
191 202 218
181 192 207
182 193 209
157 167 181
156 166 180
147 156 170
138 148 161
118 127 139
99 107 119
75 83 94
62 70 80
61 70 80
62 70 80
61 69 80
62 70 80
61 70 80
61 70 80
61 70 80
62 70 80
61 69 80
62 70 80
61 70 80
62 70 80
61 70 80
61 69 80
62 70 80
62 70 80
61 70 80
62 70 80
61 70 80
62 70 80
61 69 80
61 70 80
61 70 80
61 70 80
61 70 80
62 70 80
61 70 80
61 69 80
62 70 80
62 70 80
62 70 80
61 69 80
62 70 80
61 70 80
61 70 80
61 69 80
62 70 80
61 69 80
62 70 80
61 69 80
61 70 80
61 70 80
61 69 80
61 69 80
62 70 80
62 70 80
61 70 80
62 70 80
61 69 80
61 70 80
62 70 80
61 69 80
61 70 80
62 70 80
61 69 80
61 70 80
61 69 80
61 70 80
61 70 80
61 69 80
61 70 80
61 69 80
61 69 80
61 70 80
53 60 68
44 49 56
44 49 55
46 51 57
48 52 58
43 47 53
48 53 59
50 55 61
45 50 56
50 55 61
49 54 61
46 50 57
46 51 57
45 49 55
48 52 59
42 47 52
47 52 58
43 48 54
49 54 61
47 52 58
49 53 60
50 55 61
46 51 57
48 52 59
49 53 59
49 54 61
49 54 60
49 54 61
48 53 59
43 47 53
42 47 53
48 53 59
45 50 57
45 49 56
48 53 60
41 46 52
49 55 62
50 56 63
49 54 61
47 51 57
51 56 63
46 51 58
51 56 62
47 52 59
45 49 55
48 53 60
48 53 60
47 52 59
47 52 58
46 50 57
46 51 57
48 53 60
50 54 61
50 55 62
45 50 56
45 50 56
52 56 63
49 54 61
46 50 57
47 52 58
51 56 63
47 52 59
52 57 63
48 52 58
48 53 60
49 54 60
50 55 62
49 54 61
50 54 61
48 53 59
44 48 54
48 53 60
48 52 58
46 50 56
45 50 56
45 49 55
47 52 58
47 51 58
45 50 56
48 53 59
46 50 56
46 51 57
46 51 58
48 53 59
45 50 55
44 49 55
47 52 58
44 49 54
48 53 59
49 53 60
45 49 56
48 53 59
45 50 56
48 53 60
49 53 59
50 55 61
51 57 64
46 51 57
49 54 61
51 56 63
48 53 59
48 53 59
43 48 54
46 51 57
45 49 55
48 53 59
48 53 59
48 53 59
45 50 57
49 54 60
46 50 56
50 55 62
49 53 60
50 55 61
44 48 54
45 50 56
46 51 57
48 52 59
47 52 58
52 57 64
46 51 58
47 52 58
44 48 53
38 42 47
49 53 59
56 62 72
61 69 80
61 70 80
61 70 80
61 69 80
61 69 80
61 70 80
61 69 80
61 70 80
61 69 80
62 70 80
61 69 80
61 69 80
62 70 80
61 70 80
61 70 80
62 70 80
61 70 80
61 69 80
61 70 80
61 70 80
61 69 80
62 70 80
62 70 80
61 70 80
61 69 80
61 70 80
61 70 80
61 70 80
61 70 80
61 69 80
61 69 80
61 69 80
60 69 80
62 70 80
61 69 80
61 70 80
62 70 80
61 70 80
61 69 80
61 70 80
61 70 80
61 70 80
61 69 80
62 70 80
61 70 80
61 70 80
62 70 80
62 70 80
62 70 80
61 69 80
61 69 80
62 70 80
62 70 80
61 70 80
61 70 80
62 70 80
61 70 80
61 69 80
61 69 80
61 69 80
61 69 80
61 70 80
62 70 80
62 70 80
62 70 80
69 77 87
101 110 121
115 123 135
137 146 159
148 158 171
145 155 168
166 176 191
175 186 201
183 194 210
186 197 213
213 225 242
209 222 239
221 234 252
225 237 255
225 237 255
225 237 255
224 237 255
224 237 255
224 237 255
224 237 255
224 237 255
224 237 255
224 237 255
224 237 255
224 237 255
224 237 255
224 237 255
224 237 255
224 237 255
224 237 255
224 237 255
224 237 255
224 237 255
224 237 255
224 237 255
224 237 255
224 237 255
224 237 255
224 237 255
224 237 255
224 237 255
224 237 255
224 237 255
224 237 255
224 237 255
224 237 255
224 237 255
224 237 255
224 237 255
224 237 255
224 237 255
224 237 255
224 237 255
224 237 255
224 237 255
224 237 255
224 237 255
224 237 255
224 237 255
224 237 255
224 237 255
224 237 255
224 237 255
224 237 255
224 237 255
224 237 255
224 237 255
224 237 255
224 237 255
224 237 255
224 237 255
224 237 255
224 237 255
224 237 255
224 237 255
224 237 255
224 237 255
224 237 255
224 237 255
224 237 255
224 237 255
224 237 255
224 237 255
224 237 255
224 237 255
224 237 255
224 237 255
224 237 255
224 237 255
224 237 255
224 237 255
224 237 255
224 237 255
224 237 255
224 237 255
224 237 255
224 237 255
224 237 255
224 237 255
224 237 255
224 237 255
224 237 255
224 237 255
224 237 255
224 237 255
224 237 255
224 237 255
224 237 255
224 237 255
224 237 255
224 237 255
224 237 255
224 237 255
224 237 255
225 237 255
225 237 255
225 237 255
225 237 255
221 234 252
218 231 248
199 211 227
200 212 229
193 205 221
177 188 203
167 178 192
159 169 183
154 164 178
138 148 161
126 135 147
92 100 111
81 89 100
61 69 80
61 69 80
61 70 80
61 70 80
61 69 80
61 69 80
61 70 80
61 69 80
61 70 80
61 69 80
61 69 80
61 70 80
61 69 80
61 70 80
61 69 80
61 69 80
61 70 80
62 70 80
62 70 80
61 69 80
62 70 80
61 69 80
61 69 80
61 70 80
61 70 80
61 70 80
62 70 80
61 70 80
62 70 80
62 70 80
61 70 80
61 69 80
61 70 80
62 70 80
61 70 80
61 69 80
61 69 80
62 70 80
61 69 80
61 70 80
61 69 80
61 70 80
61 70 80
62 70 80
61 70 80
61 70 80
61 70 80
61 69 80
62 70 80
62 70 80
61 70 80
62 70 80
61 69 80
62 70 80
61 69 80
61 69 80
61 70 80
61 70 80
61 70 80
61 69 80
61 69 80
61 70 80
61 70 80
61 69 80
61 69 80
61 69 80
61 70 80
61 69 80
62 70 80
61 70 80
61 69 80
61 70 80
61 69 80
61 70 80
62 70 80
62 70 80
62 70 80
61 70 80
57 64 73
44 49 55
44 49 55
46 51 57
49 53 60
45 50 56
48 53 59
46 50 56
47 51 58
47 52 59
45 50 56
44 49 55
49 53 59
47 52 58
48 52 59
46 50 56
46 51 57
46 50 56
45 50 56
49 54 60
47 51 58
47 52 58
49 54 61
45 50 56
45 49 56
47 52 58
45 50 56
42 46 52
48 53 60
44 49 55
46 51 57
47 52 58
51 55 62
42 47 53
44 48 54
48 53 59
48 52 59
49 54 60
50 55 61
49 54 60
48 53 59
44 48 54
45 50 56
50 55 62
41 45 50
46 51 57
49 54 61
48 53 60
43 47 53
46 51 57
46 51 58
47 51 57
46 51 57
44 48 54
49 54 60
45 49 56
48 53 59
50 55 61
44 49 55
50 56 63
48 53 59
51 56 63
46 51 57
48 52 58
47 51 58
47 52 59
47 52 58
52 57 63
44 48 54
47 52 58
46 51 57
46 50 57
50 55 62
47 52 58
46 51 57
49 54 60
47 52 58
47 51 57
44 48 54
46 51 57
49 54 60
45 50 56
47 52 58
47 52 58
49 54 60
50 55 62
49 54 61
47 52 58
45 50 56
49 54 60
50 55 62
43 47 52
49 54 60
49 53 59
49 54 60
46 51 57
49 53 60
48 53 59
50 55 61
45 50 56
46 50 56
48 53 59
47 52 58
48 52 58
48 52 59
54 59 66
46 50 57
44 49 55
44 49 55
46 51 57
49 54 61
47 52 58
46 50 56
50 55 61
50 54 61
48 53 59
44 49 55
47 52 59
46 50 57
48 53 59
46 50 56
49 54 61
49 54 60
45 50 56
45 50 56
58 65 75
62 70 80
61 69 80
61 69 80
61 70 80
61 69 80
61 69 80
62 70 80
62 70 80
61 69 80
61 69 80
61 70 80
61 69 80
62 70 80
61 69 80
61 69 80
61 70 80
61 70 80
61 70 80
61 70 80
61 70 80
62 70 80
61 70 80
61 70 80
61 70 80
62 70 80
61 70 80
62 70 80
61 70 80
61 69 80
62 70 80
61 70 80
61 70 80
61 70 80
61 69 80
61 70 80
61 70 80
61 70 80
61 70 80
62 70 80
62 70 80
61 70 80
61 70 80
62 70 80
62 70 80
61 70 80
62 70 80
62 70 80
61 70 80
61 70 80
61 69 80
62 70 80
61 70 80
61 69 80
61 69 80
61 69 80
61 69 80
61 70 80
62 70 80
61 69 80
61 70 80
62 70 80
62 70 80
61 70 80
62 70 80
61 70 80
61 70 80
61 69 80
61 70 80
62 70 80
61 70 80
61 70 80
62 70 80
61 70 80
61 70 80
61 70 80
62 70 80
61 70 80
62 70 80
75 83 94
75 83 94
114 123 135
122 131 143
133 142 155
145 155 168
177 188 203
185 196 211
175 186 201
202 213 230
204 216 233
212 224 241
225 237 255
225 237 255
225 237 255
225 237 255
225 237 255
225 237 255
224 237 255
224 237 255
224 237 255
224 237 255
224 237 255
224 237 255
224 237 255
224 237 255
224 237 255
224 237 255
224 237 255
224 237 255
224 237 255
224 237 255
224 237 255
224 237 255
224 237 255
224 237 255
224 237 255
224 237 255
224 237 255
224 237 255
224 237 255
224 237 255
224 237 255
224 237 255
224 237 255
224 237 255
224 237 255
224 237 255
224 237 255
224 237 255
224 237 255
224 237 255
224 237 255
224 237 255
224 237 255
224 237 255
224 237 255
224 237 255
224 237 255
224 237 255
224 237 255
224 237 255
224 237 255
224 237 255
224 237 255
224 237 255
224 237 255
224 237 255
224 237 255
224 237 255
224 237 255
224 237 255
224 237 255
224 237 255
224 237 255
224 237 255
224 237 255
224 237 255
224 237 255
224 237 255
224 237 255
224 237 255
224 237 255
224 237 255
224 237 255
224 237 255
224 237 255
224 237 255
225 237 255
225 237 255
225 237 255
225 237 255
225 237 255
221 234 252
217 230 247
206 218 235
197 209 225
192 204 220
169 179 194
167 178 192
153 163 176
145 155 168
128 137 149
108 116 128
86 95 106
65 73 84
61 69 80
61 70 80
62 70 80
61 70 80
62 70 80
61 70 80
61 70 80
61 70 80
61 70 80
62 70 80
61 69 80
61 70 80
61 69 80
62 70 80
61 70 80
61 70 80
61 70 80
61 69 80
61 70 80
61 69 80
61 70 80
61 69 80
61 70 80
61 70 80
62 70 80
62 70 80
62 70 80
62 70 80
61 69 80
61 70 80
62 70 80
62 70 80
61 70 80
62 70 80
61 70 80
61 70 80
61 70 80
61 69 80
61 69 80
60 69 80
61 69 80
61 70 80
61 69 80
62 70 80
62 70 80
61 70 80
62 70 80
61 69 80
62 70 80
62 70 80
61 70 80
62 70 80
61 69 80
62 70 80
61 69 80
61 70 80
61 70 80
61 70 80
61 69 80
61 70 80
61 69 80
62 70 80
61 70 80
62 70 80
61 70 80
61 69 80
61 69 80
60 69 80
61 69 80
61 69 80
61 70 80
61 69 80
62 70 80
61 69 80
61 69 80
61 69 80
61 70 80
61 69 80
61 69 80
61 69 80
62 70 80
61 70 80
61 70 80
61 70 80
62 70 80
61 70 80
61 69 80
62 70 80
61 69 80
60 69 80
61 69 80
45 50 56
46 51 58
44 48 54
46 51 57
43 48 53
48 53 59
47 52 58
47 51 58
46 50 56
47 52 58
49 54 61
45 49 55
45 50 56
44 48 54
48 52 58
47 52 58
47 52 58
48 52 58
47 51 58
47 51 58
44 49 55
45 49 55
48 52 59
51 55 62
42 47 53
44 49 55
45 49 55
49 54 60
48 53 59
48 53 60
49 54 60
51 57 63
44 49 55
49 53 60
45 49 55
50 55 61
49 54 61
45 49 55
45 49 55
49 54 60
50 54 61
47 51 57
44 48 54
52 57 64
48 53 59
43 47 52
46 51 57
47 52 58
44 49 55
50 55 62
47 52 58
47 52 58
45 49 56
46 50 56
46 50 57
48 53 60
48 53 59
48 53 59
49 54 61
48 52 59
47 52 58
46 51 57
48 53 59
49 54 60
49 55 61
50 55 61
42 46 52
48 52 59
48 52 58
51 56 63
47 51 58
48 53 59
47 52 58
48 53 59
48 53 60
48 53 59
47 52 58
44 49 55
47 52 58
45 50 56
46 50 56
46 50 56
47 52 58
51 55 62
50 55 61
48 52 58
44 48 54
45 49 55
48 53 59
48 53 59
46 50 56
45 49 55
44 48 54
48 53 60
46 50 57
45 50 56
48 52 59
46 51 58
47 51 58
43 48 54
46 51 57
45 50 56
45 49 55
50 55 62
46 51 57
47 52 58
47 52 58
48 52 59
48 52 59
48 53 59
45 49 55
47 52 58
45 50 56
48 52 58
46 50 56
43 47 53
49 54 60
50 54 61
49 54 60
45 50 55
43 47 52
50 55 62
46 51 58
45 49 55
61 69 79
62 70 80
61 69 80
61 69 80
61 70 80
61 69 80
61 69 80
61 70 80
62 70 80
61 69 80
61 69 80
61 69 80
61 69 80
61 70 80
62 70 80
62 70 80
62 70 80
61 70 80
62 70 80
61 70 80
61 70 80
61 69 79
61 69 80
61 69 80
62 70 80
61 70 80
61 70 80
61 69 80
62 70 80
61 70 80
61 69 80
62 70 80
61 69 80
61 69 80
61 69 80
62 70 80
62 70 80
62 70 80
61 70 80
61 69 80
61 70 80
61 69 80
62 70 80
61 69 80
61 70 80
61 69 80
61 69 80
62 70 80
61 70 80
61 70 80
61 70 80
61 69 80
62 70 80
62 70 80
61 70 80
61 70 80
62 70 80
61 69 80
61 69 80
61 69 80
62 70 80
61 70 80
62 70 80
60 69 80
62 70 80
62 70 80
62 70 80
61 69 80
61 70 80
61 69 80
61 70 80
61 69 80
61 70 80
61 69 80
62 70 80
62 70 80
61 70 80
61 70 80
62 70 80
61 70 80
61 70 80
61 69 80
61 70 80
61 70 80
61 70 80
61 69 80
62 70 80
62 70 80
61 70 80
62 70 80
62 70 80
61 70 80
87 95 106
104 112 124
116 125 137
130 139 151
143 153 166
156 166 180
172 182 197
186 197 213
210 222 239
207 219 236
216 229 246
225 237 255
225 237 255
225 237 255
225 237 255
225 237 255
225 237 255
225 237 255
224 237 255
224 237 255
224 237 255
224 237 255
224 237 255
224 237 255
224 237 255
224 237 255
224 237 255
224 237 255
224 237 255
224 237 255
224 237 255
224 237 255
224 237 255
224 237 255
224 237 255
224 237 255
224 237 255
224 237 255
224 237 255
224 237 255
224 237 255
224 237 255
224 237 255
224 237 255
224 237 255
224 237 255
224 237 255
224 237 255
224 237 255
224 237 255
224 237 255
224 237 255
224 237 255
224 237 255
224 237 255
224 237 255
224 237 255
224 237 255
224 237 255
224 237 255
224 237 255
225 237 255
225 237 255
225 237 255
225 237 255
225 237 255
225 237 255
225 237 255
222 235 253
217 230 247
205 217 234
205 217 234
186 197 213
165 175 189
154 164 178
163 174 188
140 150 163
120 129 141
118 127 139
81 89 100
62 70 80
62 70 80
61 70 80
61 69 80
61 70 80
62 70 80
61 69 80
61 69 80
61 69 80
62 70 80
62 70 80
61 70 80
61 69 80
61 70 80
61 70 80
61 70 80
61 70 80
61 70 80
62 70 80
61 69 80
62 70 80
62 70 80
62 70 80
61 70 80
62 70 80
61 69 80
61 70 80
61 70 80
61 69 80
61 69 80
61 69 80
61 70 80
62 70 80
61 70 80
62 70 80
61 69 80
62 70 80
61 70 80
61 69 80
62 70 80
62 70 80
61 69 80
61 69 80
61 70 80
61 69 80
62 70 80
61 70 80
61 69 80
61 70 80
61 69 80
61 70 80
61 70 80
61 70 80
61 69 80
61 70 80
61 70 80
61 69 80
61 69 80
61 69 80
61 70 80
61 69 80
61 70 80
62 70 80
62 70 80
61 69 80
61 70 80
61 69 80
61 70 80
61 69 80
61 70 80
61 69 80
62 70 80
61 69 80
61 70 80
61 69 80
61 69 80
61 70 80
61 69 80
61 70 80
61 70 80
62 70 80
61 70 80
61 69 80
61 69 80
61 70 80
61 70 80
61 70 80
61 69 80
62 70 80
61 70 80
61 70 80
61 70 80
61 69 80
62 70 80
61 69 80
61 69 80
62 70 80
61 70 80
61 69 80
61 70 80
61 69 80
61 70 80
62 70 80
60 69 79
51 56 64
51 56 63
49 54 60
46 51 57
45 50 56
42 47 53
43 48 53
42 46 52
47 52 58
46 51 57
49 54 60
47 52 58
46 50 57
49 54 60
46 51 57
45 50 56
44 49 55
45 49 55
47 51 57
47 51 58
46 50 56
49 54 60
45 50 56
46 51 57
45 49 55
50 54 61
44 48 54
46 51 57
44 49 55
46 51 57
47 51 57
46 50 56
49 54 60
49 54 61
47 52 59
50 55 62
47 51 57
42 46 52
41 45 51
48 52 59
47 53 59
44 48 54
49 55 62
50 54 61
45 49 55
46 50 57
48 53 59
46 51 57
47 51 57
44 48 54
48 53 60
48 53 59
48 53 59
49 54 61
46 50 56
46 51 57
46 51 57
47 52 58
46 50 57
46 50 57
45 49 55
45 50 56
45 50 56
47 52 58
46 50 57
46 51 57
49 54 60
48 52 59
41 46 51
46 51 57
45 50 56
46 51 57
48 52 59
50 55 61
47 51 58
44 48 54
46 50 56
47 52 58
48 53 59
47 52 58
46 50 56
45 50 57
43 47 52
49 54 61
47 52 58
47 51 57
48 53 60
47 52 58
48 52 59
47 51 57
47 51 57
46 50 57
48 52 58
48 53 59
50 54 60
48 53 59
49 54 60
44 48 55
49 54 60
46 51 57
45 50 56
47 52 58
44 48 54
45 49 55
42 46 52
46 51 57
49 54 61
46 51 57
47 51 57
46 50 57
45 50 56
46 50 56
47 51 57
47 52 58
48 53 59
44 49 54
45 50 56
48 53 60
44 49 55
46 50 55
49 54 60
45 49 55
44 48 54
51 57 65
62 70 80
61 69 80
61 69 80
61 70 80
61 69 80
61 69 80
61 70 80
61 69 80
61 69 80
62 70 80
60 68 79
61 69 80
61 69 80
61 70 80
61 69 80
61 69 80
61 69 80
61 69 79
61 69 80
61 70 80
62 70 80
61 70 80
61 69 80
61 69 80
60 69 80
61 70 80
62 70 80
61 69 80
62 70 80
61 70 80
61 69 80
62 70 80
62 70 80
62 70 80
62 70 80
62 70 80
61 70 80
61 70 80
61 69 80
61 69 80
61 70 80
61 70 80
61 70 80
61 69 80
62 70 80
62 70 80
61 70 80
61 70 80
61 70 80
61 70 80
61 70 80
61 69 80
62 70 80
62 70 80
61 70 80
62 70 80
62 70 80
62 70 80
61 70 80
61 70 80
61 69 80
62 70 80
61 70 80
61 70 80
61 69 80
61 70 80
61 70 80
61 69 80
61 69 80
61 69 80
61 69 80
61 70 80
61 70 80
61 69 80
61 69 80
61 70 80
61 70 80
61 70 80
61 70 80
61 70 80
62 70 80
62 70 80
61 70 80
61 70 80
61 70 80
61 69 80
61 70 80
61 70 80
61 70 80
62 70 80
61 69 80
61 69 80
62 70 80
62 70 80
61 70 80
61 70 80
62 70 80
62 70 80
61 69 80
61 70 80
62 70 80
61 70 80
62 70 80
62 70 80
90 98 108
106 114 126
92 100 111
131 141 153
137 146 159
160 171 185
170 181 195
187 198 214
202 213 230
212 224 241
213 225 242
224 236 254
225 237 255
225 237 255
225 237 255
225 237 255
225 237 255
225 237 255
224 237 255
224 237 255
224 237 255
224 237 255
224 237 255
224 237 255
224 237 255
224 237 255
224 237 255
224 237 255
224 237 255
224 237 255
224 237 255
224 237 255
224 237 255
224 237 255
224 237 255
224 237 255
224 237 255
225 237 255
225 237 255
225 237 255
225 237 255
225 237 255
225 237 255
225 237 255
225 237 255
217 230 247
207 219 236
195 206 222
193 205 221
172 182 197
166 176 191
153 163 176
140 150 163
133 143 155
110 119 131
75 83 94
61 70 80
61 69 80
62 70 80
61 70 80
61 70 80
61 69 80
62 70 80
61 69 80
61 69 80
61 70 80
61 70 80
62 70 80
61 69 80
62 70 80
61 69 80
61 69 80
62 70 80
62 70 80
61 70 80
62 70 80
62 70 80
62 70 80
61 70 80
62 70 80
60 69 80
61 69 80
62 70 80
61 70 80
62 70 80
61 69 80
61 70 80
61 69 80
62 70 80
62 70 80
61 70 80
62 70 80
61 70 80
61 70 80
62 70 80
61 70 80
61 70 80
61 70 80
62 70 80
61 69 80
61 69 80
61 70 80
61 70 80
61 70 80
62 70 80
61 70 80
61 69 80
61 70 80
61 69 80
61 70 80
61 70 80
62 70 80
61 70 80
61 70 80
61 70 80
62 70 80
61 70 80
61 70 80
61 69 80
61 70 80
61 69 80
62 70 80
61 69 80
61 70 80
61 69 80
61 69 80
61 69 80
61 69 80
61 70 80
61 69 80
61 70 80
61 70 80
62 70 80
61 70 80
61 69 80
61 69 80
61 70 80
61 69 80
61 69 80
61 69 80
61 69 80
61 69 80
61 69 80
62 70 80
61 69 80
61 70 80
62 70 80
61 69 80
61 70 80
61 70 80
62 70 80
61 69 80
61 69 80
62 70 80
61 70 80
61 70 80
61 69 80
61 70 80
61 70 80
61 69 80
62 70 80
62 70 80
61 69 80
61 69 80
61 69 80
61 70 80
61 70 80
62 70 80
61 69 80
61 69 80
61 69 80
61 70 80
60 67 77
48 53 59
43 47 53
42 47 52
46 51 57
45 50 56
51 56 63
48 52 59
47 51 57
45 50 56
39 43 49
43 47 52
44 49 55
46 50 56
44 48 54
46 50 57
47 51 57
46 51 57
44 49 55
46 50 56
50 55 62
49 54 60
46 50 57
46 50 56
48 53 59
48 53 59
48 52 59
48 52 58
48 53 59
49 54 60
48 53 60
47 51 58
50 55 61
44 49 55
45 50 56
48 53 60
46 51 57
45 50 56
50 55 62
43 47 53
49 53 60
45 49 55
46 51 57
48 53 59
44 49 55
47 52 58
44 49 55
47 51 58
46 50 57
46 51 57
47 52 58
49 54 61
50 55 62
44 49 55
49 54 60
48 52 58
47 51 57
49 54 61
50 54 61
43 47 53
47 51 57
46 50 56
44 49 55
48 53 59
51 55 62
44 49 55
45 49 55
46 51 58
48 53 60
46 51 57
49 54 60
47 52 58
44 49 55
47 52 58
44 48 54
44 49 54
48 52 59
43 48 54
47 51 57
48 53 59
45 50 56
46 50 56
47 52 58
45 50 56
47 51 58
42 46 52
45 49 55
46 51 57
44 49 55
46 51 57
48 52 58
47 51 57
48 52 58
46 51 57
46 51 57
46 50 57
48 53 59
48 52 58
48 52 58
47 52 58
48 52 58
47 52 59
49 54 60
46 51 57
50 55 62
43 47 52
42 46 52
41 45 51
45 49 55
46 50 56
43 47 53
49 54 60
46 51 57
46 51 57
42 47 53
48 53 60
47 52 58
45 49 55
44 48 54
47 52 58
46 50 56
46 51 57
45 49 55
57 64 74
61 70 80
62 70 80
61 70 80
61 69 80
62 70 80
61 70 80
61 70 80
61 69 80
61 69 80
61 69 80
61 69 80
61 70 80
61 69 80
61 70 80
61 70 80
62 70 80
61 69 80
61 69 80
61 69 80
61 70 80
61 69 80
61 69 80
61 70 80
61 69 80
61 69 80
61 70 80
61 69 80
61 70 80
61 69 80
61 69 80
62 70 80
61 70 80
62 70 80
62 70 80
62 70 80
61 70 80
61 69 80
61 70 80
62 70 80
61 69 80
61 70 80
62 70 80
62 70 80
61 70 80
62 70 80
61 69 80
62 70 80
61 70 80
61 69 80
62 70 80
61 70 80
61 69 80
62 70 80
61 70 80
60 69 80
61 70 80
62 70 80
61 70 80
61 69 80
61 70 80
61 70 80
60 69 80
62 70 80
61 70 80
61 69 80
61 70 80
62 70 80
61 70 80
62 70 80
61 70 80
62 70 80
61 70 80
61 70 80
61 70 80
61 70 80
61 70 80
61 70 80
62 70 80
61 69 80
61 69 80
61 69 80
62 70 80
61 70 80
61 70 80
62 70 80
61 69 80
62 70 80
62 70 80
61 69 80
61 70 80
62 70 80
61 69 80
62 70 80
61 69 80
61 70 80
61 69 80
61 69 80
62 70 80
61 69 80
61 70 80
61 70 80
61 70 80
62 70 80
61 70 80
62 70 80
61 70 80
61 69 80
62 70 80
61 70 80
61 70 80
61 69 80
62 70 80
61 70 80
61 70 80
61 70 80
62 70 80
75 83 94
120 129 141
126 135 147
119 127 139
156 166 180
159 169 183
177 188 203
192 204 220
210 222 239
196 207 224
220 233 251
225 237 255
225 237 255
225 237 255
225 237 255
225 237 255
225 237 255
225 237 255
224 237 255
224 237 255
225 237 255
224 237 255
214 226 244
205 217 234
192 204 220
181 192 207
181 192 207
165 175 189
143 153 166
141 151 164
114 123 135
94 102 114
69 77 87
61 70 80
61 70 80
61 69 80
61 69 80
61 70 80
62 70 80
62 70 80
61 69 80
61 70 80
61 69 80
60 69 80
62 70 80
62 70 80
62 70 80
61 69 80
61 70 80
62 70 80
61 70 80
61 70 80
62 70 80
61 69 80
62 70 80
62 70 80
62 70 80
61 69 80
61 69 80
61 69 80
61 69 80
61 70 80
61 69 80
61 70 80
60 69 80
61 70 80
61 69 80
61 70 80
61 70 80
61 70 80
61 70 80
61 70 80
62 70 80
61 69 80
62 70 80
62 70 80
61 70 80
61 69 80
61 70 80
61 69 80
61 70 80
61 69 80
61 69 80
62 70 80
61 69 80
61 70 80
62 70 80
62 70 80
62 70 80
61 69 80
61 70 80
61 70 80
62 70 80
62 70 80
61 69 80
61 70 80
61 69 80
61 69 80
62 70 80
61 69 80
61 70 80
61 69 80
61 70 80
62 70 80
61 69 80
61 70 80
61 70 80
61 69 80
61 70 80
61 69 80
61 70 80
61 69 80
61 69 80
61 70 80
61 69 80
62 70 80
61 69 80
61 70 80
60 69 80
61 69 80
62 70 80
61 70 80
61 69 80
61 70 80
61 70 80
62 70 80
61 70 80
61 69 80
61 70 80
61 69 80
61 70 80
61 69 80
62 70 80
62 70 80
61 70 80
61 70 80
61 69 80
61 69 80
61 69 80
61 69 80
62 70 80
61 69 80
61 70 80
61 69 80
62 70 80
61 69 80
61 69 80
61 69 80
61 69 80
61 69 80
62 70 80
61 69 80
61 70 80
61 70 80
61 70 80
61 69 80
61 70 80
61 69 80
62 70 80
62 70 80
60 68 79
44 48 54
46 50 56
48 53 59
41 46 51
47 52 59
44 49 55
43 47 53
45 50 56
47 52 58
48 52 58
46 51 57
44 49 55
44 49 55
42 47 52
46 50 56
45 49 55
49 54 61
46 51 57
45 50 56
49 54 60
43 47 53
46 51 57
42 46 52
48 52 58
48 53 59
46 50 56
46 51 57
43 48 53
48 53 60
45 50 56
49 53 59
47 51 58
45 50 56
50 55 61
46 50 56
46 51 57
48 53 59
47 52 59
49 54 60
50 54 61
43 48 54
47 51 58
46 51 57
49 54 60
51 56 63
48 53 59
49 53 59
46 51 57
44 48 55
51 56 62
47 52 58
49 54 60
47 52 58
50 56 63
49 54 61
52 56 63
44 49 55
42 46 52
47 52 58
46 51 57
46 51 57
45 50 56
49 54 60
47 52 58
44 48 54
47 52 59
48 53 59
45 50 56
41 45 51
47 52 58
44 48 54
45 50 56
45 50 56
45 50 56
46 51 57
48 52 59
42 47 52
48 52 58
47 52 58
48 53 60
46 50 57
45 50 56
47 51 58
39 43 49
47 51 58
45 50 56
46 50 56
47 52 58
47 52 58
47 52 58
46 51 57
47 51 57
47 51 58
48 52 59
48 52 58
46 51 58
48 52 59
53 58 64
39 43 48
44 49 55
46 51 57
46 50 56
48 52 59
42 47 53
47 52 58
44 49 55
43 48 54
52 57 64
46 50 56
47 51 57
46 50 56
49 54 61
46 50 56
45 49 55
46 51 57
42 47 52
50 54 61
44 49 55
47 51 57
47 52 58
47 51 58
49 54 61
60 68 79
61 69 80
61 69 80
61 70 80
61 70 80
62 70 80
61 69 80
61 69 80
62 70 80
61 69 80
61 69 80
61 69 80
62 70 80
61 69 80
61 70 80
61 69 80
61 69 80
61 69 80
61 69 80
61 69 80
61 69 80
61 69 80
61 69 80
61 69 80
61 70 80
61 70 80
61 69 80
61 69 80
62 70 80
61 70 80
61 69 80
61 70 80
61 69 80
62 70 80
61 69 80
62 70 80
61 69 80
61 70 80
61 70 80
61 70 80
61 70 80
60 69 80
61 69 80
62 70 80
61 69 79
61 69 80
62 70 80
61 70 80
62 70 80
61 69 80
61 70 80
61 70 80
61 69 80
61 70 80
62 70 80
62 70 80
61 69 80
60 69 80
61 69 80
62 70 80
61 69 80
61 70 80
61 69 80
61 69 80
61 69 80
61 69 80
61 70 80
62 70 80
61 69 80
61 69 80
61 70 80
61 70 80
61 69 80
62 70 80
61 69 80
61 70 80
62 70 80
61 70 80
62 70 80
62 70 80
62 70 80
61 70 80
61 69 80
61 69 80
61 70 80
62 70 80
61 69 80
61 70 80
61 70 80
61 69 80
61 70 80
61 70 80
61 70 80
61 69 80
61 69 80
61 70 80
62 70 80
61 70 80
61 69 80
62 70 80
61 70 80
61 70 80
61 69 80
61 69 80
61 70 80
61 70 80
62 70 80
61 69 80
61 69 80
61 70 80
61 69 80
61 70 80
61 70 80
61 69 80
61 69 80
62 70 80
61 70 80
61 70 80
62 70 80
61 70 80
61 70 80
62 70 80
61 70 80
62 70 80
61 69 80
61 70 80
62 70 80
62 70 80
78 86 97
99 107 119
114 123 135
131 141 153
148 158 171
145 154 168
169 179 194
182 193 209
195 206 222
206 218 235
219 232 250
62 70 80
62 70 80
61 70 80
62 70 80
61 70 80
62 70 80
61 69 80
61 70 80
61 69 80
61 70 80
62 70 80
61 69 80
62 70 80
61 70 80
62 70 80
61 70 80
61 69 80
61 69 80
61 70 80
61 70 80
61 69 80
61 70 80
62 70 80
62 70 80
61 69 80
61 70 80
62 70 80
61 69 80
62 70 80
61 69 80
61 70 80
60 69 80
62 70 80
62 70 80
62 70 80
61 70 80
61 69 80
62 70 80
61 70 80
62 70 80
61 69 80
61 69 80
61 69 80
61 69 80
61 69 80
62 70 80
61 70 80
61 70 80
62 70 80
61 69 80
61 70 80
61 70 80
60 69 80
61 69 80
61 70 80
62 70 80
62 70 80
61 69 80
61 69 80
61 69 80
61 70 80
61 69 80
61 69 80
61 70 80
61 69 80
61 69 80
61 69 80
61 70 80
61 69 80
61 70 80
61 70 80
62 70 80
61 70 80
61 69 80
61 70 80
61 70 80
61 69 80
61 70 80
61 70 80
62 70 80
61 70 80
61 69 80
61 69 80
61 69 80
62 70 80
61 69 80
61 69 80
61 69 80
61 70 80
61 70 80
62 70 80
61 70 80
61 69 80
61 69 80
61 70 80
61 69 80
61 70 80
61 69 80
61 69 80
61 69 80
62 70 80
62 70 80
61 70 80
61 69 80
62 70 80
61 69 80
61 70 80
61 69 80
61 69 80
62 70 80
61 70 80
61 70 80
61 70 80
61 69 80
60 68 79
61 69 80
61 69 80
61 69 80
61 69 80
61 69 80
61 70 80
61 69 80
61 69 80
61 69 80
61 70 80
61 69 80
61 69 80
61 69 80
62 70 80
60 69 80
60 69 80
61 69 80
61 69 80
61 70 80
61 69 80
60 69 80
60 69 80
61 69 80
60 69 80
47 53 61
41 45 51
45 49 55
46 50 56
45 50 56
46 51 57
49 54 60
45 50 56
42 46 52
46 50 56
49 53 59
47 52 58
47 51 57
48 53 59
46 51 57
47 51 57
46 51 57
48 53 59
49 53 60
49 54 61
49 53 60
47 52 58
46 50 56
42 46 52
45 49 55
44 48 54
45 49 55
44 49 55
46 50 55
44 49 56
44 49 54
46 50 57
43 48 54
44 48 54
48 52 58
47 51 58
45 49 55
45 50 55
47 52 58
46 50 57
47 52 58
46 51 58
46 51 57
46 51 57
48 53 59
48 53 60
48 53 59
47 52 58
44 48 54
45 49 55
49 54 60
45 50 56
46 51 57
43 47 53
47 51 57
45 49 55
47 51 57
46 50 56
48 52 58
44 48 54
46 50 56
38 42 47
47 52 58
48 53 59
46 51 57
48 52 59
45 49 55
45 49 55
45 50 56
46 51 57
42 47 52
48 52 59
45 50 56
48 53 60
49 53 60
44 49 55
43 47 53
48 52 59
48 53 59
50 54 61
45 49 55
49 54 61
52 57 63
47 51 58
47 52 58
41 45 50
46 50 57
46 50 56
47 52 58
47 52 58
51 56 62
49 54 61
47 52 58
48 53 59
48 53 59
47 52 58
47 51 57
43 47 53
43 47 53
45 50 56
49 54 61
45 50 55
47 52 58
44 49 54
43 47 53
48 53 59
45 50 56
50 55 61
44 48 54
47 52 58
44 49 55
45 49 55
43 47 53
45 50 56
47 52 58
46 50 56
43 48 54
47 51 57
45 49 55
44 49 54
43 48 53
50 56 64
61 69 80
61 69 80
61 69 80
60 69 80
61 69 80
62 70 80
60 69 80
61 69 80
60 69 79
61 69 80
62 70 80
61 69 80
61 69 80
60 69 80
61 69 80
61 69 80
61 69 80
62 70 80
61 69 80
61 69 80
62 70 80
61 70 80
61 70 80
61 69 80
62 70 80
61 69 80
61 69 80
61 70 80
61 69 80
62 70 80
62 70 80
61 70 80
61 69 80
61 69 80
61 69 80
62 70 80
61 70 80
62 70 80
61 69 80
61 69 80
62 70 80
61 70 80
62 70 80
61 70 80
61 70 80
62 70 80
61 70 80
61 69 80
61 69 80
61 69 80
60 69 80
61 70 80
62 70 80
61 69 80
61 70 80
61 70 80
61 69 80
61 70 80
62 70 80
61 70 80
61 69 80
61 69 80
62 70 80
62 70 80
61 70 80
62 70 80
61 70 80
61 69 80
62 70 80
61 69 80
61 69 80
62 70 80
62 70 80
62 70 80
62 70 80
61 69 80
61 70 80
61 70 80
61 69 80
62 70 80
61 70 80
61 69 80
61 69 80
61 70 80
62 70 80
61 70 80
61 70 80
61 70 80
61 70 80
62 70 80
61 69 80
61 69 80
61 69 80
61 69 80
62 70 80
62 70 80
62 70 80
62 70 80
61 69 80
61 70 80
61 70 80
62 70 80
61 69 80
61 70 80
61 69 80
61 70 80
61 70 80
61 69 80
62 70 80
61 69 80
62 70 80
61 69 80
61 69 80
62 70 80
61 70 80
61 69 80
61 69 80
61 69 80
61 70 80
61 70 80
61 69 80
61 70 80
61 70 80
61 70 80
61 70 80
61 70 80
61 69 80
61 70 80
62 70 80
61 69 80
61 70 80
61 70 80
61 69 80
61 69 80
62 70 80
61 70 80
61 70 80
62 70 80
61 70 80
61 70 80
62 70 80
61 69 80
61 70 80
61 69 80
62 70 80
61 69 80
61 69 80
61 69 80
61 69 80
61 69 80
62 70 80
61 70 80
61 69 80
61 70 80
61 70 80
61 70 80
62 70 80
61 69 80
61 69 80
61 70 80
62 70 80
61 69 80
61 69 80
61 69 80
61 69 80
62 70 80
61 70 80
62 70 80
61 69 80
61 69 80
61 69 80
61 69 80
61 70 80
61 70 80
61 69 80
61 70 80
62 70 80
61 69 80
61 70 80
61 69 80
62 70 80
61 70 80
61 69 80
62 70 80
61 69 80
62 70 80
62 70 80
61 70 80
62 70 80
61 69 80
62 70 80
61 69 80
61 69 80
61 69 80
62 70 80
62 70 80
61 69 80
61 69 80
61 70 80
61 69 80
62 70 80
62 70 80
61 69 80
61 70 80
61 69 80
61 70 80
61 69 80
61 70 80
61 69 80
61 70 80
61 69 80
61 70 80
61 69 80
61 69 80
61 69 80
61 70 80
61 70 80
61 69 80
61 69 80
61 69 80
61 70 80
61 69 80
61 69 80
61 69 80
61 69 80
61 69 80
61 70 80
61 70 80
61 69 80
61 69 80
61 70 80
61 70 80
61 69 80
61 69 80
62 70 80
61 69 80
61 69 80
62 70 80
61 69 80
62 70 80
61 70 80
62 70 80
61 70 80
61 69 80
61 69 80
62 70 80
61 70 80
61 69 80
61 69 80
61 69 80
61 69 80
61 69 80
61 69 80
61 70 80
61 69 80
61 70 80
62 70 80
61 70 80
60 69 80
62 70 80
61 69 80
61 69 80
61 70 80
61 69 80
61 69 80
61 70 80
61 70 80
62 70 80
61 69 80
62 70 80
61 69 80
61 69 80
61 69 80
61 69 80
61 69 80
61 69 80
61 69 80
62 70 80
60 67 77
44 48 54
41 45 51
46 51 57
47 51 58
39 43 48
45 49 55
46 51 56
47 51 57
44 49 54
47 51 57
41 46 51
46 50 56
46 50 56
47 51 58
46 50 56
46 51 57
47 51 57
45 49 55
49 54 60
45 49 55
47 51 57
45 49 54
43 47 53
45 50 56
45 50 56
48 52 58
45 49 55
46 50 57
44 49 55
43 47 53
46 50 56
46 51 57
45 50 56
47 51 57
46 50 56
44 48 54
46 51 57
46 51 57
45 50 55
45 50 56
45 50 56
44 48 54
48 53 59
43 47 53
47 51 58
46 50 56
46 50 56
45 50 55
45 50 56
43 47 53
48 52 59
43 48 54
45 49 55
46 51 57
46 50 56
49 54 60
49 54 60
48 53 59
45 50 56
51 55 62
43 47 53
45 49 55
50 55 61
49 53 59
44 48 55
46 51 57
46 50 56
45 49 55
43 47 53
44 49 54
45 49 54
45 49 55
48 52 58
48 53 60
49 54 60
49 54 61
44 48 54
49 53 60
44 49 55
49 54 60
45 49 55
48 52 58
48 53 59
48 52 58
48 53 59
41 45 51
47 52 58
47 51 58
48 52 59
45 49 55
47 52 58
46 50 56
45 50 56
42 46 51
49 53 60
44 48 55
45 49 55
48 53 59
46 51 57
43 48 53
45 49 55
48 53 59
43 47 53
47 52 58
46 50 56
40 44 50
43 47 53
44 48 54
46 50 57
46 50 56
47 52 58
42 46 52
45 50 56
42 46 51
47 51 57
44 48 54
48 53 59
46 50 55
46 51 57
43 48 54
56 63 73
60 69 79
61 69 80
61 69 80
61 69 80
61 70 80
61 69 80
61 69 80
61 69 80
61 69 80
61 69 80
61 69 80
61 69 80
61 70 80
61 69 80
61 69 80
62 70 80
61 70 80
60 69 80
61 70 80
61 69 80
61 70 80
61 69 80
60 69 80
61 69 80
60 69 80
61 70 80
62 70 80
60 69 80
61 69 80
61 69 80
61 69 80
61 69 80
61 70 80
61 69 80
62 70 80
61 69 80
62 70 80
61 69 80
61 70 80
61 70 80
61 70 80
61 70 80
61 69 80
60 69 80
61 69 80
60 69 80
60 69 80
61 69 80
61 69 80
61 69 80
62 70 80
61 70 80
61 69 80
61 70 80
62 70 80
61 69 80
61 70 80
62 70 80
61 69 80
61 70 80
61 69 80
60 69 80
62 70 80
62 70 80
61 70 80
61 70 80
61 70 80
61 69 80
61 70 80
61 70 80
62 70 80
61 69 80
61 69 80
61 70 80
62 70 80
61 69 80
61 70 80
61 70 80
61 69 80
61 69 80
62 70 80
61 69 80
61 70 80
61 70 80
62 70 80
61 70 80
61 69 80
62 70 80
61 69 80
62 70 80
62 70 80
61 69 80
62 70 80
61 69 80
61 69 80
61 70 80
61 70 80
61 69 80
61 69 80
61 69 80
61 69 80
61 70 80
62 70 80
61 70 80
61 70 80
61 70 80
61 70 80
61 70 80
61 69 80
62 70 80
61 70 80
61 69 80
62 70 80
61 70 80
61 70 80
61 70 80
62 70 80
61 69 80
61 69 80
61 69 80
62 70 80
61 69 80
61 70 80
62 70 80
62 70 80
61 70 80
62 70 80
61 70 80
62 70 80
61 69 80
62 70 80
61 69 80
61 69 80
61 70 80
61 69 80
61 70 80
61 70 80
61 70 80
62 70 80
61 70 80
62 70 80
61 70 80
62 70 80
61 70 80
62 70 80
62 70 80
61 70 80
62 70 80
61 70 80
61 70 80
61 70 80
62 70 80
61 70 80
61 70 80
61 70 80
62 70 80
61 69 80
61 70 80
61 69 80
61 70 80
61 70 80
61 70 80
61 69 80
61 70 80
61 69 80
61 70 80
61 70 80
61 70 80
62 70 80
61 70 80
62 70 80
61 70 80
61 69 80
61 69 80
61 69 80
62 70 80
61 70 80
61 70 80
62 70 80
61 69 80
61 70 80
61 69 80
61 70 80
61 69 80
62 70 80
61 69 80
61 70 80
61 69 80
61 70 80
61 69 80
62 70 80
61 70 80
62 70 80
62 70 80
62 70 80
61 69 80
61 69 80
61 70 80
61 70 80
61 70 80
60 69 80
62 70 80
61 70 80
61 70 80
61 69 80
61 69 80
61 69 80
61 70 80
61 69 80
61 70 80
61 69 80
61 70 80
61 70 80
61 70 80
61 69 80
61 70 80
62 70 80
61 69 80
61 70 80
62 70 80
61 69 80
62 70 80
61 70 80
61 69 80
61 69 80
61 70 80
61 69 80
61 69 80
61 69 80
61 70 80
60 69 80
61 70 80
61 70 80
61 70 80
61 69 80
61 69 80
61 69 80
61 69 80
62 70 80
61 70 80
62 70 80
61 69 80
61 70 80
61 69 80
61 69 80
61 69 80
62 70 80
61 70 80
61 69 80
61 70 80
61 69 80
61 69 80
61 69 80
61 69 80
61 69 80
61 70 80
61 69 80
61 69 80
61 69 80
61 69 80
61 69 80
61 69 80
61 69 80
61 69 80
60 68 79
60 69 80
61 69 80
61 70 80
61 69 80
61 69 80
59 68 79
61 69 80
61 70 80
62 70 80
61 69 80
61 69 80
60 69 79
61 69 80
61 69 80
46 51 58
40 44 50
51 55 62
41 45 51
45 49 55
45 49 55
45 50 56
43 47 52
45 49 55
47 52 58
50 54 60
45 49 55
48 53 59
45 49 55
44 48 55
45 50 56
43 47 52
44 48 54
46 50 56
44 48 54
43 47 53
46 51 57
44 49 54
45 49 55
42 46 52
42 46 52
50 55 61
47 52 58
42 46 52
44 48 54
45 50 56
45 49 55
45 49 55
47 51 57
45 49 55
46 51 57
44 48 54
46 50 56
46 50 57
43 47 53
46 50 56
43 48 54
42 47 52
50 55 62
46 51 57
42 46 51
47 52 58
47 52 58
46 51 57
48 53 60
43 47 53
45 49 55
45 49 55
49 53 60
45 50 56
43 48 54
48 52 58
42 46 52
48 53 60
48 53 60
48 52 59
49 54 61
46 50 56
48 53 59
47 51 57
45 50 56
46 50 56
47 51 57
47 52 58
47 52 58
46 50 56
41 45 51
45 50 56
47 51 57
44 48 54
50 54 61
50 55 62
45 49 54
46 51 58
45 50 56
47 52 58
48 52 58
45 49 55
45 49 55
47 51 58
46 51 57
46 51 57
44 48 54
46 51 57
40 44 50
45 50 56
48 52 59
43 47 53
42 46 52
48 53 59
42 46 51
48 53 59
47 52 58
45 50 56
46 51 56
44 48 54
47 52 58
47 52 58
46 50 56
48 53 60
45 50 56
39 43 49
44 48 54
47 51 58
47 51 57
45 49 55
44 48 54
40 44 50
45 50 56
44 49 54
46 50 56
48 53 60
45 50 56
40 45 50
51 56 64
61 69 80
61 69 80
62 70 80
61 69 80
60 69 80
61 69 80
61 69 80
60 68 79
61 69 80
61 69 80
60 69 79
61 69 80
61 69 79
61 69 80
61 69 80
61 70 80
62 70 80
61 69 80
61 69 79
61 69 80
62 70 80
60 69 80
61 69 80
61 70 80
62 70 80
61 69 80
61 69 80
61 70 80
61 69 80
61 69 80
61 69 80
62 69 80
61 69 80
61 70 80
61 69 80
62 70 80
61 69 80
61 69 80
61 69 80
62 70 80
60 68 79
61 69 80
61 70 80
61 70 80
62 70 80
61 69 80
61 69 80
61 70 80
62 70 80
61 70 80
61 70 80
62 70 80
61 69 80
61 70 80
61 70 80
61 70 80
61 70 80
61 69 80
61 69 80
62 70 80
61 69 80
61 69 80
61 69 80
61 69 80
61 69 80
61 69 80
61 69 80
62 70 80
62 70 80
61 69 80
61 70 80
61 70 80
60 69 80
62 70 80
62 70 80
61 69 80
62 70 80
62 70 80
62 70 80
61 70 80
61 70 80
61 70 80
61 70 80
61 69 80
61 69 80
61 69 80
61 69 80
61 69 80
62 70 80
61 70 80
61 69 80
61 70 80
61 70 80
61 70 80
61 70 80
61 70 80
61 70 80
61 70 80
61 69 80
61 70 80
61 70 80
61 69 80
61 69 80
62 70 80
61 69 80
61 70 80
61 69 80
61 69 80
61 69 80
62 70 80
62 70 80
61 69 80
61 70 80
61 70 80
61 70 80
61 69 80
61 69 80
61 70 80
61 70 80
61 69 80
61 69 80
61 69 80
61 69 80
61 70 80
61 70 80
61 69 80
61 70 80
61 69 80
62 70 80
61 70 80
61 69 80
61 70 80
61 70 80
62 70 80
62 70 80
60 69 80
62 70 80
61 70 80
61 70 80
61 70 80
62 70 80
61 69 80
61 69 80
61 70 80
61 70 80
61 70 80
61 70 80
61 70 80
61 70 80
61 69 80
62 70 80
61 69 80
61 70 80
61 69 80
61 70 80
61 69 80
62 70 80
61 69 80
61 70 80
62 70 80
61 69 80
61 70 80
61 69 80
61 70 80
61 69 80
61 70 80
61 70 80
61 69 80
61 70 80
61 70 80
61 70 80
62 70 80
62 70 80
62 70 80
61 69 80
62 70 80
61 70 80
61 69 80
61 70 80
61 69 80
61 69 80
61 70 80
62 70 80
61 70 80
61 69 80
62 70 80
61 69 80
61 70 80
62 70 80
61 69 80
61 70 80
62 70 80
61 69 80
61 70 80
61 69 80
62 70 80
61 70 80
61 70 80
61 69 80
62 70 80
61 69 80
61 69 80
61 70 80
61 69 80
61 69 80
61 69 80
61 69 80
61 70 80
62 70 80
61 69 80
61 69 80
61 69 80
61 69 80
61 70 80
61 69 80
61 69 80
61 69 80
62 70 80
61 70 80
61 70 80
61 69 80
61 69 80
61 69 80
61 70 80
61 69 80
61 69 80
61 70 80
61 70 80
61 70 80
62 70 80
60 68 79
61 69 80
61 69 80
62 70 80
61 69 80
61 69 80
61 69 80
61 69 80
61 70 80
61 69 80
62 70 80
60 68 79
61 70 80
61 69 80
61 69 80
61 69 80
60 69 80
61 70 80
61 69 80
61 69 80
61 69 80
61 70 80
61 69 80
61 69 80
60 69 80
61 69 80
61 69 80
61 69 79
61 69 80
61 70 80
61 69 80
61 69 80
61 69 80
60 68 79
61 69 80
60 68 79
60 68 79
61 70 80
61 69 80
61 70 80
61 69 80
61 69 80
60 68 79
60 68 79
60 69 80
61 69 79
60 68 78
61 69 80
60 68 79
61 69 80
55 61 71
43 47 52
42 46 52
44 49 54
44 48 54
42 46 52
43 47 53
43 47 52
42 46 52
45 49 55
46 51 56
46 50 56
47 52 58
49 53 60
47 52 58
43 47 53
43 47 53
43 47 52
45 49 55
44 49 55
45 50 55
44 49 55
47 51 57
47 52 58
48 53 59
47 51 57
44 48 54
47 52 57
49 54 60
44 48 54
45 49 55
50 55 61
47 52 58
50 55 62
46 50 56
45 49 55
45 50 56
44 48 54
42 47 52
45 49 55
47 51 57
44 48 54
44 48 54
47 52 58
46 50 56
43 47 53
48 53 59
47 51 58
46 51 57
47 51 58
42 46 52
48 52 59
41 45 51
45 49 55
45 49 55
46 51 57
45 50 56
47 52 58
47 52 58
42 47 52
47 51 58
46 51 57
47 51 57
48 52 58
45 50 56
46 51 57
45 49 55
49 53 60
45 49 56
50 54 61
50 54 61
48 53 59
47 52 58
46 51 57
46 50 56
45 49 55
44 49 54
45 50 56
48 52 58
43 47 52
47 51 58
46 51 57
46 51 58
46 51 57
51 56 62
46 51 57
47 52 59
45 50 56
45 50 56
44 48 54
47 51 58
46 51 57
43 48 53
42 46 52
44 49 54
45 49 55
42 46 52
47 52 58
45 50 56
46 50 56
45 49 55
45 49 55
42 46 52
46 51 57
44 49 55
48 53 59
47 52 58
39 44 49
43 47 53
41 45 51
45 50 56
45 49 55
45 49 55
44 48 54
48 52 59
43 48 54
45 50 56
44 48 54
44 49 54
55 62 71
61 70 80
61 69 80
60 69 80
61 69 80
61 69 80
60 68 79
60 69 80
61 69 80
60 69 80
61 69 80
61 69 80
60 68 79
60 69 80
60 69 79
61 69 80
61 69 80
62 70 80
62 70 80
61 70 80
61 69 80
61 69 80
61 69 80
61 69 80
61 69 80
61 69 80
61 69 80
60 68 79
61 70 80
60 69 79
62 70 80
62 70 80
60 69 80
61 69 80
61 69 80
60 69 80
61 69 80
60 69 80
60 69 79
61 69 80
62 70 80
61 69 80
61 69 80
61 69 80
61 69 80
61 69 80
61 69 80
62 70 80
61 70 80
61 69 80
62 70 80
62 70 80
61 70 80
61 70 80
61 69 80
61 70 80
61 69 80
61 69 80
61 69 80
62 70 80
61 69 80
62 70 80
61 70 80
61 69 80
61 70 80
61 69 80
61 69 80
61 70 80
62 70 80
61 70 80
61 69 80
61 70 80
61 69 80
61 70 80
61 70 80
61 69 80
61 70 80
61 69 80
62 70 80
61 69 80
61 70 80
62 70 80
61 69 80
62 70 80
61 70 80
61 70 80
61 70 80
61 69 80
62 70 80
62 70 80
61 69 80
61 70 80
61 70 80
61 70 80
61 70 80
62 70 80
61 70 80
61 70 80
61 70 80
61 70 80
61 70 80
61 69 80
61 70 80
61 70 80
61 70 80
61 70 80
61 70 80
61 69 80
62 70 80
62 70 80
62 70 80
61 69 80
61 70 80
61 69 80
61 69 80
62 70 80
61 69 80
62 70 80
61 70 80
61 69 80
61 69 80
62 70 80
61 69 80
61 69 80
61 69 80
62 70 80
61 70 80
61 70 80
62 70 80
62 70 80
62 70 80
61 70 80
61 70 80
61 69 80
61 70 80
61 70 80
62 70 80
61 70 80
61 69 80
62 70 80
61 69 80
61 70 80
60 69 80
61 69 80
62 70 80
61 70 80
61 70 80
61 70 80
61 70 80
61 69 80
62 70 80
62 70 80
62 70 80
62 70 80
61 70 80
61 69 80
61 69 80
61 70 80
61 69 80
61 70 80
61 70 80
61 69 80
61 70 80
62 70 80
61 70 80
61 69 80
61 69 80
61 69 80
61 70 80
61 69 80
61 70 80
61 70 80
61 70 80
61 70 80
62 70 80
62 70 80
61 69 80
61 70 80
61 70 80
61 70 80
61 69 80
62 70 80
61 70 80
61 69 80
61 69 80
61 70 80
61 69 80
61 70 80
61 69 80
62 70 80
61 69 80
61 70 80
61 70 80
61 70 80
61 70 80
61 69 80
62 70 80
61 70 80
61 69 80
61 70 80
61 69 80
61 70 80
62 70 80
61 70 80
61 70 80
61 69 80
61 70 80
61 70 80
61 70 80
61 70 80
62 70 80
61 70 80
61 69 80
61 69 80
62 70 80
62 70 80
61 69 80
61 69 80
61 69 80
62 70 80
61 69 80
61 69 80
61 70 80
61 69 80
61 69 80
61 69 80
61 70 80
62 70 80
61 69 80
61 69 79
60 69 80
61 69 80
61 69 80
61 69 80
62 70 80
61 69 80
61 70 80
61 70 80
62 70 80
61 69 80
61 69 80
61 69 80
60 68 79
61 70 80
61 70 80
61 69 80
61 70 80
62 70 80
62 69 80
61 69 80
62 70 80
61 69 80
61 69 80
61 69 80
61 69 80
61 69 80
61 69 80
61 69 80
61 69 80
61 70 80
61 69 80
61 69 80
61 69 79
61 70 80
61 69 80
61 69 80
61 69 80
61 69 80
61 69 80
61 69 79
61 69 80
62 70 80
61 69 80
61 69 79
60 69 80
61 69 80
61 69 80
62 70 80
60 68 79
59 67 78
61 69 80
61 69 79
42 47 53
42 47 52
47 51 57
46 50 56
44 48 54
45 50 55
43 47 53
45 49 55
40 44 50
46 51 57
41 45 51
47 51 57
45 49 55
45 49 55
44 49 55
43 48 53
44 49 54
48 52 58
48 52 58
41 45 51
45 50 56
47 52 58
44 48 54
46 51 57
48 52 58
47 52 59
43 47 53
45 50 56
44 48 53
45 50 56
45 49 55
44 49 54
44 48 54
43 47 53
45 50 56
45 50 56
46 50 56
43 48 54
44 48 54
46 51 57
45 50 56
47 52 58
47 51 57
42 47 52
46 50 56
43 47 53
47 51 57
45 50 56
47 51 57
43 47 53
49 53 60
45 49 55
47 51 57
44 48 53
43 48 54
49 53 59
46 50 56
47 51 57
44 49 55
46 51 57
45 50 55
46 50 56
44 48 54
46 50 56
41 45 51
40 44 50
45 49 55
44 48 54
46 51 58
44 48 54
46 51 57
48 52 58
47 52 58
45 50 56
47 51 57
47 52 58
43 48 54
46 51 57
49 54 60
46 50 57
45 49 55
45 49 55
40 44 50
46 50 57
44 49 54
46 50 56
45 50 56
45 50 56
43 48 53
43 47 53
44 49 55
46 50 56
46 50 56
46 51 57
48 52 58
48 53 59
45 50 56
46 50 56
47 52 58
46 51 57
44 48 54
49 53 59
43 47 53
46 50 56
45 50 55
42 46 51
46 51 57
46 50 56
47 52 58
42 46 51
45 50 56
45 49 55
40 44 50
44 49 55
44 48 53
46 50 56
45 50 55
44 48 54
59 67 78
60 69 80
61 69 80
61 69 80
60 69 79
61 70 80
60 69 80
61 70 80
60 69 79
61 69 80
60 69 80
61 69 80
61 69 80
61 69 80
61 70 80
61 69 80
61 69 80
61 69 80
61 69 80
61 69 80
61 69 79
61 69 79
61 69 80
60 69 80
61 69 80
61 69 80
61 69 80
61 70 80
60 68 79
61 69 80
61 69 79
61 69 80
61 69 80
61 69 80
61 70 80
61 69 80
61 69 80
61 69 80
61 70 80
61 70 80
62 70 80
61 69 80
61 69 79
61 70 80
61 70 80
60 68 79
61 69 80
61 69 80
62 70 80
61 69 80
61 70 80
61 69 80
62 70 80
61 69 80
60 68 79
62 70 80
61 69 80
61 69 80
61 69 80
61 69 80
62 70 80
61 69 80
61 69 80
61 69 80
61 70 80
62 70 80
61 69 80
61 69 80
61 69 80
61 69 80
61 69 80
61 70 80
61 69 80
61 69 80
62 70 80
61 69 80
62 70 80
61 69 80
61 69 80
62 70 80
61 69 80
61 70 80
62 70 80
61 69 80
61 70 80
62 70 80
61 70 80
61 69 80
61 70 80
60 69 80
61 69 80
61 69 80
62 70 80
61 70 80
61 70 80
62 70 80
61 70 80
61 69 80
61 69 80
61 69 80
61 69 80
61 70 80
61 69 80
61 70 80
62 70 80
61 70 80
61 70 80
61 69 80
62 70 80
61 69 80
61 69 80
62 70 80
61 70 80
61 69 80
61 70 80
61 70 80
61 69 80
62 70 80
61 70 80
61 70 80
62 70 80
61 69 80
61 70 80
62 70 80
61 69 80
61 70 80
61 69 80
61 69 80
61 70 80
62 70 80
61 69 80
61 70 80
62 70 80
61 70 80
61 69 80
61 70 80
61 69 80
61 69 80
62 70 80
61 70 80
61 69 80
61 69 80
61 69 80
62 70 80
62 70 80
61 69 80
61 69 80
62 70 80
62 70 80
61 69 80
62 70 80
61 69 80
61 70 80
61 69 80
62 70 80
62 70 80
62 70 80
60 69 80
62 70 80
61 69 80
62 70 80
61 69 80
61 70 80
61 69 80
61 70 80
62 70 80
61 70 80
61 69 80
62 70 80
62 70 80
61 69 80
61 69 80
61 70 80
61 69 80
61 70 80
61 69 80
61 69 80
61 70 80
62 70 80
61 70 80
61 70 80
62 70 80
61 69 80
62 70 80
61 70 80
61 69 80
61 69 80
61 69 80
61 69 80
61 70 80
61 69 80
61 69 80
61 69 80
60 69 80
61 70 80
61 70 80
61 70 80
61 70 80
62 70 80
62 70 80
62 70 80
61 69 80
61 70 80
62 70 80
61 69 80
61 70 80
61 69 80
61 70 80
61 69 80
61 69 80
61 69 80
61 69 80
61 69 80
61 70 80
61 69 80
61 69 80
61 69 80
61 69 80
62 70 80
61 69 80
61 69 80
61 70 80
61 70 80
61 69 80
61 69 80
61 69 80
61 69 80
60 69 80
61 69 80
61 69 80
61 70 80
61 70 80
61 69 80
61 69 80
61 69 80
60 68 79
61 70 80
61 69 80
61 69 80
60 69 80
61 70 80
61 69 80
61 70 80
60 68 79
61 69 80
61 70 80
61 69 80
61 70 80
61 70 80
61 70 80
61 70 80
61 69 80
61 69 80
61 69 80
62 70 80
61 69 80
60 69 79
62 70 80
61 70 80
61 69 80
61 69 80
61 69 80
59 67 77
61 69 80
61 69 80
61 70 80
61 69 80
61 69 80
61 69 80
59 67 77
60 69 79
61 69 80
60 68 79
61 69 79
60 69 80
61 69 80
60 69 79
59 68 78
61 69 79
60 69 80
61 69 80
60 68 79
53 59 68
42 46 52
43 47 53
46 50 56
45 50 56
42 46 52
46 50 55
41 45 51
40 44 50
41 45 51
43 47 53
42 46 51
47 52 58
43 48 53
43 47 53
46 51 57
45 49 55
45 49 55
44 48 54
42 47 53
43 47 52
45 49 55
44 49 54
44 48 54
51 56 62
49 53 60
46 50 56
42 46 51
40 44 50
45 50 56
45 50 56
43 48 54
41 46 51
46 50 56
46 51 57
44 49 54
44 49 55
49 54 60
45 49 55
48 53 59
48 52 58
45 50 56
47 52 59
42 47 52
44 48 54
44 48 54
41 45 51
48 53 59
46 50 56
42 47 52
41 45 51
40 44 49
47 52 59
46 51 57
45 49 55
47 51 57
45 50 56
41 46 52
42 47 52
42 46 51
46 51 57
42 46 51
48 52 59
49 53 60
45 49 55
43 47 53
46 50 56
44 49 55
47 51 56
43 47 53
43 47 53
47 51 57
44 48 54
40 44 50
42 46 51
44 48 54
46 51 57
48 52 59
41 46 51
44 48 54
48 53 59
47 51 57
43 48 54
38 42 47
42 46 52
47 52 58
46 51 57
41 45 51
48 52 58
45 49 55
46 51 58
41 45 50
48 52 58
45 50 56
47 51 57
44 48 55
46 50 56
46 50 56
46 51 58
45 49 55
43 47 53
46 50 56
47 51 57
42 47 52
44 48 53
46 51 57
43 47 53
41 45 51
47 51 57
47 51 57
46 50 56
41 46 51
45 50 56
45 49 55
49 53 59
41 45 51
43 47 52
53 59 68
61 69 80
59 68 79
60 69 80
60 69 80
61 70 80
60 69 79
61 70 80
60 69 80
61 69 80
61 69 79
60 68 79
60 69 80
61 69 79
60 69 80
60 68 79
61 68 79
61 69 80
61 69 80
61 69 80
60 69 79
61 70 80
61 69 80
61 70 80
61 69 79
60 69 79
61 69 80
61 69 80
61 70 80
61 69 80
61 69 80
61 69 80
61 69 80
60 68 79
61 69 80
61 69 80
62 70 80
61 69 80
60 69 80
61 69 80
61 69 80
61 69 80
61 70 80
62 70 80
61 69 80
61 70 80
61 69 79
61 69 80
62 70 80
61 69 80
61 69 80
61 69 80
61 70 80
61 69 80
61 69 79
61 69 80
62 70 80
61 69 80
61 69 80
61 70 80
61 69 80
61 70 80
61 69 80
61 69 80
61 69 80
61 69 80
61 69 80
61 69 80
61 70 80
61 70 80
61 69 80
61 70 80
61 70 80
61 70 80
61 69 80
61 69 80
61 70 80
61 70 80
61 69 80
61 69 80
61 69 80
61 69 80
61 70 80
61 69 80
61 70 80
61 69 80
61 69 80
61 70 80
62 70 80
61 70 80
61 69 80
61 70 80
61 69 80
62 70 80
61 70 80
61 69 80
61 69 80
61 70 80
61 70 80
61 69 80
61 69 80
61 69 80
62 70 80
62 70 80
62 70 80
61 70 80
61 70 80
61 69 80
61 69 80
61 70 80
61 69 80
62 70 80
62 70 80
61 70 80
61 69 80
62 70 80
61 70 80
62 70 80
61 69 80
61 69 80
60 69 80
62 70 80
61 70 80
62 70 80
61 70 80
61 69 80
61 69 79
61 70 80
61 70 80
61 70 80
61 70 80
61 69 80
62 70 80
61 69 80
61 69 80
60 69 80
61 69 80
61 69 80
62 70 80
61 69 80
61 69 80
62 70 80
61 70 80
61 70 80
61 69 80
61 69 80
61 69 80
61 69 80
61 70 80
62 70 80
61 70 80
61 69 80
61 69 80
61 70 80
61 69 80
61 69 80
62 70 80
60 69 80
61 69 80
61 69 80
61 69 80
61 69 80
61 70 80
61 70 80
61 69 80
61 70 80
62 70 80
61 70 80
62 70 80
61 70 80
61 70 80
62 70 80
61 69 80
61 70 80
62 70 80
62 70 80
62 70 80
61 69 80
61 69 80
62 70 80
62 70 80
62 70 80
61 69 80
61 70 80
61 70 80
61 70 80
62 70 80
61 69 80
61 69 80
62 70 80
61 70 80
61 69 80
61 70 80
59 68 79
62 70 80
61 70 80
61 69 80
61 69 80
61 69 80
61 69 80
60 69 80
61 70 80
61 69 80
61 70 80
61 69 80
62 70 80
61 70 80
61 69 80
61 70 80
61 69 80
61 69 80
62 70 80
61 70 80
61 69 79
61 70 80
61 69 80
61 69 80
61 69 80
61 69 80
61 70 80
61 69 80
61 70 80
61 69 80
61 69 80
61 70 80
62 70 80
60 69 80
61 69 80
61 69 79
61 69 80
61 69 80
62 70 80
61 69 80
61 69 80
61 69 80
60 69 80
61 69 80
61 69 80
61 70 80
60 68 79
61 69 80
61 70 80
61 69 80
61 69 80
62 70 80
61 69 79
60 68 79
60 69 80
61 70 80
60 69 80
61 69 80
61 69 80
61 69 80
61 69 80
61 69 80
61 70 80
62 70 80
61 69 80
60 69 80
61 69 80
61 70 80
61 69 80
61 69 79
61 69 80
61 69 80
61 69 80
61 69 80
61 69 80
60 69 80
61 69 80
61 69 80
60 68 79
61 69 80
60 68 79
59 68 79
60 68 78
61 69 80
60 69 79
61 69 80
60 68 79
61 69 80
61 69 80
60 68 79
58 65 76
43 47 53
40 44 49
39 43 49
44 48 54
46 51 56
43 47 52
45 49 55
44 48 54
45 49 55
46 50 57
46 50 56
47 51 57
47 52 58
46 51 57
43 47 53
46 50 56
44 48 54
45 49 55
47 52 58
48 52 59
44 48 54
46 51 57
39 43 49
47 52 58
47 51 57
41 45 51
44 48 53
41 45 51
42 46 51
43 48 54
45 50 56
47 51 57
46 50 56
44 48 54
48 53 59
45 50 56
45 50 56
48 52 59
43 47 54
48 53 59
43 48 53
46 50 56
49 54 60
47 52 58
47 51 57
42 46 52
42 46 52
45 49 56
49 54 60
46 51 57
41 45 51
42 46 52
49 54 60
42 46 52
43 47 52
51 55 62
46 50 56
42 47 52
43 47 52
44 48 54
43 47 53
41 45 51
45 50 56
43 47 53
46 50 56
46 50 57
45 49 55
46 51 57
48 53 59
46 51 57
47 52 59
44 49 55
44 48 54
46 51 57
46 50 56
42 46 52
46 51 57
45 49 56
45 50 56
44 48 54
44 48 54
47 51 57
43 47 53
48 52 58
49 54 60
47 51 57
47 52 58
46 51 57
47 52 58
46 51 57
48 53 59
41 45 50
46 50 56
41 45 50
45 49 55
44 48 54
45 49 54
44 49 55
43 48 53
43 48 54
45 50 56
43 47 52
43 47 52
45 50 56
44 49 55
47 51 57
45 50 55
47 52 58
41 46 51
50 54 61
43 47 53
42 47 52
43 47 53
42 46 51
40 44 50
43 47 53
59 67 77
60 68 79
61 69 80
61 69 79
60 68 78
60 68 79
60 69 79
61 69 80
60 67 78
60 68 79
61 69 80
61 69 79
62 70 80
61 69 80
60 68 79
61 69 80
61 69 80
61 69 80
61 69 79
61 69 80
61 69 80
60 69 80
60 68 78
60 69 80
60 68 79
61 69 80
62 70 80
61 69 80
61 70 80
61 70 80
60 68 79
61 69 80
61 69 80
61 69 80
61 69 80
61 69 80
61 70 80
60 68 79
61 69 80
61 69 80
61 69 80
61 69 80
61 69 80
60 69 80
61 70 80
62 70 80
61 69 80
61 70 80
61 69 80
60 68 79
61 69 80
62 69 80
61 70 80
61 69 80
61 69 80
61 70 80
61 69 80
62 70 80
61 69 80
61 69 80
61 69 80
60 68 79
61 69 80
62 70 80
61 69 80
61 69 80
62 70 80
61 70 80
62 70 80
61 69 80
61 69 80
61 69 80
61 70 80
61 70 80
61 69 80
61 70 80
61 70 80
61 70 80
61 69 80
61 69 80
61 69 80
61 70 80
61 69 80
61 69 80
62 70 80
61 70 80
61 69 80
62 70 80
61 70 80
61 70 80
61 70 80
60 69 80
61 69 80
61 69 80
61 69 80
61 69 80
62 70 80
60 69 80
60 68 79
61 69 80
61 69 80
61 70 80
61 70 80
61 69 80
62 70 80
61 70 80
61 70 80
61 69 80
61 70 80
61 70 80
61 69 80
61 69 80
62 70 80
61 69 80
61 69 80
62 70 80
62 70 80
61 69 80
62 70 80
61 70 80
62 70 80
61 70 80
61 70 80
62 70 80
61 69 80
61 69 80
62 70 80
61 70 80
62 70 80
61 69 80
61 70 80
61 70 80
61 69 80
61 69 80
62 70 80
61 69 80
61 69 80
61 69 80
62 70 80
62 70 80
61 70 80
61 70 80
62 70 80
62 70 80
61 69 80
62 70 80
61 70 80
62 70 80
61 69 80
61 69 80
61 70 80
62 70 80
62 70 80
61 70 80
62 70 80
61 70 80
61 70 80
61 70 80
62 70 80
61 69 80
62 70 80
61 69 80
61 69 80
61 69 80
60 69 80
61 69 80
62 70 80
61 69 80
61 69 80
61 70 80
62 70 80
61 70 80
61 69 80
61 70 80
61 70 80
61 70 80
62 70 80
61 69 80
61 70 80
62 70 80
61 70 80
61 70 80
61 70 80
61 69 80
61 69 80
61 69 80
61 69 80
60 69 80
61 70 80
62 70 80
62 70 80
62 70 80
61 70 80
61 70 80
60 69 80
61 69 80
61 69 80
61 69 80
61 69 80
61 69 80
61 69 80
60 69 80
61 69 80
60 69 80
62 70 80
61 69 80
61 69 80
62 70 80
61 69 80
60 69 80
61 70 80
62 70 80
61 70 80
61 70 80
61 69 80
61 70 80
61 69 80
61 69 80
61 69 80
61 70 80
61 69 80
61 69 79
61 69 80
61 70 80
61 70 80
62 70 80
61 69 80
61 70 80
61 70 80
61 69 80
61 70 80
61 69 80
61 69 80
61 70 80
61 69 80
61 69 80
61 69 80
61 69 80
61 70 80
61 69 80
60 68 79
60 69 80
60 69 80
61 69 80
61 69 79
61 69 79
61 70 80
61 69 80
61 69 80
60 68 79
61 69 80
60 68 79
61 69 80
60 68 79
61 69 80
60 68 79
60 68 79
61 69 80
61 69 80
61 69 79
60 69 80
61 69 80
61 69 80
60 68 79
61 69 80
60 69 79
60 68 79
61 69 80
61 69 79
60 69 79
59 68 79
61 69 80
60 69 80
59 68 79
60 68 78
60 69 80
61 69 80
61 69 80
61 69 80
59 67 77
61 69 80
61 69 80
60 68 79
61 69 79
49 55 62
43 47 53
35 38 43
41 45 51
44 48 53
44 49 54
43 47 53
43 47 52
49 53 60
45 49 55
45 49 55
47 52 58
43 47 52
40 44 50
44 49 55
46 51 57
43 47 53
43 47 53
47 51 57
41 44 50
40 43 48
42 46 51
47 51 57
47 51 57
47 52 57
41 45 50
45 49 55
47 52 58
44 48 53
46 50 56
41 45 51
41 45 51
47 52 58
42 46 52
48 53 59
46 51 57
45 49 55
42 46 52
46 50 56
43 47 52
42 47 53
41 45 51
44 48 54
43 48 54
46 50 56
43 47 53
47 51 57
41 45 51
45 49 56
45 49 55
42 47 52
45 49 55
45 50 56
42 46 52
40 44 49
44 48 54
47 52 58
46 50 56
42 46 51
41 46 51
44 48 54
50 54 61
46 50 56
47 52 58
42 46 52
45 49 54
45 49 55
46 50 56
45 49 55
44 48 53
42 47 53
46 51 57
47 51 58
42 46 52
44 48 54
42 47 52
41 45 50
47 52 58
45 49 55
46 50 56
46 51 57
42 46 52
46 50 56
43 47 53
45 49 55
44 48 54
44 48 54
44 49 54
46 50 55
46 50 56
43 48 54
47 52 57
42 46 52
43 47 53
41 45 51
41 46 51
42 46 52
46 50 56
43 48 54
43 47 54
44 48 54
43 48 54
45 49 54
47 52 58
42 46 52
42 46 51
46 50 56
44 48 54
45 49 55
42 46 52
41 45 50
47 51 57
39 43 48
41 45 50
43 48 53
52 59 67
60 68 79
59 67 77
60 68 78
60 69 80
60 69 79
60 68 79
61 69 80
61 69 79
61 69 80
60 69 80
60 68 79
61 70 80
60 69 79
60 68 79
60 69 79
61 69 79
60 69 79
61 69 80
60 69 79
61 69 80
61 69 80
60 69 79
60 68 79
60 68 79
61 69 80
61 69 80
60 68 78
61 69 80
60 68 79
61 69 80
61 69 80
61 70 80
61 69 80
60 68 79
61 69 80
60 69 80
60 69 79
60 69 80
61 69 80
61 69 80
61 69 80
61 69 80
60 69 79
62 70 80
61 69 80
61 69 80
61 70 80
61 70 80
60 69 80
61 69 80
61 69 80
61 69 80
61 70 80
60 68 79
62 70 80
61 69 80
61 69 80
61 69 80
61 69 80
60 68 80
61 69 80
61 69 80
62 70 80
61 69 80
60 68 79
61 69 80
62 70 80
61 69 80
61 70 80
61 70 80
62 70 80
61 69 80
60 69 80
61 70 80
61 70 80
61 69 80
62 70 80
61 69 80
61 69 80
61 69 80
61 69 80
61 69 80
61 69 80
61 69 80
61 69 80
62 70 80
61 69 80
62 70 80
61 69 80
62 70 80
61 70 80
61 69 80
62 70 80
61 70 80
61 69 80
62 70 80
61 70 80
62 70 80
61 70 80
61 70 80
61 70 80
61 69 80
61 69 80
61 70 80
61 70 80
61 70 80
61 69 80
62 70 80
61 70 80
62 70 80
61 70 80
61 70 80
61 69 80
61 70 80
61 69 80
61 69 80
62 70 80
61 69 80
61 69 80
61 70 80
61 69 80
61 70 80
61 70 80
61 70 80
61 70 80
61 69 80
62 70 80
61 69 80
61 69 80
61 70 80
61 70 80
61 69 80
61 70 80
61 69 80
61 69 80
61 69 80
61 69 80
61 70 80
61 69 80
61 70 80
61 70 80
62 70 80
61 70 80
62 70 80
61 70 80
61 69 80
61 69 80
62 70 80
61 69 80
61 69 80
62 70 80
61 69 80
61 70 80
61 69 80
61 69 80
61 69 80
61 69 80
61 69 80
61 70 80
61 70 80
61 69 80
61 69 80
61 70 80
61 70 80
60 69 80
62 70 80
61 69 80
60 69 80
61 69 80
62 70 80
61 69 80
60 69 80
62 70 80
62 70 80
61 69 80
61 69 80
61 69 80
61 69 80
60 69 80
60 69 80
61 69 80
62 70 80
62 70 80
61 69 80
61 70 80
61 70 80
61 70 80
61 69 80
62 70 80
61 69 80
61 70 80
62 70 80
61 69 80
61 70 80
61 69 80
62 70 80
61 69 80
61 70 80
61 69 80
61 69 80
61 69 80
62 70 80
61 69 80
61 69 80
61 70 80
61 69 80
61 69 80
61 69 80
61 69 80
62 70 80
61 69 80
61 69 80
62 69 80
61 70 80
61 69 80
61 70 80
61 69 80
62 70 80
61 70 80
61 70 80
61 69 80
61 69 80
61 69 80
61 69 80
61 69 80
60 69 80
61 69 80
60 68 79
60 69 80
61 70 80
61 69 80
61 69 80
60 69 79
60 68 79
62 70 80
60 69 80
61 69 80
61 69 80
61 69 80
60 68 79
60 69 80
60 68 79
61 69 80
61 69 80
61 69 80
61 69 79
60 68 78
60 69 80
61 70 80
60 68 79
61 69 80
61 69 79
61 69 80
60 68 79
61 69 80
60 69 80
61 69 80
60 69 79
60 68 79
59 68 78
60 69 80
60 69 80
61 69 80
60 68 79
61 69 80
60 68 79
61 69 80
61 69 80
61 69 79
61 70 80
60 69 79
60 69 80
59 67 78
61 69 79
60 69 79
60 68 79
60 68 79
58 66 77
60 68 79
60 69 79
60 69 79
60 68 79
60 68 79
60 69 80
58 65 76
47 52 58
45 49 55
43 48 53
43 47 52
41 44 49
42 46 52
43 48 53
46 51 57
39 43 49
41 45 51
43 47 53
44 49 55
43 48 53
41 45 50
44 48 53
41 45 50
43 47 52
47 52 58
44 48 53
46 50 57
48 52 58
47 52 58
46 50 56
44 49 55
43 47 52
45 49 55
42 46 52
42 46 52
41 45 50
42 46 52
46 50 56
47 52 58
42 46 52
44 48 54
44 49 55
44 48 54
43 47 53
45 49 55
44 49 54
44 48 53
47 51 58
43 47 53
44 49 55
47 51 57
45 50 56
47 52 58
46 51 57
44 49 55
43 47 52
45 49 55
42 47 52
46 51 57
44 48 54
42 46 52
48 52 58
41 45 50
45 49 55
47 51 58
45 49 55
42 46 51
44 48 54
46 51 57
42 46 52
47 52 58
48 52 58
48 53 60
45 49 55
47 51 57
48 52 59
44 49 55
44 49 55
46 50 56
45 49 55
42 46 52
43 48 54
45 49 55
43 48 53
45 49 55
43 47 53
44 48 54
47 52 58
42 46 52
41 45 50
42 47 52
43 47 53
44 49 55
45 50 56
41 45 51
42 46 52
45 50 55
45 50 56
45 49 55
45 49 55
45 49 55
42 46 52
41 45 50
42 46 52
44 49 55
42 46 52
44 49 54
46 50 56
40 44 49
46 50 56
45 49 54
43 48 54
46 50 56
44 49 54
40 44 49
41 45 51
41 45 51
45 49 54
43 48 53
41 45 50
46 50 56
59 67 77
61 70 80
60 68 79
60 69 80
61 69 80
59 67 78
61 69 80
60 68 78
60 68 79
60 69 79
60 68 79
60 68 79
61 69 80
61 69 80
60 68 79
60 69 80
61 69 80
59 68 78
60 68 79
61 69 80
62 70 80
61 69 80
60 68 79
59 67 78
61 69 80
60 69 80
60 69 80
60 68 79
61 69 80
60 69 80
60 69 79
61 69 80
61 69 79
61 69 80
60 68 79
60 68 79
60 69 79
61 69 80
61 69 80
61 69 79
60 69 80
61 69 80
61 69 80
60 69 79
61 69 80
61 69 79
61 69 80
61 69 80
61 70 80
62 70 80
61 69 80
61 70 80
61 69 80
60 68 79
61 69 80
60 68 79
60 68 79
60 69 80
61 69 80
61 69 80
61 69 80
61 69 80
61 69 80
61 69 80
61 69 80
61 69 80
61 70 80
61 69 80
61 69 80
61 69 80
61 69 80
61 69 80
62 70 80
62 70 80
60 69 80
61 70 80
61 69 80
62 70 80
61 69 80
61 70 80
61 70 80
61 70 80
61 69 80
61 69 80
61 70 80
61 69 80
61 69 80
61 69 80
61 69 80
61 69 80
61 70 80
61 69 80
61 69 80
62 70 80
61 70 80
61 70 80
62 70 80
61 70 80
61 69 80
61 70 80
61 69 80
62 70 80
61 69 80
61 69 80
61 69 80
62 70 80
61 69 80
61 70 80
61 69 80
61 69 80
62 70 80
61 70 80
61 69 80
62 70 80
61 69 80
61 70 80
61 70 80
61 69 80
61 69 80
61 69 80
62 70 80
61 70 80
61 69 80
61 70 80
61 70 80
61 69 80
61 69 80
62 70 80
62 70 80
61 69 80
62 70 80
61 69 80
61 69 80
61 69 80
61 70 80
61 69 80
62 70 80
61 70 80
61 70 80
61 69 80
61 69 80
61 69 80
61 69 80
62 70 80
61 70 80
61 70 80
61 69 80
61 70 80
61 69 80
61 69 80
61 70 80
61 69 80
61 69 80
61 69 80
62 70 80
61 69 80
61 70 80
61 70 80
61 70 80
61 70 80
61 69 80
61 70 80
61 69 80
61 69 80
61 70 80
61 69 80
62 70 80
61 69 80
61 69 80
61 69 80
61 70 80
61 69 80
61 70 80
61 70 80
61 69 80
61 69 80
61 69 80
61 69 80
62 70 80
61 69 80
62 70 80
61 70 80
61 69 80
61 70 80
61 70 80
61 70 80
60 69 80
61 69 80
61 69 80
61 70 80
61 69 80
61 69 80
61 70 80
61 70 80
61 69 80
61 70 80
61 69 80
61 69 80
61 69 80
60 69 80
60 69 80
62 70 80
61 69 80
61 69 80
62 70 80
61 69 80
60 69 80
61 70 80
60 69 80
61 69 80
61 69 80
61 69 80
61 69 80
62 70 80
62 70 80
60 69 80
61 69 80
61 69 80
61 69 79
62 70 80
61 69 80
62 70 80
61 69 80
61 69 80
61 70 80
62 70 80
61 69 80
60 68 79
61 69 80
60 68 79
61 70 80
61 69 79
61 69 79
62 70 80
61 69 80
61 69 80
61 70 80
61 69 80
62 70 80
61 69 80
60 69 79
61 69 80
61 70 80
60 68 79
61 69 79
61 69 80
60 69 80
62 70 80
61 69 80
61 69 80
61 69 80
61 69 79
60 69 80
61 70 80
61 70 80
61 69 80
60 69 80
61 69 80
61 69 80
61 70 80
61 69 80
60 68 79
60 68 79
58 67 78
61 69 80
61 70 80
60 68 79
60 68 79
60 68 79
60 68 79
60 68 79
61 69 80
59 68 79
60 68 79
59 67 78
58 66 76
60 68 78
61 69 80
59 67 78
60 68 78
61 69 80
60 69 80
61 69 80
60 68 79
59 67 78
60 68 79
49 54 62
40 43 48
41 45 50
45 49 55
42 46 51
46 50 56
44 48 53
43 48 53
43 47 53
41 44 50
42 46 52
42 46 52
42 46 51
42 46 51
43 47 52
45 49 55
41 45 51
44 48 53
45 49 54
45 49 55
43 47 53
44 48 54
49 53 59
45 50 56
40 44 50
43 47 53
47 51 57
43 47 53
44 49 54
44 48 54
44 48 54
44 48 54
48 52 58
43 47 52
45 49 55
43 47 53
47 51 58
45 50 56
40 44 49
46 51 57
46 50 56
43 47 53
43 47 53
41 45 51
46 51 56
43 47 53
41 45 51
48 52 59
46 50 56
44 48 55
45 49 55
43 47 52
47 51 57
45 49 55
51 56 63
44 48 54
46 50 56
43 47 53
44 48 54
45 50 56
45 50 55
45 49 55
47 51 57
38 42 47
44 49 54
43 47 53
48 52 58
42 46 52
41 45 51
42 46 51
46 51 57
48 52 59
47 51 57
45 49 55
43 47 53
47 52 58
44 48 54
45 50 56
44 49 54
45 49 55
41 45 50
45 50 56
44 48 53
44 48 54
49 53 59
43 48 53
43 47 53
44 48 54
48 52 58
44 48 54
41 45 50
44 48 53
46 50 56
42 47 52
41 45 51
43 47 52
41 45 50
46 50 56
38 42 47
43 47 53
45 50 56
49 53 59
39 43 49
42 46 52
49 54 60
44 48 54
43 47 52
42 46 51
43 47 53
40 44 50
40 44 49
40 44 49
43 48 53
54 61 70
60 69 79
60 68 79
59 67 78
59 67 78
59 67 78
61 69 80
61 69 80
60 68 79
60 68 78
61 69 80
60 68 79
59 67 78
60 68 79
60 68 79
59 68 78
61 70 80
60 68 79
60 69 80
60 69 80
59 67 78
60 69 79
61 69 79
61 69 80
60 68 79
61 69 80
61 69 80
61 69 79
60 69 80
60 69 79
60 68 79
60 68 79
60 69 79
61 69 79
61 69 80
61 69 80
61 69 80
61 69 80
61 70 80
61 69 80
60 69 80
61 69 79
61 69 80
61 69 80
61 69 80
61 69 80
61 69 80
61 69 80
61 69 80
61 69 80
61 69 80
61 70 80
61 69 80
60 69 80
61 69 80
61 69 80
62 70 80
61 69 80
61 70 80
60 69 79
61 69 80
60 68 79
60 69 80
61 70 80
60 69 80
60 69 79
61 69 80
62 70 80
61 69 80
62 70 80
61 70 80
62 70 80
61 69 80
62 70 80
62 70 80
61 69 80
61 69 80
61 70 80
61 69 80
61 69 80
61 69 80
61 69 80
61 69 80
61 70 80
61 70 80
62 70 80
61 70 80
61 69 80
61 69 80
62 70 80
61 69 80
61 69 80
61 69 80
61 69 80
61 69 80
62 70 80
61 70 80
61 69 80
61 70 80
61 70 80
62 70 80
61 69 80
61 70 80
61 69 80
61 70 80
62 70 80
61 69 80
61 69 80
60 69 80
61 70 80
61 69 80
62 70 80
61 70 80
61 69 80
61 69 80
61 70 80
61 69 80
61 69 80
61 69 80
62 70 80
61 70 80
61 69 80
62 70 80
61 70 80
61 69 80
62 70 80
61 69 80
61 70 80
62 70 80
61 70 80
61 69 80
61 69 80
61 69 80
61 69 80
61 70 80
61 69 80
61 69 80
61 69 80
61 69 80
61 70 80
61 69 80
62 70 80
61 70 80
61 69 80
61 70 80
61 69 80
62 70 80
61 69 80
61 69 80
61 70 80
61 69 80
61 69 80
61 70 80
61 70 80
61 69 80
62 70 80
61 69 80
61 69 80
62 70 80
61 70 80
61 69 80
61 69 80
62 70 80
61 69 80
61 70 80
61 69 80
61 70 80
61 70 80
62 70 80
61 69 80
62 70 80
61 70 80
61 69 80
61 69 80
60 69 80
61 70 80
61 69 80
61 69 80
61 69 80
61 69 80
61 70 80
61 69 80
61 69 80
61 69 80
60 68 79
61 70 80
61 69 80
61 70 80
61 69 80
61 69 80
62 70 80
62 70 80
61 69 80
61 69 80
61 70 80
60 69 80
61 69 80
62 70 80
61 69 80
61 69 80
61 70 80
61 70 80
60 69 80
62 70 80
61 69 80
61 69 80
60 69 80
61 69 80
62 70 80
61 69 80
61 69 80
61 69 80
60 69 80
62 70 80
61 69 80
62 70 80
62 70 80
61 69 80
62 70 80
61 69 80
61 69 80
62 70 80
62 70 80
61 69 80
60 68 78
61 69 80
61 69 80
61 69 80
61 70 80
61 69 80
61 69 80
61 69 80
61 69 80
62 70 80
61 69 79
62 70 80
61 69 80
60 69 80
61 69 80
61 69 80
61 69 80
61 69 80
60 69 79
60 69 80
61 69 80
61 69 80
60 68 79
60 68 78
60 68 79
59 67 77
61 69 80
61 69 80
61 69 80
60 69 80
60 68 79
61 69 80
60 69 80
60 68 79
60 68 79
61 69 79
60 69 79
60 68 79
60 68 79
61 69 80
60 68 79
60 68 79
60 68 79
60 69 79
59 68 78
60 68 79
61 69 80
60 67 78
60 68 78
60 68 79
60 68 79
60 68 79
59 67 78
60 69 79
61 69 80
59 67 78
61 69 80
60 68 78
60 68 79
60 68 78
58 66 77
59 67 78
60 68 78
59 66 76
43 48 54
45 49 54
42 47 52
47 52 58
40 44 49
44 49 55
38 42 47
42 46 52
46 50 56
41 44 50
42 46 52
45 49 55
43 47 53
44 48 53
41 44 49
43 48 54
42 46 52
42 46 52
46 51 57
45 49 55
42 46 51
44 48 54
43 47 53
44 48 54
45 49 55
41 46 52
40 44 49
40 44 49
37 41 46
44 49 55
46 50 57
46 50 56
46 51 57
44 48 54
45 49 55
47 51 58
46 51 57
46 51 57
41 45 51
46 50 56
49 53 59
42 46 51
44 49 55
45 49 55
41 45 51
49 53 59
46 50 56
43 47 54
44 48 54
46 50 57
44 48 54
45 50 56
45 49 55
47 51 58
47 52 58
44 49 55
45 50 56
46 50 56
44 49 55
44 48 54
46 50 56
42 46 51
45 49 55
47 51 57
45 49 55
42 46 51
44 49 55
42 46 52
43 48 53
45 50 56
40 45 50
48 53 59
47 52 58
47 51 57
43 47 53
40 44 49
40 44 50
43 48 54
42 46 52
44 48 54
47 51 57
42 46 52
44 48 54
45 49 55
41 45 50
43 47 53
41 45 50
42 46 51
45 49 55
39 42 48
47 52 58
42 46 51
43 48 53
44 48 54
45 50 56
40 44 49
40 44 50
46 50 56
42 46 51
42 46 51
44 48 54
44 48 54
43 47 53
38 42 47
41 45 50
42 46 52
44 49 54
47 51 57
38 42 46
45 49 55
41 45 51
43 48 54
58 66 76
60 68 79
59 67 77
60 68 78
60 68 79
60 69 79
59 67 78
58 67 78
60 68 79
60 68 79
59 68 78
59 67 78
58 67 78
60 68 78
61 69 80
60 68 78
59 68 78
60 68 79
60 68 79
60 68 79
60 68 79
61 69 80
60 68 79
60 68 79
61 69 80
60 68 79
60 68 79
60 68 79
61 69 80
60 68 78
60 68 79
61 69 80
60 68 79
60 68 79
60 69 79
61 69 80
60 68 79
61 69 80
61 69 79
60 69 80
61 69 79
61 69 80
62 70 80
61 69 80
61 70 80
60 68 79
61 69 80
62 70 80
61 69 80
61 69 79
61 69 80
61 69 80
61 70 80
61 69 79
61 69 80
62 69 80
61 69 80
61 69 80
61 69 80
61 69 80
61 69 80
61 69 80
61 69 80
61 70 80
60 69 79
61 69 80
62 70 80
61 69 80
61 69 80
61 70 80
61 70 80
61 69 79
61 69 80
62 70 80
61 69 80
61 70 80
60 68 79
61 69 80
61 69 80
60 68 79
61 70 80
61 69 80
61 69 80
61 69 80
61 69 80
60 69 79
61 69 80
61 69 80
61 69 80
62 70 80
61 69 80
61 69 80
61 69 80
61 69 80
60 69 79
61 69 80
61 69 80
61 70 80
61 70 80
61 69 80
61 70 80
61 69 80
61 69 80
61 70 80
61 69 80
61 70 80
61 70 80
61 70 80
60 69 80
61 69 80
61 70 80
61 69 80
61 69 80
62 70 80
62 70 80
61 69 80
61 69 80
61 70 80
61 69 80
61 69 80
61 70 80
61 69 80
61 69 80
61 70 80
61 70 80
61 70 80
61 70 80
61 70 80
61 69 80
61 70 80
61 70 80
62 70 80
61 69 80
62 70 80
60 69 80
61 70 80
61 70 80
62 70 80
61 69 80
61 69 80
61 69 80
61 70 80
61 69 80
61 70 80
61 70 80
61 69 80
61 70 80
62 70 80
61 70 80
62 70 80
61 70 80
61 69 80
61 69 80
62 70 80
61 69 80
62 70 80
61 69 80
61 70 80
61 70 80
61 70 80
60 69 79
61 69 80
61 70 80
61 69 80
61 69 80
61 69 80
61 69 80
61 69 80
61 69 80
61 70 80
61 70 80
62 70 80
61 70 80
61 70 80
61 70 80
61 69 80
61 70 80
61 69 80
61 69 80
61 69 80
62 70 80
61 69 80
61 69 80
62 70 80
62 70 80
61 70 80
61 70 80
61 69 80
61 69 80
61 70 80
60 68 79
61 70 80
61 69 80
61 69 80
61 70 80
61 69 80
61 70 80
61 70 80
61 69 80
61 70 80
62 70 80
61 70 80
61 69 80
61 69 80
61 69 80
61 70 80
62 70 80
61 69 80
61 69 80
60 69 80
61 69 80
61 69 80
61 69 80
60 68 79
61 69 80
61 69 80
61 69 80
61 69 80
62 70 80
61 70 80
61 69 80
61 70 80
61 70 80
61 69 80
61 69 80
61 69 80
61 69 80
61 69 80
62 70 80
61 70 80
61 69 80
60 68 78
61 70 80
59 68 78
60 68 79
61 69 80
61 69 80
60 68 79
60 68 78
60 69 79
60 69 79
61 69 80
61 69 80
61 68 79
60 68 79
60 69 80
60 68 79
60 69 80
61 69 80
61 69 80
60 68 80
60 68 79
61 69 80
60 68 79
60 68 79
60 68 79
60 69 80
60 69 79
60 68 79
60 68 78
61 69 80
61 69 80
60 68 79
60 68 79
61 69 80
59 68 78
58 66 77
60 68 79
59 67 78
60 68 78
61 69 80
60 68 79
60 69 79
61 69 79
59 68 78
60 68 79
59 68 79
60 68 78
60 68 78
60 68 79
59 67 78
59 66 77
61 68 79
59 67 78
59 67 78
59 67 78
58 66 77
58 66 77
56 63 73
40 43 48
41 45 51
37 41 46
41 45 50
39 43 49
44 48 54
40 44 49
42 46 52
41 45 50
40 44 49
45 49 55
47 52 57
43 47 52
44 48 54
44 48 54
41 45 50
44 49 54
45 49 54
40 44 49
45 49 55
43 48 53
42 46 52
45 49 55
42 46 52
43 47 53
42 46 52
40 43 49
41 45 50
42 46 51
44 48 53
40 44 49
49 54 61
39 43 49
45 49 55
43 47 53
44 48 53
44 48 54
41 45 51
44 48 54
41 45 50
45 50 56
43 47 53
43 48 53
45 49 55
42 46 52
44 48 54
45 49 55
45 49 55
42 47 52
39 42 48
44 48 54
46 51 57
43 47 52
46 51 57
40 44 49
43 47 53
42 46 52
44 49 55
43 47 53
45 50 55
42 47 52
46 51 57
45 49 55
43 47 52
45 49 55
44 49 55
45 50 56
45 49 55
44 48 54
38 42 47
43 48 53
45 50 56
43 47 53
40 44 49
44 48 54
45 50 56
48 52 59
45 50 56
44 48 54
41 46 51
46 50 56
39 43 48
44 48 54
43 47 53
44 48 54
40 45 50
47 51 57
48 52 58
43 47 53
43 47 52
41 45 51
46 51 57
43 47 53
42 46 52
41 45 51
42 46 52
42 46 51
41 45 50
44 48 54
44 48 54
42 46 52
44 48 54
44 49 55
41 45 50
42 46 52
37 40 46
41 45 51
42 46 52
43 47 52
45 49 55
54 60 69
59 67 77
59 66 76
60 69 80
58 66 77
60 68 78
58 66 76
60 68 78
59 67 77
60 68 78
60 68 79
60 68 79
60 68 79
59 68 78
59 67 78
58 66 76
59 67 78
59 67 78
60 68 79
60 68 79
60 69 79
60 68 80
59 67 77
61 68 79
60 68 78
60 68 78
60 68 79
60 68 79
61 69 80
60 68 79
60 68 79
61 69 80
60 69 80
61 69 80
60 68 79
60 68 79
60 69 79
61 69 80
61 69 80
60 68 78
61 69 80
61 69 80
60 68 79
60 69 79
60 68 79
62 70 80
61 69 80
61 70 80
61 70 80
61 69 80
61 69 80
61 69 79
61 69 79
60 69 80
61 70 80
60 68 79
61 69 80
60 69 79
61 69 80
61 69 80
61 69 79
61 69 80
61 69 80
62 70 80
61 69 80
61 69 80
61 69 80
61 69 80
61 69 80
61 69 80
61 69 80
61 69 80
60 69 79
61 69 80
61 69 80
61 69 80
61 69 80
61 69 80
62 70 80
61 69 80
61 69 80
61 69 80
60 69 80
61 70 80
62 70 80
61 69 80
62 70 80
61 69 80
62 70 80
60 69 80
61 69 80
61 69 80
61 69 80
61 70 80
61 69 80
61 69 80
61 69 80
61 69 80
61 69 80
61 69 79
62 70 80
61 69 80
61 69 80
61 69 80
61 69 80
61 69 80
62 70 80
61 70 80
61 69 80
61 70 80
61 70 80
60 69 80
61 69 80
62 70 80
60 69 80
61 70 80
61 69 80
61 69 80
61 70 80
61 70 80
61 69 80
61 70 80
61 69 80
61 69 80
62 70 80
62 70 80
61 69 80
60 69 80
61 69 80
61 69 80
61 69 80
62 70 80
61 69 80
61 70 80
61 69 80
61 70 80
61 69 80
61 69 80
61 69 80
61 69 80
62 70 80
61 69 80
62 70 80
61 69 80
62 70 80
61 69 80
62 70 80
61 69 80
62 70 80
61 70 80
61 70 80
61 69 80
61 69 80
61 69 80
61 69 80
62 70 80
61 70 80
61 70 80
61 69 80
61 69 80
61 70 80
62 70 80
61 69 80
60 69 80
62 70 80
61 70 80
61 70 80
61 70 80
61 70 80
62 70 80
61 70 80
61 69 80
61 70 80
61 70 80
61 69 80
62 70 80
61 69 80
61 70 80
61 69 80
61 70 80
61 69 80
61 70 80
61 69 80
62 70 80
62 70 80
61 69 80
62 70 80
62 70 80
61 70 80
61 69 80
61 69 80
61 70 80
61 69 80
61 69 80
61 69 80
61 69 80
61 69 80
60 69 80
61 69 80
60 69 79
61 70 80
62 70 80
60 69 79
60 68 79
62 70 80
61 69 80
61 69 80
61 69 80
61 69 80
60 69 80
61 69 80
60 69 80
61 69 80
61 69 80
62 70 80
60 69 80
61 69 80
61 69 80
61 69 80
61 69 80
61 69 79
61 69 80
61 69 80
61 69 80
60 69 79
60 68 79
61 69 80
61 69 80
61 69 80
61 69 80
61 69 80
60 69 79
60 68 79
61 69 80
61 69 80
60 69 80
61 69 80
60 68 79
60 68 79
61 69 80
61 69 80
61 70 80
60 69 80
61 69 80
61 69 80
61 69 80
60 68 79
60 69 79
61 69 79
59 68 79
59 68 79
61 69 80
61 69 79
60 69 80
61 69 80
61 69 80
61 69 80
61 69 80
60 68 79
61 69 79
59 67 77
61 68 79
60 68 79
60 68 79
59 67 78
60 69 80
59 68 79
61 68 79
60 68 79
59 67 78
61 69 80
60 69 80
60 67 78
60 69 80
60 67 78
60 68 78
59 67 78
60 68 78
59 66 76
59 67 78
59 67 78
59 67 77
59 67 77
59 67 77
60 69 79
60 68 79
60 68 79
59 67 78
59 67 78
59 67 77
46 51 58
40 44 50
38 42 48
40 43 49
40 44 49
42 46 51
47 51 57
43 48 54
40 44 49
41 45 51
41 45 51
40 43 49
40 44 50
42 46 52
44 48 54
42 46 51
41 45 51
39 43 49
44 48 54
45 49 55
41 45 51
42 45 51
48 52 58
42 46 52
39 43 49
44 48 54
41 45 51
44 48 54
44 48 54
45 49 55
40 44 49
43 47 53
45 49 54
40 44 49
47 51 57
38 42 47
45 49 54
44 48 54
41 45 50
42 46 51
44 48 53
43 47 53
45 49 55
45 50 55
44 48 54
43 47 53
44 48 54
46 50 56
41 46 51
46 50 56
43 47 53
42 46 52
44 49 55
47 51 57
43 48 53
44 48 54
41 45 50
43 47 52
45 50 56
44 49 55
44 49 54
46 51 57
48 53 59
46 50 56
46 50 56
42 46 52
43 48 54
46 50 56
44 48 54
46 50 56
42 46 52
45 49 55
44 48 53
41 45 51
42 46 52
44 48 53
43 47 52
47 51 57
39 43 48
39 43 48
46 50 56
45 50 56
44 49 54
43 47 53
45 50 55
39 42 48
39 43 49
41 45 51
46 50 56
45 49 55
45 50 56
44 48 54
42 46 51
40 44 49
41 45 50
43 47 52
43 47 52
43 47 53
42 45 51
39 43 48
43 48 53
43 47 52
43 47 52
41 45 51
44 48 53
44 48 54
40 44 49
43 47 53
43 46 52
49 54 61
59 66 76
58 66 77
59 68 79
59 68 79
60 68 79
58 65 76
58 66 77
59 67 78
58 66 77
61 69 79
59 67 77
61 69 79
59 68 78
59 67 78
59 68 79
59 67 78
60 68 78
60 69 80
60 68 79
60 68 79
60 68 78
60 68 79
60 68 78
61 69 80
60 68 78
60 69 79
60 68 78
60 68 78
60 68 79
60 68 78
61 69 80
61 69 80
61 69 79
61 69 80
61 69 80
60 68 79
60 68 78
60 68 79
61 69 80
60 68 79
60 69 80
61 69 80
61 69 80
61 69 79
60 68 80
60 68 79
60 69 80
61 69 80
60 68 79
60 69 79
61 70 80
61 70 80
60 68 79
60 68 79
60 68 79
61 69 80
60 69 80
60 69 79
61 70 80
60 69 80
61 69 80
60 68 79
60 69 80
61 69 80
62 70 80
61 70 80
61 69 80
61 69 80
60 68 79
60 69 80
60 69 80
61 69 80
61 70 80
60 69 79
61 69 80
61 69 80
62 70 80
61 69 80
61 69 80
61 69 80
60 68 79
61 69 80
61 69 80
61 69 80
62 70 80
61 69 80
61 69 80
61 70 80
61 69 80
61 69 80
61 69 80
61 69 80
61 69 80
61 70 80
61 70 80
61 69 80
61 69 80
61 70 80
61 69 80
61 69 80
61 69 80
62 70 80
61 69 80
61 70 80
61 69 80
61 69 80
61 69 80
61 69 80
61 69 80
61 70 80
61 69 80
61 69 80
61 69 80
61 70 80
60 69 80
61 69 80
61 69 80
61 69 80
61 69 80
62 70 80
61 69 80
61 69 80
61 70 80
61 70 80
62 70 80
61 69 80
61 70 80
61 69 80
61 70 80
61 69 80
61 70 80
61 69 80
62 70 80
60 69 80
61 70 80
61 70 80
61 69 80
60 69 80
61 69 80
61 69 80
61 69 80
62 70 80
62 70 80
61 69 80
61 69 80
61 69 80
62 70 80
61 70 80
61 69 80
61 69 80
61 70 80
61 69 80
61 70 80
61 69 80
61 69 80
61 70 80
61 69 80
61 70 80
61 69 80
62 70 80
62 70 80
61 69 80
62 70 80
61 69 80
62 70 80
61 70 80
60 68 79
61 70 80
61 69 80
61 69 80
61 70 80
61 69 80
61 70 80
61 69 80
62 70 80
61 69 80
61 69 80
61 69 80
62 70 80
62 70 80
62 70 80
62 70 80
61 69 80
62 70 80
61 70 80
61 69 80
61 69 80
61 70 80
61 69 80
61 69 80
61 69 80
61 69 80
61 70 80
61 70 80
62 70 80
61 69 80
60 69 80
61 70 80
61 69 80
61 69 80
61 70 80
61 69 80
60 68 79
62 70 80
61 70 80
60 69 79
61 69 80
61 69 80
61 70 80
61 70 80
61 69 80
61 69 80
61 69 80
61 70 80
61 69 80
60 69 80
61 69 80
61 69 80
61 69 80
62 70 80
61 69 80
61 69 80
61 69 80
60 68 79
61 70 80
60 68 79
61 69 80
60 69 80
62 70 80
61 69 80
61 69 80
61 69 80
61 69 80
60 69 80
61 69 80
61 69 80
61 69 80
60 68 79
60 69 80
60 68 79
60 68 79
61 69 80
61 70 80
61 69 80
61 69 79
60 68 79
61 69 80
60 68 79
60 69 79
61 69 80
61 69 80
61 69 80
60 68 79
59 67 78
59 67 78
60 69 80
61 69 80
60 68 78
59 67 78
61 69 80
60 68 79
60 68 79
61 69 80
60 68 78
60 69 80
60 69 80
61 69 80
60 68 79
60 68 78
61 69 79
59 67 78
60 68 79
59 67 77
60 68 78
60 68 79
60 68 79
59 67 77
60 68 79
60 68 78
59 67 77
58 66 77
59 67 78
60 68 79
58 66 76
59 67 77
59 67 77
60 68 78
60 68 78
59 67 78
58 66 76
58 65 76
43 47 53
42 46 51
38 42 47
39 42 47
38 41 46
39 43 48
44 48 54
42 46 52
37 41 46
41 45 50
39 43 48
47 51 57
41 45 50
42 47 52
44 48 53
44 48 54
38 42 47
40 44 49
41 45 51
46 51 57
44 48 54
39 43 48
46 50 55
44 49 54
45 49 55
43 47 53
42 46 52
42 45 51
41 45 50
41 44 49
39 43 49
43 47 53
41 45 50
42 46 51
44 48 54
45 50 56
46 50 56
40 44 50
38 42 47
44 48 54
44 48 54
41 45 51
40 44 49
43 47 52
39 43 48
43 47 52
44 48 54
44 48 54
47 52 57
46 51 57
44 48 54
43 47 52
46 51 57
44 49 55
44 48 54
41 45 50
45 49 54
44 48 54
43 46 51
42 46 52
45 49 55
46 50 56
47 52 58
44 48 53
49 53 59
46 50 56
42 46 52
47 52 58
41 45 51
45 50 55
43 47 53
40 44 50
41 45 51
41 46 51
43 47 52
42 46 51
44 48 54
44 49 54
44 48 53
43 47 53
42 46 52
45 49 55
46 50 56
43 47 53
42 46 52
45 50 56
47 52 58
43 47 52
38 42 47
40 44 49
42 46 51
42 46 52
42 47 52
47 52 58
41 45 51
42 46 52
45 49 54
43 47 52
40 45 50
41 45 51
45 49 55
48 52 58
38 42 47
44 48 54
45 49 54
40 44 50
39 43 48
41 45 51
56 64 73
59 67 77
59 67 77
58 66 76
57 65 75
58 66 77
59 67 78
58 67 78
59 67 77
60 68 79
60 69 79
59 68 79
59 67 77
60 69 80
59 68 78
60 68 78
60 68 79
60 68 79
60 68 78
59 68 78
60 69 79
60 68 79
59 67 77
61 69 79
61 69 79
61 69 80
60 69 80
60 68 79
60 68 79
59 67 78
60 68 78
60 68 79
61 69 80
61 69 79
61 69 80
60 68 79
60 69 80
60 68 78
61 69 80
59 67 78
60 68 79
61 69 79
61 69 80
60 68 78
60 68 79
60 69 80
61 70 80
60 68 79
59 67 78
60 68 79
61 69 80
60 68 79
62 70 80
61 69 80
61 69 80
60 68 78
60 68 79
61 69 80
60 68 79
61 69 80
59 68 79
61 69 80
62 70 80
61 69 80
61 69 80
61 69 80
61 69 80
61 69 80
61 70 80
61 69 80
61 69 80
61 69 80
60 68 79
60 68 79
61 69 80
61 69 80
61 69 80
62 70 80
61 69 80
61 69 80
61 69 80
61 69 80
61 69 80
61 69 80
61 69 80
61 69 80
61 69 80
61 70 80
61 69 80
61 69 80
61 70 80
61 69 80
62 70 80
61 70 80
61 69 80
61 69 80
61 69 80
61 69 80
61 69 80
62 70 80
61 69 80
61 70 80
61 69 80
62 70 80
60 69 80
61 69 80
61 69 80
62 70 80
61 69 80
61 70 80
62 70 80
61 70 80
61 70 80
60 69 80
61 70 80
61 69 80
61 69 80
61 70 80
61 69 80
61 69 80
61 69 80
62 70 80
61 69 80
61 70 80
61 69 80
61 70 80
60 69 80
61 69 80
61 69 80
61 70 80
61 70 80
61 70 80
61 69 80
61 69 80
61 69 80
61 70 80
61 69 80
60 69 80
61 70 80
61 69 80
62 70 80
62 70 80
61 69 80
62 70 80
62 70 80
61 69 80
61 70 80
61 70 80
62 70 80
61 69 80
61 70 80
61 69 80
61 69 80
61 70 80
61 70 80
61 70 80
61 70 80
61 70 80
62 70 80
61 69 80
61 69 80
61 70 80
61 69 80
61 70 80
62 70 80
61 69 80
62 70 80
61 69 80
61 69 80
61 70 80
61 69 80
61 70 80
61 69 80
60 69 80
62 70 80
61 69 80
61 69 80
61 69 80
61 69 80
62 70 80
61 69 80
61 69 80
62 70 80
61 69 80
61 70 80
61 70 80
62 70 80
61 69 80
60 68 79
61 69 80
60 69 80
60 69 80
61 69 80
61 69 80
61 69 80
61 69 80
61 69 80
61 70 80
61 69 80
61 69 80
61 69 80
61 69 80
61 69 80
61 69 79
61 69 80
60 69 80
61 69 80
60 69 80
61 69 80
61 69 80
61 69 80
62 70 80
61 69 80
61 69 80
61 69 80
61 69 80
61 69 79
61 69 80
60 68 79
60 68 79
61 70 80
61 69 80
60 68 79
61 69 80
61 69 80
61 69 80
61 69 80
61 69 80
61 69 80
61 69 80
61 69 80
60 68 79
61 69 80
61 69 80
61 70 80
60 69 79
61 69 80
61 69 80
61 69 80
60 69 80
61 69 80
60 68 78
61 69 80
60 69 79
61 69 80
61 69 80
60 68 79
61 69 80
61 69 80
60 68 78
60 68 79
60 69 79
59 67 78
61 69 80
60 68 79
61 69 79
59 67 78
61 69 80
61 69 80
61 69 80
59 67 78
60 68 79
60 68 79
60 68 79
60 67 78
60 68 79
60 68 79
59 67 78
58 67 78
60 68 79
61 69 80
60 68 79
59 67 78
60 68 78
59 68 78
57 65 76
58 66 76
59 67 78
58 66 76
58 66 77
58 66 77
60 67 78
60 68 79
58 66 76
59 67 77
57 65 76
60 69 80
57 65 76
59 67 78
58 66 77
57 65 76
58 66 76
51 58 67
43 46 52
39 42 47
46 50 56
41 45 50
46 50 56
46 50 56
45 49 55
46 50 56
41 45 50
42 46 52
43 47 52
44 48 53
43 47 53
38 42 47
41 45 51
42 46 51
43 47 53
42 46 52
42 46 52
45 50 56
42 46 51
48 52 58
41 45 50
46 51 56
47 51 58
43 47 53
46 51 57
40 44 50
41 45 50
45 49 55
44 48 54
39 43 48
42 46 51
40 43 48
43 48 54
45 49 55
42 46 52
41 45 50
46 51 57
42 46 51
45 49 55
41 45 50
45 49 54
42 46 51
45 49 55
41 45 50
43 47 53
44 48 54
42 47 52
46 50 55
45 49 55
42 46 52
47 51 57
46 51 57
40 44 50
47 51 57
41 45 50
43 47 52
45 50 56
45 49 55
42 46 52
45 49 55
39 43 48
42 47 52
42 46 52
44 48 54
37 40 45
43 47 52
37 41 47
42 46 52
43 47 53
44 48 53
42 46 52
40 45 50
41 45 51
40 43 49
44 48 53
45 49 55
40 44 49
44 48 54
40 44 49
45 49 55
41 45 50
43 47 52
40 44 49
46 50 56
44 48 53
40 43 49
41 45 51
42 46 52
43 47 52
43 47 52
43 48 53
40 44 49
42 45 51
43 47 52
43 47 52
42 46 51
39 43 48
44 48 54
40 43 48
41 45 50
38 42 47
45 49 55
39 43 48
36 40 45
50 57 66
60 68 79
57 65 75
58 66 76
58 66 77
59 66 76
59 67 78
58 66 76
59 67 77
59 67 78
59 67 77
59 67 78
60 68 79
60 68 79
58 65 75
61 69 79
58 66 77
60 68 79
59 68 79
59 67 78
61 69 80
59 68 78
61 68 79
61 69 80
61 69 80
60 68 79
60 68 78
59 67 77
59 67 78
60 68 79
59 68 78
61 69 80
60 68 79
60 67 78
60 68 78
60 68 78
60 68 79
61 70 80
59 67 77
60 69 80
61 69 79
60 68 78
60 68 78
61 69 79
60 68 79
61 69 80
60 68 79
59 68 78
61 69 80
60 68 79
60 68 78
60 68 78
62 70 80
60 68 79
59 67 78
60 68 79
60 68 79
60 68 78
61 69 80
61 69 80
61 69 80
60 69 80
60 69 80
61 69 80
61 69 80
61 69 80
61 69 80
62 70 80
61 69 80
61 69 80
61 69 80
61 70 80
61 69 80
61 69 80
60 69 80
61 70 80
62 70 80
61 69 80
61 69 80
61 69 80
61 69 80
61 70 80
61 69 80
61 69 80
61 69 80
61 69 80
61 69 80
61 69 80
61 70 80
62 70 80
61 69 80
61 69 80
61 70 80
61 69 80
62 70 80
62 70 80
62 69 80
62 70 80
61 69 80
61 69 80
61 70 80
60 68 79
61 69 80
61 69 80
62 70 80
61 69 80
61 69 80
61 69 80
61 69 80
62 70 80
61 69 80
61 69 80
61 69 80
61 69 80
61 69 80
61 69 80
61 69 80
61 69 80
61 70 80
61 69 80
61 69 80
62 70 80
61 70 80
62 70 80
61 69 80
61 70 80
61 69 80
62 70 80
61 69 80
62 70 80
61 69 80
61 69 80
61 69 80
61 69 80
61 69 80
62 70 80
61 69 80
61 69 80
62 70 80
61 70 80
61 69 80
61 70 80
61 69 80
61 69 80
61 70 80
61 69 80
62 70 80
60 69 80
61 69 80
61 69 80
61 69 80
61 69 80
62 70 80
61 70 80
61 70 80
61 69 80
61 69 80
61 70 80
61 70 80
61 70 80
61 69 80
61 69 80
61 70 80
62 70 80
61 69 80
61 69 80
61 69 80
61 70 80
61 69 80
61 69 80
62 70 80
61 69 80
62 70 80
61 69 80
61 70 80
61 69 80
61 69 80
61 69 80
62 70 80
61 69 80
61 69 80
62 70 80
61 70 80
62 70 80
62 70 80
60 69 80
61 70 80
61 69 80
61 70 80
60 69 80
61 70 80
61 70 80
60 68 79
61 69 80
61 70 80
61 69 80
61 69 80
61 69 80
60 69 80
61 69 80
62 70 80
61 69 80
61 69 80
61 70 80
61 69 79
61 69 79
62 70 80
60 69 80
60 69 80
61 69 79
61 69 80
60 69 80
61 68 79
60 68 79
61 69 80
62 70 80
61 69 80
61 69 80
61 69 80
61 69 80
61 69 80
61 69 80
60 68 78
62 69 80
60 68 79
61 69 80
60 68 79
60 69 80
61 69 79
61 69 80
60 68 79
61 69 80
61 70 80
61 69 80
62 70 80
61 69 80
61 69 80
61 70 80
60 69 80
61 69 80
60 68 79
60 68 79
60 68 80
60 68 78
61 69 80
59 68 79
60 69 79
60 69 79
61 69 80
60 68 78
61 69 80
60 68 79
61 69 79
58 66 77
60 68 79
60 68 79
61 69 80
60 68 79
60 68 79
60 68 78
61 69 79
58 66 77
60 68 79
60 68 79
60 68 78
61 69 80
60 68 79
60 69 79
60 68 79
59 67 77
59 67 78
58 66 77
59 67 78
58 66 76
59 67 78
58 66 76
59 67 78
58 66 76
58 66 77
60 68 79
58 66 77
59 67 78
56 64 74
57 65 76
56 64 74
59 68 78
59 67 77
59 67 78
58 66 76
58 66 76
58 66 77
56 64 74
58 66 76
56 64 74
42 48 55
39 43 49
43 47 53
44 49 54
39 43 48
39 43 48
45 49 54
41 46 51
43 47 52
39 43 48
43 48 53
44 48 54
43 47 53
43 47 52
41 45 50
42 45 51
43 47 53
45 49 55
40 44 49
40 44 49
41 46 51
43 47 52
39 42 48
40 44 49
47 51 58
45 49 54
44 49 54
44 48 54
42 46 51
42 46 51
36 39 44
46 51 57
43 47 53
48 52 58
44 48 53
45 49 55
41 45 50
42 46 51
45 50 56
41 44 50
40 44 49
41 45 50
39 43 48
44 48 54
45 49 55
38 42 47
44 49 54
40 44 49
42 46 52
42 46 51
41 45 51
44 48 53
43 46 52
39 43 48
44 49 55
39 43 48
44 48 54
44 48 54
44 48 54
40 44 49
42 46 51
41 46 51
44 48 53
42 46 52
46 50 56
40 44 50
43 47 53
41 45 50
40 44 49
44 48 54
40 44 50
42 46 52
46 50 56
43 47 53
45 49 55
47 51 56
40 45 50
40 44 50
44 48 53
41 45 50
42 46 51
44 49 54
44 49 54
42 46 52
40 44 49
42 46 51
40 44 49
41 45 51
47 52 57
40 43 48
47 52 58
40 44 50
40 44 50
43 47 53
39 43 48
42 46 51
42 46 51
40 44 49
42 47 52
44 47 53
36 39 44
43 47 52
38 42 46
41 45 50
38 42 47
46 50 57
58 66 76
57 65 75
57 64 74
59 66 76
58 65 75
60 68 78
59 67 78
57 65 75
57 65 76
60 68 78
58 67 77
58 66 76
60 68 79
60 68 79
59 67 78
59 67 77
59 68 78
58 66 76
60 68 79
58 66 76
59 67 77
61 69 80
59 67 78
59 68 78
60 68 79
60 68 78
60 68 79
60 68 78
59 67 77
58 66 76
59 67 77
60 68 78
60 69 79
59 68 78
61 69 80
61 69 80
60 68 79
59 68 79
61 69 79
60 68 78
60 68 79
61 69 80
60 68 79
59 67 77
60 68 79
61 69 80
61 69 79
60 68 79
61 69 80
61 69 80
61 69 80
61 68 79
60 68 79
60 69 79
60 69 80
61 68 79
60 69 80
60 68 78
61 69 79
60 69 79
60 69 79
61 69 79
62 70 80
61 69 80
61 69 80
60 68 79
61 69 80
61 69 80
60 69 80
60 69 79
61 69 80
61 69 80
61 69 80
60 68 79
60 68 79
61 69 80
60 68 79
62 70 80
61 69 80
61 69 80
60 69 80
61 69 80
61 69 80
61 69 80
61 69 80
60 69 80
61 69 80
60 68 79
61 69 80
61 69 80
61 69 80
61 69 80
61 69 80
61 69 80
61 69 80
61 69 80
61 69 80
61 69 80
61 70 80
61 69 80
61 69 80
61 69 80
61 69 80
61 69 80
60 69 80
61 69 80
61 70 80
62 70 80
61 69 80
61 69 80
60 68 79
61 69 80
61 69 80
61 69 80
61 69 80
61 69 80
61 70 80
61 69 80
61 69 80
61 69 80
61 69 80
61 69 80
61 69 80
61 69 80
61 69 80
61 69 80
61 69 80
62 70 80
61 69 80
62 70 80
61 69 80
61 69 80
61 69 80
62 70 80
61 69 80
61 69 80
61 70 80
61 69 80
61 69 80
61 69 80
60 69 80
61 69 80
61 70 80
61 69 80
61 69 80
61 69 80
61 69 80
61 69 80
60 69 79
61 70 80
61 69 80
61 69 80
61 70 80
61 69 80
61 69 80
62 70 80
61 69 80
61 70 80
61 69 80
61 69 80
60 68 79
62 70 80
61 69 80
61 69 80
61 69 80
61 69 80
61 69 80
61 70 80
61 69 80
61 69 80
61 69 80
61 70 80
61 69 80
61 69 80
61 69 80
61 70 80
60 69 80
61 69 80
61 69 80
61 69 80
61 70 80
61 69 80
61 69 80
61 70 80
62 70 80
61 69 80
61 69 80
61 69 80
61 70 80
61 69 80
61 69 80
61 69 80
61 69 80
61 69 80
61 69 79
61 69 80
60 68 79
61 69 80
61 69 80
60 69 79
61 69 80
61 70 80
61 70 80
61 69 80
61 69 79
61 69 79
62 70 80
60 69 80
60 68 79
62 70 80
61 69 80
62 70 80
61 70 80
59 68 78
62 70 80
61 70 80
60 69 79
60 68 79
60 68 78
61 69 80
60 68 79
60 68 79
61 69 79
61 69 79
60 68 79
60 69 79
61 69 80
60 68 79
60 68 79
61 69 79
60 68 79
60 68 79
60 68 79
59 67 78
59 67 78
60 68 79
61 69 80
61 69 80
60 69 80
62 70 80
60 69 80
59 67 78
61 69 80
60 68 79
60 69 80
61 69 80
60 68 79
61 69 79
60 68 79
60 69 79
61 69 80
59 67 78
60 68 78
60 68 79
59 67 78
59 67 78
61 69 80
59 67 77
59 67 78
60 68 79
59 67 77
60 68 79
60 68 78
59 68 78
60 68 79
60 68 79
60 68 78
59 68 78
60 69 80
57 65 76
61 69 79
58 66 77
59 67 77
59 67 77
59 67 78
58 66 77
59 67 78
59 67 78
59 67 78
58 66 76
59 67 77
59 67 77
58 66 77
59 67 77
59 67 77
60 69 79
56 64 74
59 67 77
58 66 76
56 64 74
57 65 76
57 65 75
55 63 73
57 65 75
57 65 75
48 52 59
42 46 51
39 43 48
43 47 52
42 46 51
40 43 48
43 47 53
46 50 56
40 44 49
41 44 50
41 45 51
41 45 51
39 43 49
44 48 53
44 49 55
41 45 51
42 47 52
42 45 51
41 45 51
43 47 53
45 49 55
40 43 48
42 46 51
47 51 57
37 41 46
43 47 53
39 43 48
45 50 55
41 45 51
43 47 53
42 46 52
43 47 52
42 46 51
44 48 54
46 51 57
39 43 48
42 46 51
42 46 52
43 47 53
48 52 59
41 45 50
41 45 50
44 48 54
46 51 56
39 43 48
45 49 55
43 46 52
45 49 55
40 43 49
41 45 50
44 48 54
45 49 54
46 50 56
38 42 47
45 49 54
42 46 51
37 41 46
42 46 51
44 48 53
40 44 50
40 44 49
36 39 44
40 44 49
42 46 52
42 46 51
46 50 57
40 44 49
43 47 52
37 41 46
42 46 52
42 46 51
43 48 53
43 47 52
47 52 58
38 41 47
43 47 52
46 50 55
43 47 53
44 49 54
41 45 50
43 47 52
45 49 55
43 48 53
42 46 51
43 47 52
40 44 50
44 48 54
42 46 52
43 47 53
41 45 50
41 45 50
44 49 54
40 44 49
42 46 51
40 44 49
37 40 45
40 44 49
40 44 50
39 43 47
43 47 53
40 44 49
37 40 45
41 45 50
39 43 48
57 65 75
59 67 77
57 65 75
58 66 76
57 65 75
57 65 75
58 66 77
58 66 77
57 65 76
60 68 78
58 66 76
57 65 75
58 65 76
59 67 77
57 66 76
58 66 77
60 68 79
59 67 78
60 68 78
59 67 77
58 66 76
59 67 77
59 68 78
59 68 79
57 65 75
59 67 78
59 68 78
59 67 78
58 66 77
60 69 80
58 66 76
60 69 80
61 69 79
60 68 79
59 67 78
59 67 78
61 69 79
60 68 78
59 67 77
59 67 77
60 68 79
60 68 79
60 67 78
59 67 78
60 68 79
60 68 79
60 68 78
60 68 79
60 68 78
61 70 80
61 69 79
60 69 80
61 69 79
61 69 80
61 69 80
60 69 80
60 68 79
60 69 79
60 68 79
61 69 80
60 68 79
59 68 78
59 67 78
59 67 77
61 69 80
61 69 80
61 69 80
61 69 80
61 69 80
59 68 78
61 69 80
60 68 79
60 69 80
61 69 80
61 69 80
60 69 79
60 68 79
61 69 80
61 69 80
60 69 79
61 69 80
60 68 79
60 69 80
61 69 80
61 69 80
61 69 80
60 69 80
60 69 79
61 69 80
61 69 80
61 69 80
61 69 80
61 69 80
60 69 80
61 69 80
61 69 80
60 68 80
61 70 80
61 69 80
61 69 80
60 68 79
60 68 79
61 70 80
61 69 80
61 69 80
61 69 80
61 69 80
61 69 80
61 69 80
61 69 80
61 69 80
61 69 80
61 69 80
60 69 80
60 68 79
60 69 80
61 69 80
61 69 80
61 70 80
62 70 80
61 69 80
60 68 79
61 70 80
61 69 80
61 69 80
62 70 80
60 69 80
61 69 80
61 69 80
61 69 80
61 69 80
61 69 80
61 70 80
61 69 80
61 69 80
61 69 80
61 69 80
61 69 80
61 69 80
61 70 80
61 69 80
61 69 80
61 69 80
61 70 80
61 69 80
60 69 80
61 69 80
61 70 80
62 70 80
61 69 80
61 69 80
61 69 80
61 69 80
61 69 80
61 69 80
61 69 80
61 70 80
61 70 80
61 69 79
61 69 80
62 70 80
62 70 80
61 69 80
61 69 80
61 69 80
61 69 80
61 69 80
61 69 80
61 70 80
61 69 80
62 70 80
61 69 80
61 69 80
60 69 80
61 69 80
61 69 80
61 69 80
62 70 80
60 69 80
61 69 80
60 69 79
61 69 80
62 70 80
62 70 80
61 69 80
61 70 80
61 70 80
61 69 80
61 69 80
61 69 80
60 69 80
61 69 80
61 69 80
61 70 80
61 69 80
61 69 80
61 69 80
61 70 80
61 69 80
62 70 80
60 69 80
61 70 80
60 69 79
60 69 80
60 69 79
61 70 80
61 69 80
61 69 80
60 69 80
61 69 80
60 68 79
61 69 80
61 69 80
60 68 78
61 69 80
60 68 79
61 69 79
61 69 80
60 68 79
60 69 80
61 69 80
60 69 80
60 69 80
60 68 79
60 68 79
62 70 80
61 69 80
60 69 80
61 69 80
60 68 79
60 68 79
60 68 79
61 69 80
61 69 79
61 69 80
60 69 79
60 69 80
60 68 79
60 68 79
60 68 79
60 69 79
60 68 78
60 69 79
59 67 78
61 69 80
60 68 79
61 68 79
60 69 79
59 68 79
60 68 79
60 68 79
59 67 78
59 67 78
60 68 79
60 68 79
60 68 78
59 68 78
60 68 79
59 67 78
60 68 79
59 68 79
60 68 79
60 69 79
60 68 79
58 67 77
59 66 76
61 69 80
58 66 77
60 68 79
58 67 77
58 67 78
60 68 78
58 67 77
60 68 78
61 69 79
60 68 79
58 66 77
58 66 76
58 66 76
59 67 78
59 67 78
58 65 76
57 66 76
59 67 77
59 67 77
58 66 76
59 67 77
57 65 75
57 65 75
57 65 75
57 65 76
57 65 75
56 64 74
58 65 76
58 65 75
56 64 75
52 59 69
37 41 46
39 43 48
37 41 45
39 43 48
41 45 51
37 41 46
36 40 44
44 48 53
42 46 52
39 43 48
40 44 49
43 47 53
43 47 52
42 46 52
43 47 53
42 46 51
43 47 53
41 45 50
39 42 48
44 48 54
43 47 53
40 44 49
41 45 51
41 45 50
44 48 54
41 45 51
41 44 50
43 47 52
41 45 51
42 47 52
45 50 55
37 41 46
43 47 52
38 41 47
43 47 53
40 44 49
42 46 51
40 44 49
41 45 51
42 46 52
36 40 44
43 47 52
44 48 54
43 47 53
40 44 50
42 45 51
40 44 50
43 47 53
45 49 55
40 44 49
42 46 51
43 47 53
42 46 51
42 46 51
43 46 52
38 41 47
42 46 52
40 44 50
46 50 56
41 45 51
42 46 52
46 50 56
43 46 52
40 44 49
41 45 50
42 47 52
43 47 52
40 44 49
41 46 51
38 41 47
45 49 55
39 43 49
38 41 47
45 49 55
41 45 50
37 41 45
42 46 51
41 45 50
44 48 53
41 45 50
40 44 50
41 45 50
46 51 57
45 49 55
43 47 52
40 44 49
40 44 50
37 41 45
41 45 51
46 51 57
40 43 48
43 47 53
40 44 49
40 44 49
42 46 52
43 47 53
37 41 45
40 43 48
41 45 50
39 43 48
36 39 44
38 41 46
56 63 72
56 64 74
57 65 75
55 62 72
56 64 74
56 64 74
58 66 76
57 65 75
58 66 76
59 67 78
56 64 74
59 67 78
59 67 77
59 67 77
58 66 76
58 66 76
58 66 76
59 68 78
57 65 75
58 65 75
58 66 76
58 66 76
57 65 75
59 67 78
59 68 79
60 68 79
60 68 79
59 67 78
59 67 77
60 68 79
59 67 78
60 68 79
58 66 77
60 68 79
60 68 79
60 68 79
60 68 78
59 67 77
61 69 80
60 68 79
59 67 78
59 67 78
60 68 79
59 67 78
60 68 79
59 67 78
60 68 79
60 68 78
59 68 78
61 69 79
61 69 80
60 68 79
60 68 78
60 68 78
59 67 78
60 68 79
60 69 80
60 68 78
60 68 79
61 69 80
60 69 79
61 69 80
61 69 80
61 69 80
61 69 80
59 67 78
59 67 78
61 69 80
60 68 79
60 68 79
60 69 80
61 69 80
60 68 79
61 69 80
61 69 80
61 69 80
60 69 80
61 70 80
60 69 79
60 69 80
61 70 80
60 69 80
61 69 80
60 68 79
61 70 80
60 68 79
60 68 79
61 69 80
61 69 80
60 69 79
61 69 80
61 69 80
62 70 80
61 69 80
61 70 80
60 69 80
61 69 80
61 69 80
61 69 80
62 69 80
61 69 80
61 70 80
61 69 80
61 70 80
61 70 80
61 69 80
61 69 80
61 70 80
61 69 80
61 70 80
61 69 80
61 70 80
61 69 80
61 69 80
61 69 80
62 70 80
61 69 80
61 70 80
61 69 80
61 69 80
61 69 80
61 69 80
61 70 80
61 69 80
61 69 80
61 69 80
61 69 80
61 69 80
61 69 80
61 69 80
61 69 80
61 69 80
61 70 80
61 69 80
61 69 80
61 69 80
61 70 80
61 70 80
61 69 80
61 69 80
61 70 80
60 69 80
61 70 80
61 69 80
61 69 80
61 69 80
61 70 80
61 69 80
62 70 80
61 69 80
61 69 80
61 69 80
61 70 80
61 70 80
61 69 80
61 70 80
61 69 80
61 70 80
61 69 80
60 69 80
61 69 80
61 69 80
61 69 80
62 70 80
60 68 79
61 69 80
61 70 80
60 69 80
61 69 80
60 69 79
62 70 80
61 69 80
60 69 79
61 70 80
61 69 80
61 69 80
62 70 80
61 69 80
61 69 80
61 69 80
61 69 80
61 69 80
62 70 80
61 69 80
61 69 80
60 69 80
61 70 80
61 69 80
62 70 80
61 70 80
61 69 80
61 69 80
61 69 80
60 68 79
62 70 80
61 70 80
60 69 80
61 69 79
61 69 80
61 69 79
60 69 80
61 69 79
61 69 80
61 69 80
61 69 80
60 68 79
61 69 80
60 69 80
61 69 80
61 69 79
61 69 80
61 69 80
61 69 80
60 69 79
61 69 79
61 69 80
61 69 80
61 69 80
60 69 79
61 69 80
60 68 79
61 69 80
61 69 79
60 68 79
61 69 80
61 69 80
60 69 80
61 69 79
60 68 79
60 69 80
61 69 80
61 69 80
60 69 80
61 69 80
60 69 79
61 69 79
61 69 80
60 68 79
61 69 80
61 69 80
60 69 80
60 68 79
61 69 80
60 69 79
60 68 79
60 69 79
61 69 79
61 69 79
61 69 80
60 68 79
61 69 80
61 69 79
60 68 78
59 67 78
61 69 79
60 68 79
59 68 79
59 67 77
60 67 78
59 67 78
61 69 80
60 68 79
60 68 79
59 68 78
60 68 79
58 66 77
58 66 76
58 66 76
60 68 78
59 67 78
59 66 77
60 68 79
59 67 77
58 66 77
58 66 76
58 66 77
58 67 77
58 66 76
59 68 78
58 67 78
60 68 80
58 66 76
57 66 76
59 66 76
59 67 78
58 66 76
57 65 75
58 66 76
56 63 73
56 64 74
56 64 74
56 63 73
58 66 76
57 65 75
56 64 74
56 63 73
58 66 76
56 63 73
49 55 63
40 44 48
38 42 47
40 44 49
39 43 48
43 47 52
38 42 47
34 38 42
43 47 53
41 45 50
42 46 51
38 42 46
39 43 49
40 44 49
42 46 51
42 46 52
39 43 48
35 39 44
41 45 50
38 42 47
37 41 46
38 42 47
45 49 55
40 44 50
40 44 49
42 46 51
39 42 47
38 41 46
40 44 49
42 46 51
41 45 50
45 50 56
42 46 51
40 44 49
44 48 54
38 42 47
45 49 55
37 41 46
42 46 52
38 42 47
38 42 47
41 45 51
45 49 55
42 46 51
43 48 53
43 48 53
43 47 53
42 46 51
39 42 47
41 45 50
40 44 49
46 51 57
39 42 47
42 46 51
47 52 58
41 45 50
39 43 48
40 44 49
42 46 51
42 46 51
36 40 44
39 43 49
43 47 53
42 46 51
43 47 53
46 50 56
44 48 53
39 42 48
44 48 53
46 50 57
43 48 53
39 42 47
44 48 53
43 47 52
42 46 52
45 49 55
42 46 52
41 44 50
40 44 49
37 41 46
43 47 53
44 48 53
37 40 45
42 45 51
40 44 49
44 48 54
44 48 54
43 47 53
37 41 46
43 47 52
39 43 48
39 43 48
44 48 54
39 42 48
39 43 48
41 45 51
40 44 49
42 46 51
42 46 51
35 39 43
34 37 42
53 59 68
57 65 75
57 64 74
57 65 76
58 65 76
57 65 75
57 64 74
57 65 75
57 64 74
58 66 76
54 61 72
57 65 75
56 64 74
58 66 76
58 66 76
57 65 75
57 65 75
58 66 76
56 64 74
57 65 75
58 67 77
58 66 77
57 65 75
57 65 76
58 66 76
60 68 79
59 67 78
59 67 77
59 68 78
59 67 77
58 66 77
60 68 79
60 68 79
59 67 78
59 67 78
58 66 77
59 67 77
59 68 78
60 68 79
60 68 79
59 67 78
59 67 77
60 68 78
60 68 79
58 66 77
60 68 78
59 67 78
58 67 77
60 69 79
60 68 79
60 68 79
60 68 79
60 68 79
60 68 79
61 69 80
61 69 80
60 68 79
60 68 79
60 69 79
61 69 80
61 69 80
60 68 79
60 69 80
60 68 79
61 69 80
60 69 80
60 68 79
61 70 80
59 67 78
60 68 78
61 69 80
61 69 80
60 68 79
61 69 80
60 69 79
60 69 79
60 69 80
61 70 80
61 69 80
61 70 80
61 69 80
60 69 79
61 69 80
60 68 78
61 69 80
61 70 80
60 69 79
61 69 80
61 70 80
60 69 79
61 69 80
61 70 80
61 69 79
61 70 80
62 70 80
61 69 80
61 70 80
62 70 80
61 69 80
61 69 80
61 69 80
61 69 80
61 69 80
61 69 80
61 70 80
61 69 80
61 69 80
60 69 79
61 70 80
60 68 79
61 69 80
61 69 80
61 69 80
61 69 80
61 69 80
61 69 80
61 70 80
60 68 79
61 69 80
61 69 80
61 70 80
61 69 80
61 69 80
62 70 80
61 69 80
60 69 80
61 69 80
61 69 80
61 69 80
61 69 80
61 69 80
61 69 80
61 69 80
61 69 80
61 69 80
61 69 80
61 69 80
61 69 80
61 70 80
61 69 80
61 69 80
62 70 80
61 69 80
61 70 80
61 69 80
60 69 80
61 69 80
61 69 80
61 70 80
61 69 80
61 69 80
61 69 80
61 69 80
61 69 80
61 69 80
61 69 80
62 70 80
61 70 80
61 69 80
62 70 80
61 69 80
61 70 80
61 69 80
61 70 80
61 70 80
61 69 80
62 70 80
61 69 80
61 70 80
61 70 80
61 70 80
61 69 79
61 69 80
61 69 80
61 69 80
62 70 80
61 69 80
60 69 80
62 70 80
61 69 80
61 69 80
61 69 80
61 69 80
61 69 80
60 69 80
61 69 80
61 69 80
61 69 80
61 69 80
60 69 80
61 69 80
61 69 79
62 70 80
62 70 80
60 69 80
61 69 80
61 69 80
60 68 79
61 69 80
61 69 80
61 69 80
61 69 80
61 69 80
60 69 80
61 69 80
60 68 79
60 68 78
60 68 79
61 69 79
61 69 79
60 68 79
61 69 80
60 68 78
60 69 79
61 69 79
60 69 79
61 70 80
61 69 80
62 70 80
61 69 80
61 69 79
61 69 80
61 69 79
60 68 79
61 69 80
61 69 80
61 70 80
60 69 80
60 68 79
61 69 80
59 68 79
60 68 79
59 67 78
61 69 80
61 69 80
61 70 80
60 68 78
60 68 79
60 68 79
59 67 78
59 67 78
60 68 79
59 67 78
60 69 79
60 68 79
60 68 78
61 69 80
60 68 79
58 67 77
60 69 79
60 69 80
60 68 78
61 69 79
60 68 79
60 68 79
59 67 78
59 66 77
60 68 79
59 67 78
59 67 78
60 68 78
58 66 76
60 68 79
59 67 77
59 67 78
58 67 78
58 66 76
58 66 77
60 68 78
60 68 78
59 67 77
58 66 77
59 68 78
60 68 78
58 66 76
58 66 77
58 66 76
57 65 75
57 65 75
59 67 77
56 64 74
59 67 78
59 67 78
59 66 77
57 64 74
56 64 74
56 63 74
58 66 76
58 66 76
57 65 75
57 64 74
55 63 73
58 66 76
53 61 70
53 60 70
53 61 70
54 62 71
56 63 73
56 63 73
56 64 74
47 53 60
35 38 43
42 45 51
40 44 49
42 46 51
41 45 50
40 44 49
43 46 51
39 42 47
43 46 52
41 44 49
41 45 50
41 45 50
40 43 48
40 44 50
43 47 52
40 44 49
44 48 54
40 44 50
39 43 48
43 46 51
43 47 53
39 43 49
40 44 49
40 44 49
44 48 53
41 45 51
39 42 47
40 44 49
42 46 51
41 45 50
40 44 49
41 45 50
37 41 46
43 47 52
42 46 51
45 49 54
41 45 50
39 43 48
39 43 48
40 44 49
40 44 49
41 45 50
42 46 51
40 44 49
38 42 47
39 43 48
44 48 53
39 42 47
40 44 49
40 43 49
38 42 47
41 45 51
43 47 53
41 44 50
43 47 52
38 42 47
44 48 54
37 41 45
40 43 49
39 43 48
44 48 53
43 47 53
45 49 54
40 44 49
42 46 51
41 45 51
41 45 50
41 45 50
42 46 51
39 43 49
43 47 53
42 46 52
41 46 51
39 43 48
42 47 53
43 47 53
38 41 46
42 47 52
39 43 48
44 48 54
40 43 48
41 45 50
41 45 50
39 43 49
37 41 46
37 41 46
42 46 51
40 43 48
40 43 49
42 46 52
39 42 47
42 46 51
43 47 52
43 47 52
38 42 47
41 45 50
39 42 48
40 44 50
44 49 56
58 66 76
55 63 73
57 65 75
55 63 72
56 64 74
58 66 76
56 64 74
55 62 72
57 65 75
56 64 74
56 64 74
57 65 76
55 63 73
57 64 74
59 67 77
56 64 74
59 67 78
56 64 74
58 66 77
59 67 77
56 64 74
57 64 75
57 65 75
58 66 76
57 66 76
58 66 77
59 68 79
59 67 78
56 64 74
57 65 75
57 65 75
57 65 76
58 66 77
57 65 75
59 67 77
58 66 77
60 68 79
60 68 78
59 67 77
58 66 77
60 68 79
60 68 79
59 67 77
60 68 79
60 68 79
58 66 76
59 67 78
60 68 78
60 68 78
60 68 78
60 68 78
61 69 80
61 69 80
59 68 79
59 67 77
60 68 79
60 68 78
60 67 78
60 68 78
60 68 79
60 68 79
61 69 80
59 68 79
60 68 79
61 69 80
60 68 79
60 69 80
61 69 80
61 69 80
61 70 80
61 69 80
60 68 79
60 68 79
61 69 80
61 69 80
59 67 78
61 69 80
60 69 80
61 69 80
60 68 79
61 69 80
60 68 78
61 69 80
61 69 80
61 69 80
61 69 79
61 69 80
60 68 79
61 69 80
61 69 80
61 69 80
61 69 80
60 69 79
61 69 80
60 68 79
62 70 80
60 68 79
60 68 79
61 69 80
61 69 80
61 69 80
61 69 80
60 68 79
60 69 80
61 69 80
61 69 80
61 69 80
60 68 79
62 70 80
60 69 80
61 69 80
61 69 80
61 69 79
61 69 80
61 69 80
61 69 80
61 69 80
60 69 80
61 69 80
61 69 80
61 70 80
60 69 80
61 69 80
61 69 80
61 69 80
61 69 80
61 69 80
61 69 80
61 69 80
62 70 80
61 69 80
62 70 80
61 69 80
61 69 80
61 69 80
61 70 80
61 69 80
61 70 80
60 69 80
62 70 80
61 69 80
61 70 80
62 70 80
61 70 80
60 69 80
61 69 80
61 69 80
61 69 80
61 70 80
60 68 79
61 69 80
61 69 80
61 69 80
61 69 80
61 69 80
62 70 80
60 69 79
61 69 80
61 69 80
60 69 79
61 70 80
61 69 80
62 70 80
61 69 80
61 69 80
61 69 80
61 69 80
61 70 80
60 69 80
60 69 80
61 69 80
60 69 80
61 70 80
61 70 80
61 69 80
61 70 80
61 69 80
61 69 80
61 70 80
61 69 80
61 69 80
60 69 80
61 69 80
61 69 80
61 69 80
61 69 80
61 70 80
61 69 80
61 69 80
60 69 79
61 69 80
61 69 80
61 69 80
60 69 80
62 70 80
60 68 79
62 70 80
59 68 78
61 69 80
61 69 80
60 69 80
60 69 80
60 68 79
60 69 80
61 69 80
60 69 80
61 69 80
61 69 80
61 69 80
61 68 79
61 69 79
60 69 80
61 70 80
61 69 80
60 69 80
59 67 78
60 68 78
61 69 80
61 69 80
60 68 78
60 68 78
61 70 80
61 69 80
60 69 79
61 69 80
61 69 80
61 69 80
61 69 80
60 68 78
61 69 80
60 69 80
61 69 80
60 68 79
60 68 79
60 69 79
59 67 77
61 69 80
60 68 78
60 68 79
60 68 79
59 68 78
60 68 79
59 68 78
60 68 79
59 68 79
60 68 79
60 68 79
59 67 78
60 68 79
60 68 79
59 67 78
58 66 77
60 68 79
60 68 79
60 68 79
60 68 79
58 66 77
60 68 78
58 66 76
60 68 78
59 67 78
59 67 78
59 67 77
59 67 78
59 67 77
58 66 77
58 66 76
59 67 78
58 66 77
58 66 76
60 68 78
59 67 78
58 66 77
57 65 76
58 66 77
58 66 76
59 67 77
58 65 75
57 65 75
56 64 74
57 65 75
57 65 76
58 66 76
59 66 76
57 64 74
55 62 72
59 67 77
58 65 75
57 65 75
56 64 74
56 64 74
55 63 73
58 66 76
54 61 71
56 63 73
57 65 75
55 63 73
56 63 73
58 66 76
54 61 71
54 61 71
42 47 53
41 45 50
35 39 43
33 36 41
40 44 49
41 45 50
42 45 51
35 39 43
40 44 49
39 43 48
41 45 51
34 38 43
43 47 53
42 46 51
41 45 50
44 48 53
36 40 44
41 46 51
38 42 47
41 45 50
40 43 48
39 43 48
41 45 50
38 42 47
43 47 52
43 47 53
41 45 51
43 47 53
39 42 47
38 41 46
41 46 51
39 43 48
47 51 57
43 47 52
38 42 46
41 45 51
40 44 49
39 43 48
38 42 47
45 49 54
45 49 55
41 45 50
41 45 50
43 47 52
37 41 46
44 49 54
41 44 50
39 43 48
40 44 49
39 43 49
40 44 49
40 44 49
41 45 50
41 45 50
46 50 56
41 45 51
39 42 47
40 44 50
43 47 52
40 44 50
40 44 49
42 46 52
42 46 51
44 48 53
38 41 46
40 44 49
44 48 54
41 45 50
43 47 52
40 44 49
42 46 52
37 41 45
41 45 50
39 43 49
45 49 54
41 45 51
40 44 49
42 46 51
38 41 46
46 50 56
39 43 48
41 45 51
38 41 46
40 43 48
45 50 55
44 48 54
39 43 48
39 43 48
40 44 49
39 43 48
37 41 46
40 44 49
40 43 48
44 49 54
36 40 44
40 44 49
38 41 46
41 45 51
53 60 70
53 60 70
54 61 71
57 64 74
57 64 74
54 62 71
56 64 74
55 63 73
55 62 72
56 64 74
57 65 75
55 62 72
57 66 76
57 65 75
55 63 73
56 64 74
60 68 78
57 65 75
56 63 73
58 65 75
57 65 75
56 63 74
56 64 74
60 68 78
58 66 76
60 67 78
58 66 77
58 66 77
58 66 76
59 66 76
58 66 77
59 67 78
58 66 77
59 67 78
59 67 78
60 68 79
58 66 77
59 67 78
60 68 79
58 66 77
59 66 77
59 67 78
59 67 77
59 67 78
60 69 80
60 68 78
60 68 78
58 65 75
60 69 79
61 69 79
59 68 78
59 67 78
59 68 78
59 67 78
59 67 78
60 68 79
60 68 78
57 65 76
60 68 79
61 68 79
60 68 79
61 69 79
61 69 79
61 69 80
60 68 78
60 68 78
61 69 80
60 68 79
60 68 79
61 69 80
61 69 80
60 68 79
60 68 78
60 69 80
60 69 80
60 68 79
60 69 79
60 68 79
61 69 79
61 69 80
60 69 79
60 68 79
60 68 79
61 69 80
60 69 80
60 68 79
60 69 80
61 69 80
61 69 80
61 69 80
61 69 79
60 69 80
60 68 79
60 68 79
61 69 80
61 69 80
61 69 79
61 69 80
60 68 79
60 68 79
61 69 79
61 69 80
60 68 78
62 70 80
61 69 80
61 69 80
61 69 80
62 70 80
62 70 80
61 69 80
60 68 79
61 69 80
61 69 80
61 69 80
61 69 80
60 68 79
60 68 79
60 68 79
61 70 80
61 69 80
61 69 80
61 69 80
61 69 80
61 70 80
61 69 80
61 69 80
61 69 80
61 69 80
61 69 80
61 69 79
60 69 80
61 69 80
61 69 80
61 69 79
62 70 80
61 70 80
61 69 79
61 69 80
60 69 80
61 69 80
61 69 80
61 69 80
62 70 80
61 69 80
62 70 80
61 70 80
61 69 80
62 70 80
61 69 80
61 69 80
61 69 80
61 70 80
62 70 80
61 69 80
61 70 80
60 69 80
61 69 80
61 69 80
62 70 80
61 69 80
61 69 80
61 69 80
61 69 80
61 70 80
62 70 80
62 70 80
61 69 80
61 69 80
61 69 80
61 70 80
61 69 80
61 69 80
61 69 80
61 70 80
62 70 80
61 69 80
60 68 79
61 69 80
61 69 80
61 70 80
61 69 80
61 69 80
61 69 80
61 69 80
61 69 80
61 69 80
59 68 79
61 70 80
61 69 80
61 69 80
61 70 80
61 70 80
61 70 80
60 69 80
61 69 80
61 69 80
60 69 80
60 69 80
61 69 80
60 69 80
61 69 80
61 69 80
61 70 80
61 69 80
60 69 80
61 69 80
61 68 79
61 69 80
61 69 80
61 69 80
60 68 79
59 68 78
60 69 79
61 69 80
60 69 80
60 68 79
61 69 80
61 69 80
61 69 80
60 69 79
60 68 78
61 69 80
60 68 79
60 68 79
61 68 79
61 69 79
61 69 80
61 69 80
61 69 80
60 69 80
61 69 80
60 68 79
60 68 79
61 69 80
59 68 79
59 67 78
60 68 79
59 67 78
60 68 79
59 67 77
60 68 79
59 67 78
60 68 79
60 68 79
59 67 77
61 69 79
60 68 79
60 68 79
60 68 79
61 69 80
60 68 79
59 67 78
58 66 76
60 68 78
58 66 76
60 68 78
60 68 79
61 69 79
59 68 78
59 67 77
59 66 76
59 68 79
58 66 76
59 67 78
58 66 76
59 67 77
59 67 78
59 67 78
58 66 76
58 66 76
58 66 77
59 68 79
58 65 75
59 67 77
59 67 78
58 65 76
56 63 73
59 67 78
57 65 75
58 66 77
57 65 74
58 66 76
58 66 76
58 66 76
58 66 76
58 65 76
58 65 76
55 63 72
56 64 74
55 63 73
57 65 75
58 66 76
58 67 77
56 63 73
55 62 72
55 63 73
55 62 72
54 62 72
57 64 73
55 63 73
53 61 70
54 61 71
56 63 73
42 47 53
34 38 42
37 41 46
35 38 42
38 42 47
35 38 43
42 46 51
42 46 51
36 39 44
40 43 49
41 45 50
45 49 54
40 44 48
40 44 50
39 43 48
39 43 48
43 47 53
41 44 50
37 40 45
38 42 47
37 40 45
41 45 50
40 44 49
41 45 51
40 44 49
43 46 52
38 42 47
36 39 43
36 40 45
42 46 52
39 43 48
39 42 48
38 42 47
43 47 52
39 43 48
41 44 49
42 45 51
37 40 45
41 45 50
39 42 47
43 47 52
39 43 48
46 50 56
42 46 52
39 43 49
38 42 48
36 40 45
38 41 46
35 38 43
43 46 52
40 43 49
41 44 49
42 46 51
35 39 43
39 43 48
38 41 46
42 46 52
39 43 48
44 48 54
42 46 51
39 42 47
43 47 52
34 38 43
42 46 51
37 41 46
41 45 50
39 43 47
43 47 53
37 41 46
40 43 48
42 46 51
37 40 45
40 44 49
42 46 52
37 41 45
41 45 50
44 48 54
40 44 49
39 42 47
38 42 47
39 43 48
35 38 43
42 46 51
41 45 50
43 47 52
39 43 48
44 48 53
41 45 51
40 43 48
37 41 46
36 39 44
41 45 50
34 37 42
39 42 47
36 40 45
39 44 50
54 61 70
57 64 74
55 62 72
54 61 70
54 61 71
56 64 74
56 64 73
57 64 74
57 64 74
57 64 74
57 64 74
57 64 74
57 65 76
57 65 75
57 65 75
57 65 75
58 66 77
58 65 75
55 63 72
58 66 77
57 65 76
58 66 77
57 65 76
56 63 74
58 66 76
58 66 77
58 66 77
58 66 77
57 65 75
59 67 77
59 67 78
57 65 76
59 67 77
57 65 76
59 67 78
59 67 78
59 67 77
59 67 77
58 66 77
59 68 78
59 67 78
58 67 77
59 67 78
59 67 78
58 67 77
58 66 76
59 67 78
59 67 78
59 67 77
59 67 78
59 68 79
59 67 78
59 67 78
60 68 79
61 69 80
59 68 78
59 67 78
61 69 80
60 69 79
60 68 78
59 67 77
60 68 79
60 68 79
60 69 80
61 69 80
60 68 78
59 68 79
60 68 79
60 68 79
60 68 79
60 68 79
61 69 80
60 68 78
60 68 78
61 69 80
60 69 80
60 68 79
60 68 79
61 69 79
61 69 80
60 68 78
61 69 80
60 68 78
60 68 79
60 68 79
61 69 80
61 69 80
60 68 79
60 69 79
60 69 79
61 69 80
61 69 80
61 69 80
60 69 80
60 68 79
61 69 80
61 69 79
60 69 79
61 69 80
60 69 80
61 69 80
61 70 80
61 69 80
60 69 80
61 69 79
60 69 79
60 68 79
62 70 80
61 69 80
61 69 80
61 70 80
61 69 80
60 69 80
61 69 80
60 69 80
61 69 79
60 69 80
60 69 80
61 70 80
60 69 79
61 69 80
60 68 79
61 69 80
61 69 80
61 69 80
61 69 80
61 69 80
62 70 80
61 69 80
61 69 80
61 69 80
61 70 80
61 69 80
61 69 80
61 69 80
62 70 80
61 69 80
61 69 80
61 69 80
61 69 80
60 69 80
61 69 80
62 70 80
61 69 80
61 69 80
61 69 80
61 69 80
61 69 80
62 70 80
61 69 80
61 69 80
61 69 80
61 69 80
61 69 80
61 69 80
61 69 80
61 69 80
61 69 80
61 69 80
61 69 80
61 69 80
61 69 80
61 70 80
61 69 80
60 69 80
60 68 79
60 69 80
61 69 80
62 70 80
61 70 80
60 68 79
61 70 80
61 70 80
61 69 80
61 70 80
61 69 80
61 69 80
61 69 80
60 69 79
60 69 80
61 69 80
60 69 80
60 68 79
61 69 80
61 69 80
61 69 80
61 69 80
62 70 80
61 69 80
61 70 80
60 69 80
61 69 79
61 69 80
60 69 79
60 69 79
61 70 80
60 68 78
61 69 80
61 69 80
61 69 80
61 69 80
60 69 79
60 68 78
60 69 80
61 69 80
60 69 79
61 69 80
61 70 80
60 69 79
60 68 79
60 68 79
61 69 80
61 69 80
61 69 80
61 70 80
60 68 79
60 69 79
61 69 80
60 68 79
61 69 80
60 68 79
61 69 80
61 69 80
60 68 79
61 69 80
61 69 80
60 69 80
58 67 77
60 69 80
60 68 79
60 68 79
61 69 80
61 69 80
60 68 78
59 68 78
61 70 80
58 66 76
61 69 80
60 68 79
60 68 78
60 68 79
59 67 77
61 69 80
60 68 78
59 67 78
59 67 78
61 69 80
59 68 79
60 68 78
60 68 79
60 68 79
59 68 79
60 68 79
60 68 78
59 68 79
59 67 78
60 68 78
60 68 78
58 66 77
58 67 77
59 67 77
59 67 78
59 67 78
58 66 77
60 68 79
58 66 76
58 66 76
58 66 77
57 65 75
58 65 76
59 67 77
57 65 75
59 67 77
58 65 76
60 68 79
59 67 76
57 65 75
57 65 76
57 65 75
58 66 76
58 66 76
58 66 76
58 66 76
56 64 74
56 64 74
55 63 73
58 66 76
57 65 76
55 62 72
57 65 75
56 64 74
54 61 70
55 62 72
54 61 71
55 62 72
58 66 76
56 64 73
55 63 73
53 60 70
54 62 71
54 62 71
54 62 72
54 61 70
52 60 69
51 58 66
38 42 47
39 42 47
40 44 49
38 42 46
42 46 51
39 42 47
37 41 46
43 47 52
38 41 46
39 43 48
41 45 50
40 44 49
43 47 52
36 40 44
39 42 48
39 43 48
43 47 52
38 42 47
37 40 45
43 47 52
41 45 50
35 39 44
40 44 49
36 40 44
40 43 48
38 42 47
42 46 52
44 48 53
39 42 47
40 44 49
40 43 48
37 40 45
38 42 47
35 38 43
42 45 51
41 44 50
42 46 51
35 39 44
44 49 54
38 42 47
42 46 52
44 48 54
42 45 50
44 48 54
38 42 47
38 42 47
38 42 47
42 46 51
41 45 50
42 46 51
40 44 49
45 49 55
39 43 47
41 45 51
37 40 45
40 44 49
41 45 50
40 44 49
40 44 49
42 46 52
41 45 50
43 47 53
43 47 52
35 39 43
41 45 50
36 40 45
40 43 49
41 45 50
42 46 52
42 46 52
40 43 49
37 41 46
42 46 51
36 40 44
42 47 52
40 43 48
38 42 47
38 41 47
38 42 47
38 42 47
38 42 46
41 45 50
43 46 51
36 40 45
37 40 45
39 42 47
39 43 48
40 43 48
46 50 56
37 40 45
38 42 47
43 47 52
36 40 44
38 43 48
53 60 70
52 59 68
54 62 72
53 60 68
55 63 73
55 63 72
55 63 73
54 61 71
56 63 73
54 62 72
55 63 72
54 62 71
56 63 73
54 61 71
56 64 74
54 61 70
57 64 74
58 66 76
60 68 78
56 64 74
58 65 75
56 64 74
55 63 73
58 66 76
58 66 76
58 66 76
56 64 74
58 66 77
58 66 76
58 66 76
59 67 77
59 67 77
59 67 77
59 67 77
59 66 77
59 67 77
58 66 76
59 67 78
57 65 76
58 66 76
59 67 77
58 66 76
60 68 78
58 67 77
60 68 78
58 67 78
59 68 78
59 67 78
59 67 77
59 67 78
58 65 76
60 68 78
60 68 79
59 67 78
59 67 78
60 69 79
58 66 76
59 67 78
60 68 79
60 68 78
60 68 78
60 68 78
61 69 79
61 69 80
60 68 78
61 69 80
60 68 78
59 67 77
60 68 78
60 69 80
60 68 79
59 68 79
61 69 80
60 68 78
60 68 79
61 69 79
59 68 79
60 69 80
60 69 80
60 68 79
61 69 80
60 68 78
61 69 80
60 68 78
60 68 79
60 68 79
60 68 80
61 69 79
60 68 78
60 68 79
60 69 80
60 69 80
59 68 79
61 69 80
60 69 79
61 69 80
60 68 79
61 69 80
61 69 80
61 69 80
60 68 79
59 67 78
61 69 80
61 69 80
61 69 80
61 69 80
62 70 80
61 69 79
60 69 79
61 70 80
60 68 79
60 69 80
60 68 79
61 69 80
60 69 80
61 69 80
60 69 80
61 69 80
61 69 80
60 68 79
61 70 80
61 69 80
61 69 80
61 69 80
62 70 80
62 70 80
62 70 80
61 69 80
62 70 80
61 69 80
61 69 80
61 69 79
61 69 80
61 69 80
61 70 80
62 70 80
61 69 80
61 69 80
61 69 80
61 69 80
61 70 80
61 70 80
61 69 80
60 68 79
61 69 80
61 69 80
61 69 80
61 70 80
61 70 80
61 69 80
61 69 80
60 69 79
61 69 80
61 69 80
61 69 80
62 70 80
61 69 80
62 70 80
61 70 80
61 69 80
61 69 80
60 69 79
61 69 80
60 69 80
60 69 80
61 70 80
60 68 79
62 70 80
60 68 79
61 69 80
61 69 80
61 69 80
61 69 80
61 69 80
61 69 80
61 69 80
60 69 80
60 69 80
61 69 80
61 69 80
61 70 80
61 69 80
61 69 80
60 68 79
62 70 80
61 69 80
61 69 80
61 69 80
61 69 80
61 69 80
61 69 80
61 69 80
61 69 80
60 69 80
60 69 80
60 68 79
61 69 79
61 69 80
60 69 80
61 69 80
60 69 80
61 69 80
60 68 79
61 69 80
61 69 80
61 69 79
61 69 79
61 69 80
60 69 80
61 69 80
61 70 80
61 69 80
61 69 80
61 69 80
61 69 80
60 68 79
60 69 79
60 69 79
61 69 80
59 68 79
60 69 80
60 69 80
60 68 79
61 69 80
59 68 78
60 68 79
61 69 79
60 68 78
61 69 79
59 67 78
60 68 79
60 68 79
61 69 79
60 68 79
59 67 78
60 68 79
60 68 78
60 69 80
61 68 79
58 66 77
60 68 78
60 68 79
60 68 78
60 68 78
59 67 77
59 67 78
59 67 78
59 67 78
60 68 78
60 68 79
59 67 78
60 68 79
59 67 78
59 67 77
60 68 78
59 68 78
59 67 77
58 66 77
60 68 79
60 69 80
58 66 77
59 67 78
60 68 78
58 66 77
57 65 76
58 66 76
56 64 74
59 67 78
59 67 78
56 64 75
57 64 74
57 65 75
58 66 77
57 65 76
56 64 75
58 65 76
58 66 76
59 66 76
57 64 75
56 64 74
57 65 75
58 65 76
56 64 74
57 64 74
57 65 75
56 64 74
56 64 74
57 65 75
56 64 74
55 63 73
54 61 70
54 62 71
54 61 71
53 61 70
56 64 74
56 63 73
55 62 72
56 63 72
55 62 72
54 62 71
55 63 72
53 60 69
55 63 73
50 57 66
50 56 65
54 61 71
49 55 63
39 44 50
38 41 46
40 44 49
34 38 42
37 40 45
41 44 50
36 39 43
37 41 46
35 39 44
37 41 45
33 36 40
37 41 46
37 40 45
40 44 49
41 46 51
47 51 57
37 41 46
40 44 49
35 38 43
39 43 48
41 45 51
41 44 49
37 40 45
41 45 50
44 48 53
46 50 56
36 40 45
45 49 54
41 45 50
41 45 50
39 43 48
42 46 51
36 40 45
40 43 48
39 43 48
43 48 53
42 46 51
41 45 50
41 45 50
42 46 52
39 43 48
42 46 51
41 44 50
40 44 49
43 47 53
39 42 47
40 44 49
43 47 53
41 45 50
42 46 51
42 45 51
37 41 45
37 40 45
42 45 51
43 47 53
39 43 48
39 43 48
40 43 48
41 45 50
40 44 49
39 42 47
35 39 44
39 42 47
41 45 50
40 44 49
41 44 49
43 47 52
41 45 51
39 43 49
37 41 46
42 46 51
40 43 48
39 42 47
43 47 52
37 41 46
39 43 48
36 39 44
40 44 50
40 44 49
37 40 45
39 43 48
38 42 46
36 39 44
41 45 50
36 40 44
35 38 43
39 42 47
39 42 47
37 40 45
38 41 45
35 39 43
40 44 49
51 57 65
51 58 67
53 60 70
54 61 71
56 63 72
55 62 72
53 60 69
55 62 72
53 60 69
55 62 72
55 62 72
55 63 73
54 61 71
52 59 69
55 62 72
54 61 70
57 65 75
55 63 73
57 65 75
56 64 74
57 65 76
56 63 73
55 63 73
59 67 77
56 64 74
56 64 74
56 64 73
57 65 75
58 66 76
57 64 75
57 64 75
58 66 77
58 66 76
58 66 77
57 65 75
59 67 78
58 66 76
59 68 78
58 66 77
58 65 76
59 67 77
57 65 75
58 66 76
59 68 78
58 66 77
57 65 75
58 66 77
59 67 77
59 67 77
57 65 75
60 69 79
60 68 79
59 68 78
60 68 78
60 68 79
59 67 77
60 68 78
61 69 79
58 66 77
60 68 78
59 67 78
59 67 78
59 67 77
59 68 78
59 68 79
61 69 79
61 69 80
61 69 80
60 68 79
60 68 78
61 69 79
60 68 78
60 68 79
60 68 79
61 69 79
61 69 80
60 68 78
60 69 80
60 69 79
60 69 79
59 68 79
60 69 80
61 69 80
60 68 79
62 70 80
59 67 78
61 69 80
62 70 80
59 68 79
61 69 80
61 69 79
60 68 79
60 68 79
60 68 79
61 69 80
61 69 80
60 68 79
60 68 78
60 68 79
61 69 80
61 69 80
62 70 80
61 69 80
60 69 79
61 70 80
61 69 80
60 68 79
61 69 80
60 69 80
60 69 80
60 68 79
60 68 79
61 70 80
60 69 79
61 69 80
60 69 80
61 69 79
61 69 79
61 69 80
61 69 80
60 68 79
61 69 80
61 69 80
60 69 80
62 70 80
61 70 80
61 69 80
61 69 80
61 69 80
60 69 80
61 69 80
61 69 80
61 69 80
61 69 80
61 69 80
61 69 80
61 69 80
61 69 80
60 69 79
62 70 80
62 70 80
61 69 80
60 68 79
61 70 80
61 69 80
61 69 80
61 69 80
61 69 80
61 70 80
61 70 80
61 70 80
61 69 80
62 70 80
61 69 80
61 69 80
61 69 80
61 70 80
61 69 80
61 70 80
62 70 80
62 70 80
62 70 80
61 70 80
62 70 80
61 69 80
61 70 80
61 70 80
61 70 80
61 69 80
62 70 80
61 69 80
61 69 80
62 70 80
61 69 80
62 70 80
62 70 80
61 69 80
61 69 80
61 69 80
62 70 80
62 70 80
61 69 79
60 69 80
61 69 80
61 69 80
61 69 80
60 68 79
61 70 80
61 69 80
61 69 80
60 68 79
60 68 79
62 70 80
61 69 80
61 69 80
60 68 79
61 69 79
61 69 80
61 69 80
60 69 80
60 68 79
60 69 79
61 70 80
60 68 79
59 68 79
61 69 80
60 69 80
60 69 80
62 70 80
59 67 78
60 68 79
60 68 79
61 69 80
61 69 80
60 68 79
61 69 80
60 68 79
60 69 80
60 68 79
60 69 80
60 69 80
60 68 79
59 68 79
59 68 78
60 68 78
61 69 80
59 68 79
60 68 79
59 67 77
60 68 79
60 68 79
60 68 79
60 68 79
60 68 79
60 68 79
59 67 77
60 68 78
58 66 77
59 67 77
61 68 79
60 68 79
60 68 79
59 67 78
59 67 78
60 68 78
59 67 77
60 68 79
59 67 78
59 67 78
61 69 79
59 67 78
59 67 78
60 68 79
60 68 78
57 64 75
58 65 76
59 67 78
59 67 77
60 68 79
58 66 77
59 66 77
59 67 77
60 68 78
59 67 78
59 66 77
56 64 74
59 67 77
58 66 76
58 66 76
56 64 74
56 64 74
58 66 76
58 66 76
58 66 76
57 65 75
57 65 75
56 64 74
59 68 78
57 65 75
59 66 76
56 64 74
56 63 73
58 66 76
57 64 75
57 65 75
58 66 76
57 64 75
57 64 74
56 64 74
54 61 71
54 61 71
56 63 73
55 63 72
55 62 72
57 64 74
54 61 70
54 62 71
55 63 73
53 60 70
51 58 67
55 62 71
51 58 67
51 57 66
48 55 63
53 60 69
53 60 69
51 58 67
53 60 69
49 55 64
37 41 46
35 38 42
32 35 40
37 40 45
39 43 48
35 39 43
42 46 51
40 43 48
39 43 48
36 40 45
39 43 48
37 41 45
36 39 44
41 45 50
40 44 49
42 46 51
43 47 52
37 40 45
43 47 52
39 43 47
39 43 48
39 42 47
40 44 49
35 39 44
41 45 50
40 44 49
36 39 44
40 44 49
39 43 49
38 42 47
41 44 50
40 43 48
40 44 49
42 46 52
35 38 43
40 44 49
39 43 48
39 43 48
41 45 50
35 39 43
41 45 50
39 42 47
39 43 48
40 44 49
41 45 51
40 43 49
38 42 47
39 43 48
37 41 45
39 43 48
44 47 53
38 41 46
41 45 50
40 44 49
40 44 49
39 42 47
37 41 46
39 42 47
40 44 49
42 46 52
40 44 49
38 41 46
38 42 47
38 41 46
37 40 45
46 50 56
41 45 50
40 43 48
36 40 44
39 43 47
39 43 48
39 43 48
37 40 45
36 40 44
46 50 56
34 38 43
43 47 53
42 45 51
40 43 48
36 40 45
39 42 47
34 38 42
38 41 46
40 44 49
39 43 48
41 45 50
39 43 48
36 40 44
34 38 42
37 41 46
46 53 61
52 59 68
53 60 69
51 57 66
53 60 69
49 55 64
56 63 72
55 62 72
55 62 72
53 60 70
57 64 74
54 61 71
55 63 73
55 62 71
55 62 72
55 62 72
57 65 75
55 63 73
53 60 70
52 59 69
54 61 70
57 65 76
56 64 74
57 65 75
57 65 75
55 63 74
55 63 73
57 64 74
58 66 76
58 66 76
59 67 78
58 67 78
58 65 76
56 64 74
58 66 76
57 65 76
55 63 74
57 65 76
58 66 76
59 67 77
58 66 76
59 68 79
57 65 75
58 66 77
59 66 76
58 66 77
58 66 77
59 68 78
58 66 77
59 67 78
60 68 79
59 67 77
58 66 76
58 66 76
59 67 78
58 66 76
59 67 78
60 68 79
58 66 77
60 68 79
59 67 77
60 68 79
58 66 76
59 67 77
58 66 77
60 68 79
61 69 79
60 68 79
60 68 79
60 68 78
60 68 78
60 69 79
61 70 80
62 69 80
61 69 79
60 68 79
60 68 79
60 68 79
60 68 79
60 68 79
60 68 79
60 69 80
59 67 78
61 69 80
60 68 79
61 69 80
59 67 77
59 67 77
61 69 79
61 68 79
61 69 80
60 68 78
61 69 80
59 68 79
60 69 79
61 69 80
60 69 79
60 68 79
60 68 79
60 68 79
59 68 79
61 69 80
61 69 80
61 70 80
61 69 79
60 68 79
61 69 79
60 69 80
60 69 80
61 69 80
61 69 80
61 69 80
61 69 80
61 69 80
61 69 80
61 69 80
61 69 80
61 69 80
61 69 80
61 70 80
61 69 80
61 69 80
61 69 80
62 70 80
60 68 79
61 69 80
60 68 79
61 69 80
61 69 80
60 68 79
61 69 79
62 70 80
60 68 79
61 70 80
61 69 80
61 69 80
61 69 79
62 70 80
62 70 80
61 69 80
61 69 80
60 69 80
61 69 80
62 70 80
62 70 80
60 69 80
61 69 80
61 69 80
60 69 80
62 70 80
61 69 80
61 70 80
61 69 80
61 69 80
60 69 80
61 69 80
61 70 80
61 70 80
61 69 80
61 69 80
60 68 79
61 69 80
60 69 79
61 69 79
61 69 80
60 69 80
61 69 80
62 70 80
61 69 80
61 69 80
61 69 80
61 69 80
61 69 80
60 69 79
61 69 80
61 69 79
61 69 80
61 69 79
61 69 80
61 69 80
60 68 79
60 69 80
61 69 80
61 69 80
60 68 79
61 69 80
61 69 80
60 68 79
60 68 79
60 69 80
60 68 79
60 68 79
60 68 78
61 69 80
60 68 79
61 69 79
60 69 79
60 69 80
61 69 80
61 69 79
61 69 80
61 69 80
60 68 79
60 68 79
60 69 80
61 69 80
61 69 80
61 69 80
61 69 80
61 69 80
60 69 80
60 68 79
60 69 80
61 69 80
59 67 77
59 68 78
61 69 80
60 69 79
60 68 79
60 68 79
60 68 79
61 69 80
60 69 79
60 68 79
60 68 79
61 69 80
61 69 80
61 69 80
61 69 79
60 69 79
59 68 78
60 68 79
60 68 79
60 68 79
60 68 79
61 69 80
60 68 79
60 68 79
60 68 79
60 68 79
59 67 78
60 68 78
60 69 80
59 67 78
59 67 77
60 68 78
57 65 75
59 68 78
59 68 79
59 67 78
61 69 79
61 69 79
59 68 78
59 67 78
57 64 74
60 68 78
58 66 77
58 66 76
59 67 78
59 67 78
59 67 78
58 66 77
60 68 78
60 68 79
56 64 74
58 66 77
59 67 78
58 66 76
59 67 78
58 66 76
58 65 76
59 67 78
58 65 75
59 67 77
60 68 79
59 66 76
56 63 73
58 66 76
59 67 77
56 64 73
57 65 75
56 64 74
57 65 75
56 63 73
56 64 74
55 63 72
56 64 74
56 64 74
56 63 73
54 61 71
54 61 70
54 62 71
56 64 74
55 62 72
55 62 72
55 63 73
54 62 71
54 61 70
53 61 71
56 64 73
51 59 68
53 60 70
50 57 66
52 59 68
51 58 67
51 58 67
51 58 67
53 60 69
53 60 69
52 59 68
50 57 65
39 44 49
32 35 39
41 45 50
37 40 45
36 39 44
36 39 44
37 41 46
38 42 46
37 41 46
37 41 45
37 40 45
39 42 47
39 42 48
37 40 45
36 40 45
41 45 50
37 41 45
33 36 41
37 40 45
40 43 49
38 42 48
36 39 43
40 43 48
38 42 47
41 45 50
39 43 48
41 44 49
33 36 41
40 44 49
40 43 48
38 41 46
39 43 48
40 44 50
36 40 44
38 41 46
43 47 52
42 46 51
39 42 47
37 41 46
40 44 49
39 42 47
43 47 52
41 45 50
40 43 48
39 43 48
40 44 49
36 40 45
37 40 45
40 44 49
33 37 41
39 43 48
34 37 42
40 44 49
37 40 45
40 44 49
40 43 49
40 44 49
37 40 45
42 47 52
38 41 46
40 44 49
36 39 44
39 42 47
41 45 50
41 45 50
37 41 46
36 40 44
42 46 52
44 48 53
41 45 49
41 45 51
38 41 46
43 47 52
40 44 49
37 41 46
35 38 43
40 43 49
41 45 50
42 46 51
37 40 45
41 45 50
38 42 47
35 39 43
39 43 48
35 38 43
41 44 49
37 40 45
37 41 47
50 56 64
51 58 67
47 54 62
52 59 68
52 59 68
54 61 71
52 59 68
53 59 68
52 59 68
50 56 65
54 61 70
54 61 70
55 62 72
56 64 74
55 63 72
54 61 70
54 61 71
53 60 69
54 61 71
54 62 71
54 62 71
54 61 71
53 60 70
55 63 72
57 64 74
54 62 72
59 67 77
56 63 73
55 63 73
58 66 76
57 65 75
56 64 74
58 66 76
58 65 76
56 64 75
58 66 77
58 66 76
56 63 73
56 64 74
59 67 78
58 66 77
58 67 78
59 67 78
59 67 78
59 67 78
59 67 77
58 66 77
58 65 75
58 66 76
58 66 77
59 68 78
59 67 77
59 66 77
56 64 74
59 67 78
59 67 78
60 68 79
60 68 79
59 67 78
59 67 77
59 67 77
60 68 79
60 68 79
59 67 78
59 67 78
59 67 77
58 66 76
59 67 78
61 69 80
60 68 79
59 68 78
60 68 79
60 69 79
61 69 80
59 68 79
59 68 78
60 68 79
60 68 79
61 69 80
60 69 79
59 68 79
61 69 80
60 68 78
60 68 79
60 68 79
60 68 79
61 69 80
61 69 80
61 69 79
61 69 80
60 68 79
60 69 80
60 68 79
59 68 79
61 69 80
61 69 80
60 69 80
61 69 80
60 68 79
60 69 79
60 69 80
60 68 79
60 69 79
59 68 79
61 69 80
61 69 80
61 69 79
60 68 79
60 69 79
61 69 80
61 69 80
61 69 80
61 69 80
61 69 80
61 69 79
61 69 80
60 68 79
60 68 79
61 69 80
61 69 80
60 69 79
60 68 79
61 69 80
61 69 80
61 69 80
62 70 80
61 69 80
60 69 80
62 70 80
62 70 80
60 69 80
61 69 80
60 69 80
61 69 80
60 69 79
61 69 80
62 70 80
61 69 80
61 69 80
61 69 80
60 68 79
61 69 80
61 69 80
61 69 80
61 70 80
61 69 80
62 70 80
62 70 80
61 69 80
60 69 80
61 69 80
61 69 80
60 69 80
62 70 80
61 69 80
61 69 80
61 70 80
61 69 80
60 69 79
61 69 80
60 69 80
61 70 80
61 69 80
61 69 80
60 68 79
61 69 80
60 68 79
61 69 80
61 69 80
60 68 79
62 70 80
61 69 80
61 69 80
61 70 80
62 70 80
61 69 80
60 69 80
61 69 80
61 69 80
61 69 80
61 70 80
60 68 78
60 69 80
61 69 80
61 69 80
60 69 79
60 69 80
60 68 79
60 68 79
62 70 80
61 69 80
60 68 79
61 70 80
61 69 79
60 68 79
60 68 79
61 69 80
61 69 80
61 69 80
61 69 80
60 68 79
60 69 80
60 68 79
61 69 80
60 68 79
60 68 79
60 69 79
61 69 80
61 69 80
60 69 80
60 68 79
61 69 80
60 68 79
60 69 79
60 68 79
60 69 80
60 68 78
59 68 79
60 68 78
61 69 80
60 68 79
60 68 78
61 70 80
61 69 80
60 68 79
60 69 80
60 68 79
60 69 80
60 68 79
61 69 80
59 67 78
59 68 78
60 68 78
60 68 78
60 68 78
60 68 79
60 68 79
59 67 78
60 68 78
59 68 79
59 67 78
61 69 80
59 67 78
60 68 79
60 68 79
60 68 79
59 67 78
59 67 78
58 66 76
59 67 78
59 68 78
60 68 78
60 68 78
59 67 77
58 66 76
58 66 76
58 66 76
58 66 77
58 66 76
59 67 77
57 65 75
59 67 77
60 68 78
58 66 76
58 66 76
58 66 76
58 66 76
59 66 76
58 65 76
58 66 77
58 66 77
58 66 76
58 66 76
55 63 74
59 67 77
57 65 75
59 67 77
57 65 75
57 65 75
56 64 74
53 61 71
58 66 76
56 64 74
58 65 76
56 63 73
57 65 75
56 64 73
55 63 73
56 63 73
55 62 72
54 61 70
55 62 72
55 63 73
54 61 71
53 61 71
53 60 69
53 61 71
53 60 70
53 60 69
53 60 69
52 59 68
53 60 69
52 59 68
55 62 71
50 57 65
52 58 67
51 58 67
53 60 69
48 55 64
49 55 63
53 59 68
48 54 62
50 56 64
41 45 51
35 38 43
33 37 41
31 34 38
37 40 45
38 42 46
38 41 46
38 41 45
34 38 42
33 37 41
32 35 40
41 45 50
39 43 48
39 42 47
37 40 45
36 39 44
41 45 50
34 38 42
38 42 46
37 40 45
38 42 46
36 40 45
36 39 44
36 39 44
37 41 46
38 41 46
38 42 47
41 45 50
39 42 47
38 41 46
41 45 50
38 41 45
39 43 48
39 43 48
41 45 51
41 45 50
42 46 51
41 45 50
35 39 43
35 39 44
38 42 47
40 44 49
41 44 49
40 43 48
39 43 48
36 39 44
39 43 47
38 42 46
38 41 46
42 47 52
40 44 50
42 46 51
39 43 48
44 49 54
39 44 49
35 39 44
37 40 45
39 43 47
37 40 45
39 42 47
39 43 48
39 42 47
39 42 47
37 41 46
41 45 50
34 37 42
41 45 50
35 38 43
37 40 45
40 44 48
40 44 49
29 32 36
37 41 45
37 40 45
43 47 52
35 38 42
33 36 41
40 44 48
34 38 42
40 43 48
39 43 48
35 39 43
33 36 41
35 38 42
35 38 42
39 43 49
47 53 61
49 55 63
50 56 65
50 56 64
50 56 65
47 54 62
51 57 66
52 59 69
53 61 70
50 56 65
54 61 70
50 57 66
55 62 71
54 61 71
53 61 70
53 60 70
53 60 69
55 62 72
57 65 75
53 61 71
54 61 71
54 62 71
50 58 67
54 61 71
54 62 71
55 62 72
55 63 73
57 65 75
55 63 73
55 63 72
57 64 74
56 64 74
55 63 73
55 63 73
57 65 75
55 63 73
58 66 76
56 64 74
56 64 74
60 68 78
56 64 74
58 65 76
58 66 76
57 64 75
59 67 77
59 67 77
58 66 76
59 67 77
59 67 77
55 63 73
57 65 75
57 65 75
59 67 77
58 66 76
59 67 77
58 66 77
58 65 76
58 65 75
58 66 77
59 67 78
59 67 77
59 67 78
61 70 80
59 67 78
59 68 78
60 68 78
61 69 80
60 68 79
60 69 80
60 68 79
59 67 78
59 68 78
59 67 78
61 69 80
58 66 77
60 68 78
61 69 80
60 69 80
60 68 78
60 68 78
61 69 80
59 67 77
60 68 79
60 69 79
60 68 79
61 69 79
60 68 79
61 69 80
60 68 79
60 68 79
59 67 77
60 68 79
61 69 79
59 68 78
60 69 80
61 69 80
61 69 80
61 69 79
60 68 78
61 69 80
60 68 78
60 69 80
60 68 79
61 69 80
60 68 79
61 69 80
60 68 78
61 69 80
61 69 80
61 70 80
61 69 80
60 69 79
61 69 80
60 69 80
61 69 80
62 70 80
61 70 80
61 69 80
61 69 80
62 70 80
61 69 80
61 69 80
60 68 79
61 69 80
61 70 80
61 69 79
60 68 79
61 69 80
61 69 80
61 69 80
61 69 80
61 69 80
60 68 79
61 70 80
60 68 79
62 70 80
61 69 80
61 69 80
61 69 80
60 69 80
60 68 79
61 70 80
61 69 80
61 69 80
60 69 79
61 70 80
61 69 80
61 70 80
60 68 79
60 68 79
60 68 79
60 69 80
60 69 80
62 70 80
61 70 80
61 69 80
61 69 80
60 69 80
61 69 80
61 69 80
61 69 80
61 69 80
61 69 80
62 70 80
60 68 79
60 69 80
61 69 80
61 69 80
61 70 80
61 69 80
61 69 80
61 69 80
60 69 80
61 69 80
61 69 80
61 70 80
61 69 80
61 69 80
61 69 80
60 69 79
60 68 79
61 70 80
62 70 80
60 68 79
61 69 80
60 68 79
60 68 79
60 68 79
60 68 79
60 68 79
61 69 80
61 69 80
61 69 79
61 70 80
61 69 79
61 69 80
60 68 79
61 69 79
61 69 80
61 69 79
60 68 79
61 69 80
59 68 79
59 67 78
60 68 79
60 69 80
60 68 79
61 69 80
62 70 80
61 69 80
61 69 80
60 69 79
61 69 80
59 68 78
59 68 78
61 69 80
61 69 79
61 69 79
61 69 80
59 67 77
60 68 78
60 68 79
61 69 80
61 69 80
61 69 80
60 69 79
60 68 79
60 68 79
60 68 79
60 68 78
59 67 78
60 68 78
60 68 79
59 67 77
60 69 80
60 68 79
60 69 79
59 67 78
60 68 78
61 69 80
59 67 78
58 67 77
60 68 79
60 68 79
60 68 79
61 69 79
59 67 78
59 67 78
59 68 78
58 66 77
59 67 77
59 67 78
58 66 77
59 67 78
59 67 77
59 67 78
58 66 76
59 67 77
59 67 77
58 66 76
59 67 78
59 67 78
58 66 77
57 65 75
59 67 78
57 65 75
57 64 74
57 65 75
59 67 78
57 65 75
58 65 76
56 64 74
58 65 76
59 66 77
58 66 77
59 68 78
58 66 76
58 66 76
57 65 75
58 66 76
58 66 76
57 65 75
58 65 76
55 62 72
56 63 73
55 62 72
55 63 73
57 65 75
57 64 74
55 62 72
56 64 74
55 62 72
55 62 72
57 64 74
55 62 72
54 61 71
54 61 70
52 59 68
55 62 72
53 60 70
53 60 69
52 59 69
53 60 69
51 58 66
49 56 64
51 58 67
52 59 68
50 57 65
51 58 67
50 56 65
50 56 64
50 56 64
44 50 57
47 53 61
47 53 60
37 41 46
33 37 41
36 39 44
36 39 43
37 41 46
36 39 44
36 40 45
36 39 44
37 41 46
36 40 45
32 36 40
33 36 41
31 34 38
38 41 46
39 43 48
38 41 46
36 40 44
36 40 45
36 39 44
36 40 45
34 37 42
37 40 45
36 39 44
35 38 43
42 46 51
36 39 44
39 43 48
40 43 48
37 40 45
40 43 49
37 40 45
36 39 44
41 45 50
44 48 53
33 36 41
35 39 44
40 44 49
40 43 48
40 44 49
40 44 50
37 41 45
41 44 50
37 40 45
40 43 48
40 44 49
39 43 48
38 41 46
39 43 48
37 41 45
38 42 47
35 39 43
41 45 50
35 38 43
40 44 49
41 45 50
43 47 52
38 42 47
40 43 48
41 45 50
41 45 50
39 42 48
38 42 47
41 44 49
37 41 46
35 39 43
38 42 46
35 38 42
37 41 46
38 42 46
45 49 54
42 45 50
34 38 42
41 45 50
36 39 44
35 39 43
31 34 38
37 40 45
36 40 45
35 39 43
34 37 41
32 35 39
37 40 45
39 42 47
39 43 49
44 50 58
44 50 58
52 58 67
46 52 60
50 56 64
52 58 67
48 54 62
52 59 68
50 57 66
54 61 70
52 60 69
54 62 71
54 62 72
50 56 65
52 59 68
54 62 71
53 60 69
54 61 71
52 59 68
52 59 68
53 60 70
55 63 72
53 61 70
57 65 75
56 64 74
54 62 72
56 63 73
54 62 71
54 61 70
56 64 74
57 65 75
57 65 75
56 63 73
56 63 73
57 65 76
56 64 74
57 65 75
56 64 75
56 64 74
57 65 75
57 65 75
56 63 74
59 67 77
58 67 77
57 66 76
59 67 78
57 66 76
58 66 76
56 64 75
57 65 75
59 67 78
58 66 76
58 66 76
58 66 77
57 65 75
58 66 77
59 67 77
58 66 77
56 63 72
60 68 78
59 68 78
58 66 77
59 68 78
59 67 77
60 68 78
60 68 79
59 67 78
59 68 79
58 66 76
60 68 78
59 67 77
59 67 77
58 67 77
59 68 79
60 68 79
60 68 79
60 68 79
61 69 80
61 69 79
60 68 78
61 69 80
61 69 79
61 69 80
61 69 79
61 68 79
60 68 79
60 68 78
59 67 78
61 69 79
61 69 80
59 67 78
61 69 80
60 68 78
60 68 79
61 69 80
61 69 80
61 70 80
60 68 79
61 69 79
60 68 79
60 68 79
60 68 79
60 68 79
60 68 78
60 69 79
60 69 80
61 69 80
59 67 78
61 69 80
60 68 79
61 69 79
61 69 80
61 69 80
61 69 79
60 68 79
61 69 79
61 69 79
61 69 80
61 69 80
61 69 80
61 69 80
61 69 80
61 69 80
60 69 79
61 69 80
61 69 80
60 69 80
61 69 79
60 68 79
61 68 79
61 69 80
60 68 79
62 70 80
61 69 80
61 70 80
61 69 80
61 69 80
61 69 80
61 69 80
61 69 80
61 69 80
61 69 80
61 69 80
61 69 80
61 69 80
61 70 80
61 70 80
61 69 80
61 70 80
61 69 80
61 69 80
61 69 80
60 69 80
60 68 79
61 69 80
62 70 80
61 69 80
61 69 80
61 69 80
61 69 80
61 69 79
62 70 80
60 68 79
61 69 80
61 69 80
60 69 79
61 69 80
61 69 80
61 69 80
61 69 80
61 70 80
61 69 80
61 69 80
61 69 80
61 69 80
60 68 79
61 69 80
61 69 80
61 69 80
61 69 80
60 69 79
62 70 80
61 69 80
61 69 80
61 69 80
60 68 79
60 69 79
61 69 80
61 69 79
60 68 79
61 70 80
60 68 79
60 68 79
61 69 80
61 69 80
60 69 80
59 68 79
60 68 79
60 68 79
61 69 80
60 68 78
61 69 79
61 69 80
60 68 79
61 69 80
60 69 79
60 68 78
61 69 80
61 69 79
60 69 80
60 68 78
60 68 79
59 68 79
60 68 79
60 68 79
60 68 78
60 68 78
60 69 80
61 69 80
60 68 79
60 69 80
60 68 79
60 68 79
59 67 78
60 68 79
60 68 78
60 68 79
60 67 78
61 69 80
60 68 79
60 68 79
61 69 79
59 67 78
61 69 80
61 69 80
60 69 79
60 68 78
59 67 77
59 67 77
59 68 78
59 67 78
58 66 77
59 68 79
60 68 79
60 68 79
60 68 79
59 67 77
60 68 78
60 68 79
59 67 78
58 66 77
58 67 77
59 67 77
58 66 77
59 67 78
57 65 75
60 69 79
59 67 78
58 66 77
59 67 78
58 66 77
57 65 75
59 67 78
59 67 78
58 67 77
58 66 76
57 65 75
60 68 78
57 65 75
59 67 77
57 65 76
58 66 77
58 66 76
57 65 75
55 62 72
56 64 74
56 64 74
58 66 76
55 63 73
57 65 75
57 65 75
55 63 73
57 65 76
57 65 74
57 64 74
55 62 72
56 64 74
53 60 69
56 63 73
55 63 72
54 62 71
55 62 72
51 58 67
56 64 74
53 60 70
54 61 70
53 60 70
52 59 69
52 59 67
54 61 71
52 59 68
55 63 72
51 58 67
52 59 68
54 61 70
50 56 65
50 56 65
50 57 65
50 57 66
52 58 67
48 55 63
49 55 64
51 57 66
52 58 67
48 54 62
47 53 60
47 53 61
43 48 55
33 36 41
36 40 44
29 32 36
36 40 44
35 39 43
38 42 47
36 39 44
36 39 44
38 42 47
41 45 50
42 46 51
38 42 47
41 45 50
36 39 43
32 35 40
39 42 47
39 43 49
40 44 49
37 41 45
35 38 43
38 41 46
41 44 50
35 38 43
42 46 51
38 41 46
36 40 45
37 40 45
41 44 49
38 42 46
35 39 43
35 38 43
37 41 46
42 46 51
35 38 43
39 42 47
40 43 48
36 39 44
41 45 50
36 39 44
37 40 45
38 41 46
36 39 44
35 39 43
39 43 47
40 44 49
36 39 44
39 42 47
39 42 47
40 44 49
40 44 49
37 40 45
40 44 49
35 38 43
38 42 47
37 40 45
35 39 43
42 46 51
36 40 44
35 38 43
37 41 46
37 41 45
37 40 45
43 47 52
39 43 47
36 39 43
40 44 49
40 43 48
41 45 50
39 42 47
36 39 44
32 35 39
37 40 45
38 42 47
35 38 42
34 37 41
42 46 51
41 44 49
35 38 42
29 32 35
33 36 41
43 48 54
44 50 57
47 53 62
49 55 64
53 60 69
48 54 63
50 57 66
48 54 62
53 60 69
51 58 67
54 61 70
52 59 69
52 59 68
51 58 68
51 58 66
53 60 70
53 59 68
55 62 71
56 64 73
54 61 70
51 58 66
55 63 72
55 63 72
55 63 73
51 58 66
54 62 72
55 62 72
53 60 70
54 61 71
56 63 73
57 65 75
53 61 71
55 62 72
57 65 75
57 65 75
56 64 74
56 63 73
55 63 73
55 62 72
56 65 75
57 65 75
56 64 75
59 67 77
56 64 74
57 65 75
55 63 73
56 64 74
58 65 76
58 66 76
59 67 77
57 65 75
58 65 76
58 66 77
58 66 76
58 66 77
58 66 77
59 67 77
58 66 77
58 66 77
59 66 76
58 66 77
60 68 79
60 68 78
60 68 78
58 66 77
60 68 78
59 67 77
59 67 77
59 67 78
59 67 77
59 67 78
60 68 78
60 68 79
59 67 77
60 68 78
59 67 78
59 67 77
59 67 78
59 67 78
59 67 77
60 68 78
60 67 78
59 68 78
59 67 78
60 68 79
61 69 80
61 69 79
61 69 80
60 69 79
60 68 79
59 68 78
60 68 78
61 69 79
60 68 79
60 68 79
60 68 78
60 69 79
59 68 78
61 69 80
60 68 79
60 68 78
60 68 78
60 68 79
60 69 80
60 68 79
60 69 80
60 68 78
60 68 79
60 69 80
60 69 80
60 68 79
60 69 79
59 68 79
60 68 79
60 69 80
60 68 79
59 68 79
61 69 80
61 69 80
61 69 80
59 67 78
61 69 80
60 69 80
60 69 80
60 69 80
60 69 79
61 69 80
61 69 80
62 70 80
61 69 80
61 69 80
60 68 79
61 69 80
61 69 80
61 69 80
61 69 80
61 69 79
61 69 80
61 69 79
61 69 80
61 69 80
60 69 79
60 69 79
61 69 80
61 69 80
60 68 79
61 69 80
61 69 80
60 69 80
61 69 80
61 69 80
61 69 80
61 69 80
61 70 80
60 69 80
61 70 80
61 69 80
61 70 80
60 69 80
61 70 80
60 69 80
61 69 80
60 69 80
62 70 80
61 69 80
60 69 80
61 69 80
61 69 80
61 69 80
61 69 80
60 68 79
61 69 80
61 69 80
61 69 80
61 69 80
61 69 80
61 69 80
60 68 79
61 69 80
62 70 80
61 70 80
61 69 80
61 69 79
61 69 80
61 69 80
61 69 80
61 69 80
61 69 80
60 69 79
61 69 80
61 69 80
59 67 78
60 69 80
61 69 80
60 69 80
61 69 80
59 68 79
61 69 80
61 70 80
61 69 80
61 70 80
60 69 79
61 69 80
61 69 80
60 69 80
61 69 80
60 68 79
61 69 80
61 69 79
60 68 79
60 68 79
61 69 80
61 69 80
59 68 78
61 69 80
59 67 77
59 68 78
60 68 79
60 68 79
60 69 80
59 67 78
60 68 79
60 68 79
60 68 78
60 68 78
61 69 79
60 68 79
60 69 79
60 69 80
61 69 80
59 67 78
60 68 78
60 68 79
60 68 79
59 67 78
60 69 80
58 66 77
59 67 78
60 68 79
61 69 80
60 68 79
59 67 78
60 68 79
56 64 74
60 68 79
58 66 77
60 68 79
58 66 76
60 68 79
60 68 79
59 67 78
58 66 77
60 68 78
59 67 77
59 67 78
59 67 78
58 66 76
58 66 77
59 67 78
59 67 78
57 66 76
59 67 77
58 67 77
57 65 75
58 66 77
58 66 77
57 65 75
55 63 73
58 66 77
58 66 77
58 66 76
55 63 73
59 67 77
59 67 78
59 67 77
56 64 74
58 65 75
56 64 74
57 65 76
57 65 75
55 63 73
54 62 71
57 65 75
56 64 74
56 64 74
55 63 72
57 65 75
56 64 74
56 64 73
55 62 72
54 62 72
54 62 71
54 61 70
53 60 70
52 59 69
55 63 72
55 63 72
51 58 67
53 60 69
51 58 68
53 60 70
50 56 65
54 61 70
53 61 70
52 60 69
52 59 68
49 56 65
50 57 65
51 57 66
47 53 61
49 55 62
52 59 67
47 53 61
47 53 62
46 52 60
48 54 62
49 55 63
47 53 61
46 52 60
43 49 56
44 49 56
38 42 47
35 38 42
35 39 43
31 34 38
35 38 43
39 42 47
36 39 43
35 39 43
38 41 46
38 41 46
38 41 46
36 39 44
38 42 47
34 37 41
39 42 47
40 44 49
31 34 39
34 37 41
40 44 49
38 42 47
39 42 47
42 46 51
41 44 49
36 40 44
36 40 45
37 40 45
38 42 46
38 42 47
38 42 47
36 40 45
40 43 48
39 42 47
40 44 49
37 41 46
36 39 44
36 39 44
35 38 43
37 40 44
38 42 46
38 41 46
34 37 42
36 39 44
38 41 46
37 41 46
38 41 46
37 41 46
35 39 43
40 44 49
41 45 50
41 45 50
33 37 41
40 44 49
37 41 46
38 41 46
38 42 47
39 42 47
41 44 49
40 44 49
37 41 45
36 40 44
39 43 48
39 43 48
38 41 46
35 38 43
37 41 46
38 41 46
37 40 45
32 35 39
35 38 43
39 43 48
32 35 39
35 38 42
33 36 40
36 39 44
35 38 43
34 37 41
37 40 45
34 37 42
44 49 56
42 47 54
43 48 55
46 52 60
49 55 63
47 53 61
49 55 63
48 54 62
46 52 59
48 54 62
51 58 66
52 59 68
51 58 67
49 56 64
51 59 68
51 58 66
53 60 69
50 57 66
51 58 67
51 57 66
54 61 70
54 62 71
55 62 72
53 60 70
54 61 70
54 61 71
53 60 70
54 61 70
53 60 70
56 64 73
57 64 74
55 63 73
57 64 74
54 61 71
57 65 76
56 64 73
55 63 72
58 66 76
55 62 72
58 66 76
55 63 72
54 61 71
57 65 75
57 64 74
55 62 72
57 65 76
56 64 74
57 65 75
55 63 73
58 66 76
58 66 76
57 65 75
57 64 74
59 67 77
58 66 77
59 66 77
58 65 76
56 64 74
59 67 77
58 66 77
58 66 76
59 67 78
58 66 76
58 66 76
59 67 78
58 66 77
60 68 78
61 69 79
59 67 77
60 67 78
59 67 77
59 67 77
58 66 77
60 68 79
60 68 79
59 67 77
58 67 77
59 67 78
59 67 78
60 69 79
60 68 79
58 66 76
60 68 79
59 66 77
59 67 77
60 68 79
59 67 78
60 68 79
59 68 79
59 68 78
61 69 80
60 68 79
61 69 79
61 69 79
60 69 79
60 68 79
61 69 79
59 68 78
60 69 79
60 68 79
60 69 80
61 69 80
59 67 78
60 68 79
60 69 79
60 68 79
60 68 79
61 69 80
60 68 78
60 68 79
59 67 78
60 68 79
60 68 78
60 68 79
59 67 77
61 69 80
61 69 80
61 69 80
61 69 80
61 69 80
60 68 79
60 69 80
59 68 79
62 70 80
59 68 79
61 69 80
60 68 78
61 69 80
61 68 79
60 68 78
60 68 79
60 69 80
61 69 80
61 69 80
60 68 79
61 69 80
60 69 80
61 69 80
61 69 80
61 69 80
61 69 80
61 69 80
61 69 80
62 70 80
61 69 80
61 69 80
61 69 80
60 69 79
61 69 80
60 68 79
61 69 80
61 69 80
60 69 80
60 69 80
61 69 80
61 69 80
61 70 80
61 70 80
61 70 80
61 69 80
61 69 80
62 70 80
61 69 80
61 69 80
60 69 80
61 69 80
61 70 80
61 69 80
60 69 80
60 69 79
60 68 79
61 69 80
62 70 80
61 69 80
60 68 79
60 68 79
60 68 79
60 68 78
61 69 80
60 68 79
60 69 80
61 69 80
61 69 80
61 69 80
60 68 79
61 69 80
60 69 80
61 69 80
61 69 80
61 69 80
61 69 79
60 69 80
59 67 78
59 67 78
61 69 80
60 68 79
61 69 80
61 69 80
60 68 79
61 69 80
60 68 79
61 70 80
60 68 78
60 68 79
61 69 80
61 69 80
61 69 80
60 68 79
60 68 78
61 69 80
60 68 78
61 69 79
60 69 79
60 69 80
60 68 79
61 69 80
60 69 79
60 68 78
60 69 80
60 68 78
60 68 79
61 69 79
60 69 80
60 68 79
60 68 79
60 69 80
60 68 78
59 67 78
60 68 79
58 66 77
59 68 78
60 68 78
60 68 79
61 69 80
59 68 78
58 67 77
60 68 79
60 68 78
59 67 78
60 68 79
59 68 78
60 68 78
60 68 78
60 68 78
59 68 78
60 68 79
59 67 78
58 66 77
59 68 79
60 68 79
60 68 79
58 66 76
60 68 79
58 66 76
57 66 76
59 67 77
59 67 77
58 67 77
57 65 75
60 68 79
60 68 78
56 64 74
59 67 77
59 67 77
58 65 75
59 67 77
59 67 78
58 65 76
57 65 75
58 66 77
56 64 74
57 64 74
58 65 75
57 65 76
59 66 76
58 66 76
60 68 79
58 66 76
59 67 77
58 66 76
55 63 73
58 65 75
55 63 72
57 65 75
57 65 75
54 61 71
54 61 71
55 62 72
57 65 75
56 63 73
57 65 75
54 61 70
53 60 70
56 64 73
54 62 71
53 61 70
55 62 72
53 60 69
52 60 70
51 58 68
51 58 67
53 60 69
50 56 65
52 59 68
51 58 67
51 57 66
52 59 68
51 57 66
47 53 61
49 56 64
48 55 63
50 57 65
50 56 65
49 55 63
49 54 62
46 52 60
46 52 60
45 50 58
51 57 66
48 54 62
46 52 60
43 49 56
41 45 52
35 39 44
30 33 37
38 42 47
37 40 45
34 38 42
36 39 43
38 42 46
33 36 40
36 39 44
37 40 45
35 38 43
35 38 43
35 38 42
39 43 48
37 40 45
36 39 44
36 40 44
42 46 51
33 36 40
42 45 51
35 39 44
34 37 41
33 36 41
35 38 43
36 39 43
37 40 45
37 41 46
36 40 44
38 42 47
37 41 45
33 37 41
36 39 44
34 38 42
36 39 43
38 42 47
37 41 46
39 42 48
40 44 49
38 42 46
40 44 48
38 41 46
37 41 46
38 42 47
38 42 47
42 46 51
35 38 43
36 39 44
37 40 45
39 42 47
40 43 49
40 44 49
35 38 42
32 36 40
36 40 44
33 36 40
36 39 44
35 38 43
38 41 46
40 44 49
38 41 46
34 37 42
33 36 41
39 43 48
35 38 43
38 41 46
38 41 46
35 39 43
37 40 45
37 41 46
38 41 46
37 40 44
37 40 45
33 36 40
33 36 40
30 33 37
40 44 50
40 45 52
47 53 60
42 47 55
43 48 56
48 54 62
45 50 58
44 50 58
44 49 57
48 54 62
49 55 63
50 57 65
47 53 62
47 53 61
49 56 64
49 55 64
50 57 65
52 59 68
50 56 65
51 58 67
51 58 67
54 61 70
55 62 71
55 62 72
54 61 71
54 61 71
57 65 76
52 59 69
53 59 68
53 60 69
55 63 73
54 61 71
52 60 69
56 64 73
57 64 74
58 66 76
54 62 71
56 64 75
56 63 73
57 65 74
56 64 74
57 64 75
56 64 74
56 64 74
57 65 75
56 64 74
58 65 76
58 66 76
57 65 75
58 66 77
58 66 76
58 66 77
58 66 76
58 65 75
58 66 76
59 67 77
56 64 74
57 65 75
58 66 77
58 65 76
59 67 78
57 64 75
60 68 78
60 68 78
58 65 76
60 68 79
59 66 77
58 66 77
59 67 77
58 66 77
59 67 78
60 68 79
59 67 78
59 67 77
59 67 77
60 69 79
58 66 77
58 66 77
59 68 78
59 67 77
58 66 77
59 66 76
60 69 79
58 67 78
61 69 80
59 67 78
60 68 79
59 67 77
60 69 80
58 66 77
59 67 78
58 66 76
60 68 78
60 68 79
60 68 78
58 66 76
60 68 78
60 68 79
60 69 80
59 67 77
60 68 79
60 69 80
61 69 80
61 69 80
59 67 78
61 69 80
59 68 78
60 68 79
60 68 79
60 68 79
60 69 80
58 67 77
61 69 80
60 68 79
61 69 80
61 69 80
60 68 79
61 69 79
60 69 80
59 68 79
61 69 79
61 69 79
61 69 80
60 68 79
60 68 79
61 70 80
61 70 80
60 68 79
61 69 80
61 69 80
61 69 80
61 69 80
60 68 79
60 68 79
60 69 79
60 68 79
60 68 79
60 68 79
61 69 80
60 69 79
60 68 79
59 67 78
61 69 80
60 69 80
61 69 79
60 69 79
62 70 80
61 69 80
61 69 80
61 69 80
61 69 79
60 69 79
61 69 80
61 70 80
61 69 79
61 69 80
61 69 80
60 68 79
61 69 80
60 69 80
61 70 80
60 68 79
61 69 80
61 69 80
61 70 80
60 68 78
61 69 80
61 69 80
60 68 79
61 69 80
61 69 80
61 69 80
61 69 80
61 70 80
61 69 80
60 69 80
61 69 80
61 69 80
61 69 80
61 69 80
60 68 79
61 69 79
61 69 79
61 69 80
61 70 80
61 69 80
60 69 79
61 69 79
60 68 79
61 69 80
61 69 80
60 68 79
60 69 79
60 68 79
61 69 80
60 68 79
61 69 79
60 68 79
61 69 79
60 69 80
60 69 80
61 69 80
61 69 80
61 69 80
59 68 79
61 69 80
60 68 78
61 69 80
61 69 80
61 69 80
60 68 79
60 68 79
60 69 79
60 68 79
60 68 79
60 68 78
59 67 78
59 67 78
61 69 79
60 68 78
61 69 80
60 68 79
59 67 77
60 69 80
59 67 78
60 68 79
60 69 80
60 68 78
59 67 78
59 67 77
59 67 78
59 67 78
60 69 79
60 68 78
58 66 77
60 68 78
60 68 79
60 68 79
59 67 78
60 68 79
60 68 78
58 66 77
61 69 80
59 68 78
59 67 77
59 67 78
59 67 78
59 67 77
60 68 79
59 66 77
58 66 76
58 66 76
60 68 79
58 66 77
59 67 78
57 65 75
59 66 77
57 65 75
57 65 75
58 66 77
58 66 76
59 67 77
59 67 78
59 67 77
58 66 76
56 63 74
58 66 76
58 66 76
56 63 73
58 66 76
58 65 76
58 66 77
56 64 74
58 66 76
58 66 76
57 64 74
57 64 74
55 63 74
60 68 78
54 62 72
57 65 75
57 64 75
56 64 74
57 65 75
54 61 71
54 62 71
57 65 75
57 65 74
55 63 73
54 60 69
56 63 74
55 62 72
55 62 72
56 64 73
54 61 71
54 61 70
52 59 68
55 62 72
53 60 70
54 61 70
55 62 71
53 60 69
51 58 67
52 59 68
52 59 69
52 59 68
51 58 67
54 62 71
50 57 65
51 57 66
53 59 69
50 56 64
49 55 63
47 53 61
49 55 63
47 53 61
51 58 66
51 57 66
37 42 48
50 56 65
48 54 62
42 47 54
40 45 52
42 47 54
42 47 54
40 45 52
42 47 54
31 33 37
31 34 38
33 37 41
31 34 38
30 33 37
37 41 45
34 37 41
36 39 43
36 39 43
33 37 41
33 37 41
41 44 49
37 40 45
31 34 39
34 37 41
37 41 45
36 39 44
31 34 38
36 39 44
34 38 42
36 39 43
35 39 43
37 40 45
36 39 43
36 39 44
36 40 44
33 37 41
34 37 42
39 42 47
37 41 45
38 41 46
33 37 41
32 35 39
35 39 43
37 41 46
36 40 45
36 39 44
36 39 44
42 46 51
33 36 40
37 41 46
39 43 48
36 39 43
35 38 43
36 39 44
36 40 44
37 40 45
35 39 43
29 32 36
39 42 47
36 40 44
38 41 46
40 43 48
36 39 44
37 40 45
37 40 45
37 41 46
36 39 44
35 39 43
39 42 47
35 39 43
33 36 40
35 38 42
28 31 35
36 39 43
33 36 40
35 39 43
31 35 39
30 33 37
36 40 45
34 37 41
28 31 35
32 36 41
43 48 56
47 52 60
41 46 53
46 52 60
47 53 61
44 49 57
47 53 60
46 52 59
49 55 63
47 53 60
49 55 63
49 55 64
49 56 64
52 58 67
53 59 68
50 57 65
49 55 64
49 55 64
50 57 65
51 58 67
50 57 65
57 65 75
54 61 70
52 59 69
51 58 67
49 56 65
53 60 69
55 62 72
54 61 71
55 62 72
52 59 68
50 57 65
54 61 70
52 60 69
53 60 69
55 63 72
56 63 73
54 61 70
54 61 70
57 64 74
57 64 74
57 65 75
56 64 74
56 63 73
56 64 74
52 60 69
56 64 74
56 64 74
56 64 74
58 66 77
56 64 74
58 65 75
58 66 76
57 65 75
57 64 74
58 66 76
56 64 74
57 65 75
57 65 76
58 66 76
57 64 74
57 64 75
58 66 76
58 66 76
58 66 76
58 66 76
60 68 78
60 68 78
59 68 79
59 67 77
57 65 75
60 68 78
59 66 77
59 67 77
60 69 80
60 68 79
59 68 78
57 65 76
59 67 78
61 69 79
60 68 78
60 68 78
58 66 77
60 68 79
60 68 78
60 68 79
60 68 79
61 69 79
60 68 78
60 68 79
59 67 78
60 68 79
60 68 79
60 68 78
60 68 79
61 69 80
58 66 76
59 68 79
60 68 78
60 68 79
60 67 78
60 68 78
60 69 79
60 68 79
60 68 79
59 67 78
60 68 79
61 69 79
60 68 79
61 69 80
60 69 79
60 68 79
61 69 79
59 67 78
60 68 79
60 69 79
60 69 80
60 69 80
60 68 78
61 69 80
60 69 80
60 69 79
61 69 80
60 69 80
61 69 80
60 68 79
61 69 79
61 69 80
60 68 79
61 69 80
61 69 80
62 70 80
60 68 79
60 69 79
61 69 79
60 68 79
60 69 80
60 68 79
60 69 80
62 70 80
61 69 80
60 69 79
61 69 80
61 69 80
61 69 80
62 70 80
61 69 79
61 70 80
61 69 80
61 69 80
61 69 80
61 69 80
60 69 80
59 68 79
61 69 80
61 69 80
60 69 80
61 70 80
61 69 80
60 68 79
61 69 80
61 69 80
61 69 80
60 68 79
61 69 79
61 70 80
61 69 80
61 69 80
62 70 80
61 69 80
60 68 79
60 69 79
61 69 80
61 69 80
61 69 80
61 69 79
61 69 80
61 69 80
61 70 80
61 69 80
61 69 80
61 69 80
60 69 79
61 69 80
61 69 80
60 69 79
59 67 78
60 68 79
61 70 80
60 69 79
61 69 80
61 69 79
61 69 79
61 69 80
60 68 79
61 69 80
60 69 79
61 68 79
60 68 78
59 67 77
61 69 80
60 68 79
61 69 79
61 69 79
60 68 79
61 70 80
61 69 79
60 68 79
61 69 79
60 68 79
59 67 78
60 69 80
60 68 78
60 68 78
60 68 79
61 69 79
61 69 80
61 69 80
60 68 78
61 69 80
60 68 79
59 67 78
60 69 80
60 69 79
60 68 79
60 68 78
60 68 79
59 67 78
59 67 78
61 69 79
59 67 78
60 68 78
59 67 78
58 66 76
58 66 77
58 66 77
59 67 78
60 69 79
60 68 78
59 67 77
58 66 77
59 67 78
60 68 79
58 66 77
59 67 78
59 67 78
59 67 77
59 67 78
61 69 79
59 67 77
59 67 78
58 66 76
60 68 79
59 66 77
59 67 77
59 68 78
58 65 75
57 64 74
58 66 77
60 68 79
60 67 77
57 65 76
59 67 78
57 65 75
58 66 77
57 65 75
58 66 76
58 66 76
58 66 76
57 65 75
55 63 72
55 63 73
57 65 75
55 63 72
58 66 76
57 65 75
56 64 74
58 65 75
56 63 73
57 65 75
56 64 74
57 64 74
57 64 74
57 65 75
58 66 76
58 66 76
56 63 73
56 64 74
55 62 72
55 63 73
54 61 71
58 65 74
56 64 74
54 61 71
56 63 73
55 63 72
54 61 71
51 58 67
53 60 69
53 61 70
52 59 68
50 57 65
52 59 68
50 57 66
54 61 70
53 59 68
54 60 69
50 56 65
52 59 68
51 58 67
53 59 68
49 56 64
49 56 64
51 57 66
49 55 63
49 56 64
45 51 59
49 56 64
47 53 61
44 50 57
45 50 57
43 49 56
45 51 58
43 48 55
44 49 56
42 47 54
41 46 53
39 44 49
31 34 38
33 36 41
34 37 42
35 38 42
40 43 48
35 38 43
36 39 43
36 40 45
30 33 38
37 40 45
36 39 44
34 38 42
35 39 43
38 42 47
36 40 44
39 42 47
35 38 42
39 43 48
43 47 52
35 38 43
38 42 47
31 35 39
35 38 42
38 42 47
35 39 43
39 42 47
37 41 45
36 39 43
37 40 45
33 36 40
31 34 38
36 40 44
35 39 44
39 42 47
37 41 46
39 42 47
38 42 46
34 37 42
40 43 48
34 37 41
33 36 41
38 41 46
34 37 42
31 34 38
38 42 47
33 36 40
37 41 46
36 39 44
36 39 44
41 45 50
38 42 47
36 39 44
35 38 43
40 43 48
38 42 46
35 38 42
30 33 37
33 36 41
37 41 45
38 42 47
34 38 42
32 35 39
34 37 41
32 35 39
35 38 42
33 36 40
32 35 39
31 34 38
31 34 38
39 43 49
41 45 51
37 42 48
41 46 52
37 41 47
43 48 55
45 50 57
45 50 58
46 52 60
43 49 56
49 55 63
46 52 60
47 53 60
47 53 62
48 54 62
48 54 63
46 52 60
50 56 65
51 57 66
49 55 64
50 57 66
50 57 65
52 59 68
52 59 68
54 61 71
51 58 66
52 59 67
55 62 71
53 60 69
53 61 70
48 55 63
52 60 69
52 59 68
55 62 71
54 61 71
54 62 71
54 61 71
57 65 75
56 63 72
56 63 73
55 63 74
56 63 73
55 63 73
57 65 75
56 63 74
55 62 72
54 61 71
56 64 75
56 63 73
56 64 74
56 64 74
56 64 74
57 65 75
58 66 77
59 67 77
56 63 73
58 65 75
59 67 77
56 64 73
58 66 76
55 62 72
57 65 75
59 67 77
58 65 76
59 67 77
57 65 76
60 67 77
59 67 78
58 66 77
59 67 77
58 66 76
58 66 77
57 65 75
58 66 76
56 64 74
60 68 79
59 67 78
61 69 79
60 68 78
60 67 78
58 66 76
58 66 76
60 68 78
59 67 78
59 67 77
59 67 77
60 68 78
60 68 79
60 68 78
60 68 79
58 66 77
60 68 79
59 68 79
60 69 80
60 68 79
60 68 79
60 68 79
60 69 79
60 68 78
59 67 77
60 68 79
61 69 80
59 68 78
59 67 78
59 67 78
61 69 79
60 68 78
60 68 79
60 69 80
59 67 78
59 67 78
59 67 78
61 69 80
59 67 78
60 68 78
60 68 79
60 68 79
60 68 79
60 69 79
61 70 80
60 68 79
61 69 80
60 68 79
59 67 77
60 68 79
60 68 78
61 69 80
61 69 80
60 69 79
60 68 79
60 68 79
61 69 80
61 69 80
61 69 80
61 69 80
59 67 78
60 69 80
61 69 79
61 69 80
60 69 80
62 70 80
61 69 79
60 68 79
61 69 80
62 70 80
61 70 80
61 69 80
60 68 79
61 69 80
62 70 80
60 69 80
61 69 80
60 69 80
60 69 80
60 68 79
60 69 80
60 69 79
61 69 80
60 69 80
61 69 80
61 69 80
61 69 80
60 69 80
61 69 79
60 69 80
61 70 80
61 69 80
60 68 79
62 70 80
61 69 80
60 68 79
61 69 80
61 70 80
61 69 80
59 68 78
61 69 80
61 69 80
60 69 80
61 69 80
60 68 79
59 67 78
60 68 79
61 69 80
61 69 79
61 69 79
60 68 79
61 70 80
60 68 79
60 68 79
60 68 79
60 68 79
60 69 80
60 68 79
60 68 79
60 69 80
60 68 79
61 69 80
61 69 80
61 69 80
59 68 78
61 70 80
61 69 80
61 69 79
60 69 80
61 69 79
61 69 80
61 69 80
61 69 80
61 69 80
60 69 79
60 68 79
61 69 80
60 69 80
60 68 79
60 68 79
60 68 79
60 68 79
61 69 80
61 69 79
61 69 79
60 68 79
58 66 77
60 68 78
60 69 79
61 69 80
60 68 79
59 68 78
60 68 79
60 68 78
60 68 79
61 69 79
61 69 80
59 68 78
59 67 77
59 67 77
60 68 78
59 67 78
59 67 77
60 68 79
59 67 77
59 68 78
60 68 79
59 68 79
58 66 77
60 68 79
58 66 77
59 67 78
59 67 77
57 65 76
60 69 79
59 67 77
59 67 78
58 66 76
58 66 76
57 65 76
59 67 78
59 68 79
60 68 79
60 68 79
57 65 76
57 65 76
58 66 77
58 66 77
57 65 75
58 66 76
59 66 77
60 68 78
57 65 75
59 67 78
57 65 75
58 66 77
59 67 77
58 66 76
56 64 74
57 66 76
57 65 75
56 64 75
58 66 77
56 63 74
56 63 73
55 62 71
55 63 72
56 64 74
56 64 74
57 65 75
53 60 69
54 61 71
55 62 72
54 61 71
54 62 72
56 63 73
56 63 73
56 64 74
53 60 69
57 64 74
53 60 70
55 62 72
53 60 69
55 62 72
55 62 71
50 56 65
54 61 70
52 59 68
49 56 64
52 58 67
53 60 69
51 57 66
50 56 64
51 58 67
53 59 68
49 56 64
51 58 67
53 60 69
47 53 61
46 52 60
48 54 62
46 51 59
48 53 61
49 55 63
47 52 60
47 53 61
46 51 59
47 53 60
44 50 56
45 50 57
49 55 63
42 47 53
42 47 54
42 47 54
45 50 57
40 45 51
38 43 48
35 39 44
32 35 39
32 35 39
29 32 36
31 35 39
32 35 39
34 37 42
30 33 37
34 37 42
39 42 47
33 36 40
33 36 40
35 38 43
36 40 44
31 34 38
33 37 41
33 36 40
34 37 41
36 39 44
35 38 43
38 42 46
36 39 44
37 41 45
36 39 44
34 37 42
35 38 43
33 37 41
37 40 45
37 41 46
35 39 43
38 41 46
37 41 46
35 38 42
38 41 46
35 38 43
33 36 41
35 38 42
33 36 41
35 38 43
40 43 48
35 38 43
36 40 44
34 37 41
36 39 44
32 35 39
31 34 38
36 40 44
34 38 42
36 40 44
33 36 40
34 37 41
33 36 40
33 36 40
33 36 40
34 38 42
33 36 40
37 41 46
33 36 40
39 43 48
32 36 40
33 36 40
34 38 42
32 35 39
37 40 45
34 37 42
29 32 36
31 33 37
42 46 53
42 47 53
42 47 54
41 46 52
39 44 50
43 49 56
44 49 56
42 47 54
43 48 55
41 46 52
47 52 60
45 50 57
46 52 59
47 53 61
45 50 58
48 54 62
49 55 64
48 55 63
49 55 63
50 57 65
50 56 65
49 56 64
47 53 61
51 58 66
49 56 64
49 56 64
53 60 69
53 60 69
49 55 63
52 59 69
50 57 66
53 59 69
54 61 70
51 58 67
52 59 68
51 58 67
54 61 71
53 60 70
54 61 71
56 63 73
53 60 69
54 61 71
54 61 71
55 62 72
57 64 74
56 63 72
56 64 74
55 62 72
57 65 75
54 62 71
56 64 74
57 65 76
57 65 75
55 62 72
57 64 74
58 65 75
57 65 75
58 66 77
55 62 72
57 65 75
58 66 76
58 66 77
57 65 74
58 66 76
57 65 75
59 67 78
58 66 76
57 65 76
58 65 76
59 67 77
57 64 75
57 65 74
60 68 79
59 67 78
58 66 77
58 66 77
59 67 78
56 64 75
60 68 79
59 67 77
59 67 77
60 68 79
59 67 78
58 66 76
59 67 78
58 66 77
59 67 77
59 67 78
60 68 79
60 68 79
59 67 78
60 68 79
59 68 78
60 68 78
59 68 79
60 68 79
60 68 79
60 68 78
59 67 78
59 67 78
59 67 78
59 67 77
60 68 79
60 69 80
59 67 77
60 68 79
60 69 80
58 66 76
60 69 79
60 68 79
61 69 80
60 68 79
60 68 79
61 69 79
60 68 79
60 68 78
59 67 78
60 68 79
60 69 79
59 68 79
59 67 78
60 68 79
59 67 78
59 68 79
60 68 79
61 69 79
61 69 80
61 69 80
60 68 79
60 68 79
60 68 79
61 69 80
60 68 78
61 69 79
60 68 79
61 69 79
61 69 80
61 69 80
60 68 79
60 68 79
60 68 78
60 68 79
59 67 78
61 69 80
61 69 80
61 69 80
61 69 80
61 69 79
60 69 80
61 69 79
61 69 80
60 68 79
61 69 80
60 69 79
61 69 80
60 68 79
60 69 80
60 69 80
61 69 79
60 68 80
61 69 80
61 69 80
61 69 80
61 69 80
61 69 80
62 70 80
60 69 80
60 69 80
61 69 80
60 68 78
61 69 80
61 69 80
60 68 79
61 69 79
61 69 80
60 69 79
61 70 80
60 69 79
61 69 80
60 68 79
61 69 80
60 69 79
61 69 80
61 69 80
60 68 79
61 69 80
61 69 79
60 69 80
60 68 79
60 69 79
60 69 80
61 69 80
61 69 80
60 69 80
59 67 78
61 69 80
60 69 80
60 69 80
61 69 80
61 69 80
61 69 80
61 69 80
60 68 79
59 68 79
61 69 80
60 69 80
59 68 79
60 67 78
60 68 79
61 69 80
60 68 79
60 68 79
61 69 80
59 68 79
60 68 78
60 68 78
60 68 79
60 68 79
59 67 78
60 69 79
60 69 79
60 68 79
60 69 80
61 69 80
60 68 78
60 68 79
59 67 77
59 67 78
60 68 79
59 67 78
60 68 79
58 66 76
60 68 78
60 68 79
59 67 78
60 68 78
58 66 77
60 68 78
60 68 79
59 67 78
60 68 78
61 69 80
59 68 78
59 67 78
60 68 79
58 67 77
60 68 79
58 66 77
60 68 79
58 67 77
60 68 79
57 65 76
60 68 79
58 66 77
59 67 78
59 67 77
59 67 77
59 67 78
59 67 78
58 65 76
58 66 76
58 67 77
57 65 75
57 65 75
58 66 76
58 66 77
58 66 76
55 62 72
57 65 75
59 68 78
59 67 78
57 65 74
59 67 77
58 66 76
57 65 75
56 64 74
58 66 77
57 64 74
57 65 75
57 64 74
56 64 74
56 63 73
56 64 75
56 64 74
58 66 76
57 65 75
56 63 73
50 57 66
56 63 73
56 64 74
54 61 70
55 63 73
57 64 74
56 64 74
55 62 72
53 60 69
52 59 68
53 60 69
54 61 71
54 61 71
54 62 72
52 59 68
52 59 68
51 58 67
52 59 68
52 59 68
53 60 69
52 59 68
49 55 63
51 58 66
51 58 68
52 59 68
51 58 66
49 55 63
43 49 56
50 56 65
45 51 58
47 53 60
46 52 60
49 55 64
45 50 57
44 50 57
47 52 60
41 46 53
43 48 55
43 49 56
43 48 55
43 48 55
38 42 48
39 44 50
37 41 47
39 44 51
42 47 53
42 48 54
36 40 46
37 41 46
32 35 39
31 34 37
33 36 40
30 33 37
30 33 37
32 35 39
32 35 39
28 31 35
32 35 39
33 36 40
38 41 46
36 39 44
35 38 43
33 36 40
34 37 41
34 37 41
31 34 38
30 33 36
33 36 41
35 38 43
38 42 47
36 40 44
34 37 42
31 34 38
35 38 43
35 38 42
31 35 39
34 37 42
39 43 47
35 38 43
29 32 36
35 39 44
41 45 50
36 39 43
35 38 43
37 40 45
34 37 42
38 41 46
33 37 41
36 39 44
38 41 46
34 37 41
35 38 43
31 34 38
31 34 38
35 38 43
34 37 42
36 39 43
35 38 42
35 38 42
34 37 42
35 38 43
37 40 45
32 35 39
34 37 42
32 35 39
35 38 42
35 38 43
33 36 41
34 37 41
32 35 39
34 37 41
33 36 41
40 45 51
38 43 49
41 46 53
46 51 58
41 46 53
43 49 56
40 46 53
40 45 52
43 48 55
42 47 53
41 47 53
43 49 56
45 51 59
41 47 54
47 53 61
47 52 60
46 52 60
52 58 67
49 55 63
48 55 63
53 60 69
49 55 64
49 56 64
51 58 66
52 59 68
52 59 68
51 57 66
52 59 68
49 56 65
53 60 69
53 61 70
53 61 70
52 59 67
55 62 71
56 63 73
54 61 70
53 60 69
55 62 71
53 60 69
54 62 72
52 59 68
53 60 70
53 61 71
55 62 71
55 63 73
54 62 72
55 63 73
53 60 69
56 63 73
56 63 73
55 63 73
56 64 74
58 66 76
57 64 74
55 63 72
58 66 76
57 64 74
58 66 77
58 66 76
55 63 73
60 68 79
56 64 74
57 65 75
58 65 75
57 65 76
59 67 77
57 65 75
57 64 74
59 67 78
57 65 75
58 67 77
58 66 76
59 67 78
56 63 73
58 65 75
58 66 76
58 66 76
59 67 78
57 64 75
59 67 78
58 67 77
60 68 79
59 67 78
59 67 77
60 68 79
59 67 78
58 67 77
59 67 78
59 68 78
59 67 77
60 68 78
59 67 78
60 68 79
61 69 80
60 68 79
59 67 77
60 68 78
60 68 79
61 69 80
59 67 77
59 66 76
60 68 79
59 68 79
60 68 79
60 68 78
60 68 79
60 68 79
60 68 79
60 68 79
59 68 79
59 67 77
61 69 80
60 68 79
60 68 79
59 67 78
60 68 78
60 68 78
59 67 78
60 69 79
60 68 79
60 69 79
60 68 79
61 69 80
61 70 80
61 69 80
60 68 79
61 69 80
59 68 78
60 68 79
60 68 79
59 67 77
60 68 79
60 69 80
60 69 79
60 69 80
60 69 80
61 69 80
60 69 80
61 69 80
61 69 80
60 69 79
60 68 79
61 69 80
61 69 80
61 70 80
60 69 80
60 68 79
60 68 79
61 69 80
60 69 80
61 69 79
61 69 79
61 69 80
61 69 80
61 69 80
61 69 79
61 69 80
60 68 79
60 68 79
61 70 80
61 69 80
60 69 80
61 69 80
61 69 80
61 69 80
60 69 79
61 69 80
60 69 79
61 68 79
61 70 80
60 68 78
60 69 80
62 70 80
62 69 80
61 69 79
60 69 80
61 69 80
61 69 80
61 70 80
61 69 80
61 69 79
60 69 79
61 69 80
61 69 80
61 69 80
60 69 80
60 69 80
61 69 80
60 68 79
61 69 80
60 68 79
60 68 79
60 68 80
60 68 79
61 69 80
61 68 79
61 69 80
62 70 80
60 68 79
60 68 78
60 68 79
61 69 80
61 69 80
60 68 79
60 69 80
60 68 78
61 69 80
60 69 80
59 67 79
60 69 79
61 69 80
61 69 79
60 68 79
60 68 79
61 69 80
60 68 79
60 68 78
59 68 78
60 68 79
61 69 80
59 67 78
60 69 79
59 68 78
60 67 78
59 67 77
60 68 79
60 69 79
58 66 76
60 67 77
59 67 78
59 67 78
60 68 78
60 68 78
60 68 78
60 68 78
59 67 78
59 67 77
58 67 77
59 68 78
59 67 78
58 67 78
58 66 76
60 68 79
60 68 79
58 66 77
61 69 79
59 67 78
59 67 78
57 64 74
59 68 78
59 67 77
58 66 77
58 66 76
57 65 75
60 68 79
59 67 77
57 65 75
57 65 75
58 66 77
59 67 76
58 66 76
59 68 78
56 64 74
59 67 77
57 65 75
58 66 77
58 66 77
57 66 76
59 67 77
58 66 76
57 65 75
56 64 74
59 67 77
58 66 76
58 66 77
58 66 76
58 66 76
58 66 77
56 63 73
56 64 74
57 64 74
55 63 73
57 64 74
55 63 73
54 61 70
56 64 73
57 65 75
56 63 73
54 62 72
55 62 72
53 61 70
55 62 71
55 62 72
53 60 70
54 61 70
54 61 71
55 63 73
52 59 68
53 61 70
51 58 67
52 59 68
55 62 72
52 59 69
54 62 71
55 62 72
52 59 68
50 57 66
52 59 68
54 61 71
49 56 65
49 56 65
50 56 65
52 59 68
48 54 62
47 53 61
46 52 59
47 53 61
50 56 65
48 54 62
44 49 56
43 49 56
46 52 60
44 49 57
43 49 56
49 55 63
41 46 53
44 49 56
41 46 53
46 52 59
42 47 54
41 45 51
40 44 50
37 42 48
39 43 49
38 42 47
40 44 50
35 39 44
36 40 45
30 33 37
29 32 35
32 34 38
30 32 36
36 39 44
33 36 41
32 35 39
36 39 43
29 32 35
36 39 43
29 32 36
30 33 37
31 34 38
34 37 41
35 39 43
37 40 45
36 39 44
39 42 47
35 38 42
34 37 41
32 35 39
37 40 45
35 39 43
34 37 41
38 41 46
37 40 45
37 41 45
34 37 41
33 36 41
34 37 42
37 41 45
30 33 37
35 38 43
36 39 44
34 37 42
36 39 44
38 42 47
34 38 42
35 38 42
32 35 39
34 38 42
36 39 44
39 42 47
35 38 43
38 41 46
33 36 41
34 37 41
32 35 40
37 40 45
30 33 37
34 37 41
33 36 41
31 34 38
33 36 40
29 31 35
30 33 37
31 34 38
27 30 33
29 32 36
32 35 40
35 39 44
40 45 51
36 40 46
36 40 45
37 41 47
36 40 46
43 48 55
40 45 52
41 47 53
43 49 56
41 47 53
44 49 56
40 45 51
47 53 61
44 50 57
45 51 58
49 55 63
42 48 55
49 55 63
47 53 61
46 52 60
48 54 63
49 55 64
51 58 67
50 56 64
52 59 68
50 56 65
52 59 68
48 55 64
53 60 69
48 54 62
51 58 66
51 58 68
53 60 69
51 58 68
54 61 71
52 59 68
50 56 65
51 58 67
56 63 73
55 63 72
52 59 68
56 63 73
54 62 71
58 65 76
56 64 74
56 64 74
54 62 72
54 61 71
56 64 74
57 64 74
56 64 74
56 64 74
56 64 75
55 63 73
54 61 71
55 62 71
56 64 74
55 63 72
56 64 74
55 62 71
59 66 77
55 63 73
57 64 74
57 65 75
57 64 74
56 64 74
59 67 77
56 64 75
57 65 76
57 64 75
58 66 76
57 65 76
58 66 76
57 65 75
58 66 76
58 65 76
57 65 75
59 67 77
58 66 76
57 65 76
58 66 76
59 67 77
59 67 77
60 68 78
59 67 78
59 67 78
58 66 76
58 66 76
59 67 78
60 68 78
60 68 78
59 67 78
59 67 78
59 67 78
59 67 78
59 67 78
58 66 77
59 67 77
59 67 77
60 68 79
59 67 78
59 67 77
60 68 78
59 67 77
61 69 79
59 67 78
60 68 78
58 66 76
58 66 77
60 68 79
60 68 79
60 68 79
61 70 80
57 65 75
60 68 79
60 68 78
59 67 77
61 69 80
61 68 78
60 68 78
59 67 77
60 69 80
60 68 79
60 68 79
60 68 79
60 68 79
60 68 79
62 70 80
59 67 78
59 68 79
60 69 80
59 67 78
60 68 79
61 69 80
61 69 79
60 68 79
60 67 78
59 67 78
61 69 80
59 68 78
60 69 80
60 68 79
59 68 78
62 70 80
61 69 80
60 69 80
60 68 79
60 69 80
60 68 79
61 69 80
60 69 80
60 69 80
61 69 80
61 69 80
60 69 79
60 69 80
60 69 80
61 69 80
61 70 80
61 69 80
60 69 80
61 69 80
60 68 79
60 69 79
59 68 78
61 69 80
61 69 80
60 68 79
61 70 80
61 69 80
62 70 80
61 69 80
61 70 80
61 69 80
61 69 80
61 69 80
60 69 80
61 69 80
61 69 80
60 68 79
61 70 80
60 68 78
61 69 80
61 69 80
60 69 80
60 69 80
60 69 80
61 69 80
60 68 79
61 69 80
60 68 78
61 69 79
60 69 79
60 68 79
60 69 80
60 68 79
60 69 79
60 68 79
60 68 79
59 68 79
60 68 79
61 69 79
60 68 79
60 68 79
61 69 80
60 69 80
60 69 80
59 67 78
60 69 79
60 68 79
59 68 78
60 68 79
59 67 78
61 70 80
60 68 78
60 68 78
59 67 78
60 68 79
59 67 77
60 68 79
59 68 78
59 67 78
60 68 79
60 68 79
59 67 77
60 68 78
60 69 79
59 66 77
60 69 79
60 68 79
60 68 79
59 67 78
58 66 77
60 68 79
59 67 77
59 67 78
59 68 79
59 67 77
59 67 77
60 68 79
59 67 78
60 68 79
59 67 77
59 67 78
59 67 78
59 67 77
56 64 74
59 67 78
59 67 77
59 67 78
60 69 79
59 67 77
55 62 72
59 67 77
56 63 74
59 67 78
58 65 76
58 65 76
58 65 76
58 66 77
56 64 75
59 67 76
59 67 77
59 67 77
56 64 73
58 67 77
57 65 75
58 66 76
56 64 74
59 67 77
55 63 72
54 61 71
55 63 73
57 65 75
58 66 76
58 66 76
56 64 74
56 64 74
58 66 76
55 63 73
58 65 75
54 62 71
55 63 73
55 63 73
58 66 76
53 60 69
57 64 74
54 61 71
54 61 70
56 64 74
55 62 72
54 61 70
53 61 71
56 63 73
54 62 72
57 64 74
55 63 73
54 61 71
54 61 70
53 60 69
54 61 70
51 58 67
51 58 67
53 60 70
54 60 69
49 56 65
51 57 66
51 59 68
48 55 64
50 56 65
50 57 65
45 51 59
52 59 68
49 55 63
48 54 62
49 55 64
49 56 65
48 54 62
51 57 65
46 51 58
46 52 59
48 54 63
43 49 56
48 54 62
42 47 54
41 46 53
44 49 56
43 48 55
43 48 55
43 48 54
39 44 50
37 41 47
34 38 44
37 41 47
39 44 49
40 45 51
37 42 47
36 40 46
36 40 45
40 44 50
30 33 38
30 34 38
29 32 36
28 31 34
30 33 37
28 31 34
31 34 38
30 33 36
32 34 38
30 33 37
32 35 40
29 32 36
31 34 38
35 39 43
25 28 32
32 35 39
32 35 40
38 41 45
29 32 36
35 38 43
34 38 42
38 41 46
32 35 39
33 36 40
36 40 44
37 40 45
32 35 40
39 42 47
37 41 45
34 38 42
29 31 35
36 39 43
36 39 44
30 33 37
36 40 44
34 37 41
41 44 49
36 39 44
32 35 39
36 40 44
31 34 38
33 36 40
34 38 42
41 44 49
32 35 39
33 36 40
33 37 41
38 41 46
31 34 38
30 32 36
33 36 40
31 33 37
34 37 41
31 34 38
28 31 34
27 30 33
34 37 41
32 36 40
35 39 44
37 41 47
36 40 46
40 45 51
35 39 45
32 35 40
39 44 50
42 47 54
39 44 51
44 49 56
44 49 55
39 43 49
43 48 55
44 50 57
41 46 53
50 57 65
45 51 58
44 50 57
47 53 60
48 54 62
48 54 63
47 53 61
52 58 66
48 54 62
50 57 65
47 53 61
52 59 67
46 52 60
51 58 67
51 57 66
51 58 67
47 53 61
51 58 66
52 59 68
51 58 67
53 60 70
53 61 71
54 61 71
50 57 66
53 60 69
54 61 70
52 59 69
51 57 66
56 64 73
51 58 67
55 62 71
54 61 70
54 61 71
53 60 70
56 64 74
52 59 68
55 63 73
55 63 73
57 64 74
59 67 77
55 63 72
55 62 72
56 63 73
54 61 71
56 64 74
58 66 76
58 65 76
59 67 77
58 66 77
56 64 74
54 62 71
57 65 75
57 65 76
57 64 75
57 65 75
59 67 78
56 64 74
57 65 75
56 64 74
56 64 74
57 66 76
59 66 76
57 65 75
57 65 76
58 66 77
57 65 75
59 67 77
58 66 76
59 67 78
58 66 76
58 66 76
60 68 79
59 67 78
59 67 77
59 67 78
59 67 78
59 67 78
59 66 77
60 68 78
58 66 77
57 65 76
60 68 78
58 67 78
59 67 78
58 66 76
59 67 78
59 66 77
57 65 76
60 68 79
60 68 79
60 68 78
60 68 79
60 68 78
58 67 77
61 69 80
60 69 79
60 68 79
60 68 79
59 67 78
60 68 80
59 68 78
59 67 78
59 67 77
60 68 79
58 67 78
61 69 79
60 68 78
60 68 78
60 68 79
59 67 78
60 67 78
60 68 79
61 69 79
60 68 78
60 69 80
60 68 78
59 67 78
59 68 78
60 68 79
61 69 80
61 69 80
59 68 79
61 69 80
61 69 80
60 69 79
61 69 80
59 67 78
60 68 79
59 67 78
60 69 79
60 68 79
61 69 80
60 69 79
59 68 79
60 69 80
60 68 79
59 67 77
59 67 78
60 68 79
61 69 80
61 69 80
62 70 80
61 69 80
60 69 79
61 69 79
61 69 80
60 69 80
61 69 79
60 69 80
60 69 80
61 69 80
60 68 79
62 70 80
61 69 79
61 69 80
61 70 80
61 69 80
61 69 79
61 69 80
60 69 80
59 68 78
60 69 80
61 69 80
60 68 79
60 69 80
60 69 80
62 70 80
61 68 79
60 68 78
61 69 80
61 69 79
60 68 78
61 69 80
60 68 78
60 68 79
61 69 80
61 69 79
60 68 79
61 69 79
60 69 80
61 69 79
60 69 80
60 69 80
60 68 78
60 68 79
60 68 79
60 68 79
61 69 79
60 68 79
60 68 79
61 69 80
61 69 80
59 67 78
60 68 78
61 69 80
61 69 80
59 67 78
60 68 79
59 67 77
59 67 77
59 67 78
60 68 78
61 69 79
60 68 78
60 68 79
61 69 80
60 68 79
60 68 78
60 68 78
60 68 79
59 67 78
59 67 78
58 67 77
60 68 79
60 68 79
59 68 78
60 68 78
59 67 78
59 67 78
59 67 77
59 67 78
59 68 79
60 69 79
59 67 77
58 66 77
60 68 78
60 68 78
59 67 77
60 68 78
59 67 78
58 66 77
59 67 77
57 66 76
58 66 76
59 67 77
59 67 77
58 66 77
59 67 77
59 67 77
58 66 77
58 65 76
58 66 77
59 67 78
60 68 79
58 66 76
58 66 77
57 65 75
57 65 76
59 67 77
57 65 75
58 66 76
58 66 76
58 65 75
53 61 71
58 65 75
58 66 76
56 64 74
58 65 75
57 65 76
57 65 75
57 65 76
53 60 70
56 64 74
57 65 75
56 64 74
56 64 74
56 64 74
59 66 76
56 63 72
54 61 70
56 64 74
55 62 72
55 63 72
52 59 68
57 65 75
53 60 69
53 60 69
56 63 73
57 65 75
53 60 70
54 61 70
54 62 71
54 62 71
53 60 70
56 64 74
53 60 69
51 58 67
54 61 70
53 61 70
53 60 69
53 60 69
51 58 67
49 56 64
52 59 68
52 59 68
53 60 69
47 54 62
47 54 62
49 55 64
48 54 62
50 57 65
47 52 60
50 56 64
50 57 66
49 55 64
45 51 59
45 51 59
44 49 56
49 55 63
44 49 57
45 50 57
46 51 58
41 46 52
42 47 54
45 50 58
43 48 55
40 45 51
43 48 55
38 43 49
42 47 53
32 36 41
43 48 55
34 37 42
40 45 51
35 38 43
36 40 46
30 34 38
29 33 37
28 31 36
32 35 40
26 29 33
34 37 42
31 34 37
31 34 38
33 36 40
32 35 39
32 35 39
35 38 43
29 32 36
36 39 43
34 37 41
30 33 36
35 38 43
33 36 40
31 34 38
31 33 37
35 38 43
36 39 43
29 32 36
37 41 45
28 31 35
32 35 40
37 40 45
28 31 34
34 37 41
32 35 39
34 37 42
38 41 45
37 40 45
35 38 42
31 34 39
36 39 43
31 34 38
33 37 41
31 34 39
30 33 37
29 32 36
32 35 39
33 36 41
33 36 40
33 36 40
29 32 35
36 39 44
30 33 37
31 34 38
34 37 42
26 29 33
31 34 38
27 30 33
32 35 39
34 37 41
27 30 34
35 39 44
33 37 42
35 39 44
31 35 39
33 37 43
36 40 45
37 42 47
37 42 48
42 46 52
43 47 54
41 45 51
44 49 56
40 45 51
44 49 55
41 45 52
43 48 54
46 51 59
45 50 57
41 46 53
49 55 63
45 51 58
49 55 63
44 50 57
45 51 59
45 51 58
45 51 59
47 53 61
51 58 66
49 55 64
46 52 60
48 54 62
49 56 64
50 56 65
51 58 67
49 56 64
52 59 68
52 58 67
49 55 64
51 58 67
51 58 67
51 58 67
54 60 70
52 59 69
54 61 71
55 61 71
56 63 72
52 60 69
51 58 67
55 62 72
54 61 71
54 61 70
51 58 67
54 62 71
55 62 72
55 63 73
53 60 69
55 63 72
53 61 70
56 63 73
57 65 75
58 65 76
55 62 72
56 64 73
55 62 72
57 64 74
56 64 74
57 65 75
56 64 74
54 62 72
54 61 71
55 63 73
57 64 74
58 66 76
56 64 74
58 66 76
57 65 75
59 67 78
59 67 77
58 67 78
56 64 74
57 65 76
58 66 76
59 67 78
58 66 77
57 65 76
59 67 77
59 67 78
59 67 78
58 66 77
59 67 77
59 67 78
57 65 75
59 67 77
59 67 78
58 66 77
59 67 77
59 67 78
59 67 78
59 67 77
59 67 77
59 67 77
58 66 76
60 68 79
59 67 78
60 68 79
60 68 78
59 68 78
60 68 78
59 67 78
59 67 78
60 68 78
60 68 79
60 68 78
61 69 80
58 66 77
61 68 79
59 67 77
60 69 79
60 68 78
60 68 78
59 67 78
61 69 79
60 67 77
58 66 77
60 68 79
59 68 79
60 68 79
60 69 79
61 69 80
60 68 79
61 69 80
61 69 80
61 69 80
60 68 78
60 68 79
61 69 79
61 69 80
59 68 78
61 69 80
60 68 79
61 69 80
60 68 79
59 67 78
61 69 80
61 69 80
60 68 79
60 69 80
60 69 80
60 68 79
61 69 80
60 69 80
61 69 80
60 69 79
60 68 78
61 69 80
61 69 80
60 68 78
61 69 80
60 68 79
61 69 80
60 68 79
61 69 79
61 69 80
61 70 80
61 69 80
60 69 80
61 69 80
61 70 80
60 69 80
61 69 80
61 69 80
61 70 80
61 69 80
61 69 79
61 69 80
61 69 80
61 70 80
60 68 78
61 69 80
60 69 80
60 68 79
61 69 80
60 68 79
60 68 78
60 68 79
61 69 80
61 69 80
62 70 80
60 68 79
60 68 79
62 70 80
60 69 80
60 69 80
60 68 79
60 68 79
60 68 78
60 68 79
60 68 79
60 68 78
60 68 79
61 69 80
60 68 79
60 69 80
60 69 80
60 68 79
61 69 80
61 69 80
60 68 79
61 69 80
60 68 79
61 70 80
61 70 80
60 68 79
60 69 80
60 68 79
60 68 79
60 69 80
60 69 79
59 67 78
60 69 79
59 67 78
59 68 79
60 68 79
59 67 78
59 67 78
59 67 78
61 69 80
60 68 79
58 66 77
60 68 78
58 66 77
59 67 77
60 68 79
60 68 78
59 67 78
60 69 79
59 68 78
58 66 77
59 67 78
60 69 79
59 67 78
59 67 77
60 68 78
58 66 77
60 68 79
59 68 78
60 68 79
58 66 76
59 67 78
58 66 76
59 67 78
58 67 78
58 66 76
58 66 76
60 68 78
59 67 78
60 68 79
57 65 76
59 67 78
60 68 78
59 67 77
58 65 75
57 65 76
59 67 77
59 67 78
58 66 77
57 65 75
58 66 76
56 64 74
58 66 76
58 66 76
56 64 74
57 65 75
57 64 74
58 66 77
57 65 76
58 66 76
57 65 75
55 63 72
55 63 72
54 62 71
56 63 73
52 59 69
55 62 72
56 64 74
54 62 72
56 63 74
54 62 72
52 60 69
57 64 74
56 64 74
53 61 71
55 63 73
56 64 74
57 65 75
56 63 73
55 63 73
52 59 68
56 64 74
55 62 72
53 60 70
53 60 69
53 60 70
54 61 71
49 56 65
50 57 65
53 60 69
52 59 68
52 60 70
56 63 73
50 57 66
48 55 63
51 58 66
50 56 65
52 59 67
47 53 60
49 56 64
51 57 66
52 59 67
51 57 65
48 54 62
49 55 64
49 55 63
45 51 59
49 55 64
43 48 55
48 54 62
49 55 63
45 51 58
47 53 60
45 51 57
44 49 56
41 45 52
45 50 57
36 40 45
40 44 51
43 48 55
38 43 49
41 46 52
36 41 46
37 41 47
40 45 51
38 42 47
35 38 44
37 41 47
33 37 42
37 41 47
34 38 42
32 35 40
35 39 43
28 31 34
27 30 34
30 33 36
28 31 35
24 27 30
30 33 37
30 33 37
33 36 40
34 37 41
32 35 39
33 36 40
28 31 34
24 26 29
35 38 42
31 33 37
27 30 34
34 37 41
31 34 39
34 37 41
33 36 41
32 35 39
31 34 38
32 35 39
28 30 34
32 35 39
31 34 38
32 35 39
32 35 39
32 34 38
38 41 46
35 38 42
31 34 37
31 33 37
29 32 35
32 35 38
30 33 36
33 36 40
33 37 41
32 35 39
30 32 36
31 34 38
34 37 42
30 32 36
24 26 29
28 30 33
31 34 38
28 31 34
30 33 37
32 35 40
28 31 34
32 36 40
35 39 43
37 41 46
33 37 41
30 33 37
35 39 44
29 33 37
42 46 53
41 46 52
40 45 51
37 42 47
40 45 51
39 43 49
43 48 55
42 47 53
42 47 54
43 48 55
43 49 56
47 53 60
41 46 53
43 49 56
49 56 64
45 51 59
48 54 62
46 52 60
49 56 64
50 56 65
52 59 68
45 51 59
49 55 63
50 56 65
49 56 64
49 55 64
47 53 61
51 58 67
54 61 70
52 59 68
49 55 63
51 58 67
51 58 67
51 57 66
52 60 69
54 61 70
53 60 69
54 61 70
51 58 67
53 60 69
55 62 72
53 61 70
54 61 70
54 61 71
54 61 71
55 62 72
55 62 72
53 60 70
54 61 70
57 64 74
55 62 72
53 61 70
56 63 73
55 63 73
58 65 76
56 63 73
56 64 74
56 64 74
58 66 76
56 63 73
57 64 74
57 65 76
54 61 72
57 64 75
56 64 74
56 64 74
58 65 75
58 66 76
56 63 73
58 66 76
58 66 77
57 64 74
57 65 75
57 64 74
58 66 76
58 66 76
58 66 76
57 65 75
58 66 76
59 67 78
60 68 78
59 67 77
58 66 77
57 65 75
57 65 76
57 65 76
57 65 75
57 65 76
59 67 77
59 68 78
60 68 78
60 68 79
59 68 78
59 67 77
59 67 78
60 68 78
60 68 79
60 68 79
60 68 78
59 67 78
59 67 77
59 67 77
59 67 78
59 67 77
59 67 77
59 67 78
59 67 78
60 68 79
60 68 79
58 67 78
60 68 78
60 68 79
60 68 78
59 67 78
61 69 80
60 68 78
60 68 78
60 68 78
59 68 78
61 69 80
60 68 78
60 68 78
59 67 77
60 68 79
59 68 79
59 67 77
60 68 79
59 68 78
58 65 76
59 67 78
60 68 79
60 68 78
60 68 79
60 68 79
60 68 79
61 69 79
59 68 78
59 67 78
62 70 80
60 68 79
60 68 79
60 69 80
59 68 79
61 69 79
61 68 79
61 69 80
61 69 80
60 68 79
60 68 78
60 68 79
60 68 79
60 69 79
61 69 80
60 69 79
60 68 79
61 69 80
60 68 78
61 69 80
62 70 80
61 69 80
60 69 80
60 69 80
62 70 80
61 70 80
61 69 80
61 69 80
61 69 79
61 69 80
61 69 80
61 69 80
61 69 80
61 69 80
60 68 79
59 68 79
60 68 78
60 69 80
59 67 78
59 67 78
60 68 78
61 69 80
60 68 79
60 68 78
59 68 79
60 68 79
60 68 79
60 69 79
61 69 79
60 68 79
61 69 80
61 69 80
60 68 79
60 68 79
60 69 79
60 68 79
60 68 78
61 69 80
61 69 80
60 68 79
60 68 79
61 69 80
60 69 79
60 69 80
59 67 78
60 67 78
60 67 78
61 69 80
59 67 77
60 68 79
60 68 78
60 68 79
60 68 79
59 66 77
59 67 78
61 70 80
61 69 79
59 67 78
60 68 79
60 68 79
61 69 80
61 69 80
59 68 78
59 67 78
60 68 78
60 68 78
59 68 78
60 69 80
61 69 80
59 67 78
60 68 78
58 67 77
60 68 79
58 66 76
60 68 79
61 69 80
59 68 79
59 67 78
57 66 76
59 67 78
60 68 79
59 67 77
59 67 78
59 67 78
59 67 77
57 65 75
58 66 76
57 65 76
59 67 77
58 66 76
58 66 77
57 66 76
58 66 76
57 65 76
58 66 76
56 64 74
57 65 76
58 66 76
58 66 77
58 66 76
57 64 74
57 65 76
58 66 77
57 65 75
57 64 74
57 65 75
56 64 74
58 66 77
55 62 71
57 64 74
57 65 75
58 66 76
58 66 76
56 64 73
57 65 75
58 66 77
57 65 75
54 61 71
55 62 72
57 64 74
55 63 73
56 64 74
56 63 73
56 64 74
52 59 69
58 65 75
55 62 71
58 65 75
54 61 69
55 63 72
53 61 71
54 62 72
54 61 70
54 61 71
51 58 67
54 62 71
54 61 70
54 61 71
53 60 69
51 58 67
52 59 68
51 57 66
52 58 67
51 58 67
50 56 65
53 61 70
54 61 70
51 58 67
48 54 62
50 56 65
50 56 65
50 56 64
49 55 63
51 58 67
46 52 60
49 55 64
48 54 62
50 56 65
50 56 64
47 53 61
46 51 59
45 51 59
45 51 59
46 52 59
43 49 56
46 52 60
45 50 57
43 49 56
42 47 53
46 51 58
41 46 53
36 40 46
39 44 50
40 45 51
40 45 51
33 36 41
36 40 45
34 37 42
36 40 46
41 46 52
40 44 50
38 42 47
32 35 39
36 39 44
33 37 41
29 32 36
29 32 36
29 32 36
26 28 32
24 26 29
28 30 34
28 30 34
27 29 32
34 37 41
31 34 38
27 30 33
30 32 36
25 28 31
24 27 30
30 33 37
28 30 34
35 38 42
33 36 40
29 32 36
31 34 39
30 33 37
29 32 36
32 35 40
32 35 39
30 32 36
35 38 42
28 31 35
31 34 38
30 32 36
28 31 35
30 32 36
32 35 39
30 32 36
32 35 39
28 30 34
25 28 31
32 35 39
27 30 33
31 34 38
32 35 39
30 33 37
23 25 28
21 23 26
32 35 39
31 34 38
27 30 33
31 34 38
34 37 42
32 35 40
25 28 32
37 41 46
31 34 38
34 38 43
33 37 42
35 38 44
38 43 49
36 40 45
39 43 49
31 35 39
39 44 50
41 46 52
40 45 51
41 46 53
39 44 50
45 51 58
41 46 53
45 50 58
39 44 50
48 54 62
46 51 59
47 52 60
49 55 63
47 53 60
45 51 59
45 51 58
48 55 63
47 53 61
48 55 63
47 53 61
47 53 61
48 54 62
48 54 62
51 57 66
49 55 63
49 55 63
52 59 67
54 61 70
52 59 68
46 53 61
49 56 64
51 58 67
54 61 71
53 60 69
50 56 65
53 60 70
54 61 70
53 60 70
52 60 69
53 60 70
53 60 70
53 61 70
55 62 72
54 62 71
55 62 72
57 64 74
55 62 72
55 63 73
56 63 73
54 61 71
57 64 74
55 62 72
55 63 73
55 63 72
58 66 76
56 64 74
55 63 73
59 67 78
57 65 75
56 63 73
55 63 73
57 65 75
55 62 72
55 63 73
58 66 76
58 66 76
58 66 76
59 67 77
58 66 76
55 64 74
58 66 77
59 67 78
58 66 76
58 65 76
58 67 77
58 66 76
59 67 77
57 65 75
58 66 76
59 67 77
60 68 78
58 66 77
57 65 76
59 67 77
61 69 79
58 66 76
58 66 77
58 66 76
59 68 78
60 68 79
60 68 78
59 67 78
57 65 75
59 67 77
59 67 78
60 68 79
58 66 77
59 68 78
59 67 77
59 68 79
60 68 79
60 68 80
60 68 79
59 67 77
59 67 78
59 68 78
60 69 80
59 67 78
59 67 78
59 67 78
59 68 78
61 69 80
60 68 79
61 69 80
61 69 79
60 68 79
60 68 79
61 69 80
60 68 79
59 67 78
59 67 77
60 68 79
60 68 79
60 68 79
60 68 78
61 69 80
59 67 78
61 69 80
60 68 79
60 68 79
60 68 79
60 68 79
61 69 80
60 68 79
60 68 78
61 69 80
60 68 79
60 69 79
60 68 78
60 69 80
60 68 79
60 68 79
61 70 80
60 68 79
60 69 80
61 69 80
60 68 79
61 69 80
60 68 79
61 69 79
61 69 80
60 68 79
60 68 79
61 69 80
60 69 80
60 69 80
60 68 78
61 69 80
60 68 79
60 68 79
61 69 80
60 68 78
60 68 79
61 69 80
60 69 79
61 69 80
60 68 79
60 68 79
61 69 80
61 69 80
60 68 79
60 68 79
61 69 80
61 69 79
61 69 80
61 69 79
60 69 80
59 68 79
58 66 77
60 69 80
60 68 78
60 68 79
60 68 79
61 69 80
61 69 80
60 69 79
62 70 80
59 67 78
58 66 77
61 69 79
61 69 79
61 69 80
59 67 78
60 68 78
59 67 78
59 68 79
60 69 80
60 69 79
61 69 79
61 69 80
60 68 79
60 68 79
59 67 78
59 67 77
60 68 79
60 69 79
60 69 80
59 66 77
59 67 78
62 70 80
60 68 79
59 68 78
61 69 80
59 67 77
60 68 79
60 68 78
60 69 80
59 67 77
60 68 79
57 66 76
60 68 78
60 68 79
60 68 78
60 68 79
59 67 78
59 67 77
60 68 79
60 68 78
59 66 77
58 66 76
60 68 78
57 65 76
60 68 79
59 67 77
60 68 79
57 65 74
58 66 77
59 67 77
59 67 77
58 66 76
60 68 79
57 65 75
58 66 77
60 68 78
57 65 76
59 67 77
60 68 78
58 66 77
56 64 75
58 66 76
59 67 77
58 66 76
58 66 76
58 66 76
58 66 76
57 66 76
58 66 76
58 66 77
59 67 78
58 65 75
55 62 72
58 66 76
58 66 77
55 63 73
58 66 76
58 65 75
57 65 75
57 65 75
56 64 74
57 64 74
57 65 74
57 65 75
56 64 74
57 65 75
57 64 74
58 66 76
55 61 71
55 62 72
55 62 72
51 58 67
55 62 72
56 64 74
55 63 72
55 62 72
53 61 70
57 64 74
52 60 69
55 63 72
53 60 70
55 62 71
54 61 71
53 60 69
50 56 65
54 61 71
52 59 68
54 61 70
50 57 66
52 59 69
51 58 67
52 58 67
50 56 64
51 58 67
49 55 64
48 54 62
50 56 65
50 56 65
49 55 63
49 55 63
50 56 65
49 55 64
47 53 62
50 56 64
47 53 61
42 48 55
42 48 55
46 52 60
44 49 56
43 48 56
45 50 58
43 48 55
42 47 54
45 50 57
42 47 53
43 49 56
42 47 54
41 46 52
43 48 55
36 39 45
41 46 52
41 46 52
37 42 47
38 43 49
40 44 50
37 41 47
35 39 44
36 41 46
37 41 47
35 38 43
34 37 42
32 36 41
33 36 41
33 37 41
25 28 32
29 32 35
22 25 28
32 35 40
32 35 39
25 28 31
23 26 29
22 25 28
29 32 36
23 25 28
29 32 35
27 29 33
30 32 36
19 21 24
32 35 39
27 30 33
32 35 39
29 32 36
34 37 41
29 31 35
28 30 34
30 33 37
32 35 39
32 35 38
30 33 37
33 36 39
29 32 36
35 38 42
28 31 34
32 35 39
31 34 37
25 27 30
32 35 39
29 32 35
31 34 37
27 29 33
26 29 32
23 25 28
31 34 37
27 30 34
29 32 36
27 29 33
29 32 36
28 31 34
32 35 40
32 35 39
29 32 36
31 34 39
28 31 35
30 33 37
32 35 40
37 41 47
36 40 45
35 39 44
37 41 46
35 39 45
41 46 52
36 40 45
41 46 52
39 43 49
39 43 49
43 48 55
38 42 48
43 48 55
45 50 58
43 49 56
48 54 61
41 46 53
45 50 58
43 48 55
47 53 61
42 48 55
43 49 57
47 53 60
46 52 59
47 53 61
46 52 60
51 57 66
46 52 60
48 54 62
49 55 63
52 59 67
49 55 63
47 53 62
48 55 63
51 58 66
50 56 64
51 59 68
50 57 66
56 63 73
52 59 68
52 59 68
51 58 67
52 59 68
55 62 72
54 61 71
53 60 69
52 59 68
53 60 69
53 60 70
56 63 73
55 62 72
52 59 68
55 62 72
52 59 69
54 61 71
55 62 72
55 62 72
55 62 71
57 65 75
56 63 73
57 65 75
56 64 74
56 63 73
58 65 75
55 63 72
58 66 76
57 65 74
57 64 74
56 64 74
56 64 74
56 63 73
57 65 75
59 66 77
57 65 75
57 65 76
57 65 75
57 65 75
55 63 74
57 65 76
57 65 75
57 64 74
57 65 75
59 67 77
57 65 76
59 67 78
56 64 74
59 66 77
57 64 74
58 66 77
58 66 76
58 66 76
59 68 79
58 66 77
58 66 76
59 67 77
59 67 78
59 67 78
59 68 79
60 68 78
59 67 77
59 67 77
60 68 79
59 67 77
60 68 79
59 67 78
58 66 77
58 67 78
59 68 79
59 67 78
58 66 76
59 67 78
59 67 78
58 67 77
58 67 78
59 67 77
59 67 78
60 68 79
58 66 77
58 66 76
60 68 79
61 69 79
60 68 79
60 68 79
60 68 79
60 68 79
60 68 78
60 68 79
60 68 78
60 68 79
60 68 79
59 67 78
60 68 79
60 68 79
60 68 78
61 69 79
60 69 79
61 69 80
60 68 78
60 69 79
59 68 78
61 69 80
60 69 79
60 69 79
60 68 79
61 69 80
61 69 80
61 69 79
60 69 79
60 69 80
61 69 80
60 68 79
59 68 78
59 68 79
61 69 80
61 69 80
61 69 80
60 69 79
60 68 79
62 70 80
60 69 80
61 69 80
61 69 80
61 69 80
61 69 80
60 68 79
61 69 80
60 68 79
60 68 79
61 69 79
60 68 79
61 69 80
61 69 80
60 68 79
61 69 80
60 69 79
60 68 79
60 69 80
61 69 80
61 69 79
61 69 80
60 69 79
61 70 80
60 68 79
61 69 80
60 68 79
60 68 79
59 67 78
61 69 80
62 70 80
61 70 80
60 69 80
61 69 80
61 69 80
60 68 79
61 70 80
60 68 78
59 68 79
60 68 79
60 68 79
60 68 79
61 69 80
59 68 78
60 69 79
60 69 80
59 67 78
60 68 79
60 68 79
60 68 79
60 68 79
61 69 80
60 68 79
60 68 79
60 68 79
60 68 79
60 68 79
60 68 79
59 67 78
60 69 80
59 68 78
60 68 79
60 68 79
58 66 77
60 68 79
59 67 77
58 66 76
60 68 79
59 68 78
60 68 79
60 68 79
59 67 78
59 67 77
60 68 79
59 67 77
59 67 78
58 66 76
60 68 79
59 67 78
60 69 79
59 68 79
59 67 78
59 67 77
60 68 78
58 66 77
59 67 77
59 67 78
60 68 79
58 66 77
58 67 77
57 65 75
57 64 74
59 67 77
58 66 77
58 67 78
57 65 76
58 65 75
58 66 76
59 68 78
59 67 78
58 65 75
58 66 76
59 67 77
58 66 76
59 66 76
58 66 76
58 66 76
58 65 76
57 64 74
58 66 76
57 65 75
57 65 75
56 64 74
56 64 74
56 64 74
56 64 74
57 64 74
58 66 76
58 66 77
54 61 70
57 64 74
56 64 74
55 62 72
55 63 72
55 63 73
54 61 71
55 63 73
53 61 70
54 61 70
56 63 73
54 61 71
55 63 72
54 62 71
56 64 74
50 57 67
53 61 70
53 60 69
54 61 70
53 60 70
54 62 71
54 61 71
56 63 73
52 59 68
50 57 65
50 58 67
52 59 67
53 61 70
53 59 69
55 62 71
50 56 64
52 59 68
52 59 68
50 56 65
52 59 68
50 57 65
51 57 66
48 53 61
48 54 63
48 54 62
49 54 62
47 53 61
45 51 59
46 51 59
48 54 62
48 54 62
46 51 58
47 53 61
43 48 56
46 52 59
41 46 53
46 52 60
44 49 56
41 46 53
45 50 57
38 42 48
41 46 52
41 45 52
40 45 52
36 40 45
39 44 50
39 43 49
41 45 51
38 43 49
36 40 45
41 46 52
37 41 46
34 38 43
30 34 38
34 37 42
35 39 44
24 27 30
33 36 41
28 31 36
28 31 35
29 32 36
27 30 33
30 33 37
28 30 34
23 25 28
31 34 38
25 27 30
20 22 24
24 27 30
23 25 28
29 32 35
26 28 31
30 33 36
25 27 30
28 30 34
26 28 32
31 33 37
28 31 34
25 28 31
25 28 31
32 35 38
26 29 32
28 31 34
23 25 28
29 31 35
24 27 30
30 33 37
23 25 28
27 29 33
24 26 29
25 27 30
27 30 33
25 27 30
23 25 28
25 27 31
22 24 27
28 31 34
23 26 29
31 34 39
27 30 33
28 31 35
27 30 33
32 36 40
30 33 37
34 38 43
31 34 38
31 34 39
34 38 43
37 41 47
34 37 42
35 39 44
36 40 46
37 41 47
38 43 49
42 47 54
39 43 49
41 46 52
36 40 45
43 48 55
44 50 57
42 48 54
41 46 52
40 45 51
43 48 55
45 50 57
44 49 56
45 50 58
47 53 60
47 53 61
44 49 57
50 56 64
47 53 60
42 48 55
45 51 58
48 54 62
47 53 60
48 54 62
50 57 67
48 54 62
50 57 65
50 57 66
49 55 63
50 57 66
51 57 66
52 58 67
53 60 68
50 56 65
51 59 68
54 61 70
53 60 70
52 59 68
52 59 68
52 59 69
52 59 68
56 63 73
55 62 72
53 61 70
53 60 69
55 62 72
51 59 68
54 61 70
57 65 75
55 63 73
56 63 73
56 63 73
55 62 71
57 65 75
54 62 71
56 64 74
56 63 73
57 64 74
57 65 75
57 65 75
55 62 72
58 65 76
57 65 75
58 66 76
56 64 74
53 60 70
58 66 76
57 65 75
55 63 73
56 64 74
57 65 75
57 64 75
56 64 74
57 65 75
58 66 76
57 66 76
59 67 77
58 65 76
57 65 75
58 66 76
59 67 78
59 66 77
58 66 76
58 65 76
58 65 76
58 65 75
59 67 77
57 65 76
58 66 76
58 66 77
58 66 76
58 65 76
59 67 78
59 67 77
59 68 78
59 67 78
59 67 78
59 67 77
59 67 77
60 68 78
59 67 77
59 67 78
60 68 79
59 67 77
58 66 77
59 67 78
57 65 75
59 67 77
59 68 79
59 67 78
59 67 78
61 69 80
59 67 78
61 69 79
60 68 78
59 67 78
59 67 78
59 68 79
60 68 78
59 67 77
59 67 78
61 69 80
58 66 77
61 68 78
59 66 76
60 68 79
59 67 78
60 68 79
61 69 79
60 68 79
59 67 78
60 68 79
60 69 79
61 69 80
60 68 78
60 69 79
60 68 79
60 68 79
59 68 78
60 68 79
61 69 80
60 68 79
60 68 79
60 68 79
60 69 79
60 68 79
61 69 80
60 68 78
61 69 80
61 69 79
60 68 78
59 67 78
60 68 79
61 69 80
61 69 80
61 69 80
61 69 80
59 67 78
60 68 78
61 69 80
59 67 78
60 68 79
60 68 79
60 68 79
61 69 80
60 68 79
60 69 80
61 69 79
60 68 79
61 69 80
60 68 79
61 69 80
60 68 79
60 68 79
60 69 79
61 69 80
60 68 79
61 69 80
60 68 79
59 67 78
60 69 80
59 68 79
60 68 79
60 68 78
58 67 77
60 69 80
60 68 79
60 68 79
60 68 79
59 67 78
60 68 79
60 68 78
60 68 79
61 69 80
60 68 79
60 68 79
61 69 79
60 68 79
60 68 79
61 69 80
60 68 78
59 68 78
61 69 80
60 68 79
60 69 80
59 68 78
60 69 80
58 66 76
59 67 77
60 68 79
59 67 78
60 68 79
60 68 79
60 68 78
61 69 79
58 66 76
60 68 78
60 68 78
57 65 75
59 67 77
60 68 79
60 68 78
60 69 79
59 68 78
60 68 79
59 67 78
59 67 78
58 66 77
58 66 76
58 67 77
59 67 78
58 66 77
58 66 77
57 65 75
60 68 78
59 67 78
60 68 78
58 67 78
59 67 77
59 67 78
58 66 76
59 67 77
59 67 78
59 66 76
60 68 79
58 66 75
59 67 76
58 67 77
59 68 79
58 66 77
59 66 76
59 67 78
59 67 78
59 67 77
56 64 75
58 66 77
59 67 77
56 64 74
57 65 75
57 65 75
58 66 76
57 64 74
58 66 76
58 65 75
57 64 74
59 68 79
57 65 76
58 66 76
58 65 76
56 64 74
56 64 74
56 64 74
53 61 71
56 63 73
54 62 71
54 61 71
56 63 73
53 61 70
53 61 71
57 65 75
55 62 72
57 65 75
54 62 72
55 62 71
53 60 70
55 63 72
55 63 73
52 59 69
52 59 68
55 62 72
54 61 70
56 63 72
55 63 72
54 61 70
55 62 72
52 59 68
50 57 65
52 58 67
52 59 68
51 57 66
52 59 68
50 57 66
52 59 69
51 58 67
51 58 67
51 58 67
52 59 68
50 57 65
49 55 63
45 51 59
49 56 64
51 57 66
50 56 65
45 51 59
48 54 62
48 55 63
46 52 59
44 50 57
45 51 59
45 51 58
46 52 59
44 50 57
44 50 57
41 46 53
41 46 53
42 47 53
40 45 51
39 44 50
40 45 52
38 43 49
45 50 57
41 46 52
41 45 52
34 38 43
35 39 44
32 35 40
38 42 48
38 43 48
34 38 42
35 39 44
29 32 36
30 33 37
33 36 41
33 37 42
34 38 42
30 33 37
27 30 34
31 34 39
30 34 38
26 29 32
31 34 39
28 30 34
28 30 34
21 23 26
26 28 31
25 27 30
24 27 30
26 28 31
23 25 28
29 32 36
24 26 29
21 24 26
24 26 29
24 26 28
19 21 24
23 25 28
25 27 30
25 27 30
22 24 26
21 23 26
18 19 22
23 25 28
25 27 30
22 24 26
24 26 29
25 28 31
25 27 30
26 28 31
21 23 26
29 32 36
28 31 34
30 33 37
27 29 33
30 33 37
32 35 39
25 28 31
28 30 34
31 34 39
32 35 40
37 41 46
30 33 37
35 39 44
29 32 35
36 40 45
35 39 44
32 36 41
38 42 47
36 40 45
37 42 47
38 42 48
36 40 45
36 40 45
39 43 49
39 44 50
41 46 52
39 44 50
39 44 51
44 49 57
43 48 55
43 49 56
41 46 53
42 47 54
43 48 55
43 49 56
43 48 56
47 53 61
44 49 56
45 51 58
44 50 57
47 53 61
46 53 60
50 57 65
48 54 63
49 56 64
47 54 62
50 57 65
50 56 64
50 57 66
49 56 64
50 57 66
50 57 65
51 57 66
51 57 66
52 59 68
51 57 66
48 55 63
52 59 68
51 58 67
51 58 67
53 60 69
54 61 70
51 58 68
52 60 69
54 61 70
54 61 71
54 62 71
53 60 70
51 57 66
52 59 68
53 60 70
53 60 69
54 61 71
56 63 73
54 61 70
55 63 73
56 64 74
55 63 72
56 63 73
57 65 75
57 64 74
56 64 74
55 62 72
55 62 72
56 64 74
55 63 73
57 65 75
54 61 70
58 66 77
58 66 76
57 65 75
58 65 75
57 65 76
58 66 77
56 64 74
58 66 76
57 65 75
59 67 77
59 67 77
58 66 77
57 65 76
59 67 77
58 67 77
59 67 78
56 64 74
59 68 78
59 67 78
58 67 77
58 65 76
56 64 74
56 64 74
58 66 77
60 68 78
59 67 77
58 66 77
59 67 77
58 67 77
58 66 76
58 66 76
59 67 78
58 66 77
59 67 77
60 69 79
59 68 79
58 66 76
58 66 77
60 68 79
58 67 77
59 68 78
59 66 77
60 68 78
59 67 78
59 67 78
58 66 77
60 68 78
59 67 77
60 69 79
60 68 79
59 68 78
59 68 78
60 69 80
60 69 79
59 67 78
61 69 80
59 68 79
58 66 76
60 68 79
60 68 79
59 67 77
60 68 79
61 69 79
59 67 78
59 67 77
60 68 79
61 69 79
61 69 80
61 69 80
60 68 79
61 69 80
60 69 80
60 68 78
60 68 78
61 69 80
59 67 78
59 68 79
60 69 80
60 68 79
61 69 80
60 68 79
60 69 79
61 69 80
60 68 79
61 69 80
59 68 78
60 69 79
59 68 79
60 68 79
61 69 80
61 69 80
61 69 80
59 67 78
59 67 78
59 67 78
61 69 80
60 68 79
60 68 79
61 69 79
60 69 80
60 69 80
62 70 80
60 69 80
60 67 78
61 69 80
61 69 80
61 69 80
59 67 78
60 69 80
61 69 80
59 67 78
61 69 79
61 69 80
60 68 79
61 69 80
60 68 79
60 68 79
60 68 79
60 69 79
60 68 79
60 68 79
60 69 79
60 68 79
60 68 79
60 69 79
60 68 79
61 69 79
59 68 79
59 68 79
61 69 80
59 67 78
61 69 80
59 67 78
60 68 79
61 68 79
59 67 78
60 68 79
60 68 78
61 69 79
60 68 79
59 67 78
61 69 80
61 69 80
60 68 79
60 68 78
60 68 79
60 68 79
61 69 80
61 69 79
59 67 77
59 67 77
60 68 79
59 68 78
59 67 78
60 68 79
60 68 78
60 69 79
60 68 79
59 68 78
59 67 78
59 67 78
60 68 78
58 66 77
58 66 77
60 68 79
58 66 76
59 67 78
60 68 79
58 66 76
59 67 78
58 66 77
55 63 73
59 67 77
57 65 75
55 63 73
57 66 76
56 64 74
59 67 77
58 66 76
58 66 76
58 66 76
58 66 77
55 63 74
58 66 76
58 66 76
59 67 77
58 66 77
59 66 77
59 66 76
58 66 76
58 65 76
57 65 75
57 65 76
57 64 75
58 66 77
58 66 77
58 65 76
59 67 77
57 64 74
55 63 74
54 62 71
58 66 76
56 64 74
55 63 72
58 66 76
58 66 76
55 62 72
57 65 75
56 64 73
55 62 72
54 61 71
55 63 73
56 63 73
59 67 77
53 61 70
56 64 73
55 62 72
57 65 75
56 63 73
54 62 71
53 60 69
52 59 69
53 60 69
54 61 70
55 62 72
52 59 68
55 63 73
57 64 74
49 56 65
55 63 72
51 57 66
52 58 67
51 57 66
52 59 69
54 61 71
51 58 67
50 57 65
51 58 66
48 54 63
48 54 62
49 56 64
47 54 62
49 56 64
51 57 66
49 55 63
51 58 67
46 52 60
49 55 63
45 51 58
43 49 57
45 51 58
39 45 52
48 53 61
45 51 58
43 49 56
42 47 54
46 51 58
45 50 57
37 42 48
42 48 54
41 46 53
43 48 54
42 48 54
36 40 46
38 43 49
38 43 49
39 43 49
40 45 51
36 40 46
33 37 42
37 42 47
33 37 42
35 39 44
32 35 39
30 34 38
36 40 45
31 34 38
32 36 40
32 36 40
33 36 40
28 31 34
28 31 35
23 26 29
31 34 39
26 29 32
24 26 29
24 27 30
29 31 35
26 29 32
28 31 34
29 31 35
29 31 35
28 31 34
25 27 30
27 30 33
21 23 25
22 24 27
23 25 28
21 23 25
19 21 23
24 26 29
22 24 26
22 24 27
21 23 26
17 19 21
26 28 31
21 23 26
25 28 31
21 23 26
30 33 37
26 29 32
26 29 32
24 26 29
27 30 33
26 29 32
32 35 39
29 32 36
22 24 27
31 34 39
30 34 38
35 38 43
31 35 39
35 38 44
32 36 41
30 34 38
38 42 48
35 39 45
33 37 42
37 41 47
34 37 42
38 42 48
37 41 47
38 42 47
38 42 48
38 43 49
38 42 48
36 40 45
40 44 51
40 44 50
41 47 54
42 47 54
39 44 50
38 43 49
41 46 53
43 48 55
50 56 64
45 51 58
47 53 61
43 49 56
43 48 56
44 50 58
44 50 57
50 56 65
45 51 58
51 57 66
46 52 60
48 54 62
51 58 67
52 58 67
47 54 62
50 57 66
48 55 64
50 56 65
50 57 66
49 56 64
51 57 66
49 56 64
53 60 70
50 56 64
53 60 69
48 55 63
51 57 66
56 63 73
53 60 69
55 63 73
51 59 69
52 58 67
48 55 63
52 60 69
54 61 71
55 62 72
54 61 70
55 62 72
55 63 72
54 61 71
54 61 70
54 61 71
55 62 72
55 63 73
54 61 71
55 63 73
55 63 74
56 63 74
53 60 70
58 66 76
58 65 75
55 62 72
53 61 70
55 62 71
56 64 74
57 65 75
54 62 71
56 64 74
59 67 78
57 65 75
57 64 74
56 64 74
56 63 74
56 64 74
56 64 74
57 65 75
58 66 76
58 66 76
59 67 77
58 65 75
57 65 75
58 66 76
58 66 77
57 66 76
58 65 75
60 67 78
59 67 77
58 66 76
58 66 76
60 68 78
59 66 76
59 68 78
59 67 77
59 67 78
59 67 78
58 67 77
59 67 78
58 66 76
56 64 74
59 68 78
59 67 78
59 68 79
59 66 77
60 67 78
58 66 76
59 67 78
59 67 77
61 69 80
60 68 79
60 68 79
58 66 77
59 67 77
59 68 78
60 68 79
59 67 77
59 67 78
61 70 80
59 67 78
59 68 78
59 66 76
59 67 78
59 67 78
59 67 77
59 67 78
60 68 79
59 67 77
59 67 78
58 66 77
60 68 79
59 67 77
61 69 79
60 68 79
61 69 80
59 68 78
61 69 79
59 67 78
60 69 80
60 68 79
60 69 80
59 67 77
60 68 79
60 69 79
60 68 78
58 66 77
60 69 80
61 69 79
60 69 79
61 69 79
60 68 79
61 69 80
59 67 78
60 68 79
60 69 79
60 68 78
60 69 80
61 69 79
61 69 79
60 69 80
60 69 79
61 69 79
61 69 80
60 69 80
59 67 78
60 68 79
59 67 78
61 69 80
61 69 79
61 69 79
61 69 79
60 68 79
60 69 80
60 69 80
59 68 79
61 69 80
60 68 79
60 68 79
61 69 80
59 67 77
61 69 80
60 68 79
60 68 78
61 69 79
60 68 79
60 69 80
61 69 79
59 67 78
61 69 79
60 68 78
59 67 78
61 69 80
59 68 78
60 69 80
60 68 78
60 69 80
60 68 80
60 68 78
61 69 80
60 68 79
60 68 79
61 69 80
60 69 80
59 67 78
61 69 79
60 69 80
59 67 78
61 69 80
59 67 77
59 67 78
60 68 79
59 67 78
60 68 79
58 66 77
59 68 78
60 68 79
60 68 78
60 68 79
60 68 78
60 68 79
61 69 79
59 67 78
57 65 75
58 67 77
58 66 76
60 68 79
60 68 78
59 67 77
59 67 77
58 66 76
59 67 77
59 67 78
60 68 79
57 65 76
59 67 78
58 66 76
59 67 77
60 68 79
59 67 77
60 68 79
58 66 76
59 67 77
56 64 75
57 65 76
60 68 79
58 66 76
58 66 76
58 66 77
59 67 77
59 67 78
57 65 76
59 67 77
58 66 76
57 65 76
56 64 74
58 66 76
58 66 77
57 64 74
57 65 76
59 67 77
56 64 74
58 66 76
57 64 74
58 66 76
55 63 73
57 65 75
58 66 76
56 63 73
54 62 72
56 63 73
55 62 72
55 62 72
53 61 70
57 65 74
56 63 73
55 63 73
57 64 74
55 63 72
55 62 72
55 62 72
55 62 72
56 64 74
55 62 72
53 60 69
54 62 71
54 61 71
53 61 70
57 64 74
55 62 71
55 62 72
53 60 70
53 60 70
53 60 70
51 58 67
52 59 68
52 58 67
53 60 69
53 60 70
52 59 68
52 59 68
51 58 67
49 56 64
50 56 65
50 57 65
48 55 63
48 55 63
48 54 63
49 55 63
45 51 59
46 51 59
47 53 61
47 53 61
48 55 63
47 53 61
47 53 61
47 52 60
43 49 56
47 53 62
49 54 62
45 51 59
44 50 57
42 47 54
44 49 56
49 55 62
43 49 56
43 49 56
45 50 57
41 46 52
39 44 51
40 44 51
41 46 53
39 44 50
39 44 51
40 45 51
40 45 51
36 40 46
33 37 43
34 38 43
36 40 46
35 39 44
37 41 47
34 38 44
35 39 44
36 40 45
33 37 41
27 30 33
31 34 38
32 36 41
28 31 35
34 38 43
26 28 32
29 32 36
30 33 37
27 29 33
26 29 33
31 35 39
30 33 37
25 28 31
21 23 26
27 29 33
26 28 31
22 24 27
28 31 34
26 29 32
24 26 29
22 24 27
20 22 25
25 27 30
24 26 29
24 26 29
26 29 32
24 26 29
27 30 34
22 24 27
25 27 30
21 23 26
28 31 34
28 31 35
32 35 39
27 30 34
30 33 37
29 32 36
29 32 36
26 29 33
33 36 41
31 34 39
27 30 34
27 30 33
33 36 41
31 35 39
36 40 44
36 40 46
32 35 40
36 40 46
34 38 43
37 41 47
35 39 44
35 39 44
38 42 48
36 41 47
39 44 50
40 45 51
40 45 52
40 44 50
44 49 55
38 43 49
41 46 53
44 49 57
44 50 57
44 49 56
41 46 52
43 48 55
43 49 56
44 49 56
44 49 57
48 54 62
49 55 63
43 49 56
49 55 63
46 52 60
45 51 59
46 51 59
47 53 61
51 58 66
50 56 64
50 57 65
48 55 63
52 58 67
53 59 68
47 53 60
48 54 62
49 56 64
54 61 70
51 58 67
51 58 67
50 56 65
52 59 68
52 59 68
52 60 70
51 59 68
53 60 69
53 60 69
52 59 68
53 61 70
56 63 72
55 63 73
51 58 68
54 61 71
54 62 71
54 62 71
53 60 70
54 62 71
55 62 72
53 60 69
56 63 73
54 61 71
52 59 68
57 65 75
56 63 73
57 65 75
56 64 73
55 62 72
54 61 71
56 64 74
52 59 69
55 62 73
57 65 75
56 64 74
58 65 75
56 64 74
57 65 75
56 64 74
57 65 75
57 65 75
57 65 75
55 62 72
56 64 74
57 65 75
58 67 77
59 67 78
58 66 76
59 66 77
58 67 78
57 65 75
58 65 76
57 65 75
57 65 75
59 67 77
60 68 78
60 67 78
59 67 78
58 66 77
57 65 75
58 65 76
60 68 79
60 68 78
58 66 77
58 66 76
58 66 76
58 66 77
57 65 75
59 67 77
58 66 77
59 67 78
60 68 78
58 66 77
59 67 78
58 66 77
60 68 78
59 67 78
58 66 77
60 68 78
58 66 77
59 67 78
60 68 78
61 69 80
60 69 80
60 68 78
58 67 78
60 68 79
60 68 79
60 68 79
59 67 78
60 68 78
59 67 78
60 68 78
59 68 78
60 68 79
60 68 79
61 69 80
60 68 79
60 68 78
59 68 79
58 66 77
61 69 79
60 69 80
60 68 79
60 68 78
60 68 78
60 69 80
59 67 78
61 70 80
60 68 79
59 67 78
60 68 78
60 69 79
61 69 79
60 69 79
60 68 78
60 69 80
61 69 80
60 68 79
60 69 79
60 68 79
60 69 80
61 69 80
60 69 80
61 69 80
61 69 80
59 67 77
60 68 79
61 69 80
60 68 79
60 68 79
60 68 79
59 68 78
61 69 80
60 69 79
61 69 80
60 69 79
60 69 79
60 68 78
61 69 79
59 67 77
60 68 79
60 68 79
60 68 78
61 69 80
60 68 78
60 68 79
60 68 79
60 67 78
60 68 78
60 68 78
61 69 80
59 68 79
59 67 79
61 69 80
60 68 79
60 68 78
60 68 78
61 69 80
60 68 78
60 68 79
59 67 78
59 68 79
60 68 79
61 69 79
59 67 78
60 68 79
60 68 79
56 65 75
59 67 78
58 66 77
60 69 79
59 67 78
59 67 78
59 67 78
61 69 80
61 69 80
59 67 78
60 67 78
60 68 79
59 67 78
60 69 79
60 68 78
60 68 78
58 66 76
60 68 79
60 68 78
59 67 77
60 69 79
60 68 78
59 66 77
58 66 77
58 66 76
58 67 77
57 66 76
59 67 78
58 67 77
60 68 79
59 67 78
58 66 77
59 66 77
59 67 77
59 67 77
60 68 79
58 66 77
59 67 78
58 66 77
58 66 76
60 69 79
57 65 75
60 68 78
58 66 76
58 66 77
58 66 76
58 66 76
57 64 75
58 66 77
58 66 76
55 63 73
58 65 76
58 66 76
58 66 76
56 64 74
58 65 75
59 67 77
56 64 74
57 65 75
56 64 74
59 66 77
55 63 73
54 62 72
56 63 73
57 65 75
56 63 74
55 63 73
56 63 74
51 59 68
56 64 74
58 65 75
56 64 73
54 62 72
57 65 75
56 64 74
54 61 70
54 62 72
53 60 70
55 62 72
56 63 73
54 61 71
53 60 70
54 60 70
56 63 73
53 60 70
56 63 73
52 58 67
53 60 70
54 62 71
52 59 68
50 56 65
52 59 68
52 59 68
50 57 66
50 57 66
52 59 68
50 57 66
51 58 67
51 58 67
49 56 65
54 61 70
49 55 63
51 57 66
54 61 70
47 54 62
49 55 63
54 61 71
48 54 62
48 54 62
51 57 66
45 51 59
49 55 63
49 56 64
48 54 62
44 50 57
45 50 57
47 53 61
46 52 59
45 51 58
44 49 57
42 47 54
41 46 53
44 50 57
43 48 55
45 50 57
42 47 54
41 45 52
36 40 46
41 46 53
44 49 56
34 38 44
46 51 58
42 47 54
41 46 53
37 41 47
38 43 49
36 40 45
38 42 47
41 45 52
39 43 49
33 37 41
32 35 40
32 36 40
32 36 41
28 31 35
30 33 37
37 40 46
32 35 40
32 35 40
30 33 37
27 30 33
30 33 37
26 29 32
27 29 33
32 35 40
28 30 34
24 26 29
24 27 30
27 29 33
28 31 35
26 29 32
24 26 29
25 27 31
29 32 36
27 30 33
24 26 29
27 30 33
20 23 25
29 31 35
28 31 34
19 20 23
27 30 33
20 22 24
28 30 34
24 27 30
28 31 34
28 30 34
28 31 35
28 31 35
32 36 40
27 30 34
30 33 37
32 35 40
30 33 37
31 34 39
27 30 35
35 39 44
31 34 39
37 41 46
40 44 49
39 43 49
32 36 41
35 39 44
36 40 45
36 40 45
36 40 45
37 42 47
36 40 45
36 41 46
41 46 52
35 39 45
39 44 50
38 42 48
39 43 50
39 44 51
43 49 56
42 47 54
42 47 54
46 52 60
42 47 53
44 49 56
42 47 53
42 48 55
43 49 56
43 48 55
46 51 58
46 51 59
43 48 55
47 53 60
43 49 56
50 56 65
47 53 60
50 57 65
44 50 57
50 57 65
49 55 63
48 54 63
51 57 66
50 56 65
52 58 67
50 56 64
50 57 66
49 56 64
53 60 70
51 58 67
53 59 69
53 60 69
52 59 68
52 59 69
53 61 70
52 59 69
55 62 72
51 58 67
53 60 70
51 59 68
55 62 72
55 62 72
53 61 70
51 58 67
55 63 73
53 60 69
53 61 70
55 62 72
53 61 71
56 64 74
54 61 71
56 64 74
56 63 73
54 62 71
56 63 73
56 63 73
57 65 75
55 63 73
56 64 74
57 65 75
58 67 77
57 65 74
57 64 74
55 63 73
56 64 74
59 67 77
58 65 76
56 64 74
57 64 74
57 64 74
55 63 73
56 64 75
58 66 76
59 67 77
58 66 77
56 64 74
57 65 75
59 67 77
58 66 77
58 67 77
54 62 73
60 68 79
58 66 76
58 66 76
58 66 76
60 68 78
60 68 79
58 66 77
59 67 77
56 64 74
59 67 77
58 66 76
61 69 79
58 66 76
59 67 78
59 67 78
60 67 78
58 66 76
59 68 79
59 67 78
58 66 76
60 68 78
58 66 77
59 67 77
60 69 80
60 68 79
59 67 77
59 67 77
59 67 78
60 68 79
60 68 78
58 66 77
60 68 78
59 67 77
60 68 79
59 68 78
60 68 79
59 67 78
60 68 79
60 68 78
59 67 78
61 69 79
59 67 77
60 68 79
59 68 78
60 68 78
61 69 79
59 68 78
60 68 79
61 69 80
60 68 79
61 69 79
59 67 78
60 68 79
60 68 79
59 67 78
61 69 80
61 69 80
60 68 79
58 66 77
61 69 80
60 68 79
60 68 79
60 68 79
60 68 79
59 67 78
60 68 79
60 68 79
60 68 79
61 69 80
60 69 79
61 69 80
60 69 80
60 69 79
60 68 79
60 68 78
61 69 79
60 68 79
60 68 79
61 69 80
60 69 79
60 68 79
60 68 79
60 69 80
60 69 80
61 69 79
60 69 80
60 69 79
61 69 79
62 70 80
59 67 77
59 67 78
59 67 77
61 69 79
60 69 80
59 67 78
61 69 79
61 69 80
60 69 80
61 69 80
61 69 80
61 69 79
59 67 77
60 69 80
60 69 80
60 69 79
59 67 78
59 67 78
61 69 80
59 67 78
61 69 79
60 68 79
60 68 78
59 67 77
60 68 79
60 68 79
59 67 77
61 69 79
60 68 78
59 67 78
59 67 78
58 66 77
57 66 76
60 68 78
59 67 77
60 68 79
60 68 79
60 68 79
60 68 79
59 67 77
58 66 77
60 68 79
58 67 77
59 67 78
58 66 77
59 67 78
59 67 78
59 67 77
58 66 77
60 68 78
60 68 79
60 68 78
60 68 79
59 67 78
60 68 78
59 68 78
59 67 77
59 68 78
58 66 76
59 67 78
59 66 77
58 66 77
58 66 77
58 65 76
57 64 74
58 66 77
59 67 77
58 66 76
57 65 75
57 64 74
57 65 75
57 65 76
59 67 78
57 65 75
56 63 74
56 64 74
57 65 75
58 65 75
57 65 76
59 67 78
59 67 78
57 64 75
58 66 76
57 65 76
58 66 76
57 64 74
57 65 75
55 62 72
56 63 73
53 60 70
56 64 74
57 65 76
54 62 72
57 65 75
57 64 74
54 61 71
54 62 71
54 61 71
53 61 70
55 63 72
56 63 72
58 66 76
54 62 71
53 60 70
54 61 71
56 63 73
54 61 70
55 62 72
54 61 71
53 60 70
55 62 71
53 60 69
53 60 69
54 61 70
55 62 71
53 60 69
52 59 68
51 58 67
51 58 67
52 59 68
54 61 70
49 56 64
49 55 64
52 59 69
50 56 64
55 62 71
49 55 63
51 58 67
52 59 68
51 58 66
50 56 65
48 54 63
48 55 63
49 55 64
47 53 61
46 52 60
44 50 58
48 54 61
46 51 59
48 54 62
47 53 61
47 53 61
44 49 56
48 54 61
45 51 58
44 50 57
45 50 57
43 49 56
42 47 53
45 50 57
45 50 57
43 48 55
42 47 54
44 49 56
42 47 54
40 45 51
42 47 54
43 48 54
40 45 51
37 42 47
41 45 51
36 40 45
40 45 51
33 36 41
37 41 46
31 34 38
33 36 41
36 40 45
35 39 44
39 43 49
34 37 42
33 36 41
37 41 46
30 33 37
31 35 39
30 34 38
26 29 33
29 32 36
28 31 35
29 32 36
31 34 39
26 29 33
29 32 36
21 23 26
29 31 35
28 31 34
26 28 31
27 30 33
30 32 36
26 28 32
28 31 34
26 29 32
23 25 28
22 25 28
26 29 32
30 33 37
26 28 32
28 30 34
29 32 36
32 35 39
33 36 41
30 32 36
33 37 41
29 32 36
32 35 40
26 29 33
34 38 43
34 38 43
33 36 41
33 36 41
33 36 41
30 34 38
32 35 40
35 39 44
32 35 40
36 40 45
37 41 46
41 45 51
35 39 45
38 43 49
32 35 40
36 40 45
41 46 52
40 45 51
42 47 53
41 46 53
41 45 52
40 45 51
44 49 56
41 46 53
48 54 61
41 46 52
42 47 54
39 44 50
44 50 57
44 50 57
47 53 61
48 55 63
38 43 49
45 51 58
44 50 57
46 52 59
49 55 63
46 51 59
46 52 59
43 49 56
49 56 64
49 55 63
50 57 65
50 56 65
50 57 65
52 59 68
52 59 68
50 56 65
49 56 64
50 57 65
50 56 65
50 56 65
51 58 66
49 56 64
53 59 69
49 56 64
50 57 66
52 59 68
54 60 70
54 61 70
51 59 68
54 61 70
51 59 68
54 61 70
54 61 71
56 63 72
57 64 74
52 59 69
53 61 70
54 62 71
55 62 71
55 62 72
57 64 74
54 61 71
54 61 71
52 59 69
55 62 71
54 61 71
55 63 73
54 61 70
56 63 73
57 64 74
55 62 71
57 64 74
56 63 73
56 63 73
58 66 76
56 63 73
57 65 75
56 63 73
55 63 72
59 67 77
55 63 73
56 64 74
56 64 74
59 67 78
57 65 75
57 65 75
56 63 73
57 64 74
59 67 77
58 66 76
57 65 75
57 65 75
58 66 77
59 67 77
58 65 76
58 66 76
59 66 77
59 67 78
59 66 76
59 67 77
58 66 76
58 66 77
59 67 78
58 66 77
58 67 77
59 67 77
58 66 76
60 68 79
59 67 77
58 66 76
60 68 79
57 65 75
60 68 79
60 68 79
59 67 77
59 67 78
57 64 74
60 68 79
59 67 78
60 68 79
60 68 79
59 67 78
59 68 79
59 67 78
58 66 76
60 68 79
59 68 78
59 67 78
59 67 77
57 65 76
59 67 77
60 68 78
61 69 79
60 68 79
59 67 78
60 69 80
59 67 77
61 69 80
59 68 78
59 67 78
60 68 79
60 68 78
60 68 78
61 69 79
60 68 79
59 68 78
61 69 79
59 68 79
60 68 78
60 68 79
60 68 79
61 69 80
59 67 78
59 67 77
61 69 80
60 69 80
60 68 78
60 69 79
60 69 80
60 68 78
60 68 80
59 68 79
60 68 79
61 69 80
60 68 79
61 69 80
59 68 79
60 69 80
61 69 80
61 69 79
61 69 80
60 68 79
59 68 78
61 69 80
60 69 79
60 69 80
61 69 79
61 69 80
60 69 79
60 68 79
61 68 79
61 69 79
60 68 79
59 67 78
60 68 79
59 67 78
61 70 80
61 69 79
60 68 79
60 69 80
60 68 79
61 69 79
60 69 80
61 69 79
59 67 78
61 69 80
61 69 80
60 68 78
59 67 78
60 68 79
61 69 80
60 68 78
61 69 80
60 68 79
59 67 78
60 68 79
60 68 78
60 69 80
60 68 78
60 68 79
59 67 78
59 68 79
59 67 78
59 68 78
59 67 78
57 66 76
59 67 77
61 69 80
59 67 78
60 68 79
59 67 77
60 68 79
60 68 79
60 68 78
60 68 79
59 67 78
58 66 77
60 68 79
57 65 76
60 69 79
59 68 78
60 68 78
57 65 75
58 65 75
60 68 79
60 68 79
59 67 78
58 66 77
58 65 76
58 66 76
58 66 76
59 67 78
59 67 78
59 68 78
57 65 75
56 64 74
58 66 76
56 64 74
58 66 77
58 67 77
57 66 76
58 67 77
58 66 77
59 66 76
56 64 75
57 65 75
58 66 76
58 66 76
58 66 76
57 65 74
58 66 76
58 65 76
57 65 76
58 66 76
58 66 77
55 63 74
55 63 73
58 66 76
55 63 73
55 62 72
55 63 73
53 61 70
57 64 75
54 61 71
57 65 75
56 64 74
54 61 71
56 64 74
55 62 72
54 62 71
55 63 72
54 61 70
56 64 74
57 64 75
54 62 71
55 63 73
51 58 67
55 62 72
51 58 67
55 63 72
52 59 69
52 59 68
56 63 73
54 61 70
53 60 69
53 60 70
54 61 70
54 61 71
53 61 70
53 60 69
51 58 67
49 56 64
51 58 66
51 59 68
51 57 66
50 57 66
49 55 63
50 57 65
53 61 70
50 57 65
48 55 63
47 54 63
51 57 65
48 54 62
50 57 65
48 54 62
49 55 63
47 53 61
47 54 62
45 51 58
45 51 58
46 52 60
49 55 63
46 51 59
46 52 60
47 53 61
46 51 59
45 51 58
41 46 53
48 53 61
46 52 60
49 55 63
40 46 52
44 50 57
38 43 49
42 47 54
43 48 55
43 48 54
39 43 49
39 43 50
39 43 49
39 43 49
39 44 50
32 35 40
37 41 46
37 41 47
34 38 43
34 38 43
36 39 44
37 42 47
35 39 44
37 41 46
34 38 43
32 35 39
33 37 42
38 41 47
34 38 43
36 39 44
33 37 42
34 37 42
29 32 36
23 25 28
27 30 34
28 31 34
32 36 40
25 28 32
23 25 29
32 35 39
28 31 35
26 29 33
26 29 33
27 30 33
29 32 36
28 30 34
30 33 37
31 34 38
27 29 33
30 33 37
26 29 32
31 34 38
32 36 40
32 35 40
27 30 33
31 35 39
34 38 43
31 34 39
33 36 41
33 37 41
28 30 34
32 36 40
32 35 40
34 38 43
39 43 49
33 37 42
36 40 45
32 36 41
31 35 39
33 37 42
35 39 44
38 43 48
38 42 48
41 45 51
36 40 46
38 43 49
38 42 47
42 47 54
43 49 56
40 44 51
44 49 56
38 43 49
41 46 53
42 47 54
41 46 53
41 46 53
44 49 57
39 44 50
46 52 60
48 54 61
46 52 60
42 48 55
46 52 60
48 54 61
48 54 62
49 55 63
44 50 58
45 50 58
46 52 60
48 54 62
49 56 64
45 51 58
49 56 64
50 56 65
50 57 66
51 58 67
51 58 66
46 52 60
46 52 60
50 56 65
51 57 66
52 59 68
51 57 66
50 56 65
53 60 70
49 55 64
54 61 71
50 56 65
52 59 68
51 57 66
55 62 72
54 60 70
53 60 70
53 60 70
53 60 69
52 58 67
54 61 71
53 59 69
55 63 73
55 62 72
54 61 71
50 56 65
56 64 73
53 61 70
52 59 68
55 63 72
56 63 72
52 59 67
53 61 71
57 64 74
56 64 74
56 63 73
54 62 71
58 66 76
54 61 71
56 64 74
56 64 74
55 63 72
57 64 74
57 65 75
58 66 76
57 65 76
57 65 75
56 64 74
57 65 75
59 66 76
56 64 74
57 65 75
57 65 75
58 66 76
59 67 78
58 66 76
58 66 76
57 65 75
58 65 75
57 65 76
56 64 74
58 66 76
58 66 76
57 65 76
58 66 76
58 66 76
58 66 76
57 65 75
58 66 76
57 65 75
58 66 77
59 67 78
60 68 78
58 67 77
57 65 75
57 65 75
59 67 78
58 66 77
59 67 77
58 65 76
59 67 77
57 64 74
59 68 78
58 66 77
60 69 79
58 67 77
57 65 75
58 66 76
59 67 78
60 68 79
60 68 79
58 67 77
59 67 78
58 66 77
59 67 78
59 67 77
59 67 77
60 68 79
59 68 79
58 65 75
58 66 77
59 67 78
59 67 78
59 68 78
59 67 78
60 67 78
59 67 78
59 67 77
59 68 78
60 68 79
60 68 79
60 68 79
60 68 78
59 68 78
60 68 78
61 69 80
60 68 79
59 67 77
58 67 78
60 67 78
59 68 78
61 69 80
59 67 78
60 68 79
60 68 79
61 69 80
61 69 80
60 68 79
60 68 78
59 67 78
61 69 80
61 69 80
60 68 79
60 68 78
61 69 79
60 68 79
60 69 80
60 68 79
60 69 80
60 68 78
60 68 79
60 69 79
61 69 80
61 69 80
59 67 77
60 68 78
60 69 79
59 67 78
61 69 80
60 68 79
60 68 79
60 68 79
61 69 80
60 68 78
59 68 78
60 68 79
59 68 78
59 67 78
59 67 78
61 69 80
61 69 80
61 69 80
59 68 78
61 69 80
58 67 77
60 68 79
60 68 79
59 67 78
59 67 78
59 67 77
58 66 76
61 69 80
60 68 79
60 68 78
59 67 78
59 67 77
60 69 80
61 69 80
60 68 78
59 67 77
59 67 78
58 66 77
59 67 78
59 67 77
60 68 78
59 67 78
60 68 78
58 66 77
58 66 76
58 66 77
60 68 79
58 66 77
59 67 78
60 68 78
59 66 76
59 67 78
60 68 79
59 67 77
60 68 78
59 67 77
59 68 78
59 67 78
57 65 76
59 67 77
58 66 77
59 67 78
58 66 76
58 66 77
57 65 75
58 66 77
57 65 76
59 67 77
57 65 76
59 67 77
58 67 77
58 66 77
56 64 74
58 65 75
56 64 75
58 66 76
56 64 74
56 64 75
59 67 77
59 67 77
57 65 75
58 66 76
56 63 73
56 63 74
57 65 74
57 65 75
56 64 73
57 65 75
58 66 76
58 65 75
53 61 71
56 63 72
56 63 73
56 63 74
56 64 74
57 64 74
57 64 74
55 62 72
55 62 72
56 64 74
55 63 73
53 60 70
54 61 71
57 65 75
54 61 71
57 65 75
52 59 68
55 62 72
57 64 74
54 62 71
52 59 68
51 58 67
55 63 73
55 62 72
55 63 73
50 57 66
53 61 71
53 60 69
51 58 67
53 60 70
52 59 69
51 57 66
51 58 67
50 57 66
51 58 67
50 56 65
53 60 69
50 57 65
48 54 62
52 58 67
48 54 63
49 55 64
51 58 66
48 53 61
46 52 60
52 59 68
50 56 64
52 58 67
46 52 60
45 51 58
47 53 61
46 52 60
46 51 59
45 50 57
45 51 59
46 51 59
45 50 58
44 50 57
46 52 60
44 49 56
45 51 58
46 51 59
41 46 52
43 48 55
41 46 53
43 49 56
45 51 58
44 50 57
40 45 51
42 47 54
41 46 53
41 46 52
42 46 53
38 42 48
36 40 45
37 42 48
39 43 49
40 45 50
36 40 45
37 42 47
34 37 42
33 36 41
40 45 51
39 43 49
36 40 45
40 45 51
37 41 47
35 39 44
32 35 40
32 36 41
33 37 41
29 32 36
28 31 35
30 33 38
29 32 36
29 32 36
32 35 40
31 34 39
25 28 32
31 34 39
29 32 36
30 33 37
33 37 41
32 36 41
28 31 35
24 27 31
39 43 49
26 29 33
32 35 40
34 37 42
26 28 32
34 37 42
29 32 36
32 36 40
27 30 34
34 37 42
34 38 43
30 33 37
28 31 35
33 37 41
31 35 39
33 36 41
35 39 44
33 37 41
36 41 46
33 37 41
35 39 44
42 47 53
39 43 49
37 41 47
36 40 46
39 43 49
37 42 48
40 44 50
42 46 53
42 47 53
42 47 53
42 47 54
37 42 49
40 45 52
40 44 51
44 49 57
38 42 48
44 49 56
43 48 55
44 49 56
35 39 45
43 49 56
46 51 58
45 51 58
47 52 60
49 54 62
48 54 62
49 55 63
44 49 56
41 46 53
45 50 57
51 57 66
49 56 64
48 54 61
45 50 58
48 54 62
48 54 62
51 58 66
52 59 68
49 56 65
50 57 65
50 57 65
49 56 64
54 61 70
49 55 63
52 59 68
54 61 70
50 56 64
49 55 64
54 61 70
53 60 69
50 57 66
55 61 70
53 60 69
54 61 70
53 60 69
51 58 67
55 62 72
53 60 69
52 59 68
52 59 68
56 64 73
54 61 71
51 58 67
52 59 69
54 61 71
55 62 71
55 63 73
53 61 70
56 63 72
56 63 72
56 64 74
54 61 71
53 60 70
57 65 75
56 63 73
57 65 75
57 64 74
55 63 72
57 65 76
57 65 75
56 64 74
57 65 75
57 65 74
57 65 75
58 65 76
56 64 74
56 64 74
56 64 74
56 64 74
56 64 74
55 63 73
57 64 74
57 66 76
57 65 75
56 64 74
58 66 76
59 67 77
58 65 76
55 62 72
58 66 77
58 66 77
57 64 74
56 64 74
56 64 74
58 66 77
58 66 76
59 67 78
58 66 76
59 67 77
57 66 76
57 65 75
58 66 76
58 66 77
58 66 77
59 67 77
56 64 74
58 66 76
59 67 77
58 66 76
58 66 77
60 68 78
58 66 77
59 67 78
58 66 76
59 67 77
58 66 76
59 67 78
58 66 76
59 68 78
59 67 77
59 67 78
60 68 79
59 67 77
59 68 79
58 66 77
59 67 77
59 66 77
60 68 78
59 67 77
59 67 77
59 67 77
59 67 78
59 67 77
61 69 80
60 69 79
61 69 80
60 69 80
61 69 80
59 67 78
60 68 79
59 67 78
60 68 79
59 67 78
58 67 77
61 69 80
59 67 77
60 68 79
59 68 78
60 69 79
60 68 79
60 68 78
61 70 80
60 68 78
61 69 80
60 68 79
60 67 78
60 68 78
61 69 80
60 68 78
60 68 79
60 68 79
60 68 79
60 68 78
60 69 79
60 68 79
60 68 79
60 69 79
61 69 79
60 69 79
59 67 78
60 69 80
60 69 80
60 68 79
59 68 78
60 69 80
60 68 79
61 69 80
60 68 79
61 69 80
60 68 79
60 68 78
61 69 80
59 67 78
60 68 79
58 67 78
59 67 78
60 69 80
59 67 78
61 69 79
60 69 80
59 68 78
60 68 79
60 68 78
60 69 80
60 68 78
59 67 78
60 68 78
60 68 79
59 67 77
60 69 80
60 68 79
60 68 79
59 67 77
60 68 78
60 69 79
59 68 78
59 67 78
60 69 80
60 69 79
56 64 74
59 67 78
59 67 78
59 67 77
59 67 78
59 67 78
59 67 78
59 68 78
58 66 76
58 66 76
59 67 77
58 67 78
59 67 78
59 67 77
60 69 79
58 66 76
59 66 77
58 66 76
60 68 79
58 66 77
58 67 77
58 66 76
58 66 76
57 64 75
58 66 76
56 64 74
58 66 76
58 65 75
57 65 75
57 65 76
59 67 78
58 66 77
59 67 77
58 66 77
58 65 76
59 67 77
58 65 76
57 65 75
57 65 74
58 66 77
56 64 74
57 65 75
57 64 75
58 66 76
58 65 76
58 66 76
58 66 77
55 63 72
59 66 77
57 65 75
56 63 73
57 65 75
55 62 72
56 63 73
58 66 76
55 63 74
57 65 75
56 64 73
55 63 73
55 62 72
56 63 74
57 65 75
56 63 73
57 65 75
53 61 70
56 63 74
58 65 75
56 63 73
54 62 72
56 63 73
52 60 69
56 64 74
53 60 69
53 61 70
55 63 73
53 60 70
55 62 71
54 61 70
55 62 72
53 60 70
52 59 68
53 61 70
52 59 68
51 58 67
50 57 66
53 60 69
52 60 69
51 58 67
50 56 64
48 54 63
51 58 67
50 56 65
52 59 68
51 57 65
51 58 67
49 55 64
51 58 67
47 54 62
50 57 66
45 51 59
49 56 64
50 57 65
47 53 60
50 56 65
47 53 61
47 53 61
49 55 63
45 51 58
49 55 63
46 52 60
50 56 65
46 52 60
44 50 57
46 51 59
43 48 55
44 49 56
44 49 56
43 49 56
44 49 56
44 49 56
41 46 52
42 48 54
43 48 55
41 46 53
37 41 47
38 42 48
38 43 49
41 46 52
42 47 53
38 42 48
34 38 44
37 41 47
37 41 47
40 44 50
35 38 43
38 43 48
36 40 46
34 38 43
35 39 44
31 34 39
38 42 48
39 43 49
35 38 44
31 34 39
33 36 41
29 32 37
31 34 39
30 33 37
33 36 41
35 39 44
31 33 37
31 34 38
34 38 43
27 30 34
32 35 40
34 38 43
32 35 40
33 37 41
31 34 38
31 34 39
33 37 42
31 35 39
30 33 38
34 38 43
34 38 43
34 37 42
31 35 39
22 24 27
28 31 34
33 37 41
35 39 43
30 34 38
34 38 43
40 44 50
34 38 42
36 39 45
32 36 41
37 41 47
35 38 44
34 38 43
37 41 47
36 40 45
34 38 43
41 46 52
34 38 43
41 46 52
41 46 52
36 40 46
42 47 53
40 45 51
41 47 54
40 44 50
42 47 54
43 48 55
36 40 46
42 47 53
43 48 55
42 47 54
39 43 50
38 43 49
45 50 57
45 51 58
43 48 55
46 51 59
39 44 51
45 50 58
49 55 63
48 53 61
50 57 65
47 53 61
44 50 57
45 51 58
45 51 59
52 59 67
50 56 64
50 56 64
49 55 64
52 59 68
49 55 64
52 58 67
44 50 57
46 52 60
48 54 62
52 59 68
50 56 65
51 58 67
50 56 65
51 57 66
54 60 69
53 60 70
54 61 70
51 58 67
49 56 64
53 60 69
54 61 70
50 57 66
51 57 66
52 59 69
51 57 66
55 63 73
55 63 72
53 60 69
54 62 72
55 62 71
51 58 67
55 62 71
54 61 70
55 62 71
55 62 72
53 61 70
56 63 72
56 64 74
56 64 74
56 64 74
58 66 76
54 62 71
54 61 71
56 63 73
57 65 75
56 64 74
55 62 72
57 64 74
56 64 74
55 63 73
55 63 73
58 65 75
56 64 74
57 65 75
56 64 74
58 65 76
58 66 77
59 66 76
57 64 74
57 64 74
56 64 74
57 65 74
58 66 76
56 63 74
57 65 75
55 63 73
57 66 76
58 66 76
54 62 71
59 67 78
60 68 79
58 66 76
58 66 77
58 65 75
59 67 78
59 67 78
59 66 77
58 66 77
58 65 76
59 67 78
57 65 76
57 65 75
59 67 77
57 65 75
58 67 78
58 66 76
57 65 75
59 67 78
59 67 77
60 68 79
58 66 77
60 68 78
59 67 78
60 69 79
58 66 76
59 66 77
61 69 79
58 67 77
58 66 77
58 66 77
58 66 77
60 68 78
59 68 78
59 68 78
59 67 78
59 67 78
59 67 78
60 68 79
59 66 77
58 66 77
59 67 78
60 68 78
60 68 78
59 67 78
59 68 78
61 69 80
60 68 79
60 68 79
59 68 79
59 68 79
59 67 77
60 69 80
60 68 79
58 66 77
60 68 79
60 68 79
60 68 79
61 69 79
60 68 79
60 69 79
60 68 79
61 69 80
59 67 78
61 69 80
60 68 79
61 69 79
61 70 80
59 67 78
60 68 79
60 68 78
59 67 78
60 68 79
60 68 79
60 68 79
59 67 78
60 69 80
60 69 80
61 69 80
59 67 78
60 68 79
60 68 79
60 68 78
61 69 80
61 69 80
60 69 80
60 68 79
59 67 78
59 67 78
59 67 78
59 68 78
60 68 79
61 69 80
59 67 78
60 69 79
61 69 79
60 68 79
60 68 79
59 67 78
59 67 78
60 68 78
60 68 79
60 68 79
61 69 80
58 66 76
60 67 78
59 67 78
60 68 78
59 67 78
60 68 79
59 68 78
60 69 79
60 69 79
58 67 77
59 67 77
59 68 79
58 66 76
58 66 76
60 68 78
58 66 77
59 67 77
59 67 78
58 66 76
59 67 78
59 67 77
56 64 74
58 66 76
58 66 77
59 67 77
59 67 78
60 68 78
58 66 77
58 66 77
59 67 77
59 67 77
57 65 76
58 66 76
58 66 77
58 66 77
59 67 77
59 67 78
57 65 76
58 66 77
59 67 77
58 66 77
59 68 78
58 66 76
56 64 75
58 67 77
57 65 75
57 65 75
56 64 73
57 64 74
55 63 72
59 68 78
58 66 76
57 64 74
58 66 76
58 66 76
57 65 75
54 61 71
57 65 75
57 65 75
58 66 76
57 64 74
55 62 72
58 67 77
56 64 74
56 64 74
56 64 74
56 63 73
56 64 74
55 63 73
58 66 76
55 62 72
55 63 73
56 64 74
57 65 74
55 62 72
55 62 71
52 60 69
54 61 70
54 61 70
57 64 74
56 64 74
55 63 72
52 59 69
55 62 71
55 63 72
54 61 71
55 62 71
56 63 73
54 61 71
54 61 70
54 62 71
53 60 70
53 61 70
51 58 67
54 61 69
51 58 67
51 57 66
54 61 70
54 61 70
50 57 66
50 56 65
52 59 68
50 56 65
50 56 64
48 54 63
51 57 66
51 57 66
49 55 63
49 55 63
54 60 69
47 53 62
52 58 67
50 57 65
52 59 68
48 54 62
46 51 59
46 53 60
49 56 64
47 54 62
49 55 64
46 52 60
46 52 60
45 50 58
47 53 60
47 53 60
49 55 63
42 47 54
47 53 61
44 49 56
44 49 56
41 45 52
40 45 52
44 49 56
44 49 56
43 48 54
40 45 51
41 46 53
42 47 54
40 44 51
36 40 46
43 48 55
42 48 54
42 47 54
40 44 50
35 39 44
33 37 41
37 42 48
37 41 47
38 43 49
32 35 40
37 41 47
35 39 45
33 37 42
36 40 45
36 39 45
37 42 47
35 39 44
35 39 44
28 31 36
37 42 47
35 39 44
34 38 43
35 39 44
33 36 41
33 36 41
36 39 44
35 39 44
28 31 35
34 37 42
35 39 44
33 36 40
34 38 43
31 35 39
31 35 40
31 34 39
34 37 42
30 33 37
30 34 38
37 41 46
34 38 43
31 34 39
30 34 38
31 34 39
34 38 43
34 38 43
34 38 42
32 35 39
39 43 49
34 38 43
31 34 38
37 41 46
39 44 50
37 41 47
34 38 43
42 47 53
40 44 50
39 43 49
38 42 47
43 48 55
37 41 47
44 49 55
37 41 47
36 40 46
42 46 52
42 48 54
45 49 56
44 49 56
39 44 50
42 47 54
43 48 55
44 49 56
42 47 54
41 46 53
41 46 53
45 50 57
46 52 60
46 51 58
43 48 55
47 53 61
42 48 55
47 53 61
41 46 53
42 47 54
47 52 60
46 52 60
49 56 64
48 54 62
49 56 64
49 55 63
52 58 67
49 55 63
48 55 63
51 58 66
50 57 65
49 55 63
49 55 64
54 61 70
53 60 69
51 58 67
52 59 68
52 58 67
53 60 70
53 60 70
51 57 66
52 58 67
53 61 70
52 58 67
55 63 72
54 62 71
56 63 73
48 55 63
53 60 69
53 61 71
53 60 70
54 61 71
54 61 70
54 62 71
52 60 69
55 63 73
51 58 67
53 61 70
56 63 74
56 64 74
56 63 73
57 65 75
57 65 76
54 61 70
53 60 69
55 63 73
56 63 74
57 65 75
57 65 75
56 63 73
56 64 74
54 61 71
55 62 72
57 65 75
56 64 74
56 64 74
57 65 75
56 64 74
57 65 75
56 64 74
57 64 74
56 64 74
55 63 72
56 64 74
58 66 76
58 65 76
57 65 76
58 66 76
56 64 74
58 66 77
57 64 74
59 67 77
57 65 75
55 63 74
60 68 78
57 65 75
58 67 78
59 67 77
59 68 78
58 66 76
59 67 77
58 66 76
58 66 76
59 67 77
58 66 76
60 68 78
58 66 76
58 66 77
60 68 78
58 66 77
58 67 77
58 65 75
58 66 77
60 68 79
58 66 76
57 65 76
58 66 77
58 66 77
59 67 78
59 67 78
59 67 78
58 66 77
59 68 78
60 67 78
60 68 78
59 67 77
60 68 79
58 67 77
60 68 79
58 66 77
59 67 78
58 66 76
60 68 79
60 68 79
60 68 79
59 67 77
59 68 78
60 69 80
59 68 79
60 68 79
59 67 77
59 68 78
60 68 79
60 68 79
60 68 78
59 67 77
60 68 78
58 66 77
59 67 77
59 67 78
60 68 79
59 68 78
61 69 80
60 68 79
59 68 78
60 68 79
60 68 79
60 68 79
59 67 78
60 69 80
60 68 78
60 68 79
60 68 79
60 68 79
60 68 78
61 69 79
61 69 80
60 69 80
60 68 79
60 68 79
60 68 79
62 70 80
59 67 78
59 67 78
60 68 79
59 67 78
61 69 80
60 68 79
60 68 79
60 68 78
60 69 79
60 68 79
60 68 78
59 68 79
60 68 79
60 68 79
60 68 79
60 69 79
58 66 77
59 67 78
60 69 80
60 69 79
60 68 79
59 67 78
60 68 78
61 68 78
59 67 78
61 69 79
59 67 78
59 67 78
61 69 79
60 68 78
60 68 78
58 65 76
59 68 78
61 69 79
59 67 77
59 68 78
60 68 79
58 66 77
59 67 78
57 65 76
60 68 78
60 68 79
60 68 78
60 67 78
59 67 78
59 67 78
59 67 77
59 67 78
58 66 77
59 67 77
59 68 78
60 68 79
60 69 80
59 67 78
59 67 78
58 66 76
59 67 78
58 66 76
58 66 76
58 66 77
59 67 78
57 65 76
59 67 78
58 66 76
59 67 78
56 64 75
57 65 76
57 65 75
58 66 77
57 65 75
57 65 76
59 67 77
56 64 74
58 66 77
56 63 74
58 66 76
58 66 76
58 66 76
57 64 74
58 65 76
59 67 77
56 64 74
57 64 74
58 66 77
55 63 74
56 64 74
56 64 74
56 63 73
55 63 73
56 63 73
54 62 71
58 66 76
55 63 73
56 64 74
56 63 73
56 64 74
55 63 72
55 63 72
54 62 72
54 61 70
54 61 70
57 65 75
55 63 73
56 63 72
51 58 67
55 63 73
57 64 74
51 58 67
52 60 69
55 63 72
55 63 73
53 60 69
54 61 71
54 61 71
52 60 69
53 61 70
55 63 72
52 59 68
53 60 70
52 58 67
53 60 69
55 62 72
48 55 63
55 63 72
51 57 66
50 56 65
47 54 62
52 59 68
54 60 70
52 59 68
51 58 67
50 56 65
49 55 64
53 60 69
49 55 63
50 56 64
49 55 64
49 56 64
49 55 64
47 53 62
47 53 61
45 51 59
48 55 63
47 54 62
46 52 60
47 54 62
47 53 61
46 52 60
46 52 60
46 51 59
48 53 60
41 47 53
39 44 50
46 52 59
46 51 58
43 48 55
43 48 54
43 48 55
47 52 60
45 50 58
41 46 53
42 47 54
41 46 53
41 46 53
39 44 50
40 45 52
39 43 50
40 45 51
36 40 46
40 45 52
43 48 55
38 42 48
38 42 48
38 43 48
38 42 47
46 51 58
41 46 52
36 40 45
32 35 40
31 34 39
35 39 44
39 43 49
35 40 45
37 41 47
33 36 41
34 37 42
33 37 41
34 38 43
32 35 40
33 36 41
34 37 42
31 34 39
35 39 44
35 39 44
33 36 41
26 28 32
38 42 48
29 33 37
31 34 39
31 35 40
26 30 34
34 38 43
34 38 44
37 41 47
30 33 38
35 39 45
34 38 43
36 40 45
32 35 40
35 39 44
37 41 46
42 46 53
39 43 49
34 38 42
41 45 51
36 39 45
34 38 43
38 42 48
39 43 49
40 45 51
32 36 41
37 41 47
41 46 52
37 42 47
39 44 50
39 43 49
43 48 54
39 44 50
40 45 52
38 42 48
42 47 54
42 47 54
42 47 54
44 49 55
45 51 58
41 46 52
39 44 50
46 52 59
46 51 58
39 45 51
41 46 52
45 51 58
47 52 60
45 51 58
50 56 65
43 48 55
45 51 59
48 54 62
48 54 61
41 46 53
48 54 62
50 56 65
49 55 64
47 53 61
48 54 62
47 53 61
45 50 58
48 54 62
50 57 66
50 56 65
51 58 67
50 56 65
53 60 69
52 58 67
54 62 71
48 54 62
50 56 65
51 58 67
51 57 66
51 58 67
49 56 65
55 63 73
53 60 70
50 56 65
50 56 65
51 58 67
51 58 67
54 61 71
55 62 72
52 59 69
52 59 68
50 57 66
53 60 69
56 63 73
51 58 67
56 63 73
54 62 72
56 63 73
54 61 71
56 64 74
55 62 72
53 60 69
56 63 73
54 62 71
54 61 71
58 65 75
54 62 72
53 61 70
53 60 70
55 62 72
56 64 74
60 68 78
56 63 74
54 61 71
59 66 77
58 66 76
56 64 74
56 63 73
58 66 77
57 65 75
57 65 75
58 66 76
58 66 77
56 64 74
58 66 76
57 65 75
57 65 75
57 65 75
56 63 74
58 65 76
56 64 74
57 65 75
57 65 75
58 66 76
60 68 78
54 62 72
58 66 76
59 67 77
59 67 77
56 64 73
59 67 78
57 65 75
59 67 78
59 67 77
58 66 77
58 66 76
59 67 77
58 66 77
58 66 77
59 67 77
59 67 78
60 69 80
60 68 78
58 66 77
59 67 78
58 66 76
59 67 77
59 67 78
59 67 77
59 67 77
58 66 76
60 68 78
58 66 76
59 66 77
60 68 79
59 67 78
60 69 80
59 68 78
58 67 78
58 66 77
59 67 78
61 69 80
60 68 79
57 65 75
58 66 76
61 69 80
59 67 77
60 68 78
61 69 80
59 68 78
60 68 79
60 68 78
60 68 79
61 69 79
58 66 77
59 68 79
60 69 79
59 67 78
60 68 79
58 66 76
60 69 80
60 68 78
60 68 79
61 69 80
60 68 79
61 69 80
60 69 79
60 68 79
61 69 79
60 69 80
60 68 78
60 68 79
60 68 79
60 68 79
60 68 79
61 69 80
59 68 79
60 69 80
59 68 78
59 67 78
60 68 79
59 67 78
61 69 80
61 69 80
59 67 78
59 67 78
61 69 80
60 69 79
60 68 79
60 68 79
59 67 78
59 68 79
58 67 77
60 68 79
60 68 79
60 68 79
59 67 78
59 67 77
60 68 79
60 69 80
61 68 78
59 67 77
60 69 80
59 68 78
58 66 77
61 69 80
60 68 79
59 67 77
60 68 79
58 67 77
60 68 78
61 69 80
60 69 79
59 67 78
59 67 78
59 67 78
59 67 78
60 68 78
60 68 78
58 66 77
60 68 78
58 66 77
55 63 73
57 65 75
59 67 78
57 65 75
58 66 76
58 66 77
58 66 77
58 66 76
59 67 77
57 65 75
60 68 78
59 67 77
60 69 80
56 63 73
58 65 76
58 66 76
57 65 75
58 66 77
57 65 75
57 65 75
58 66 76
59 68 78
58 66 76
56 63 73
58 66 76
58 66 76
58 66 77
58 67 77
58 66 76
58 66 76
58 66 76
57 65 75
57 65 75
57 65 76
56 63 73
59 67 77
58 66 76
56 64 75
58 66 76
57 65 75
56 64 74
56 64 75
57 65 75
59 67 77
55 62 72
56 64 73
56 64 74
58 65 75
56 64 74
56 63 73
55 63 73
56 64 73
58 66 76
57 65 75
54 61 71
55 62 72
58 66 76
55 62 72
56 64 73
54 61 70
55 63 72
54 62 72
54 62 71
54 61 70
53 61 70
57 65 75
56 63 73
56 64 73
54 61 71
55 62 72
52 59 69
48 55 63
54 61 71
54 61 70
53 61 70
51 58 66
48 55 63
51 58 66
53 60 70
49 56 65
53 60 70
54 61 71
51 58 68
51 58 66
50 57 66
51 57 66
51 58 67
53 59 69
52 59 68
50 57 65
51 58 67
48 55 63
50 57 65
50 57 66
49 55 63
50 56 65
49 55 64
50 57 66
49 56 64
49 56 64
47 53 61
49 55 63
44 50 58
45 51 58
47 53 61
48 54 62
47 53 61
48 53 61
45 51 59
46 51 59
46 52 60
45 50 57
42 47 54
42 47 53
44 50 57
42 47 54
39 44 50
44 49 56
46 51 59
45 50 57
42 47 53
40 44 50
43 48 55
40 44 50
40 45 52
42 47 53
37 41 47
39 43 50
36 40 46
39 44 50
36 41 46
37 41 47
34 38 44
39 44 50
41 46 52
39 43 49
39 43 49
39 44 49
36 40 45
30 33 37
34 38 43
35 39 45
35 39 45
35 39 45
35 39 44
29 32 36
32 36 41
33 37 42
37 41 46
39 44 49
38 42 47
37 42 47
36 39 45
35 39 45
34 37 42
31 34 39
34 37 42
29 32 37
34 38 43
35 39 44
32 35 40
31 35 39
34 38 43
34 38 43
35 39 44
34 38 43
42 46 52
31 35 39
38 42 48
33 36 41
38 42 48
35 39 44
39 43 49
41 46 52
38 42 48
39 44 50
39 43 49
37 42 47
40 45 51
40 45 51
40 45 51
41 46 52
41 45 51
36 41 46
36 41 47
44 49 56
42 47 54
41 46 52
41 45 51
43 48 55
45 50 58
41 46 53
41 46 53
46 52 59
47 53 60
44 50 57
48 53 61
41 46 52
42 48 55
44 50 57
41 46 52
49 55 64
45 51 58
46 52 60
43 48 56
45 50 58
47 53 61
46 52 59
49 55 63
50 57 65
48 55 63
45 51 58
50 56 65
50 57 65
47 54 62
52 59 68
52 59 68
47 53 61
47 54 62
52 58 67
55 62 72
50 57 65
51 58 66
50 57 66
48 54 63
51 57 66
51 58 67
51 57 66
52 59 68
52 59 68
52 59 68
52 59 69
53 60 69
54 61 70
56 64 74
54 61 70
53 60 70
54 61 71
55 62 72
53 60 70
52 60 70
55 63 73
55 62 72
56 63 72
52 59 69
55 62 72
55 62 72
55 62 71
57 65 75
56 63 73
57 64 74
56 64 74
55 62 72
55 63 73
55 62 72
55 62 72
59 66 77
55 62 72
57 64 74
56 64 74
56 64 74
54 62 72
54 62 71
57 65 75
55 63 72
58 66 76
57 65 76
60 68 78
56 63 73
58 66 77
58 66 76
57 66 76
57 65 75
57 64 74
55 63 72
58 66 76
58 66 76
58 66 76
58 66 76
56 64 75
58 66 77
58 66 77
59 67 78
58 66 77
58 66 76
58 66 76
58 66 76
60 68 79
58 67 77
58 66 77
58 65 76
58 67 77
59 67 77
58 66 76
58 66 77
58 66 76
58 66 77
59 66 77
59 67 77
57 65 75
59 66 77
59 68 78
59 67 78
58 66 77
58 66 76
59 67 78
58 65 76
59 67 77
59 67 77
59 67 77
59 68 78
59 67 78
60 68 79
59 67 77
60 68 79
59 67 77
58 67 77
60 68 79
59 67 77
59 67 77
60 68 79
59 67 78
59 67 78
60 68 79
60 68 79
60 68 78
60 68 78
61 69 80
59 68 78
59 67 77
61 69 79
60 68 79
60 68 79
59 66 77
61 69 80
60 69 80
60 68 78
60 67 78
60 68 79
61 69 79
60 69 80
59 67 78
60 69 80
59 68 78
60 69 79
61 70 80
60 68 78
59 67 78
60 68 79
59 67 78
59 67 78
59 67 78
60 68 79
60 68 78
61 69 80
60 68 79
59 68 78
59 67 78
61 69 80
59 67 78
61 69 80
60 68 79
60 69 79
60 69 80
59 67 78
60 68 78
59 67 77
59 67 78
61 69 80
60 68 79
61 69 79
60 68 78
59 68 78
59 67 78
59 67 78
59 67 77
59 68 78
58 66 77
59 68 78
59 67 78
59 66 76
60 68 78
59 68 79
60 68 79
59 67 77
59 67 77
61 69 80
59 66 77
59 67 79
58 66 77
59 67 78
58 66 77
61 69 80
59 68 79
60 68 79
59 66 76
56 64 74
60 68 78
59 67 77
61 69 79
59 67 77
59 67 78
59 67 78
59 67 77
59 67 78
57 65 75
57 65 75
59 66 77
59 67 77
58 66 77
59 67 77
58 66 76
59 67 77
58 66 77
55 63 73
57 65 76
58 66 77
58 66 77
57 65 75
58 66 76
59 67 77
55 63 73
57 65 75
60 68 78
57 65 76
58 66 76
57 64 74
58 66 76
59 67 78
58 65 75
56 64 74
56 63 74
56 64 74
55 63 73
59 68 78
57 65 75
57 64 74
58 66 76
57 65 75
56 64 74
55 63 73
55 63 73
58 66 76
56 64 74
58 65 76
60 68 78
58 66 76
56 64 74
58 65 76
57 64 74
57 65 76
57 64 75
56 64 73
56 64 74
55 62 71
55 63 74
56 64 74
55 63 73
54 61 71
56 64 74
56 63 73
55 63 73
52 60 69
56 63 73
55 63 73
57 64 74
53 60 70
53 60 70
53 60 70
51 58 68
53 60 69
53 60 70
52 59 68
52 59 68
53 60 70
52 59 68
51 58 67
54 62 71
53 60 69
53 60 70
50 56 65
51 58 68
53 60 69
50 56 65
49 56 64
52 59 68
53 60 69
51 58 67
53 60 69
48 55 64
49 56 64
51 58 67
49 55 64
50 56 65
47 53 61
47 53 60
50 56 65
46 52 60
50 56 65
48 54 62
49 55 63
48 54 63
44 50 57
46 52 60
46 51 59
49 55 63
49 55 63
47 53 61
44 50 58
48 54 62
45 51 59
45 50 57
43 49 56
46 51 59
43 49 56
44 49 56
41 47 54
42 47 54
42 47 54
40 45 51
42 47 54
38 43 49
41 47 53
42 47 53
38 42 48
38 43 49
42 47 54
43 48 54
44 49 56
42 47 54
41 46 52
38 43 49
38 42 48
36 41 46
43 47 54
42 47 54
36 40 46
37 41 47
35 39 44
38 42 48
38 43 48
40 45 51
36 40 45
31 34 39
34 38 43
39 43 49
38 43 48
34 37 42
36 40 45
36 39 44
33 37 42
34 38 43
34 38 44
41 46 52
34 38 43
32 35 40
34 39 44
34 38 44
36 39 44
35 39 44
33 37 41
40 44 50
36 40 46
36 40 45
38 43 49
34 37 42
33 38 43
34 38 43
38 42 48
38 43 49
42 46 53
36 40 46
37 41 47
34 38 44
35 39 45
37 42 48
38 43 48
42 47 54
42 48 54
46 52 59
38 43 49
37 42 48
43 48 55
43 48 55
39 44 50
42 47 54
43 48 54
41 46 52
42 47 53
43 49 56
45 50 58
46 51 59
44 49 56
41 46 53
41 46 53
47 53 61
45 50 57
47 53 61
41 46 53
46 51 59
47 54 62
45 50 57
49 55 63
44 50 57
47 53 61
42 48 55
44 50 57
47 53 61
48 54 62
47 53 61
49 55 63
48 55 63
42 47 54
46 53 61
48 54 63
49 56 64
48 54 62
50 56 65
50 56 65
54 60 69
49 56 64
53 60 69
52 59 67
53 60 69
54 62 71
52 58 67
51 58 66
49 55 64
53 59 69
53 60 70
52 59 69
51 58 67
55 62 72
53 60 70
52 59 68
53 60 68
54 60 69
51 58 67
53 60 70
54 62 71
53 61 70
54 61 71
55 62 72
55 62 71
54 61 70
54 61 71
54 60 70
56 64 74
56 63 73
52 59 69
54 61 71
53 60 70
55 62 72
54 61 71
57 65 75
56 64 74
54 62 71
53 60 70
56 64 74
56 64 73
57 65 74
56 63 73
56 64 73
57 65 75
58 66 76
56 64 74
57 65 76
56 64 74
55 63 73
58 66 76
57 65 75
58 66 76
57 64 74
57 65 76
56 64 74
56 64 74
56 64 74
57 65 75
56 64 74
55 63 73
58 66 77
56 64 74
57 65 75
59 67 77
59 67 78
57 64 75
59 67 77
58 66 77
58 66 76
60 68 78
58 66 76
57 64 75
58 66 76
57 64 74
56 64 74
59 68 78
58 66 76
60 68 79
59 67 78
59 67 78
58 66 76
58 66 76
60 68 78
59 67 77
57 65 75
57 65 75
60 69 79
59 67 77
58 66 77
60 68 78
58 66 77
60 68 79
60 67 78
59 68 78
59 66 76
59 67 78
59 67 78
60 68 79
60 67 78
59 68 78
59 67 78
60 68 79
60 68 79
59 67 77
59 67 78
60 68 79
58 66 76
60 68 78
60 67 78
60 68 79
60 68 78
59 67 77
60 68 79
60 68 78
60 68 78
60 68 79
61 69 80
59 67 78
61 69 80
60 68 79
59 68 78
61 69 80
60 68 79
60 68 78
59 67 78
58 66 77
60 68 79
61 69 80
61 69 80
60 68 79
59 67 78
59 67 78
60 68 78
61 69 80
59 68 79
59 67 78
59 67 77
59 68 78
60 69 79
61 69 80
59 68 78
59 68 78
60 68 79
60 68 79
59 67 78
61 69 79
60 68 79
59 67 78
61 69 80
59 68 78
60 68 78
60 69 80
60 68 79
59 67 78
60 68 79
59 68 79
58 67 77
60 68 79
60 68 79
59 68 78
59 68 78
61 69 80
59 67 77
59 68 78
60 68 78
59 67 78
59 68 78
60 68 78
59 67 77
60 68 78
59 67 78
60 68 79
59 67 78
59 66 77
60 68 79
58 66 77
58 66 77
61 69 80
57 66 76
59 67 77
59 68 78
59 67 77
59 68 78
58 66 76
59 67 78
59 67 78
60 68 78
60 68 78
60 68 79
61 69 80
57 64 74
58 66 77
58 66 76
59 67 78
58 66 77
60 67 78
59 67 77
58 66 76
58 66 76
58 66 77
57 65 75
55 63 73
58 66 77
58 67 77
57 65 75
57 64 74
57 65 75
58 66 76
57 65 75
56 64 74
56 64 74
59 67 77
57 65 75
58 66 76
59 67 78
59 67 78
59 66 77
55 62 72
57 65 75
57 65 76
57 65 75
54 62 72
54 61 71
56 63 73
53 60 70
59 66 77
56 64 74
55 63 73
58 66 76
54 62 71
54 61 70
56 64 73
54 62 71
55 62 72
54 62 71
54 61 71
53 61 70
56 64 74
58 66 76
53 60 69
53 60 69
55 62 71
52 59 68
52 60 69
55 63 73
53 60 70
52 59 69
55 62 72
54 61 70
54 62 71
54 61 70
55 62 72
51 58 67
52 59 68
52 60 69
53 59 68
54 61 70
53 60 69
53 60 69
51 58 67
53 60 69
55 62 71
54 61 70
53 60 69
53 60 69
52 59 69
49 56 65
49 55 64
48 55 64
51 58 67
50 56 65
52 58 67
51 57 66
47 53 62
50 56 64
50 57 65
51 57 66
52 58 67
51 57 65
49 55 64
48 54 62
46 51 59
48 53 61
49 56 65
48 54 62
49 55 63
48 54 62
46 52 60
43 49 56
45 50 58
44 50 57
46 52 60
46 51 58
44 49 57
47 53 61
44 49 56
42 47 55
41 45 52
44 49 56
45 51 58
42 47 53
45 50 57
45 50 58
45 51 58
42 47 54
43 48 55
44 50 57
44 49 56
39 44 50
39 44 50
38 43 49
40 45 51
39 44 50
37 41 47
38 42 48
41 45 52
38 43 49
38 43 49
38 43 48
32 36 41
37 42 47
38 42 48
39 44 50
37 41 46
34 38 43
37 41 47
36 41 46
40 44 50
37 41 47
34 37 43
36 40 46
34 38 44
36 39 44
34 38 42
35 38 44
40 44 50
35 39 44
37 41 47
35 39 44
35 38 43
35 39 45
35 39 44
36 40 46
36 41 46
34 38 43
39 43 49
38 42 47
39 44 49
34 38 43
39 43 49
37 41 47
39 44 50
39 43 49
36 40 46
37 42 47
40 45 51
42 47 53
40 44 51
41 46 53
39 43 49
39 43 49
38 42 49
41 46 53
43 48 54
41 46 53
41 46 53
40 45 51
40 45 52
43 48 55
42 47 53
46 52 59
47 53 60
41 46 52
43 49 56
44 50 57
47 52 60
41 46 52
46 51 59
43 49 56
42 47 54
47 52 60
47 53 60
47 53 61
49 55 63
49 55 64
46 52 60
45 51 59
48 54 63
50 56 64
46 52 59
47 53 61
51 57 66
46 52 60
49 56 64
49 55 64
50 56 65
46 52 60
49 55 63
51 58 66
49 55 63
46 52 60
53 60 69
52 59 67
50 56 65
50 57 65
50 56 65
48 54 63
51 58 67
51 58 67
55 62 72
48 54 62
50 56 64
52 59 68
53 60 70
54 61 71
48 55 64
56 63 73
53 60 69
53 60 70
54 61 71
53 60 70
54 62 71
54 62 72
51 58 67
51 57 67
54 61 70
54 61 71
56 64 74
53 60 70
53 60 70
54 61 71
53 60 70
56 64 74
55 62 72
52 59 69
55 63 73
56 64 74
55 62 72
57 65 75
55 63 73
55 63 73
54 62 72
57 65 75
57 65 75
55 63 72
57 64 74
58 66 76
55 63 73
54 61 71
58 65 76
58 65 76
58 66 76
60 68 79
55 63 73
56 64 74
57 66 76
57 65 76
58 66 77
56 63 73
56 63 73
58 66 76
57 65 76
58 65 76
57 65 75
60 68 78
58 66 77
58 66 76
58 65 75
58 66 76
58 66 77
59 67 77
57 66 76
59 67 77
60 68 78
58 66 77
59 67 77
59 67 78
58 66 76
59 67 77
59 67 78
57 65 75
58 66 77
57 65 76
59 67 78
57 65 75
59 67 77
58 66 77
57 65 76
57 65 76
58 66 77
60 68 79
58 66 76
59 66 77
61 69 80
59 67 78
59 67 77
60 68 79
60 68 79
59 67 77
60 69 79
59 67 77
58 66 76
59 67 77
60 68 79
59 67 77
60 68 78
60 68 78
59 67 78
59 67 78
60 68 79
60 68 79
60 68 78
59 67 78
60 68 79
60 68 78
60 68 79
61 69 80
61 69 80
60 68 79
60 69 79
60 69 79
59 67 78
59 68 78
60 68 79
60 68 79
59 67 78
59 68 78
60 69 79
59 68 79
60 68 78
61 69 79
60 68 79
59 68 79
58 66 77
59 68 78
60 68 79
59 67 78
60 68 78
59 67 78
60 68 78
60 67 78
61 69 79
60 68 79
60 69 79
60 69 80
60 68 79
60 69 80
60 69 80
60 68 79
59 68 78
59 67 77
61 69 80
59 67 77
60 68 78
59 67 78
59 67 78
58 66 76
61 69 80
60 68 78
60 68 79
60 69 80
59 67 78
59 67 78
59 67 77
58 66 76
59 67 77
60 69 80
60 68 78
60 67 78
58 66 77
60 68 78
59 67 78
59 67 77
60 68 78
59 67 78
59 67 77
60 68 78
59 67 77
60 68 78
58 66 77
59 67 77
60 68 78
58 66 77
58 66 76
58 66 77
57 65 76
59 67 78
60 68 79
58 66 76
59 67 77
59 67 77
58 66 77
57 65 75
57 65 76
56 64 74
58 67 77
58 66 76
57 64 74
57 65 76
57 65 75
58 66 76
57 64 74
58 66 77
59 67 77
58 66 76
57 65 76
57 64 74
58 65 75
57 65 76
57 65 75
56 64 73
56 64 74
56 64 74
59 67 77
56 64 74
57 65 74
57 65 75
59 67 77
56 64 74
58 66 76
58 66 76
56 64 74
56 64 74
57 65 75
55 63 73
56 63 73
57 64 74
54 62 72
55 62 72
57 65 75
55 62 72
56 64 74
57 65 75
56 64 74
55 62 72
57 65 74
55 63 72
56 64 74
54 61 71
53 61 71
53 60 70
56 64 74
55 63 73
54 62 71
53 60 70
55 63 73
53 61 70
54 61 71
56 63 73
52 59 68
50 57 66
53 61 71
52 59 68
52 59 69
51 58 67
52 60 70
53 60 69
48 55 64
49 55 64
52 59 69
52 59 69
52 59 67
50 56 65
49 56 64
52 59 67
51 58 66
48 55 63
51 57 66
51 58 67
46 52 60
52 59 67
49 55 64
49 56 64
50 56 65
50 56 65
51 58 67
49 55 64
50 57 66
50 56 65
51 57 65
49 56 64
47 53 62
47 53 61
46 52 60
46 51 59
45 51 59
47 53 61
47 52 60
47 53 61
46 51 59
48 54 62
46 52 59
46 51 59
44 49 57
47 53 61
46 52 59
43 49 56
45 50 57
44 49 56
43 49 56
45 51 58
41 46 53
44 50 57
41 46 52
39 44 50
43 48 55
40 45 52
40 45 51
37 41 47
39 44 50
41 46 52
37 42 48
39 43 49
38 43 49
39 43 49
40 44 50
38 42 48
39 44 50
41 46 52
37 41 47
38 43 48
37 41 47
38 42 47
38 42 48
37 41 47
41 45 51
35 39 45
34 38 43
38 42 48
41 46 52
36 40 45
31 35 40
38 42 48
40 45 52
36 40 45
38 42 48
33 37 42
31 34 39
35 39 44
31 34 39
37 41 47
40 45 51
37 41 47
39 43 49
40 45 51
41 46 52
40 45 51
37 41 47
34 38 43
43 48 54
35 39 44
38 43 49
39 43 49
39 43 50
39 44 50
37 41 47
40 44 50
37 41 47
39 44 50
41 46 53
44 49 56
36 40 46
42 47 53
43 48 55
44 50 57
45 50 58
41 46 53
43 48 55
46 52 59
40 45 52
42 47 54
43 49 56
41 46 52
44 50 57
42 47 54
48 54 63
41 46 53
44 50 57
43 48 55
46 52 59
46 51 59
42 47 53
46 52 60
46 52 60
43 48 55
46 52 59
48 54 63
44 50 58
48 53 61
47 53 61
48 53 61
48 54 62
49 55 63
52 58 67
49 56 64
50 57 65
49 56 65
46 52 60
51 57 66
52 59 68
52 59 68
51 58 67
51 58 67
50 56 65
50 56 64
52 59 69
53 60 69
52 59 68
52 59 68
53 61 70
51 58 67
52 59 68
52 59 68
50 57 66
51 58 67
51 57 66
53 60 69
53 60 69
53 60 69
54 61 70
55 63 73
55 63 73
54 62 72
54 61 70
54 61 70
54 61 71
52 59 68
55 62 72
57 65 75
54 62 71
53 61 70
56 64 74
56 64 73
58 66 76
56 64 74
56 64 74
53 60 70
56 63 73
56 63 73
54 62 72
57 64 74
58 66 76
56 64 74
55 62 73
54 62 72
56 63 73
56 64 74
56 64 74
57 64 74
57 65 75
56 64 74
57 65 75
55 63 73
56 64 74
59 67 78
55 63 73
57 65 74
57 65 75
57 65 75
59 67 77
59 67 77
59 67 78
55 63 73
57 65 75
58 65 75
57 65 75
57 65 75
58 66 76
58 66 76
58 65 75
59 66 76
59 67 77
58 66 76
59 67 77
60 68 78
56 64 75
57 65 75
59 67 77
59 67 78
59 67 77
58 66 76
58 66 76
59 67 77
60 68 78
59 67 78
59 68 78
58 66 76
59 66 76
58 66 76
59 66 77
60 68 79
58 66 77
59 67 77
60 68 78
60 68 79
59 67 78
59 67 77
59 67 77
59 67 77
60 69 80
59 68 78
60 68 78
59 67 78
59 67 78
61 69 79
61 69 80
59 67 78
61 69 80
58 66 77
60 68 78
59 68 79
60 68 79
61 69 79
60 69 80
59 67 78
58 66 76
59 67 78
59 68 78
60 68 79
60 68 79
61 69 80
59 67 78
59 67 78
60 68 79
60 69 79
60 68 79
60 68 79
59 67 77
60 69 79
59 68 78
59 67 77
59 67 78
59 68 79
60 68 78
61 69 79
60 68 79
59 67 78
60 68 79
60 68 79
60 68 79
59 67 78
60 68 78
60 69 79
61 69 79
59 68 78
59 67 77
60 68 78
60 68 79
60 68 78
60 68 78
60 68 78
60 68 79
60 68 79
59 67 78
61 69 80
60 68 78
59 67 77
59 67 77
58 66 77
60 68 78
60 68 79
58 66 77
59 67 78
60 68 79
60 68 78
60 68 79
60 69 80
59 67 77
59 68 78
58 66 77
59 68 79
59 67 78
59 67 78
58 66 76
59 68 78
59 67 78
59 67 78
59 66 76
58 66 76
59 67 78
60 68 78
57 65 75
59 67 78
60 68 78
59 67 77
58 66 77
58 66 77
59 67 77
59 67 77
58 66 76
57 65 75
59 67 77
59 67 77
59 67 78
59 67 77
57 65 75
56 64 74
57 65 75
59 66 76
58 67 78
57 65 75
58 66 76
58 66 76
58 66 76
57 65 75
58 66 76
59 67 77
57 65 74
59 67 78
57 65 75
57 65 75
57 65 76
58 66 76
57 65 75
56 63 73
55 63 73
58 66 77
58 66 76
59 66 76
57 65 75
56 64 74
54 61 71
56 64 74
57 65 75
56 64 74
54 62 71
53 60 70
57 65 75
54 61 71
55 63 73
55 62 71
57 64 74
54 62 72
54 61 71
55 63 73
55 63 72
55 62 71
55 63 73
55 63 73
55 62 72
54 62 72
52 59 69
55 62 72
54 61 70
53 60 69
54 61 70
55 62 72
56 64 74
54 61 70
54 61 70
55 62 72
54 61 70
54 61 70
54 61 70
52 60 69
53 60 70
55 62 71
50 57 67
50 57 66
53 59 68
50 57 66
48 55 63
51 58 66
51 57 66
53 60 69
51 58 67
49 55 63
51 57 66
51 58 67
52 59 68
48 54 62
52 58 67
49 56 64
51 57 65
50 56 65
47 53 61
47 53 61
48 54 62
50 57 65
52 59 67
46 52 59
45 51 59
51 57 66
50 56 64
50 56 64
49 55 63
44 49 57
48 53 61
44 50 58
45 50 57
42 47 54
46 51 58
43 48 55
47 53 61
43 48 55
43 48 55
48 54 62
46 52 60
47 52 59
47 53 61
41 46 52
42 47 54
41 46 53
42 47 53
39 44 50
40 44 50
44 49 56
41 46 53
40 44 51
40 45 51
42 48 55
42 47 54
40 45 52
40 44 51
38 43 49
42 47 54
41 46 52
41 46 52
38 42 48
40 45 51
39 43 49
40 45 51
40 45 51
41 46 52
36 41 46
44 49 56
38 43 49
37 42 47
41 46 52
35 39 44
32 36 42
35 39 45
40 44 51
38 43 49
40 45 52
40 44 50
36 40 46
39 43 49
41 46 53
38 43 49
38 42 48
34 38 43
35 39 44
37 41 47
43 48 54
38 42 48
38 43 49
35 40 45
40 44 51
41 46 53
40 45 51
42 47 54
37 42 47
38 42 49
38 42 49
41 45 52
38 42 48
39 44 50
44 49 56
44 49 56
42 47 54
39 43 49
38 42 48
44 49 56
45 50 57
43 48 54
44 49 55
45 51 58
40 46 53
45 51 58
43 48 55
46 52 59
42 48 55
43 49 56
41 46 53
44 50 58
45 50 58
45 51 58
49 56 64
45 50 57
46 52 60
45 51 59
46 52 60
49 56 64
48 53 61
48 55 63
48 55 63
47 52 60
48 54 63
50 57 65
46 52 60
48 54 62
48 54 62
50 56 64
49 56 64
48 54 62
48 55 63
51 57 66
47 53 61
51 58 67
49 56 64
49 55 64
52 59 68
50 56 65
51 58 66
51 58 67
52 59 68
48 55 63
50 57 67
51 57 66
51 57 65
52 59 68
50 57 66
55 63 72
53 60 69
53 60 70
52 59 68
50 56 65
53 60 69
55 62 72
54 62 72
56 63 73
55 62 72
53 60 70
54 61 71
55 63 73
53 60 69
56 63 72
55 62 72
54 62 71
56 64 73
54 62 71
55 63 72
52 59 68
55 62 72
58 66 76
55 62 72
55 63 73
57 64 74
55 63 73
56 63 72
55 62 72
57 65 75
55 63 72
56 63 73
56 64 74
59 67 77
57 65 75
58 66 76
57 64 75
57 65 75
55 62 72
57 64 74
56 63 74
57 65 75
58 66 76
57 65 76
57 64 75
57 65 75
57 65 75
57 65 75
58 66 77
57 65 75
58 66 76
60 68 78
57 64 74
59 67 78
57 65 75
58 66 76
59 67 78
58 66 76
58 66 77
57 65 76
59 67 77
59 67 77
57 65 76
60 68 78
57 65 75
60 68 79
57 65 75
58 66 76
58 66 77
58 66 77
58 66 76
59 67 77
59 68 79
59 67 77
59 67 78
58 66 76
60 68 79
59 67 78
59 67 78
59 67 78
58 66 77
59 67 78
61 69 80
60 67 78
59 67 77
59 67 78
60 67 78
59 68 78
60 68 79
60 68 79
59 67 77
58 66 77
58 66 77
58 66 77
59 67 78
60 68 78
58 67 77
59 68 78
59 67 78
60 68 79
60 68 79
60 68 79
60 68 78
59 67 78
60 68 79
60 68 78
60 68 79
59 67 77
60 68 79
59 67 78
60 68 79
60 68 78
60 68 79
60 67 78
61 69 80
60 68 79
59 67 77
60 68 79
57 65 76
60 68 79
60 69 79
60 68 79
60 68 78
60 68 79
60 68 78
59 67 78
60 68 79
60 68 79
60 68 79
60 68 79
59 67 78
60 68 79
61 69 80
60 68 79
59 67 77
60 68 78
60 68 79
59 67 77
59 67 78
60 68 79
59 67 77
59 67 77
59 67 78
58 66 76
58 67 77
60 68 79
61 69 80
59 67 78
59 67 78
59 66 76
59 67 78
60 68 79
57 65 76
60 68 79
58 66 77
59 67 78
59 67 78
59 67 78
59 67 77
59 66 76
59 67 78
59 67 77
60 68 79
58 66 76
58 65 75
59 67 78
59 68 79
58 66 76
57 65 75
59 66 77
59 67 78
57 65 75
58 66 76
59 67 78
58 66 77
60 68 79
60 68 79
59 67 78
59 67 77
59 67 77
59 67 77
58 66 76
58 66 76
58 65 76
59 67 78
56 64 74
58 66 76
57 65 75
59 67 77
58 66 76
59 67 77
58 67 77
56 64 74
55 63 72
58 66 77
58 66 77
58 66 76
58 66 77
57 65 75
57 65 75
56 63 73
57 65 76
56 64 74
57 65 76
59 67 77
55 63 74
57 65 76
56 64 74
58 66 77
57 64 74
56 63 73
55 63 73
56 63 73
57 65 74
55 63 73
57 65 75
56 63 73
54 61 71
56 64 74
57 65 75
55 63 73
53 61 70
53 60 69
56 64 74
57 64 74
55 63 73
53 61 70
55 63 73
53 60 70
54 62 71
54 61 70
53 60 69
53 60 70
55 62 72
53 60 69
54 61 71
55 62 72
54 61 71
56 64 74
52 58 67
52 59 68
53 60 69
54 61 70
53 60 70
51 57 66
53 60 69
52 59 68
53 59 68
51 58 67
53 60 70
50 57 66
52 59 68
50 56 65
51 59 68
53 59 68
52 58 67
49 55 64
47 53 62
50 57 65
51 58 67
53 60 69
49 55 64
46 52 61
49 55 64
50 56 64
51 57 66
49 56 64
46 52 60
45 51 58
50 57 65
52 58 67
51 57 65
46 52 60
46 52 60
46 52 59
42 48 55
47 52 60
42 47 54
49 55 63
42 47 54
46 52 59
48 54 62
44 49 56
44 49 56
43 48 55
42 48 55
41 46 52
44 49 56
42 47 54
41 46 53
45 51 58
43 49 56
40 45 51
42 47 54
44 49 56
45 50 57
44 50 57
45 51 58
40 45 51
44 49 56
44 50 57
38 42 48
41 46 52
39 44 50
38 42 48
36 40 47
39 44 49
39 43 49
38 42 48
40 45 51
37 41 47
36 40 46
39 43 50
36 40 46
40 44 50
40 45 51
35 39 45
37 41 47
36 40 46
37 42 48
36 40 45
39 44 50
35 39 44
35 39 45
39 43 49
43 48 55
42 47 53
42 47 54
40 45 51
43 48 55
33 37 42
44 49 56
41 46 53
37 42 47
41 45 51
41 46 53
40 44 51
40 45 52
39 43 49
44 49 56
39 44 50
43 48 55
45 50 57
42 47 53
43 48 56
43 47 54
42 47 53
42 47 54
46 51 58
43 48 55
46 51 58
42 47 54
45 50 57
43 48 56
42 48 54
43 48 55
43 49 55
44 50 57
44 49 56
43 48 56
46 51 59
43 48 55
46 51 58
49 55 64
45 51 58
44 50 57
48 54 62
49 55 63
47 53 61
48 54 62
45 51 58
45 51 59
47 54 62
49 55 63
47 54 62
48 54 63
47 53 61
52 58 67
50 56 65
50 56 65
48 54 63
49 55 63
51 58 67
49 55 64
52 58 67
48 55 63
51 57 66
52 59 68
49 55 63
49 56 64
48 54 62
52 59 68
50 57 66
50 57 66
53 59 68
50 57 66
51 58 67
52 59 68
51 58 67
53 60 70
51 58 67
54 62 71
53 60 69
50 57 65
54 61 70
54 61 70
55 62 72
53 60 70
52 59 68
54 61 71
52 58 67
56 63 74
56 64 74
55 62 73
53 61 70
53 61 70
53 60 70
55 63 73
53 61 70
55 63 73
54 62 72
57 65 75
55 62 72
54 62 71
55 62 71
55 63 73
55 63 73
58 65 75
56 63 74
59 66 76
57 65 75
55 63 73
55 63 72
57 65 75
56 63 74
55 62 72
56 63 73
55 63 73
54 62 71
56 63 73
56 64 74
56 63 73
57 64 74
57 64 75
55 63 72
55 63 73
57 65 76
58 66 76
58 66 76
59 67 78
57 65 75
57 65 76
57 64 74
59 67 77
56 64 74
56 64 74
58 66 76
56 64 74
58 66 76
57 65 76
57 66 76
59 67 78
57 65 75
58 66 76
60 68 79
59 67 78
58 67 77
58 66 76
57 65 76
59 67 77
60 68 78
60 68 78
59 68 78
58 67 77
58 65 76
61 69 79
60 68 79
59 67 78
58 66 76
59 67 78
58 66 76
60 68 78
60 68 78
60 68 78
57 65 76
59 67 78
60 68 79
61 69 79
59 67 78
60 68 79
59 67 78
59 67 78
58 66 77
59 68 79
58 66 76
59 67 78
59 67 77
59 68 79
60 68 78
60 68 79
60 68 79
59 67 78
60 68 78
59 67 78
57 65 75
60 68 78
59 67 78
58 66 76
60 68 78
60 69 80
60 68 79
61 69 80
59 67 78
60 69 79
59 68 79
60 69 80
59 67 78
60 68 79
61 69 79
58 66 77
60 68 79
60 68 78
60 68 79
59 67 78
59 67 78
59 67 77
60 68 78
59 67 77
59 67 78
59 67 77
61 69 80
60 68 78
59 67 78
60 68 79
60 68 79
60 68 79
59 67 78
59 68 79
60 68 79
60 68 79
60 68 79
60 69 80
60 68 79
58 66 76
60 68 78
59 67 78
58 67 77
58 66 77
59 68 78
59 67 78
60 68 78
59 68 78
60 68 79
60 68 78
58 66 76
59 67 78
60 68 78
59 67 78
59 67 78
60 68 79
59 68 78
60 68 79
60 68 79
59 67 78
59 67 77
57 66 76
59 67 78
60 68 79
58 66 77
58 66 76
58 67 77
58 67 77
59 67 77
60 68 79
58 66 76
59 67 77
60 68 78
59 67 78
59 66 77
58 65 76
60 68 78
58 67 77
59 67 77
57 64 74
58 66 77
58 66 76
58 65 76
59 67 77
57 65 75
57 66 76
58 65 75
57 65 75
59 67 77
56 64 74
58 66 77
57 64 75
56 64 74
57 65 75
59 67 77
56 64 73
55 63 72
57 65 76
58 66 76
57 65 75
55 63 74
57 65 74
57 65 74
55 63 73
57 65 75
57 64 74
58 66 76
55 62 72
58 66 77
56 64 74
55 62 72
57 64 74
51 58 67
55 62 72
56 64 74
55 63 73
55 62 72
55 62 72
55 62 72
55 62 72
55 62 72
57 64 74
55 62 71
55 63 72
55 62 71
53 60 70
54 61 71
53 61 70
53 61 70
53 60 69
52 60 69
54 61 71
52 59 69
53 60 69
51 58 67
54 61 70
51 58 67
54 61 71
49 55 64
54 61 69
51 57 66
51 58 67
50 57 66
54 62 71
54 61 70
52 58 67
51 58 67
51 58 67
50 57 65
50 57 65
51 58 66
47 54 62
54 61 70
52 59 68
51 58 67
52 59 68
52 59 68
47 54 62
51 57 66
50 57 65
48 54 62
47 53 61
47 53 62
47 53 62
50 56 65
48 55 63
49 55 63
50 56 65
49 55 63
48 54 62
49 55 63
48 54 61
44 50 57
47 52 60
44 49 56
47 53 61
44 49 56
49 55 63
43 48 55
45 50 57
43 48 55
47 53 60
44 49 56
40 45 52
45 51 58
47 53 61
44 49 56
44 49 56
44 50 57
39 44 51
43 48 55
40 45 52
43 47 54
47 52 60
43 48 55
40 45 51
37 41 47
36 40 46
39 44 51
40 45 51
43 48 54
40 45 51
42 47 53
41 45 51
42 46 53
43 48 55
44 49 56
38 42 48
38 43 49
42 47 54
40 45 51
38 42 48
39 44 50
40 45 51
45 50 57
44 50 57
39 43 49
39 44 49
39 44 50
35 39 44
40 45 51
40 45 51
41 45 52
38 43 49
39 43 49
42 48 54
36 41 47
40 44 50
34 38 43
43 48 55
38 43 49
41 46 52
39 43 50
40 45 51
40 44 51
42 47 54
40 45 51
42 47 54
36 41 47
40 45 51
39 44 49
39 44 51
41 46 52
44 50 57
41 46 52
45 50 57
41 46 52
42 48 55
43 49 56
39 44 50
45 50 57
41 46 53
44 50 58
44 49 57
48 54 61
45 50 58
42 47 54
41 46 53
49 55 63
48 53 61
47 53 60
46 52 60
45 50 58
48 54 62
45 51 60
48 55 63
48 54 62
48 55 63
45 51 58
44 50 58
50 56 65
46 53 61
43 49 56
46 52 60
47 54 62
46 52 59
50 56 65
52 59 68
48 54 63
46 52 60
52 59 68
49 56 64
47 53 61
48 54 63
49 55 63
51 57 66
50 57 65
48 55 63
50 57 65
54 62 71
54 61 70
53 60 69
51 58 67
52 59 68
52 59 68
53 60 69
52 59 68
52 60 69
54 61 70
52 59 69
52 59 68
54 61 71
52 59 69
52 58 66
52 60 69
53 61 70
53 61 70
54 61 71
52 59 69
53 61 71
54 62 71
54 61 71
55 62 72
55 62 72
52 59 69
53 61 70
55 63 73
53 60 70
58 66 76
55 62 72
52 59 68
54 62 71
57 64 75
56 64 74
57 65 75
56 64 74
54 62 72
55 63 73
56 64 74
58 65 75
57 64 75
57 64 74
57 65 75
57 65 75
56 64 74
55 63 73
55 63 74
56 64 74
56 63 73
57 65 75
58 66 76
56 63 74
58 66 76
56 64 74
59 67 77
57 65 76
57 65 76
57 65 75
58 65 76
57 65 75
56 64 74
56 64 74
58 65 76
57 65 76
58 65 76
59 67 78
57 65 75
59 66 77
58 66 77
57 65 75
58 66 77
58 66 76
59 67 78
58 66 76
59 67 78
59 67 78
59 67 77
58 66 77
59 67 77
59 66 77
57 65 74
59 67 77
58 66 76
56 64 74
59 66 77
58 66 76
59 66 77
57 65 75
59 67 78
58 66 76
60 68 78
60 68 78
59 67 77
58 67 77
60 68 79
60 68 79
58 66 76
60 68 79
59 67 78
59 67 77
59 67 78
59 67 78
58 66 76
59 67 78
59 67 77
61 69 79
60 68 78
58 66 76
60 68 78
59 67 78
60 68 79
59 67 77
60 68 78
60 68 79
59 67 78
59 67 77
60 68 79
59 67 78
60 68 79
61 69 80
60 68 79
60 69 79
60 68 79
60 68 78
60 68 79
60 68 79
61 69 80
60 68 78
60 68 79
60 68 79
60 68 79
60 68 79
60 68 79
60 68 78
61 69 79
60 68 79
60 68 79
61 69 80
59 68 79
60 68 79
61 69 80
60 68 79
59 67 78
58 67 77
61 69 80
59 67 78
59 67 78
58 67 77
59 67 77
60 68 78
58 66 77
60 68 78
60 68 78
60 68 78
61 69 80
59 67 78
59 67 78
59 67 78
58 66 77
58 67 77
59 67 78
58 66 76
59 67 78
60 68 78
60 68 78
58 66 76
59 67 77
58 66 76
58 66 77
59 67 77
60 68 78
58 66 76
59 67 78
57 65 75
57 65 75
57 65 75
58 66 77
58 66 76
57 65 74
58 66 76
57 65 76
58 66 76
59 67 78
59 67 77
56 63 74
59 67 77
59 67 78
57 65 75
57 65 76
58 65 75
54 62 72
58 66 76
58 66 77
58 66 76
58 65 76
56 64 74
58 66 76
59 67 77
56 64 74
58 66 76
57 65 75
56 64 74
54 62 71
57 65 75
59 66 77
54 62 72
57 64 74
57 65 75
55 62 71
58 65 76
56 63 73
57 64 74
56 64 74
55 63 73
55 63 73
57 66 76
54 61 71
57 65 75
57 65 75
56 63 73
55 62 72
56 63 73
55 63 72
56 63 73
56 64 74
54 61 70
55 62 72
54 62 72
58 65 75
54 61 71
56 64 74
56 64 74
53 61 71
55 62 72
56 63 72
52 59 69
55 63 73
55 62 71
54 62 71
55 62 71
52 59 69
51 58 67
54 61 70
51 58 67
56 64 74
56 64 73
54 61 71
52 59 68
55 62 71
54 60 69
53 60 69
49 56 64
51 57 66
53 61 70
53 60 70
49 55 64
54 61 71
50 57 65
49 56 65
54 61 71
49 56 64
49 56 65
51 57 66
48 55 63
48 54 62
50 56 64
49 56 64
48 54 63
50 56 64
50 56 65
53 60 69
50 56 64
48 54 62
44 50 57
48 54 62
50 57 65
46 52 59
46 52 60
44 50 57
47 53 61
47 53 61
43 49 56
48 54 62
45 51 59
43 49 56
45 51 59
44 49 56
44 49 56
45 50 58
44 50 57
40 46 52
47 53 61
41 46 53
40 45 52
43 48 55
42 47 54
44 50 57
44 49 56
42 47 54
41 46 52
36 41 47
42 47 54
43 48 55
44 49 56
38 42 48
43 48 56
46 51 58
38 43 49
45 50 57
39 43 50
42 47 53
37 41 47
38 43 50
33 36 41
44 49 56
40 45 51
40 45 52
41 46 53
43 48 55
38 43 48
40 45 51
41 46 53
37 42 48
36 40 45
42 46 53
36 40 46
41 45 52
39 43 49
41 45 51
41 46 53
37 41 47
43 48 55
41 45 52
41 46 52
40 45 51
42 48 54
41 45 52
39 44 50
39 44 50
41 46 53
43 48 56
39 43 49
43 48 54
45 51 58
41 46 53
44 49 56
38 43 49
47 53 60
38 43 49
41 46 53
44 49 56
43 48 55
39 44 50
44 49 56
42 47 54
43 48 55
44 49 57
44 49 56
42 48 54
44 50 57
41 46 53
45 51 58
45 51 58
45 51 58
42 47 54
44 49 57
46 51 59
46 52 60
47 54 62
47 53 61
44 49 56
42 48 55
47 53 61
49 55 63
46 52 60
46 52 59
45 51 59
46 52 60
45 51 59
47 53 61
46 52 60
51 58 67
49 55 63
48 55 63
47 52 60
49 56 64
51 57 66
49 55 63
47 53 61
52 58 67
50 56 65
49 56 64
48 54 62
50 57 66
50 57 66
51 57 66
52 59 68
50 56 65
52 59 68
52 59 68
52 59 68
52 59 68
52 58 67
51 58 66
53 60 69
54 61 71
49 55 64
52 60 69
51 59 68
54 61 70
51 58 67
54 61 70
54 61 70
55 62 72
50 57 66
55 62 72
55 62 71
55 63 72
55 63 73
57 65 75
56 63 72
56 63 73
56 63 73
53 61 70
53 60 70
54 61 70
54 61 70
54 61 70
57 64 74
56 63 73
55 62 71
56 64 74
57 65 75
54 62 71
57 65 75
57 65 75
53 61 70
54 62 72
56 64 74
56 64 75
57 64 74
58 66 76
56 64 74
56 64 74
59 66 76
56 63 74
56 64 74
57 65 75
57 65 75
58 65 75
56 64 74
58 65 76
56 64 74
57 64 75
55 63 73
58 66 76
56 63 73
56 63 74
57 65 76
59 66 76
57 65 76
58 65 75
59 67 77
57 65 76
58 66 77
57 65 76
60 68 78
58 66 76
57 65 75
57 65 75
57 65 75
58 67 77
60 68 79
57 65 75
58 66 77
60 68 79
60 68 78
60 68 79
59 67 77
59 67 77
58 66 76
57 65 76
58 66 76
58 66 76
58 66 76
59 67 77
59 67 78
58 66 76
60 68 79
58 66 77
58 66 76
59 68 78
59 67 77
60 67 78
59 67 78
60 68 79
58 67 77
59 67 78
60 68 79
60 68 79
59 67 77
59 67 78
58 66 77
59 67 78
60 68 79
59 68 78
59 67 78
60 68 79
59 67 78
59 67 77
59 67 78
59 67 78
59 66 77
60 68 79
59 67 78
60 68 79
60 68 79
60 69 79
61 69 80
61 68 79
59 67 78
60 68 79
59 67 77
59 67 77
59 67 78
60 68 79
60 68 79
61 69 79
61 69 79
60 68 79
60 68 79
59 67 78
60 68 79
60 68 79
60 68 79
59 67 78
60 68 79
59 67 78
59 68 78
59 67 78
59 67 77
59 67 78
59 67 77
59 67 77
59 67 78
60 68 79
60 68 78
59 68 79
59 68 79
59 67 78
60 68 79
59 67 78
59 67 78
59 67 78
59 67 78
59 67 78
60 68 79
58 66 77
58 66 77
59 67 78
60 67 77
58 66 76
59 67 78
59 67 78
58 66 77
58 65 76
59 67 77
58 66 76
57 66 76
59 67 77
58 66 77
58 66 76
58 66 77
58 67 77
58 66 77
59 67 78
60 68 78
58 66 76
59 67 77
58 66 76
59 67 77
58 65 75
58 66 76
59 67 78
59 68 78
57 65 76
59 67 77
60 68 78
58 66 77
58 67 77
57 66 76
56 64 74
57 65 75
59 67 77
58 66 76
57 65 75
59 67 78
60 68 78
59 67 77
56 64 74
57 65 75
57 65 75
56 64 74
56 64 74
57 65 76
59 67 78
56 64 74
58 66 76
57 65 76
56 63 73
58 66 77
57 65 75
55 62 72
57 64 74
52 59 68
58 66 76
56 63 73
57 65 75
57 65 74
56 63 73
54 62 72
56 64 73
53 60 70
55 63 73
55 62 72
55 63 73
59 67 77
57 65 75
57 65 75
54 61 70
52 59 68
51 58 68
54 61 70
55 63 73
52 59 68
54 61 70
53 60 70
54 61 71
54 61 70
52 60 69
53 60 69
55 62 72
51 58 67
49 55 63
54 61 70
54 61 70
52 59 68
54 61 70
57 64 74
52 59 68
50 57 66
48 54 63
53 59 69
54 61 71
52 59 68
53 60 69
50 57 65
52 58 67
50 56 65
51 58 66
53 60 69
49 55 64
48 55 63
47 54 62
49 55 63
47 53 61
45 51 59
51 58 67
50 57 65
48 54 62
47 54 62
46 52 61
49 55 64
49 56 64
48 54 62
49 56 64
45 51 59
48 54 62
46 52 60
47 52 60
47 54 62
46 52 59
45 51 58
47 53 61
46 52 60
47 53 61
47 53 61
45 51 59
46 52 59
45 50 58
46 51 58
44 49 57
44 49 56
46 52 60
46 52 60
44 50 58
45 51 58
42 48 55
44 49 56
45 50 57
45 51 58
42 47 54
42 47 55
40 45 51
41 47 53
44 49 56
42 47 55
42 47 53
45 51 58
40 45 51
44 49 56
42 47 53
44 50 57
41 46 53
43 48 55
44 49 56
40 44 51
41 46 53
43 48 54
45 50 57
42 47 53
40 44 51
41 46 52
36 39 45
42 46 53
41 46 53
42 47 53
42 47 54
40 45 52
38 43 49
40 45 52
43 48 55
39 43 49
42 47 53
35 39 44
35 39 45
37 42 48
42 47 54
38 42 48
43 48 54
42 48 54
44 49 56
43 48 54
45 51 58
44 49 56
40 45 51
41 46 52
42 46 53
43 48 55
44 49 56
40 46 52
42 47 54
43 48 55
44 50 57
45 50 57
42 47 54
47 52 60
45 51 58
45 50 57
48 54 62
45 50 58
48 54 62
44 49 56
43 48 56
46 51 59
46 51 58
49 55 63
44 49 56
45 50 58
46 52 59
44 49 56
44 50 57
45 51 58
45 52 60
47 52 60
47 53 61
48 54 62
46 52 60
46 52 60
49 55 63
45 51 59
49 56 64
49 56 65
48 55 63
46 52 60
51 58 67
48 54 62
48 55 63
52 59 67
48 55 63
50 56 64
49 56 65
51 57 66
50 57 66
51 58 66
52 59 69
52 58 67
52 59 67
48 54 62
51 57 66
51 58 67
52 59 68
54 62 72
49 56 64
53 61 70
53 60 69
53 60 70
53 60 70
53 61 70
55 62 71
52 60 69
54 60 70
54 62 71
52 59 69
55 62 72
52 59 69
53 60 70
56 63 73
53 61 70
55 62 72
52 60 69
54 61 70
54 61 70
52 59 68
57 65 75
56 63 72
54 62 71
55 63 73
56 63 73
54 61 71
55 63 73
55 62 72
55 63 73
55 62 72
56 64 74
56 64 74
56 63 73
56 64 74
58 65 75
55 63 73
55 62 72
53 61 70
58 66 76
56 64 74
58 66 76
56 64 75
56 63 73
56 64 74
56 64 74
57 64 74
55 63 73
56 63 73
59 66 77
57 65 74
56 64 75
57 65 75
56 64 74
57 65 76
56 63 73
58 66 77
57 65 76
59 67 78
59 67 77
58 66 77
58 65 76
57 65 75
56 63 73
59 67 77
57 65 75
56 64 74
59 67 78
59 67 78
58 67 77
58 66 76
58 66 76
59 67 78
56 64 75
59 67 77
58 66 77
59 67 77
58 66 76
59 67 78
58 66 76
57 66 76
57 65 75
58 66 77
59 68 79
59 67 78
58 66 76
57 65 76
60 68 78
59 67 78
60 68 79
58 66 76
59 67 77
59 68 78
59 68 78
58 67 78
58 66 77
59 67 77
59 68 78
58 66 76
60 68 79
58 66 76
59 67 78
60 68 78
60 68 79
60 68 78
58 66 77
60 69 80
59 66 76
59 67 77
60 69 80
59 67 78
60 69 79
59 67 78
59 67 77
58 66 77
61 68 78
60 69 79
60 69 79
59 67 77
60 68 79
60 68 79
60 68 78
60 68 79
60 68 79
59 67 78
59 67 77
60 68 79
60 68 79
60 68 78
60 69 80
59 67 78
59 67 77
59 68 79
61 69 79
59 68 79
60 68 78
59 67 77
59 67 78
60 68 79
60 68 79
58 66 77
60 69 80
59 67 78
59 67 77
59 68 79
59 67 78
60 68 78
60 69 80
60 68 78
60 68 79
60 68 79
59 67 77
60 68 78
59 67 77
60 68 78
58 66 76
58 66 76
59 67 78
59 67 78
58 66 76
59 67 78
59 67 78
59 67 78
58 66 77
58 66 76
58 66 76
59 67 77
58 66 77
58 66 77
59 67 78
59 67 78
60 68 78
58 66 76
59 67 77
58 66 76
58 66 77
57 65 75
59 67 77
58 66 77
57 65 76
58 66 76
55 62 72
58 66 76
59 67 78
55 63 73
57 65 75
57 65 75
57 65 75
58 66 76
58 66 76
59 67 77
57 65 75
57 65 75
58 66 76
58 66 76
57 65 76
58 65 75
58 65 76
58 66 76
55 63 73
57 65 76
56 63 73
56 64 75
57 65 76
57 65 76
57 65 75
55 63 73
58 66 76
57 64 74
54 62 72
56 63 74
56 64 74
57 65 75
58 66 76
55 63 72
55 63 73
56 63 73
55 63 73
53 61 71
56 64 74
54 62 71
55 63 72
56 63 73
56 63 73
53 60 69
56 63 73
52 60 69
54 62 72
54 61 71
54 62 71
53 61 71
55 62 72
53 60 69
55 63 72
54 61 71
52 59 68
53 60 70
53 60 69
53 60 69
53 60 70
53 60 69
54 60 69
51 57 65
53 59 68
53 59 68
51 58 67
53 60 70
50 56 65
53 60 69
53 60 70
54 61 70
51 57 66
51 58 68
54 61 71
53 60 69
52 59 68
52 59 68
52 58 67
51 59 68
50 56 65
52 59 68
53 60 69
50 57 66
50 56 65
48 55 63
49 55 64
50 57 66
48 54 63
51 57 66
48 55 63
50 56 65
50 57 65
50 57 66
46 52 60
48 54 62
49 54 62
47 53 61
52 58 67
46 52 59
46 52 59
47 52 60
47 53 61
46 52 60
43 49 56
48 55 63
44 49 56
45 50 57
45 51 58
46 52 60
45 50 57
44 49 57
43 49 56
46 52 59
44 49 57
42 47 54
45 50 58
41 47 54
45 51 58
45 51 58
39 44 50
45 50 57
46 51 58
41 46 53
43 49 56
41 46 53
42 47 53
42 47 54
45 51 58
44 49 55
45 51 58
44 49 56
44 50 57
40 45 51
40 45 51
44 49 56
38 42 48
39 44 50
37 42 48
35 40 45
43 48 54
41 46 53
43 48 54
36 40 46
42 47 54
41 46 53
43 48 55
38 43 48
37 42 48
41 46 52
37 42 48
40 44 51
41 46 53
41 46 52
42 47 53
40 44 51
41 46 53
42 47 54
39 43 49
45 50 57
43 48 55
41 46 53
44 49 56
41 46 52
45 50 58
43 48 55
43 48 55
44 49 56
40 45 52
41 46 53
44 50 57
43 48 55
42 47 54
43 49 55
41 46 53
43 48 55
41 46 52
47 53 60
43 48 55
45 51 58
44 50 58
46 52 60
44 50 58
46 52 59
42 46 53
47 53 61
46 52 60
47 53 61
48 54 61
43 49 56
47 53 61
47 53 61
49 55 63
49 55 64
47 53 61
49 55 63
48 54 63
48 54 62
47 53 61
49 55 63
52 59 68
51 58 66
49 55 64
49 55 64
51 57 65
50 57 65
49 56 64
51 57 66
49 55 63
49 55 64
49 55 63
49 56 64
49 56 65
53 60 69
50 57 66
50 57 65
51 58 66
49 56 64
53 60 69
51 58 67
54 60 69
51 57 66
48 55 63
50 56 65
52 59 68
53 60 69
51 58 67
52 59 68
51 58 67
51 58 67
55 62 72
54 62 71
55 62 71
54 62 72
55 62 71
55 62 72
53 61 71
55 63 72
54 61 71
50 56 65
57 65 75
54 61 70
55 63 72
54 61 70
56 63 73
56 63 73
56 64 74
54 61 71
54 62 72
54 62 72
56 64 73
56 64 74
55 62 72
57 64 74
56 64 74
56 64 74
56 63 73
52 59 69
58 66 76
55 62 72
57 65 75
56 64 74
55 62 72
59 67 77
57 64 74
56 63 73
56 63 73
59 66 77
57 65 75
58 65 76
57 64 74
57 65 75
57 65 75
57 65 75
56 64 75
56 64 74
59 67 78
56 64 74
57 65 76
59 67 77
58 66 76
56 64 74
59 67 77
59 67 77
57 64 74
57 64 74
58 67 78
57 65 75
58 66 76
59 67 77
57 65 75
60 68 78
59 67 78
59 67 78
59 67 77
57 65 76
59 67 78
60 68 79
59 67 78
59 67 77
58 66 77
58 66 77
57 65 75
58 66 77
58 66 76
58 66 76
59 67 77
59 67 77
60 68 79
59 67 78
58 67 77
59 67 79
58 67 78
57 65 76
59 67 78
58 66 76
59 67 77
60 68 79
60 68 78
58 66 76
60 69 80
60 68 79
60 68 79
62 70 80
60 68 78
58 66 77
60 68 78
60 68 79
58 66 77
58 66 77
58 66 77
60 68 79
60 68 79
59 66 77
59 67 78
59 67 78
61 69 79
60 68 79
61 69 79
59 67 78
60 68 79
59 67 78
60 68 80
59 67 78
60 68 79
60 69 80
61 69 80
59 67 78
59 68 78
60 68 79
59 68 78
59 67 78
60 68 79
61 69 79
59 67 78
58 67 78
59 67 77
60 68 78
59 68 79
60 69 79
60 68 78
59 67 78
60 68 78
59 67 77
59 67 78
59 67 77
59 67 77
59 67 78
60 68 79
59 67 77
58 66 77
59 67 78
59 67 77
59 68 78
60 68 78
58 66 76
60 68 79
58 66 76
59 67 78
58 67 77
60 68 78
58 66 77
59 67 78
57 65 75
59 67 77
60 68 78
59 67 78
57 66 76
59 68 78
59 67 77
60 68 78
59 67 77
58 66 76
57 65 75
59 67 77
58 66 76
59 67 77
58 66 77
58 66 76
58 66 77
59 67 77
59 67 77
57 65 75
58 66 76
57 65 75
57 65 75
58 66 76
57 64 74
58 66 76
56 64 74
56 65 75
58 66 77
59 67 77
59 67 77
59 67 77
59 66 76
57 65 75
57 65 76
55 62 72
60 68 78
57 65 75
56 64 74
57 65 75
56 64 74
57 64 74
55 63 73
58 65 76
54 62 71
55 63 73
56 63 73
56 63 74
56 64 74
56 63 74
55 63 73
56 63 73
57 64 74
54 62 71
57 64 74
52 59 68
56 64 74
56 63 73
54 61 71
56 63 73
54 62 71
57 64 74
55 62 72
55 62 72
54 62 71
55 62 72
53 60 70
54 62 71
54 61 71
54 61 71
56 63 73
53 61 71
56 63 73
56 64 74
52 59 69
54 61 71
54 61 71
54 61 70
53 60 70
54 61 71
51 58 66
54 61 70
49 56 64
54 61 70
51 59 68
48 54 62
55 62 71
51 58 67
52 59 68
50 57 66
51 58 67
53 60 70
52 58 66
53 59 68
52 58 67
49 56 65
52 59 69
52 59 68
50 57 65
52 59 69
47 53 61
48 54 62
50 56 65
50 56 65
51 57 66
50 56 65
50 56 65
49 55 63
50 56 65
50 56 65
46 52 59
47 53 61
48 54 62
45 51 59
48 54 62
47 53 61
47 53 61
47 53 61
49 55 63
47 53 61
49 55 63
45 50 57
48 54 62
46 53 61
47 53 61
47 53 61
46 52 59
49 54 62
44 49 56
46 51 59
45 50 58
45 50 58
40 45 52
45 50 58
42 48 55
45 50 57
42 47 54
44 50 57
41 46 53
41 46 53
45 51 58
40 45 51
46 52 59
47 53 60
45 51 58
43 49 56
42 47 53
39 44 51
49 55 63
38 43 49
41 46 53
45 50 58
43 48 55
43 48 55
41 45 51
43 48 54
38 42 48
39 44 50
40 44 51
41 46 53
45 51 58
44 50 57
46 52 59
45 50 57
39 44 50
42 47 53
42 47 53
45 50 57
43 48 55
41 46 53
41 46 53
42 47 54
40 45 51
39 44 50
42 47 53
43 48 56
44 49 56
41 46 52
44 49 56
42 47 54
39 44 50
45 50 57
41 46 53
44 50 57
47 52 60
45 51 59
44 50 57
39 44 51
47 53 61
46 51 59
46 52 60
45 50 57
44 49 56
45 50 57
43 49 56
45 51 58
47 53 61
44 50 57
46 52 60
47 53 61
46 52 60
44 49 56
45 51 59
43 49 55
46 51 59
46 51 59
48 54 62
49 55 63
45 51 59
49 55 63
52 59 67
46 51 59
48 54 63
47 54 62
47 53 61
52 58 67
51 57 66
46 52 60
49 55 64
47 53 61
50 57 65
46 52 60
49 55 63
49 56 64
48 55 63
51 58 67
50 57 65
51 58 67
51 58 67
52 58 68
53 60 69
50 57 65
52 59 69
50 57 66
51 58 67
52 58 67
53 60 70
52 58 67
53 60 70
54 62 71
52 59 69
50 57 66
53 60 70
51 58 67
52 59 69
52 59 68
56 63 73
55 62 71
53 61 70
54 62 71
50 57 67
54 61 71
51 58 67
55 63 72
52 59 68
54 62 71
54 62 71
55 62 72
56 63 73
55 62 72
56 64 74
55 62 72
56 63 73
56 64 74
55 63 73
52 60 69
55 62 72
57 65 75
55 63 73
55 63 73
58 65 76
56 64 75
55 63 73
56 64 74
54 61 71
56 63 73
55 63 73
57 64 75
56 63 73
56 63 73
56 63 73
57 65 74
56 64 74
57 64 74
57 65 76
56 63 74
55 63 73
55 63 73
58 66 76
57 64 74
58 66 77
58 66 77
59 67 78
56 63 73
58 65 76
56 63 73
57 65 75
57 65 76
57 65 75
57 65 75
58 66 76
56 64 74
57 65 75
58 66 77
58 66 77
58 65 76
57 65 75
57 64 74
59 67 78
59 67 78
56 64 74
57 65 75
57 65 75
59 67 77
57 66 76
59 66 77
58 66 76
56 64 74
58 66 76
58 66 76
60 68 78
58 65 76
57 65 76
59 67 77
59 66 77
58 66 77
58 66 76
61 69 79
58 65 75
58 66 76
58 66 77
60 67 78
58 67 77
59 68 79
59 67 78
59 67 78
59 67 77
58 65 76
58 66 77
59 67 78
60 67 78
59 68 79
60 69 79
60 69 79
60 68 78
59 67 78
58 66 77
59 68 79
60 68 79
59 67 78
60 68 79
59 67 78
60 68 79
60 68 79
61 69 80
60 68 79
60 68 79
60 68 79
59 67 78
61 69 80
60 68 78
59 68 78
60 68 79
60 68 79
58 66 77
60 68 79
61 69 80
58 66 77
59 67 78
59 68 79
59 67 77
60 69 79
59 67 77
59 68 78
60 68 78
58 66 77
60 68 79
59 67 78
60 67 77
59 67 77
60 68 79
60 68 78
58 66 77
59 68 79
60 68 78
59 67 77
59 67 78
60 68 78
59 67 77
61 69 79
58 65 76
60 68 78
59 66 77
59 67 78
58 66 77
59 67 78
59 67 78
60 68 78
59 66 77
57 65 75
59 67 78
59 67 77
59 67 78
58 66 77
57 65 76
57 65 75
58 67 78
58 66 76
59 67 78
59 67 77
58 65 75
60 68 79
58 66 77
57 65 75
58 65 76
58 66 76
58 66 77
58 66 76
57 65 76
58 66 76
58 67 78
59 67 78
56 64 74
59 67 77
58 66 76
59 67 77
58 66 77
56 64 74
57 65 75
58 66 76
58 66 77
58 66 76
56 64 74
57 65 75
58 65 76
58 65 75
58 66 76
58 66 76
57 65 76
56 64 74
56 64 75
58 65 75
55 63 73
57 66 76
56 64 74
57 64 74
57 65 75
55 62 72
55 63 72
56 64 74
55 63 73
56 64 74
55 63 73
57 64 74
56 63 73
54 61 70
56 64 74
55 62 72
56 63 73
54 61 71
54 61 71
55 63 73
52 59 68
55 62 72
53 61 70
54 62 71
55 63 73
56 63 73
51 58 67
55 62 72
55 62 72
54 61 70
53 60 69
56 63 73
52 59 69
55 62 72
55 63 73
53 60 69
52 59 68
52 59 68
54 62 71
53 61 70
52 59 69
53 60 69
54 61 70
56 63 73
51 57 66
54 62 71
52 59 68
52 59 68
51 58 67
52 59 68
53 60 70
51 57 65
50 57 65
49 56 65
55 61 70
50 57 66
54 61 70
48 55 63
50 57 66
51 57 65
49 56 65
49 55 64
49 56 64
49 55 64
49 55 64
47 53 61
46 52 60
51 57 65
52 59 67
48 54 63
47 53 61
45 51 59
50 57 65
48 54 61
49 55 64
46 52 60
48 54 62
47 53 61
48 54 62
47 53 61
47 53 61
45 50 57
45 52 60
43 49 56
43 49 56
48 55 63
41 46 53
45 50 58
44 49 56
47 53 60
47 53 60
45 51 58
49 55 63
46 52 59
46 52 59
45 51 58
48 54 63
43 48 55
46 52 60
43 48 55
42 48 55
41 46 52
46 52 59
43 49 55
40 45 52
41 45 52
40 45 52
41 45 52
44 49 56
43 48 56
42 47 54
44 49 57
44 49 56
44 49 56
44 49 56
43 48 55
39 44 50
42 48 55
42 47 53
43 47 54
44 49 57
41 46 52
41 46 52
45 50 57
42 47 54
41 46 53
42 47 54
40 45 51
41 45 52
45 50 57
41 46 52
40 45 51
43 48 55
43 48 55
44 49 56
43 49 56
41 46 52
45 50 57
41 46 52
44 49 56
44 49 57
44 50 57
37 42 48
44 49 57
42 47 54
39 44 50
39 44 50
40 45 52
47 52 60
44 50 57
46 52 59
44 49 57
42 47 54
42 47 54
49 55 63
45 50 58
45 50 58
47 53 61
47 53 61
46 51 58
46 52 60
44 50 57
46 52 60
48 54 63
47 53 61
45 50 58
52 58 67
47 53 61
50 56 65
48 54 62
48 54 62
45 51 58
47 53 61
49 56 64
52 59 68
46 52 60
50 57 66
49 55 63
49 56 64
47 53 61
50 56 65
48 54 63
52 59 67
48 54 62
48 55 63
51 58 68
50 57 66
51 57 66
53 61 70
52 58 67
52 59 68
53 60 68
51 57 66
53 60 69
51 58 67
52 59 69
48 55 63
53 61 71
53 60 69
51 57 66
53 60 69
48 55 63
52 59 69
51 58 66
55 62 72
53 60 69
54 61 70
55 62 72
55 62 72
52 60 69
50 56 65
54 62 71
56 63 73
56 63 73
54 61 71
54 62 71
56 63 73
53 60 69
52 59 69
53 60 70
52 60 69
55 62 72
55 62 72
54 61 70
54 62 71
57 64 74
56 63 74
57 65 75
53 60 69
54 61 71
55 62 72
57 65 74
56 64 74
53 61 71
58 65 76
54 61 71
56 64 74
56 64 74
57 64 74
55 63 73
57 65 75
56 63 73
58 65 76
58 66 76
57 64 74
56 64 74
55 63 72
59 66 77
57 65 75
57 64 74
58 66 76
57 65 75
57 65 75
57 65 74
59 67 77
58 66 76
58 66 77
57 65 75
57 65 76
57 65 75
58 66 77
57 65 75
60 67 77
57 65 75
57 65 75
58 66 77
59 67 78
59 67 77
59 67 78
58 66 76
59 67 78
56 64 74
58 65 75
58 66 77
58 66 76
59 67 77
59 67 77
58 65 76
59 67 77
59 67 78
60 68 79
57 66 76
58 66 76
57 65 75
60 67 78
58 66 77
60 68 79
59 67 77
58 66 76
59 67 77
57 65 75
58 66 77
59 67 78
59 66 77
59 67 78
59 67 78
59 67 78
58 65 75
57 65 75
58 66 77
59 67 78
58 67 77
60 68 78
58 65 76
59 67 78
59 68 78
60 68 78
59 67 78
60 68 78
59 67 78
59 67 78
60 68 78
59 67 78
59 67 78
60 68 78
59 68 78
59 67 77
61 69 80
60 68 79
60 69 80
61 69 80
59 67 77
60 68 79
60 68 78
59 67 78
60 69 79
60 68 79
59 67 77
59 67 78
60 68 78
60 68 79
60 68 79
59 67 78
59 68 79
60 68 79
61 69 80
58 66 77
59 67 77
59 67 77
57 65 76
60 68 79
59 67 78
58 66 76
58 66 76
57 65 75
60 68 79
59 68 79
59 67 77
57 65 76
60 68 79
56 64 75
60 68 79
59 67 77
60 68 79
60 68 79
59 67 77
56 64 75
59 67 78
59 67 78
59 67 77
57 65 75
59 67 78
58 66 76
57 65 76
59 67 78
57 65 75
58 66 76
58 67 77
57 66 76
59 67 78
57 65 75
57 65 76
58 66 76
59 67 77
58 66 76
57 64 74
56 63 74
58 66 77
57 65 76
58 66 77
59 67 77
57 65 75
58 66 77
59 67 78
57 65 75
59 67 77
58 66 76
58 66 77
58 66 76
56 64 74
58 66 77
58 66 76
56 64 73
54 61 71
56 63 73
58 66 76
55 63 72
56 63 73
56 63 73
57 65 75
55 63 73
56 64 74
57 65 75
55 63 73
58 65 75
53 61 70
56 64 74
57 65 75
54 62 71
57 64 74
59 66 76
57 65 75
54 62 72
55 63 73
55 63 73
55 63 73
52 60 69
53 60 70
54 61 71
54 61 71
56 63 73
54 62 72
54 62 71
56 64 74
55 62 72
52 59 68
54 62 71
53 60 70
54 61 71
53 60 70
54 61 71
53 60 70
52 59 68
55 62 72
53 61 71
54 61 70
54 61 70
52 60 69
55 62 72
52 59 68
52 60 69
52 58 67
52 59 68
52 58 67
54 61 71
54 62 71
53 60 69
52 59 68
49 56 64
46 53 61
54 61 71
52 59 68
52 59 68
50 57 65
50 56 64
51 57 66
49 56 65
50 57 66
51 58 67
52 59 67
50 56 64
47 53 61
51 58 67
51 58 67
50 56 64
48 54 62
50 57 65
46 52 59
44 50 58
47 53 61
49 55 63
47 54 62
48 54 63
50 56 65
48 54 62
51 57 65
50 56 65
48 54 62
47 53 62
49 55 63
46 51 59
44 49 57
48 55 63
50 56 64
45 51 58
47 52 60
46 52 60
46 51 58
43 48 54
45 51 58
43 49 56
46 52 60
44 49 57
46 52 60
44 49 55
48 54 62
43 48 55
43 49 56
47 53 60
42 47 54
47 53 60
47 53 61
47 52 60
46 52 60
40 45 52
41 46 52
44 49 56
45 51 58
43 48 55
44 50 57
41 46 53
44 49 56
43 49 55
41 46 53
42 47 54
46 51 58
46 52 60
42 47 54
43 48 54
42 47 54
48 54 62
43 49 56
39 44 51
42 48 54
46 52 59
41 46 53
43 48 54
43 48 55
42 48 55
42 47 54
42 47 54
44 49 56
47 52 60
44 49 56
44 50 57
42 47 54
40 45 51
48 54 62
45 51 58
44 49 56
44 49 57
41 46 53
42 47 54
41 46 53
47 52 60
48 53 61
46 52 60
44 49 56
48 54 62
46 51 58
44 50 57
48 54 62
47 52 60
42 47 54
46 52 59
45 50 58
45 51 58
47 53 61
49 55 63
48 53 61
45 50 58
45 51 59
46 52 60
49 55 63
46 52 60
47 53 61
45 51 58
48 55 64
48 55 63
51 58 67
47 53 61
51 58 67
50 57 66
49 55 63
49 55 64
52 59 69
49 55 63
52 59 68
50 57 65
48 54 63
48 55 63
48 54 63
49 56 64
50 57 65
50 57 65
51 58 67
50 57 66
51 57 66
52 59 68
49 55 63
50 57 65
51 58 67
52 59 69
52 59 68
52 59 69
52 59 68
51 58 67
52 59 68
54 61 71
54 61 71
48 55 64
52 60 69
54 62 71
53 59 68
49 56 64
55 63 72
55 62 71
55 63 72
54 61 71
54 61 71
53 60 69
54 61 70
52 59 68
56 64 73
53 60 69
55 63 73
55 62 72
54 61 71
55 63 72
54 61 70
54 62 72
56 63 72
56 63 74
54 61 70
57 65 75
54 61 71
57 65 76
55 62 72
56 64 74
55 63 73
54 62 72
53 60 70
53 60 69
55 63 72
54 62 72
56 64 74
57 65 75
54 62 71
55 62 72
58 66 76
56 64 75
60 67 78
58 67 78
56 64 74
57 66 76
57 65 76
57 65 75
59 67 77
57 65 75
57 66 76
56 64 74
60 67 78
56 64 74
57 65 75
55 62 72
54 62 72
56 63 73
58 66 76
56 64 74
58 66 77
58 66 76
58 66 76
59 68 79
57 64 74
56 64 74
60 68 78
57 65 75
58 66 76
59 67 77
58 66 76
58 66 77
56 64 74
56 64 74
60 68 78
57 65 76
58 66 76
57 65 75
59 67 77
59 67 77
59 67 77
59 67 77
57 65 75
59 67 78
60 68 79
60 68 78
59 67 78
57 65 76
59 67 77
56 64 74
58 66 77
59 67 77
58 66 77
60 68 79
58 66 77
59 67 78
58 66 77
57 66 76
60 68 79
57 65 76
61 69 80
60 68 79
60 68 79
60 69 80
59 67 78
60 69 80
60 67 78
59 67 78
58 66 76
60 68 79
60 68 78
60 68 79
59 68 78
59 67 77
59 68 78
59 67 78
60 68 78
59 67 77
58 66 77
58 66 76
60 68 79
58 66 77
59 68 79
59 67 77
60 68 79
60 68 79
61 69 80
59 67 78
59 67 78
60 68 79
59 67 77
60 67 78
61 69 80
60 69 80
59 67 77
59 67 78
59 67 78
59 67 78
61 69 80
59 66 77
58 66 76
58 66 76
58 66 77
60 69 80
59 67 77
59 67 78
60 68 79
58 66 77
59 67 77
59 68 78
59 67 78
58 66 76
59 67 77
58 66 77
58 66 77
59 67 77
59 68 78
58 66 76
58 66 77
58 66 77
58 66 76
58 66 77
58 66 77
60 68 79
59 67 78
58 66 76
59 66 76
59 67 77
59 67 77
58 66 77
59 67 77
60 67 77
58 66 76
58 66 77
58 66 76
60 67 78
59 67 78
57 65 75
59 67 77
58 65 76
58 67 77
58 66 76
57 65 75
58 66 76
57 65 75
59 67 77
58 65 75
58 65 75
57 65 75
58 66 76
58 66 76
57 65 75
58 66 76
57 65 75
56 63 74
56 64 74
56 64 74
59 67 77
57 65 75
57 65 75
55 63 73
59 66 76
59 67 77
59 67 77
56 63 73
55 62 71
56 64 74
55 62 71
56 64 74
56 64 73
57 65 75
56 63 73
57 64 74
57 65 74
54 61 71
55 63 73
56 64 74
55 62 72
53 60 70
56 63 73
57 64 74
55 63 73
54 61 71
52 59 68
56 64 74
53 60 70
56 64 74
56 63 73
52 59 68
53 61 71
52 59 69
51 58 67
51 58 67
53 60 69
52 59 68
56 64 74
51 58 67
52 59 69
54 61 71
53 60 69
53 60 69
52 60 69
54 61 71
55 63 72
53 60 69
50 57 65
53 60 69
53 61 70
53 60 69
51 58 67
48 54 63
51 58 67
50 56 65
50 57 65
51 58 67
50 56 65
52 59 68
51 58 67
47 54 63
49 55 64
51 58 67
51 58 66
49 55 64
50 56 65
52 59 68
49 55 64
48 55 63
50 57 65
52 59 68
50 57 65
50 56 64
48 54 63
52 58 67
49 56 64
51 57 66
51 57 65
48 54 63
48 54 62
48 54 63
48 54 62
48 54 62
48 54 63
43 49 56
47 53 60
46 52 59
47 53 61
48 54 62
46 52 60
45 51 58
48 54 62
47 52 60
46 51 59
45 51 59
43 48 56
43 49 56
44 50 58
43 48 55
44 49 56
48 54 61
46 52 59
44 50 57
46 52 59
44 49 57
47 53 61
43 48 55
42 48 55
44 50 57
43 48 56
43 48 55
44 50 57
42 47 54
45 51 58
42 48 55
48 54 62
46 51 58
46 52 59
38 43 49
43 48 55
39 43 49
43 49 56
44 49 56
44 49 56
42 47 54
43 48 55
47 53 60
46 51 59
46 52 60
44 50 57
45 50 57
42 47 54
43 49 56
40 45 52
46 52 60
44 50 57
43 48 56
44 49 56
44 50 58
43 49 56
42 47 54
45 51 59
45 51 59
41 46 52
46 51 59
47 53 60
44 49 56
43 49 56
43 48 56
48 54 62
44 49 57
47 52 60
44 49 56
42 47 54
49 55 63
45 51 58
48 54 62
47 53 61
44 49 57
47 53 61
47 53 60
47 53 61
47 53 61
49 55 64
47 53 61
47 53 60
51 58 66
50 56 65
46 52 60
48 54 62
51 57 66
50 56 65
47 53 61
48 54 62
48 54 62
49 56 64
47 53 61
51 57 66
50 57 65
47 53 61
51 58 67
48 54 63
54 60 69
52 58 67
52 59 68
47 53 61
53 60 69
52 58 67
49 56 64
53 60 69
51 57 66
50 56 65
52 59 68
52 58 67
51 58 67
53 59 68
56 63 73
53 60 69
53 60 69
54 61 71
53 60 69
52 59 68
52 59 69
54 61 70
51 58 67
54 61 71
55 63 73
53 60 69
55 62 72
54 61 70
53 60 70
54 61 71
52 59 68
51 58 67
53 61 70
55 62 71
52 59 68
54 61 70
56 63 72
58 65 75
54 61 70
56 64 74
53 60 70
57 65 75
53 60 69
55 63 72
54 62 72
54 61 71
58 65 75
55 63 73
55 62 72
55 63 72
55 63 73
56 64 75
54 61 71
55 63 73
56 64 74
54 61 71
58 65 75
58 65 75
57 65 75
58 65 75
59 66 76
55 63 73
56 63 73
56 64 74
57 64 74
59 67 78
58 66 76
57 65 75
58 66 76
56 64 75
57 65 75
55 63 73
58 65 76
52 59 69
58 66 76
57 65 75
58 66 76
58 66 76
57 65 75
57 65 75
58 66 76
58 66 76
57 65 76
57 65 75
59 67 77
58 66 77
56 64 74
57 65 75
58 65 75
59 67 78
59 67 77
58 66 77
57 65 75
57 65 75
57 65 76
59 67 78
60 68 79
59 68 78
58 66 77
59 67 77
60 68 78
58 66 77
60 68 78
57 65 76
58 66 76
58 66 77
59 67 78
59 67 78
59 67 78
59 68 78
59 67 78
60 68 79
59 67 77
60 68 78
59 67 78
60 68 79
58 66 77
59 67 78
60 68 79
59 67 77
60 68 79
60 68 79
59 67 78
58 66 77
60 68 79
60 68 78
59 67 78
59 67 78
59 67 78
60 68 79
60 68 78
59 67 78
61 68 79
60 68 79
59 67 78
58 67 77
60 68 78
59 67 77
60 68 79
60 68 79
60 68 78
58 66 77
61 69 80
60 68 79
59 67 78
58 66 76
60 68 78
60 69 80
60 68 78
59 67 78
58 67 77
60 68 79
60 69 79
59 67 78
59 67 78
59 67 77
59 67 78
60 68 78
59 67 77
58 66 77
59 67 78
58 66 76
58 66 76
60 68 79
59 67 78
60 68 79
58 66 77
59 67 78
60 68 79
58 67 77
59 67 78
59 67 78
59 67 78
59 67 78
59 67 78
58 66 76
59 67 77
59 67 78
58 66 77
59 67 77
57 65 75
59 67 77
57 65 76
58 66 76
60 68 78
57 65 75
59 67 78
58 66 76
59 67 77
56 64 74
57 65 75
59 67 77
58 65 75
56 64 75
57 65 75
58 66 77
58 66 77
56 64 74
58 66 76
57 65 76
56 64 74
56 64 74
60 68 79
57 65 75
59 67 78
57 64 74
58 65 76
59 67 77
59 67 78
57 64 75
55 62 72
57 64 74
59 67 77
57 65 75
56 64 74
54 62 71
57 65 75
57 65 75
57 64 74
57 65 75
57 64 74
59 67 77
58 66 76
57 65 76
58 66 76
58 66 76
58 66 76
55 63 73
56 64 74
57 64 74
56 64 74
54 62 71
55 63 73
58 65 75
54 62 72
54 61 71
54 61 70
55 63 73
56 64 73
55 63 73
57 65 76
55 63 73
55 62 72
55 62 72
57 65 75
56 64 74
54 61 71
54 61 71
55 63 73
54 62 71
54 62 72
54 61 71
53 60 69
52 59 68
53 61 70
55 62 72
53 60 69
55 62 71
52 58 67
53 60 69
52 59 69
54 61 71
51 58 67
55 62 72
54 61 70
52 59 68
53 60 69
51 58 67
53 60 69
54 61 71
53 60 68
49 56 64
50 57 65
51 58 68
51 57 66
51 58 67
51 58 67
53 60 69
49 56 64
48 54 63
51 57 66
52 59 68
50 57 65
52 59 68
49 55 64
49 56 65
51 57 66
45 51 59
50 57 66
46 53 61
48 54 63
48 54 62
50 57 65
44 50 57
49 55 63
50 57 65
47 53 61
47 53 61
46 52 60
52 59 67
47 53 61
46 52 60
48 54 62
45 51 59
47 52 60
48 54 62
42 47 55
42 48 55
42 46 53
46 52 60
44 49 56
47 54 62
45 51 58
45 50 58
45 50 57
42 48 55
46 52 60
46 52 60
44 50 57
47 52 60
49 55 63
47 52 60
48 54 62
41 46 52
44 49 57
42 47 54
43 49 56
46 51 59
42 47 54
43 48 55
42 47 54
39 44 50
44 50 57
47 53 60
43 48 55
44 50 57
45 50 57
39 44 50
44 49 56
43 48 55
46 51 58
43 48 55
42 47 54
46 51 59
47 52 60
43 49 56
41 47 53
46 51 58
43 49 56
51 57 65
45 51 58
47 53 61
44 50 57
43 48 55
44 50 57
40 45 51
46 52 60
45 50 57
43 49 56
47 52 60
45 50 57
46 51 59
43 49 56
45 51 58
42 47 54
43 49 56
45 50 57
45 51 58
49 55 63
44 50 58
47 53 61
49 55 63
48 54 61
48 54 62
46 52 59
42 48 55
49 55 63
48 54 62
46 53 61
50 56 65
44 49 56
51 57 65
44 50 57
44 50 58
48 54 62
48 54 62
48 54 63
48 54 63
52 59 68
47 53 61
51 57 66
47 53 61
45 50 58
48 54 62
47 53 62
50 56 65
48 54 62
51 57 66
51 58 67
51 58 66
49 56 64
51 58 67
52 59 68
52 59 68
48 54 62
50 57 65
52 58 67
50 56 65
50 57 65
52 59 69
47 53 61
52 59 67
54 61 71
51 58 67
51 57 66
53 60 69
52 59 68
51 58 66
56 63 73
51 58 67
52 59 68
53 61 70
50 57 65
50 57 67
53 59 68
53 60 69
55 62 72
56 63 73
54 62 71
56 63 73
55 62 72
53 61 71
54 61 70
54 62 71
57 64 75
51 57 66
54 62 72
56 64 74
52 59 68
55 63 73
55 63 73
56 64 73
55 62 71
56 64 74
58 65 76
54 62 72
56 63 72
55 63 73
55 63 73
57 65 75
55 62 72
55 63 73
56 64 74
55 62 71
55 62 72
55 63 72
58 66 77
58 66 76
56 63 73
56 63 74
55 63 73
57 65 76
55 63 73
58 65 76
55 63 72
56 64 74
57 65 76
55 63 74
58 66 76
57 65 75
57 65 75
58 66 76
59 67 77
56 64 74
57 65 75
56 64 74
57 65 76
57 65 76
56 64 74
58 66 76
57 64 74
57 65 75
59 67 77
57 65 76
57 65 75
57 65 76
56 64 74
59 67 78
58 66 76
58 67 78
58 65 75
56 64 74
58 65 76
56 64 74
59 67 77
57 65 75
58 67 77
55 63 73
60 68 78
59 67 77
58 66 76
58 66 76
59 67 78
59 67 77
59 67 78
60 68 79
59 67 78
60 68 79
59 67 77
60 68 79
59 67 77
60 68 79
61 68 78
59 67 77
58 66 77
60 67 78
59 67 78
57 66 76
60 68 78
59 67 78
58 66 77
60 68 79
58 65 76
57 65 76
58 67 77
59 67 77
59 67 78
59 67 78
59 67 78
60 68 79
59 67 78
60 68 79
60 68 79
59 67 78
57 65 75
58 66 77
59 67 77
59 68 79
60 68 79
60 68 79
59 67 78
59 67 77
60 69 80
59 67 77
60 69 79
60 67 78
60 69 80
59 67 77
59 67 77
60 68 79
58 66 77
60 68 78
60 68 79
59 67 77
59 67 78
58 66 77
59 67 77
59 67 78
60 69 79
59 67 78
61 68 79
59 67 78
60 68 78
59 67 77
58 66 76
59 67 78
59 67 78
59 67 78
59 67 77
58 66 77
59 67 77
59 67 78
57 65 75
58 66 76
60 68 79
58 66 77
59 67 77
58 66 76
59 67 77
58 66 76
58 66 76
58 66 77
56 64 74
59 67 78
59 67 78
59 67 78
58 66 77
59 67 78
58 66 77
58 66 76
58 66 77
55 63 72
57 65 76
60 68 78
57 65 75
57 64 74
57 65 76
58 67 77
58 66 76
59 67 77
56 64 74
59 67 77
58 66 77
57 65 76
58 66 76
56 64 74
56 64 74
57 65 75
58 66 77
56 64 74
57 65 75
58 66 76
58 66 77
57 65 75
58 66 76
56 64 74
58 66 76
58 66 76
56 64 74
56 64 74
58 67 77
56 64 74
56 63 73
56 64 74
56 64 74
56 64 74
55 63 72
55 63 73
54 61 71
54 62 72
58 66 76
56 64 74
55 62 72
54 62 71
54 61 71
54 62 72
56 64 74
55 63 73
55 62 72
58 66 76
52 60 70
54 62 72
57 65 75
54 61 71
56 63 73
53 60 70
54 62 71
57 64 74
56 63 73
54 62 71
56 64 74
52 59 68
57 64 73
54 61 70
53 60 69
53 60 69
55 62 72
53 60 69
53 60 69
53 60 69
54 61 71
51 58 67
55 62 71
52 59 68
53 60 69
51 58 67
53 60 69
51 58 67
54 61 70
54 61 71
52 59 69
49 56 65
52 59 68
53 59 68
52 59 68
49 56 64
53 60 70
49 56 65
52 59 68
54 61 70
49 55 64
49 55 63
48 54 62
51 57 66
51 57 66
48 54 62
49 55 64
50 57 66
50 57 66
49 55 63
51 58 67
51 57 66
51 58 66
47 53 61
48 55 63
45 51 58
48 54 62
46 51 58
48 54 63
50 57 65
48 54 62
52 58 67
49 54 62
47 53 61
47 54 62
48 55 63
48 55 63
47 52 60
46 52 59
48 54 62
47 52 60
46 52 60
48 54 62
49 55 64
47 53 61
47 53 60
47 53 61
43 48 56
45 51 58
46 52 59
41 46 52
44 50 57
45 50 58
43 49 56
43 49 56
43 48 55
43 48 55
46 52 60
48 53 61
44 49 57
46 52 60
48 54 62
45 51 59
43 49 56
43 49 56
46 52 60
43 48 55
42 47 54
42 47 54
44 50 57
44 49 56
43 48 56
44 50 57
45 51 58
44 50 57
44 49 56
45 50 58
48 54 62
44 49 56
46 51 58
48 53 60
45 51 58
46 51 58
38 42 48
42 47 54
44 49 56
46 52 59
42 48 55
48 53 61
43 48 55
43 48 55
46 52 59
43 48 55
44 49 56
48 54 62
47 53 61
46 52 60
46 52 59
44 50 57
47 53 61
48 55 63
45 51 58
47 52 60
45 51 59
45 51 59
46 51 59
45 51 58
46 52 60
47 53 61
45 51 59
48 54 62
47 53 61
46 52 60
49 56 65
44 50 58
53 59 68
47 53 61
52 58 66
49 55 63
49 55 64
47 54 62
48 54 61
54 61 70
49 56 65
49 56 64
51 57 66
51 58 67
50 56 65
52 59 68
50 56 64
50 57 66
49 56 65
51 58 67
52 58 67
51 58 67
52 59 68
51 58 67
51 57 66
53 60 70
50 56 65
52 59 69
51 58 67
51 58 66
53 60 69
50 56 65
51 57 66
50 57 66
52 59 69
53 60 70
52 59 68
51 58 67
50 56 65
53 61 70
55 62 71
51 58 67
54 61 71
54 61 71
55 62 72
54 61 71
55 62 72
53 60 68
51 58 67
55 62 72
55 62 71
51 58 67
53 61 71
54 62 72
55 62 71
53 60 69
56 64 74
55 63 73
56 64 73
55 63 73
52 59 68
56 64 74
56 64 75
55 63 72
52 60 69
54 61 70
55 63 73
55 62 72
55 62 72
56 63 72
55 62 72
56 63 72
57 64 75
55 63 73
55 63 73
54 61 71
58 65 76
56 64 73
56 64 74
54 62 71
59 67 77
56 64 74
56 64 73
56 64 74
57 65 75
59 67 77
55 63 73
57 65 75
55 63 73
59 67 77
59 67 77
57 65 75
55 64 74
56 64 73
56 63 73
58 66 76
57 65 75
58 66 76
59 67 77
55 63 73
57 65 75
58 66 76
58 66 76
58 66 77
57 65 76
55 62 71
57 65 76
56 64 74
58 66 76
59 67 77
58 66 77
57 65 76
59 67 77
58 66 76
59 67 77
59 67 77
60 68 79
59 67 77
58 66 76
57 65 76
59 67 77
58 66 76
58 65 76
59 67 78
58 66 76
59 67 78
60 68 79
58 66 76
59 67 78
59 67 77
59 67 78
59 67 77
60 68 79
59 66 76
58 66 76
59 67 78
59 67 78
59 67 78
60 68 79
59 67 78
60 68 79
59 67 78
60 68 79
59 68 78
59 67 77
58 66 76
59 66 76
60 68 79
58 66 77
61 69 80
59 68 78
59 68 78
60 69 79
59 67 78
59 67 78
59 67 78
60 69 80
59 68 78
59 67 78
60 68 79
60 68 79
59 67 77
59 67 77
60 68 79
58 66 77
59 67 77
58 66 77
60 68 79
60 68 79
58 66 76
57 65 76
60 68 78
58 66 76
60 68 79
58 66 76
59 67 78
60 68 78
58 66 76
59 67 78
60 68 79
58 66 77
59 67 78
59 67 77
60 68 78
59 67 77
58 66 76
58 66 76
58 66 77
60 68 79
60 68 79
57 65 75
59 67 77
57 65 76
60 68 78
58 66 77
58 66 76
59 67 79
59 67 78
58 66 77
59 67 77
58 65 76
57 65 75
59 68 78
59 67 78
59 67 78
58 66 76
60 68 78
57 65 75
58 66 76
55 63 73
57 65 76
59 67 77
59 66 77
59 66 76
58 66 76
57 65 76
58 66 76
58 66 76
58 65 75
57 65 76
58 66 76
57 64 74
59 67 77
59 67 77
56 64 74
57 65 75
57 64 74
58 66 76
57 64 75
57 65 75
56 63 74
57 65 75
59 67 78
55 63 73
57 65 76
56 64 74
58 66 76
57 64 75
59 66 76
54 62 71
57 64 74
58 66 77
55 62 72
56 63 74
58 66 76
56 63 73
57 65 75
57 65 75
58 66 76
57 65 75
56 64 75
56 63 74
55 63 72
56 64 74
54 61 71
54 61 71
56 64 74
56 63 73
58 65 76
50 57 66
53 60 69
53 59 68
56 64 74
55 63 72
54 61 71
52 59 68
55 62 72
55 63 72
55 62 72
56 64 74
54 61 71
53 60 70
52 59 68
52 59 68
54 61 71
53 61 71
53 60 69
53 61 70
51 58 67
57 64 74
53 61 70
54 61 71
53 60 69
54 61 71
52 59 68
52 59 67
55 62 72
53 60 69
53 59 68
51 58 67
53 60 69
49 56 65
50 57 67
50 56 65
54 60 69
52 59 69
51 58 66
50 57 65
52 60 69
51 58 67
47 54 62
49 56 64
49 55 63
50 57 65
46 52 60
47 53 61
48 54 62
47 53 61
53 59 68
49 55 64
42 48 56
49 54 62
52 59 68
46 52 60
48 55 63
44 49 57
49 55 63
46 52 60
49 55 64
47 53 61
48 54 62
49 55 63
45 50 58
48 54 62
48 54 62
45 51 59
50 56 64
47 53 61
45 50 58
49 56 64
45 51 58
46 51 58
48 54 62
51 57 66
47 52 60
46 52 60
45 50 58
44 50 57
47 53 60
47 53 61
46 52 60
42 47 54
44 49 56
46 52 59
43 49 56
44 50 57
46 52 60
42 48 55
46 52 60
40 45 51
44 50 57
49 56 64
45 51 58
49 55 63
43 48 55
48 54 62
42 47 54
46 51 58
46 52 59
41 46 53
42 47 54
45 51 59
44 50 57
46 52 60
46 52 60
44 50 57
45 51 58
49 55 62
47 53 60
42 47 54
44 50 57
45 51 58
44 50 57
44 50 57
45 50 58
44 49 56
44 50 57
44 49 57
46 52 60
45 51 58
49 55 63
45 50 58
45 51 58
45 51 58
44 50 57
48 54 62
45 51 58
48 54 62
44 50 57
46 52 60
49 55 63
48 54 62
46 53 61
44 50 57
45 51 58
47 54 62
44 49 57
48 54 62
51 58 67
50 57 65
49 55 64
46 52 60
46 51 59
49 55 64
48 54 63
52 59 68
47 53 62
46 52 60
50 57 65
47 53 61
49 55 64
49 56 64
52 58 67
48 55 63
53 60 69
48 55 63
50 56 64
48 55 63
50 57 66
53 60 69
50 57 66
48 55 63
51 58 67
49 56 64
54 61 70
51 57 66
50 57 65
49 56 65
50 57 66
53 60 69
53 60 69
53 60 69
50 57 65
55 62 71
52 59 68
53 60 70
53 61 70
53 61 70
53 60 69
53 60 69
53 59 68
52 59 68
55 62 72
53 60 69
51 59 68
52 59 68
55 62 72
52 59 69
53 60 70
50 57 66
56 64 73
55 63 73
55 63 73
54 61 71
55 63 72
56 64 74
54 61 71
55 63 73
55 62 72
54 61 71
56 64 74
55 63 72
54 61 71
55 63 73
54 61 71
51 58 66
57 64 74
57 64 74
56 63 73
54 62 71
56 64 73
54 61 71
55 63 73
54 62 72
56 64 74
55 62 72
55 63 73
56 64 74
56 63 73
57 64 74
58 66 76
55 63 73
57 64 74
58 66 76
58 65 75
56 63 74
54 62 71
57 65 75
57 64 75
58 66 76
59 67 77
56 63 73
56 64 74
55 62 72
58 65 75
56 64 74
59 66 77
59 67 77
59 67 77
56 64 74
58 65 76
56 63 73
58 65 76
58 66 76
57 65 75
56 64 75
56 63 73
56 64 74
58 66 77
58 66 77
58 66 76
58 66 76
57 65 76
59 67 77
58 66 76
58 66 76
57 65 75
59 67 78
56 64 74
58 66 77
59 67 78
58 66 76
59 67 77
57 65 76
58 67 77
58 65 75
59 67 78
60 68 79
57 65 76
60 67 78
59 67 78
59 67 78
59 67 78
59 66 76
58 66 77
59 67 78
58 66 77
59 67 78
58 66 76
60 68 78
58 66 76
59 68 78
59 67 77
59 66 77
58 66 76
59 68 79
59 67 77
59 67 78
59 68 79
60 68 78
58 66 76
61 69 79
60 69 79
60 68 78
58 66 77
60 69 79
59 68 79
59 68 79
60 68 79
59 67 78
60 68 78
59 67 78
59 67 78
60 68 79
59 67 78
59 67 78
59 67 77
59 66 77
59 67 77
60 68 79
58 66 77
58 66 77
59 67 78
59 67 77
57 65 75
59 67 78
60 68 79
58 66 76
58 66 76
58 66 77
60 68 78
59 67 78
60 68 78
59 67 77
58 66 77
59 67 78
59 67 77
60 68 78
57 64 75
59 67 78
59 67 78
59 67 78
58 66 76
59 67 78
59 67 77
59 67 77
58 66 77
58 66 76
59 66 77
59 67 77
58 66 77
57 65 76
58 66 76
55 63 73
58 65 76
58 66 76
57 65 75
55 63 74
58 66 76
58 66 77
58 66 76
57 65 75
58 66 76
58 66 76
57 65 75
55 63 73
57 65 75
57 65 75
57 64 74
57 65 75
58 66 77
55 63 73
57 65 75
59 66 76
58 65 75
55 63 72
58 66 77
58 65 76
56 64 74
56 64 74
56 63 73
56 64 74
56 64 74
57 64 74
56 64 74
57 64 75
58 66 76
57 66 76
55 63 73
59 67 77
57 64 75
57 65 75
55 63 73
57 65 75
56 64 73
56 63 74
53 61 71
56 63 74
55 62 72
56 64 74
57 65 75
54 62 71
54 61 71
57 64 73
57 65 74
53 60 69
56 64 74
56 64 73
55 63 73
53 61 70
55 62 72
56 64 74
55 62 71
53 60 69
55 63 73
55 63 73
54 61 71
53 61 70
55 62 71
52 59 68
55 62 71
53 60 69
53 60 69
54 61 70
54 61 70
51 58 67
54 60 69
53 60 69
52 59 68
54 61 71
51 57 66
52 59 68
53 59 69
53 60 70
52 59 68
51 58 67
48 55 64
51 58 67
51 58 67
54 61 71
53 60 70
53 60 69
52 59 68
54 61 70
53 60 69
52 58 67
52 59 68
50 57 66
51 58 67
50 57 66
54 61 70
52 59 68
52 59 67
50 56 64
48 54 63
48 54 63
50 57 66
47 53 61
50 57 66
48 54 63
46 52 60
51 57 65
52 58 67
49 56 64
49 55 64
49 56 64
50 56 64
51 58 66
45 51 59
47 53 61
51 58 66
45 51 58
44 49 57
44 50 57
50 56 65
46 52 60
45 51 59
46 52 60
47 53 60
49 56 64
44 50 57
44 49 56
46 52 60
45 51 58
47 53 61
51 57 65
43 48 56
46 51 59
46 52 60
47 53 60
45 51 58
43 48 56
44 50 57
49 55 63
44 50 57
47 53 61
43 48 56
44 49 56
42 47 54
46 51 58
48 53 61
45 50 58
43 48 56
44 49 56
42 47 53
43 49 56
45 51 58
42 48 54
44 49 56
45 51 59
39 44 51
45 50 58
43 48 56
47 53 61
41 47 54
47 53 60
46 52 59
40 44 51
44 50 57
45 50 58
47 52 60
46 52 59
46 52 60
45 51 58
44 50 57
49 54 62
46 51 59
44 50 57
45 51 59
45 51 58
47 52 60
46 52 59
51 57 65
46 52 60
45 51 58
43 48 55
47 53 61
46 52 59
48 54 62
43 49 56
51 58 66
47 54 62
50 56 64
47 53 62
50 56 64
44 50 58
44 50 58
51 58 67
46 53 61
44 50 57
48 54 61
47 53 61
48 53 61
46 52 60
48 54 63
53 60 69
51 57 66
47 53 61
48 54 63
49 56 64
49 56 65
49 55 64
47 53 61
51 57 66
49 55 64
49 55 63
48 54 63
47 53 61
49 55 64
50 56 65
50 56 64
50 57 65
51 58 67
50 57 65
50 56 65
52 59 69
51 57 66
53 60 69
50 57 66
52 58 67
55 62 71
50 57 66
52 59 68
55 63 72
53 60 69
51 58 67
53 60 69
54 61 71
53 60 69
55 63 72
53 60 69
52 59 69
49 56 65
54 61 70
54 61 70
56 63 72
54 61 71
55 62 72
55 63 72
54 62 71
55 63 73
52 59 69
55 62 72
50 57 66
55 63 72
54 61 71
55 63 72
55 62 72
57 65 75
56 64 74
53 61 71
55 63 73
55 62 72
54 61 70
57 65 75
54 61 71
54 61 71
55 63 72
55 63 72
55 63 73
58 66 77
58 66 76
56 64 74
53 60 69
56 63 73
57 65 75
59 67 77
58 65 75
56 64 74
57 65 76
55 62 72
54 61 71
57 65 75
54 61 70
55 63 73
58 65 75
56 64 74
58 66 76
57 64 74
57 65 75
56 64 74
58 65 76
56 63 73
56 64 74
59 67 77
58 66 76
57 65 75
57 65 75
57 65 76
58 66 76
59 66 77
57 65 75
57 65 76
57 65 75
59 67 78
58 66 76
57 65 76
58 65 75
56 64 74
57 65 76
58 66 76
59 67 77
59 67 77
59 67 77
58 66 76
59 67 78
57 66 77
59 67 77
59 67 77
59 68 78
59 67 77
57 65 76
60 68 78
59 67 78
59 67 78
58 66 76
58 66 76
58 66 76
59 67 78
59 67 77
61 69 80
58 66 76
57 66 76
59 67 78
59 66 76
60 68 79
57 65 75
60 68 79
59 67 78
60 68 79
59 67 77
60 67 78
60 68 78
60 69 80
59 67 78
61 69 79
58 66 77
58 66 76
57 65 76
60 68 78
59 67 78
59 68 79
60 68 79
59 67 77
59 67 77
58 66 77
60 68 79
60 68 79
59 67 77
59 67 77
60 68 78
60 68 79
59 68 79
60 69 79
59 68 79
60 67 78
59 67 78
60 68 79
60 68 79
59 68 78
60 67 78
57 65 76
59 67 77
59 67 78
59 68 78
58 66 77
59 67 78
58 67 77
58 67 77
59 67 78
60 69 79
59 67 77
57 65 76
58 66 77
57 65 75
59 67 77
60 68 78
59 67 78
60 68 79
60 68 78
57 65 76
60 68 78
59 67 78
58 66 76
58 66 76
59 67 78
59 67 77
59 66 77
57 65 75
58 66 77
58 66 76
58 66 76
59 67 77
57 65 75
57 65 75
59 68 78
58 66 77
56 63 74
58 66 77
58 66 76
59 67 78
58 66 77
57 65 75
58 66 76
58 66 76
58 66 77
57 65 75
56 64 74
59 67 78
58 66 76
57 66 76
59 67 77
59 67 78
56 64 74
57 64 74
55 63 73
57 65 75
57 65 75
57 64 75
57 65 75
53 61 70
58 66 76
56 63 73
57 64 75
54 61 71
56 64 74
57 65 75
56 64 74
55 62 71
55 63 73
57 65 74
57 65 75
56 64 74
56 63 73
55 62 72
56 63 73
52 60 70
54 61 70
57 65 75
56 64 74
54 61 70
55 63 73
56 64 73
54 61 71
54 62 72
54 61 71
56 64 74
55 63 72
54 62 71
54 61 70
56 64 74
55 62 71
54 61 71
53 60 69
55 62 72
52 60 69
54 61 71
56 63 72
54 61 71
57 64 73
55 62 72
53 60 70
53 60 69
53 60 69
51 58 67
51 58 66
54 61 71
55 62 72
53 60 70
51 57 65
52 59 68
52 59 69
53 60 69
51 58 67
52 59 68
52 59 68
53 60 69
51 57 65
53 60 70
52 59 68
50 57 66
52 59 68
51 58 66
50 57 65
50 57 66
52 58 67
52 59 68
47 53 61
50 57 65
51 57 66
50 57 66
50 57 66
53 59 68
48 55 63
50 56 65
51 57 66
51 57 66
50 56 65
48 54 63
49 55 64
49 55 64
49 55 63
46 52 60
52 59 67
48 55 63
49 55 63
47 54 62
47 54 62
50 57 66
51 57 66
47 54 62
46 52 60
50 56 65
47 54 62
48 54 62
50 56 64
49 55 62
45 51 58
43 49 57
47 53 60
48 54 62
46 52 59
48 54 62
43 49 57
50 56 64
47 53 61
45 51 58
43 49 56
46 52 60
47 53 60
46 52 59
43 49 56
45 51 58
47 53 61
43 48 55
42 47 54
45 51 58
46 52 60
47 53 61
43 49 56
48 54 61
45 50 57
45 51 59
47 52 60
44 49 57
45 50 58
44 50 57
48 54 61
41 46 52
44 50 57
44 50 57
46 51 59
47 53 61
46 52 59
42 48 55
43 48 56
48 54 62
44 49 56
45 51 58
45 51 58
43 48 55
43 48 56
46 52 59
43 48 55
45 51 58
46 52 60
44 49 56
48 54 61
48 54 62
46 52 59
49 55 63
50 56 64
45 50 58
46 51 59
46 51 59
50 56 64
44 50 57
44 49 57
46 52 59
47 53 61
49 56 64
49 55 63
46 52 60
50 57 65
48 54 62
44 50 57
44 49 57
44 50 58
48 54 62
45 51 59
51 57 65
50 57 65
47 54 62
46 52 60
48 53 61
47 53 61
50 56 65
48 55 63
47 53 61
49 55 63
51 57 66
46 52 59
50 57 65
50 56 65
50 57 65
49 55 64
48 54 63
51 57 66
52 59 68
51 58 67
52 59 68
50 57 66
51 57 66
48 54 62
49 56 65
53 60 70
55 62 71
52 59 68
51 58 67
54 61 70
52 59 68
51 58 67
50 56 64
52 58 67
53 60 70
54 61 70
53 60 69
51 58 68
54 61 70
51 58 67
56 63 73
54 62 71
50 57 66
52 59 69
53 60 69
56 63 73
52 59 68
51 58 68
53 60 69
55 63 72
55 62 72
56 63 73
55 62 72
52 60 69
54 61 71
54 62 71
56 63 73
56 64 74
54 62 72
54 61 71
56 63 73
56 63 73
57 64 74
56 64 74
56 64 74
52 59 68
54 61 71
56 63 74
53 60 70
57 64 74
56 63 73
55 63 72
57 64 74
57 65 76
58 66 76
55 63 73
54 62 71
56 63 74
57 66 77
56 64 74
57 65 75
56 64 74
57 65 75
57 64 74
55 63 73
56 63 73
55 63 73
57 64 74
54 62 72
55 62 71
59 67 78
58 66 76
57 65 75
55 63 72
58 66 76
58 65 76
57 65 75
58 66 76
59 67 77
58 66 76
59 67 77
58 66 76
56 64 74
58 66 76
58 66 76
59 67 77
57 65 75
58 66 76
57 65 75
56 64 74
59 67 77
57 65 75
60 68 78
59 67 78
57 65 75
57 65 75
59 67 77
59 67 77
57 64 75
59 67 77
56 64 75
57 65 76
59 67 78
58 66 76
59 67 78
58 66 76
57 65 76
59 67 77
59 66 76
58 66 76
58 66 77
58 66 76
59 67 77
59 67 77
58 66 76
60 69 80
59 67 78
59 67 77
59 67 77
58 66 76
59 67 77
59 67 77
57 65 75
60 68 79
60 68 78
60 68 78
58 66 76
58 66 76
59 67 78
60 68 79
58 66 77
59 67 78
59 68 78
59 67 77
59 67 78
60 68 79
59 67 78
59 68 78
59 67 77
58 66 77
61 69 80
59 67 77
58 66 77
60 69 79
60 68 78
60 68 79
60 68 79
59 67 78
59 66 77
58 66 77
59 67 77
58 66 77
60 69 79
59 67 77
58 65 76
58 67 77
58 66 77
59 67 78
58 66 77
59 68 79
59 68 78
57 65 75
59 67 77
57 65 76
59 67 77
59 67 78
58 66 76
59 67 77
59 67 78
59 67 78
58 66 76
59 67 78
58 66 77
59 67 77
58 67 78
59 67 78
58 66 76
59 67 78
60 68 79
59 67 78
61 69 79
56 64 74
58 65 76
57 65 75
59 66 77
58 66 77
57 65 76
57 65 74
56 64 74
59 67 78
57 65 76
57 65 76
59 68 78
57 65 76
54 62 71
56 64 74
57 66 76
57 65 76
58 66 76
56 63 73
57 65 75
56 63 73
57 64 74
58 65 76
58 67 77
58 65 76
57 65 75
57 65 75
57 65 75
55 63 72
56 64 73
57 64 74
55 62 72
58 66 76
57 66 76
57 65 76
56 64 74
57 65 75
57 65 75
56 64 74
58 65 76
55 62 72
55 62 72
55 62 72
55 63 73
56 63 73
56 63 73
56 63 72
56 63 74
56 64 74
57 65 74
56 64 74
56 64 74
56 64 74
56 64 74
55 63 73
53 61 71
53 61 71
54 62 71
56 64 74
53 60 69
57 65 75
55 62 71
55 62 72
52 59 69
54 61 71
54 61 70
52 59 68
54 61 70
53 61 70
52 59 68
53 61 70
50 56 65
51 59 68
51 58 66
52 59 68
55 62 71
53 60 69
53 60 70
50 57 66
50 57 65
52 59 69
52 59 67
52 59 67
53 60 69
49 55 63
54 61 70
52 59 69
50 56 65
53 60 69
54 62 72
51 58 66
52 58 67
54 61 70
49 55 64
53 60 70
51 58 66
51 57 66
56 63 72
50 56 64
50 57 65
52 59 68
50 56 64
52 58 67
50 56 65
49 55 63
49 55 64
48 54 62
51 58 66
51 58 67
49 55 64
47 53 61
49 55 64
49 56 64
49 55 63
49 55 63
51 57 66
46 52 60
47 53 61
46 52 59
46 52 60
51 57 66
52 59 68
50 57 65
48 55 64
49 55 63
48 55 63
52 58 66
45 51 59
46 52 60
43 48 56
48 54 62
44 50 57
48 54 63
47 53 61
43 49 56
51 57 66
47 53 61
48 55 63
47 52 60
42 48 55
49 55 63
47 53 60
46 52 59
47 52 60
41 46 53
47 53 61
47 53 61
45 50 58
43 49 56
43 49 56
47 52 60
44 49 56
44 49 57
44 50 57
48 54 62
42 48 55
44 49 56
41 45 52
44 49 56
44 49 56
44 49 57
41 46 53
44 49 56
46 51 59
47 53 61
50 56 64
47 53 61
48 54 62
47 53 60
39 44 51
48 54 62
50 57 65
45 51 59
47 53 61
49 56 64
48 55 63
46 52 60
47 53 61
45 51 58
48 55 63
45 51 59
50 55 63
44 50 57
49 55 63
45 50 58
49 55 63
49 55 63
45 51 58
44 49 56
44 50 57
50 56 65
52 58 67
49 56 64
48 55 63
47 53 61
45 51 59
51 58 66
46 52 59
51 57 66
50 57 65
51 58 66
47 53 61
50 56 65
47 53 61
52 59 68
50 57 66
51 58 67
47 53 60
48 54 62
51 57 66
48 55 63
51 57 66
53 60 69
47 53 62
52 58 67
49 56 64
49 55 64
45 52 60
49 55 64
52 59 68
53 60 69
52 59 69
53 60 70
51 57 66
51 58 67
51 57 66
53 60 70
49 55 64
51 58 67
54 61 70
54 61 70
54 61 70
55 62 71
54 61 71
53 60 70
54 61 71
55 62 72
52 59 68
50 57 65
50 57 66
54 61 70
53 60 69
50 57 67
51 58 67
53 60 69
54 61 70
52 59 68
53 60 69
54 61 70
54 61 71
52 59 69
52 59 69
54 62 71
53 61 71
56 64 74
54 62 72
53 60 70
53 60 68
55 62 72
55 63 73
54 62 72
54 61 71
54 62 72
56 64 74
54 61 70
56 64 74
56 63 73
53 61 70
56 64 75
57 65 75
59 67 77
57 64 74
57 65 75
56 64 74
55 63 73
57 65 75
58 66 76
57 64 74
55 63 73
58 65 75
55 63 72
58 65 75
58 66 76
57 65 75
58 66 76
58 67 77
58 65 75
56 64 74
58 66 76
58 65 75
58 67 77
56 64 74
59 66 76
60 68 78
57 65 75
58 66 76
56 64 74
56 64 74
56 64 74
57 65 75
57 65 75
56 64 75
58 66 76
58 66 77
56 64 74
59 67 77
57 65 75
58 66 76
58 65 75
58 66 77
60 68 79
58 66 76
58 66 76
57 65 75
60 68 78
57 65 75
58 66 76
59 67 78
60 68 79
59 67 78
58 66 77
58 66 76
57 66 77
59 67 78
59 67 77
57 65 76
58 66 77
60 68 79
59 67 78
58 67 78
59 67 78
59 67 78
59 67 77
58 66 77
59 67 78
60 68 78
58 66 76
59 67 78
59 67 77
57 65 76
59 67 78
60 68 79
59 67 77
59 67 77
58 66 77
58 66 76
59 67 77
59 67 78
60 68 78
59 68 78
59 67 78
59 67 77
60 68 79
58 66 77
59 67 78
59 67 78
60 69 79
59 67 77
59 67 77
60 68 78
59 68 78
59 67 78
59 67 78
59 67 77
59 67 78
60 68 78
59 68 78
59 67 77
60 68 78
59 67 78
59 67 78
59 67 77
58 66 77
59 67 77
60 68 79
58 66 77
59 67 79
57 65 75
58 66 77
59 67 78
59 67 77
58 66 76
60 68 78
58 66 76
58 66 77
60 68 78
59 67 78
60 68 78
59 67 78
59 67 78
58 66 76
60 68 79
58 66 76
59 67 78
59 67 78
58 66 77
58 66 77
56 64 74
59 67 77
58 66 77
56 64 74
60 68 79
57 65 75
57 64 75
58 66 76
57 65 76
59 66 77
58 65 76
56 64 74
57 65 75
57 64 74
57 65 75
57 65 76
57 65 75
57 65 75
57 65 76
57 65 75
57 65 76
58 67 77
56 63 73
57 64 74
56 64 74
59 67 78
57 65 75
57 65 76
58 66 76
58 65 76
56 64 74
56 63 73
56 64 74
55 63 73
55 62 72
58 65 75
56 63 73
54 62 72
57 65 76
55 63 73
57 64 74
56 63 73
55 63 74
53 61 71
55 63 72
55 63 73
55 63 72
58 65 75
55 63 72
57 64 73
54 61 71
54 61 70
57 65 75
56 64 74
55 63 73
55 62 72
57 64 74
56 63 73
57 64 74
56 63 73
56 63 73
57 65 75
57 65 75
56 64 74
53 60 69
53 61 70
53 61 70
56 63 73
56 64 74
54 61 70
54 61 71
55 63 73
54 62 71
53 60 69
52 59 68
51 58 66
53 60 70
51 59 68
50 56 65
49 56 65
56 63 73
53 60 70
53 60 69
50 57 66
53 60 69
52 59 68
51 58 67
51 59 68
53 60 69
52 59 68
51 58 67
50 56 65
53 59 68
50 56 65
52 59 69
50 57 66
49 56 64
48 54 62
51 58 67
48 55 63
50 56 65
51 58 67
51 57 66
51 58 67
48 55 63
52 59 68
52 59 67
48 54 63
51 57 66
50 56 64
47 53 61
52 58 67
52 58 67
49 55 63
49 56 65
50 57 65
50 56 65
49 55 63
49 56 64
50 56 65
45 51 58
48 54 62
48 55 63
46 53 61
50 56 64
48 54 63
48 54 62
50 56 65
47 53 61
48 54 62
50 57 66
47 53 61
47 53 61
47 53 61
50 56 64
48 54 62
48 54 62
46 52 61
46 51 59
48 54 63
43 49 56
45 50 57
43 49 56
50 57 66
49 55 64
49 56 64
44 49 57
42 47 54
48 54 62
44 50 57
45 51 59
45 50 58
45 50 57
45 51 58
46 52 59
47 53 61
43 48 55
44 50 57
44 50 57
47 53 61
46 52 60
51 57 65
46 52 60
46 52 59
45 51 58
46 52 59
40 45 51
46 52 60
48 54 61
48 54 62
42 47 54
43 49 55
47 53 60
45 51 58
48 54 62
44 50 57
44 50 58
46 52 60
50 57 65
43 49 56
49 55 63
44 49 56
47 53 61
48 54 62
44 50 57
48 54 62
47 53 61
49 55 63
48 55 63
48 54 62
48 55 63
46 52 59
48 53 61
51 58 67
50 56 64
48 54 62
47 53 61
46 52 60
48 53 61
44 49 57
48 55 63
49 55 63
47 53 61
48 54 62
46 52 60
49 55 64
46 52 60
50 57 65
53 59 68
51 57 66
52 58 67
52 58 67
49 55 64
49 55 64
51 58 66
46 52 60
53 60 69
53 60 69
52 59 67
54 61 70
51 58 67
52 59 67
49 56 65
52 59 68
52 58 67
52 59 68
49 56 64
50 56 65
53 60 69
52 59 68
52 60 69
56 63 72
50 57 66
51 58 66
50 57 66
53 60 69
53 60 69
53 60 69
53 60 69
53 60 69
51 58 67
51 58 66
53 59 68
56 62 71
51 58 67
52 59 68
53 60 69
52 59 68
55 63 73
54 61 70
53 60 69
53 60 69
56 63 73
56 64 73
52 59 68
54 62 71
52 59 69
54 61 71
54 61 70
53 60 70
55 63 73
52 60 69
55 62 71
56 63 73
53 60 70
55 63 73
57 65 75
54 62 72
55 62 72
57 65 75
54 62 72
56 64 74
57 65 74
56 63 73
56 63 73
58 66 77
59 67 77
54 62 72
57 64 74
56 64 74
58 66 76
56 63 73
56 64 74
57 65 75
57 65 75
56 63 73
56 64 73
56 63 73
58 66 76
55 63 73
58 67 77
57 65 75
56 63 73
57 64 74
57 65 75
58 66 76
55 63 73
55 63 73
59 67 77
55 62 72
60 68 79
58 65 76
59 67 77
55 63 73
57 65 76
58 66 77
59 67 77
57 65 75
57 65 75
57 65 75
57 65 76
58 66 77
58 66 76
59 67 78
58 66 77
57 65 76
59 66 77
57 65 75
59 67 77
55 63 72
58 66 77
59 67 77
59 66 76
58 66 77
60 68 79
57 64 74
59 67 78
58 66 76
60 68 78
58 66 76
59 67 77
59 67 78
57 65 76
59 67 78
59 67 78
57 66 76
59 68 79
60 68 78
58 66 77
60 68 78
59 67 77
59 67 78
59 68 79
59 66 76
59 67 77
58 66 76
60 68 78
60 68 78
59 67 77
60 68 79
61 69 79
59 68 79
60 69 79
60 68 79
59 67 77
60 68 79
59 67 77
58 66 77
59 67 77
60 68 79
58 66 77
58 67 77
61 69 79
60 68 78
59 67 77
59 67 77
59 67 78
60 68 78
58 66 76
59 67 77
60 68 79
59 67 78
59 67 78
60 69 80
57 65 75
58 66 77
59 67 78
60 68 78
59 67 78
59 67 78
60 69 79
58 66 76
60 68 79
59 66 76
57 65 76
59 67 77
57 64 74
58 66 77
59 67 78
59 67 78
58 66 76
59 67 78
59 67 78
58 66 77
60 68 79
58 65 76
59 67 78
59 67 77
59 67 77
58 66 77
59 67 77
56 64 74
58 67 77
55 63 73
57 65 75
59 66 76
58 66 76
57 64 74
58 66 76
57 64 74
58 65 76
58 66 76
57 65 76
58 66 76
56 63 73
59 67 78
58 66 77
57 65 74
58 66 77
56 64 74
56 64 74
56 63 73
58 66 76
59 66 76
60 68 78
59 67 78
59 66 77
55 63 73
55 62 72
56 63 72
58 66 76
56 64 74
56 64 74
57 65 75
57 64 74
56 64 74
56 64 74
56 64 73
57 65 75
56 64 75
57 64 74
58 66 76
53 61 71
54 61 71
55 62 72
56 64 73
54 62 71
55 62 72
56 63 73
56 63 73
54 61 71
56 64 74
55 63 72
56 63 73
55 63 73
56 63 72
58 66 76
56 64 74
56 63 73
56 63 73
54 62 71
54 61 70
58 66 76
53 61 71
52 59 68
52 59 68
56 64 74
53 60 70
55 62 72
54 62 71
56 63 73
55 62 71
54 62 71
54 62 72
56 63 73
53 60 70
54 61 71
54 61 71
53 60 70
53 61 70
54 61 70
53 60 69
52 59 68
54 62 71
53 60 70
54 61 71
52 59 68
49 56 64
54 60 69
49 55 63
48 55 63
50 57 66
52 59 68
50 56 64
53 60 69
53 59 68
52 59 68
52 59 68
49 55 64
52 58 66
52 58 67
50 56 65
48 54 63
49 55 63
48 54 62
51 58 67
48 55 63
50 57 66
52 59 68
49 55 64
49 55 64
51 57 66
50 56 65
47 53 61
46 52 61
47 53 61
46 53 61
47 53 62
46 52 60
48 54 62
48 54 62
48 55 63
49 55 64
46 52 60
46 52 60
47 53 61
49 55 64
46 52 60
48 54 62
51 57 66
47 54 62
49 55 63
48 54 62
50 56 65
50 56 65
49 55 63
49 55 64
49 55 63
46 52 59
47 53 62
44 50 57
49 55 63
48 54 62
45 51 58
48 54 62
45 51 59
46 52 60
48 54 62
48 54 62
44 50 58
43 49 56
48 54 62
50 56 65
47 53 61
47 53 61
43 49 57
46 51 59
44 50 57
50 56 65
45 50 58
44 50 57
49 55 63
45 50 57
45 50 58
44 49 56
46 52 60
46 52 60
45 51 59
49 55 63
47 53 61
44 50 57
46 52 60
46 52 60
47 53 61
47 53 61
48 54 62
47 52 60
44 50 58
46 51 59
45 50 57
48 54 63
47 52 60
50 56 64
45 51 59
46 52 60
48 54 62
48 54 62
49 55 63
47 53 61
46 52 60
49 55 63
47 53 61
44 50 57
47 53 61
47 53 61
49 55 64
48 54 62
48 54 62
48 55 64
46 52 60
52 59 69
50 56 64
49 55 63
51 57 66
48 54 62
48 54 62
50 57 65
51 58 67
48 54 63
50 56 65
50 57 65
50 56 65
50 56 65
49 56 64
51 58 67
49 56 64
50 57 66
48 55 64
50 56 64
52 58 67
52 59 68
49 55 64
51 57 66
51 57 66
53 60 69
50 57 65
49 56 64
52 58 67
52 58 67
53 60 69
50 57 66
54 61 70
52 60 69
51 58 67
54 60 70
53 60 69
53 60 69
52 59 68
53 60 69
52 59 68
51 58 67
53 60 70
51 58 67
51 58 67
55 62 72
54 61 70
55 62 72
54 61 71
52 59 68
55 62 72
54 61 70
52 59 68
51 58 67
53 60 70
55 63 72
52 59 68
54 61 71
52 59 68
54 61 71
54 61 71
56 63 73
54 61 71
55 62 72
54 61 71
54 61 71
55 63 73
54 61 71
54 62 71
55 63 73
56 63 73
55 62 72
56 64 74
55 62 72
58 66 76
55 62 72
56 63 73
56 64 74
56 64 73
58 65 76
56 64 74
55 62 72
56 64 74
55 63 73
56 63 73
55 63 73
58 66 77
57 65 75
59 67 78
58 66 76
59 67 78
56 64 74
58 65 75
58 65 76
58 66 76
57 64 74
56 64 74
57 65 75
55 63 73
57 65 75
58 66 76
56 63 73
59 67 77
58 65 76
57 64 75
58 66 76
57 65 76
56 64 74
56 65 75
58 66 76
57 64 74
57 64 74
58 66 77
57 65 75
57 65 76
58 65 76
57 65 75
58 66 76
58 66 76
58 66 77
58 66 76
58 66 76
59 67 77
57 65 75
59 67 77
58 66 76
59 67 77
58 66 76
59 67 77
59 67 77
59 67 78
59 67 78
59 67 77
58 67 77
59 66 77
58 66 76
58 65 75
58 66 76
58 67 77
60 68 78
59 67 78
60 68 78
59 67 77
59 67 78
59 67 77
60 69 80
58 65 76
58 66 76
57 65 76
59 67 78
60 68 78
58 66 76
58 66 77
60 68 79
59 67 78
58 66 76
59 67 78
60 68 79
59 66 77
59 67 78
60 68 79
59 68 78
60 68 79
60 69 79
60 68 78
59 67 77
60 68 78
59 67 77
59 67 77
59 66 76
58 66 76
58 66 77
59 67 78
58 66 76
60 68 78
58 65 76
60 68 79
57 65 75
59 67 77
59 67 78
57 65 76
60 68 79
57 65 76
57 65 76
58 66 77
58 66 77
59 68 78
60 68 78
58 66 76
57 65 76
59 67 77
59 67 78
58 66 76
57 66 76
59 67 78
59 67 77
59 67 77
58 66 76
58 66 77
58 65 76
59 68 78
59 66 76
56 64 73
59 67 78
59 67 78
58 66 76
59 67 77
59 67 77
57 65 76
57 64 75
56 63 74
59 67 77
56 64 74
56 64 74
58 67 77
59 67 78
58 66 77
57 65 74
59 67 77
59 67 77
56 63 73
58 67 77
56 64 74
58 66 77
56 64 74
56 64 74
55 62 72
58 66 76
56 63 73
58 65 75
58 66 76
58 65 75
53 61 71
56 63 73
56 64 74
55 63 73
57 65 76
56 64 74
57 65 76
55 63 72
53 60 70
56 64 74
56 63 73
56 63 73
56 64 74
56 64 74
56 64 74
54 61 71
54 61 71
55 63 73
55 62 71
56 63 73
54 62 71
54 61 71
56 63 73
55 63 72
54 62 72
53 60 70
56 64 73
53 60 70
56 64 74
55 63 72
55 62 72
56 64 73
53 60 70
56 64 73
53 60 70
56 63 73
53 60 70
54 62 71
52 59 69
52 59 68
56 63 73
56 63 73
53 60 69
56 63 73
50 57 66
52 59 68
50 57 66
52 59 68
55 62 71
52 59 69
55 62 72
56 63 73
54 61 70
51 58 67
51 58 67
52 59 68
55 62 72
51 57 66
53 60 70
51 59 68
51 57 66
50 57 66
51 58 66
51 59 68
55 62 71
50 57 65
50 57 66
50 57 66
53 61 70
49 55 64
50 56 65
51 58 67
49 56 64
48 54 62
49 55 64
52 59 68
49 56 64
50 57 65
51 57 66
49 55 63
47 53 61
53 60 69
51 58 66
50 56 64
48 54 62
51 58 67
49 55 63
49 55 64
50 56 64
48 54 62
47 53 61
49 55 64
47 53 61
51 58 66
49 56 64
49 55 64
52 59 67
46 52 59
46 52 61
50 56 65
49 55 64
49 55 63
46 52 60
47 53 61
46 53 61
46 52 59
50 56 64
47 53 61
44 50 58
50 56 64
45 52 60
49 55 63
50 57 65
48 54 62
47 53 60
46 52 60
46 52 60
49 55 63
46 52 60
46 51 59
49 55 63
50 56 65
47 53 61
47 53 62
47 53 61
46 51 59
48 54 62
47 54 62
49 55 63
46 52 60
49 55 63
48 54 62
47 53 61
44 50 57
47 53 61
43 49 56
44 50 57
46 52 59
46 52 60
47 53 60
47 53 61
50 57 65
45 51 58
42 48 55
47 53 62
45 50 58
50 56 64
47 53 61
45 51 59
46 52 60
47 53 61
51 57 66
49 55 63
50 56 64
49 55 63
51 57 66
49 55 63
45 51 59
44 50 57
46 53 61
47 53 61
46 51 59
50 56 64
46 53 61
47 54 62
48 54 62
48 54 62
47 53 61
51 58 67
44 49 57
49 55 63
48 54 63
50 57 65
49 55 63
50 56 65
49 55 63
52 59 68
49 55 64
49 55 63
50 56 65
47 53 61
48 54 62
47 52 60
51 57 66
50 56 64
50 56 65
48 55 63
50 56 65
46 52 61
53 60 69
50 56 65
50 57 66
55 62 72
53 60 69
53 60 70
53 60 69
51 58 67
52 58 67
51 57 65
48 54 63
49 56 64
55 62 72
51 58 67
54 61 70
52 59 68
54 61 70
53 60 70
51 58 67
54 61 70
51 58 67
54 61 71
53 61 71
54 61 70
56 63 73
52 58 67
56 64 73
53 61 70
54 62 71
52 59 68
54 61 70
54 61 70
53 60 69
56 63 73
52 59 68
55 62 71
54 62 71
57 64 74
53 60 70
53 61 70
53 60 69
56 63 72
53 60 69
57 64 74
54 61 71
55 62 72
56 64 73
56 63 73
56 63 73
53 60 70
57 64 74
56 64 74
55 62 72
58 65 76
57 65 75
55 62 72
55 63 73
55 63 73
56 64 74
56 64 74
54 62 71
56 64 74
56 63 73
54 62 72
57 65 75
57 65 75
57 65 75
57 64 74
56 64 75
57 65 75
57 65 75
55 62 72
58 65 75
57 66 76
57 64 74
56 64 74
56 64 74
57 65 76
58 66 76
56 63 74
55 62 73
57 65 75
58 65 75
57 65 75
56 64 74
57 65 75
57 65 75
57 64 74
58 66 76
58 66 77
57 65 75
57 64 74
59 67 77
57 65 75
59 67 78
58 65 75
59 67 77
58 66 77
56 64 74
56 64 74
57 66 76
58 65 76
58 65 75
58 66 76
58 66 77
58 66 76
57 66 77
58 66 76
58 66 77
59 67 78
58 66 76
59 67 78
58 66 76
58 66 77
58 66 76
58 66 76
58 67 77
59 67 78
59 66 76
61 69 79
57 65 76
60 68 79
58 66 77
60 68 78
56 64 74
60 68 79
59 68 78
59 67 77
58 65 76
58 66 77
60 69 79
59 68 78
59 67 78
58 66 77
58 66 76
59 67 78
60 68 79
60 68 78
60 69 79
59 67 77
58 66 77
60 68 79
59 67 78
60 68 79
59 67 78
59 67 78
58 65 76
57 65 75
59 67 77
60 68 79
61 69 80
60 68 78
59 67 77
59 67 77
59 67 78
58 66 76
59 67 78
58 66 76
60 68 78
59 67 78
57 65 75
58 67 77
59 67 78
58 66 76
59 67 77
59 67 77
58 66 76
59 67 78
57 65 76
60 68 78
59 67 77
58 66 77
60 68 79
59 67 77
57 65 75
57 64 75
59 66 76
59 67 77
60 68 78
59 67 77
59 68 78
58 66 77
58 66 76
59 67 78
57 64 75
59 67 77
56 64 74
57 65 75
56 64 73
58 66 77
58 66 76
56 64 74
59 67 78
58 66 76
57 65 75
55 63 73
59 67 78
59 67 77
56 64 74
59 67 78
58 66 76
57 65 76
59 67 77
57 65 76
58 66 76
56 64 74
57 65 75
57 65 75
57 65 75
59 67 77
57 65 76
55 62 72
57 64 74
56 63 73
57 65 75
56 64 73
57 65 74
56 64 73
58 65 76
56 63 73
57 65 75
56 64 74
54 61 71
56 63 73
56 63 73
53 61 70
56 63 73
59 67 77
56 64 73
55 63 73
55 63 72
56 64 74
56 64 74
56 63 73
56 63 73
56 64 74
53 60 70
54 61 70
56 63 73
56 63 72
57 64 74
58 66 77
53 60 70
53 60 69
53 60 70
55 63 72
52 59 69
55 62 72
54 61 71
52 59 68
54 62 71
55 62 72
51 58 67
51 58 67
52 59 68
53 60 69
50 57 66
53 60 69
53 60 70
52 59 68
54 62 71
54 62 71
53 61 70
51 58 67
50 57 66
51 58 67
53 60 69
50 57 66
53 60 69
53 60 70
51 57 66
52 59 68
55 62 71
54 61 71
52 59 68
49 55 64
53 60 68
50 56 64
54 61 70
51 57 66
51 57 66
55 62 71
52 59 68
49 56 64
50 57 65
52 59 68
53 60 69
48 55 63
51 57 66
44 50 58
46 52 60
52 59 67
51 58 67
48 55 63
51 57 65
49 56 64
47 53 61
49 55 63
49 56 65
49 55 63
52 58 67
50 56 65
51 57 65
45 51 59
47 53 61
51 57 66
45 51 58
51 57 66
47 53 61
48 54 62
48 55 63
47 53 61
45 51 59
49 55 63
49 56 64
45 50 57
48 54 62
48 54 62
43 49 57
45 51 59
49 56 64
45 50 58
47 53 62
49 55 63
45 51 58
48 54 62
48 53 61
48 54 62
43 48 55
45 50 57
48 54 62
47 53 61
44 50 57
49 55 63
46 52 59
47 53 61
46 51 59
44 49 56
44 50 57
45 51 59
44 49 57
46 53 61
44 50 57
47 53 61
47 53 61
44 50 57
46 52 60
49 55 64
46 52 59
45 51 58
49 55 63
49 55 63
48 53 61
47 53 61
46 52 60
45 51 59
48 54 62
47 53 61
49 55 64
46 52 60
49 55 64
42 48 56
49 56 64
43 49 56
49 55 63
50 56 65
49 56 65
50 56 65
49 56 64
49 55 63
47 53 60
46 52 59
48 54 62
50 56 65
50 57 65
51 58 67
49 55 63
49 55 63
51 58 67
50 56 64
50 57 66
49 55 63
50 56 65
53 60 69
49 55 64
49 56 64
47 53 61
47 53 61
52 59 68
51 58 67
50 56 64
53 60 69
50 56 65
50 57 66
51 58 66
51 58 67
48 55 63
48 55 63
50 57 65
51 58 66
50 57 65
52 59 68
52 59 69
54 61 71
51 58 66
47 54 62
50 57 66
49 55 64
53 60 69
55 62 71
52 59 68
54 61 71
50 57 67
51 58 67
52 59 68
51 58 66
53 60 69
54 61 71
51 59 68
55 63 72
53 61 71
51 58 67
52 59 68
56 63 73
53 61 70
53 60 69
50 57 65
53 59 68
55 62 71
54 61 71
54 62 71
53 61 70
54 61 70
53 60 69
55 62 71
52 59 68
57 64 74
56 63 72
55 63 72
55 63 72
52 59 67
54 61 70
58 66 76
54 61 70
55 62 72
53 60 70
56 63 72
55 63 73
56 64 73
58 66 76
51 58 67
55 63 73
57 65 75
56 63 73
56 64 75
54 62 71
56 64 74
56 64 74
54 62 71
57 64 74
55 62 72
56 63 73
55 62 72
53 60 70
57 65 75
56 64 74
58 65 76
57 65 76
56 64 74
57 65 75
54 62 71
57 64 75
56 64 74
56 64 74
57 65 75
57 65 74
57 65 75
57 65 75
57 65 75
57 65 75
57 64 74
58 66 76
58 66 76
57 65 75
58 66 77
58 67 77
57 65 75
58 66 77
58 66 76
58 66 76
57 65 75
57 65 76
57 65 76
56 64 74
58 66 76
59 67 77
57 65 75
59 67 77
58 66 77
58 66 77
58 66 77
59 68 78
58 66 77
60 67 78
56 64 74
59 67 77
59 66 76
58 66 76
58 66 77
59 67 77
60 68 79
59 67 77
58 66 76
57 65 76
58 66 77
58 66 76
60 68 79
59 66 77
57 65 76
59 67 78
60 68 79
59 67 77
58 66 77
57 65 75
58 66 76
59 68 78
58 66 76
59 67 78
57 65 75
60 68 78
58 66 77
60 68 78
57 65 75
61 69 79
59 67 77
57 65 76
59 67 78
58 66 77
59 67 78
59 67 77
59 68 78
60 67 78
60 68 79
59 67 78
60 68 78
60 68 79
60 68 79
60 68 79
59 67 78
58 66 77
59 67 77
59 67 77
58 67 77
59 67 77
56 64 74
59 67 77
60 69 79
60 68 79
58 66 76
60 68 78
59 67 77
59 67 77
57 65 75
60 68 79
59 67 78
56 64 74
59 67 77
60 68 78
58 66 76
58 66 76
57 65 75
56 64 75
59 67 78
58 66 77
58 65 76
59 66 76
57 65 76
58 65 76
58 66 77
58 65 76
56 64 74
59 67 78
56 64 74
58 66 76
58 66 76
58 66 77
59 67 78
56 64 75
58 66 76
58 66 77
56 64 74
56 64 74
57 65 75
55 62 72
57 65 74
58 66 77
58 66 77
59 67 77
58 66 76
57 65 75
57 64 75
57 65 75
57 65 76
59 66 77
58 66 76
57 64 74
56 64 74
57 65 74
57 64 74
57 64 75
55 63 73
56 63 73
57 65 75
58 66 76
54 62 71
57 65 76
56 64 74
54 61 71
54 61 70
56 64 74
58 65 76
56 64 74
54 62 72
55 63 73
57 65 75
58 66 76
57 64 74
58 65 75
54 62 71
55 62 72
56 63 73
54 62 71
57 65 75
57 64 74
54 62 71
56 64 74
53 60 69
56 63 73
55 62 71
54 62 71
55 63 73
56 63 74
55 62 72
57 65 75
53 60 70
55 62 72
55 62 72
52 59 68
54 61 70
55 63 73
52 59 68
55 63 73
55 63 72
53 61 70
51 57 66
50 57 65
52 59 69
52 59 68
53 60 69
55 62 71
53 61 70
52 60 69
50 57 66
53 60 69
52 59 68
52 58 67
52 60 69
54 61 70
53 60 70
53 61 70
52 59 68
53 60 70
53 60 70
53 60 69
51 58 67
52 58 67
52 59 68
54 61 70
49 56 64
50 57 65
50 56 65
50 57 65
52 59 68
52 59 68
50 57 66
49 55 64
50 57 66
47 53 61
50 56 65
49 55 64
50 57 65
51 57 66
50 57 66
50 56 64
50 56 65
52 59 68
48 54 62
52 59 68
48 55 63
48 54 62
48 54 63
50 57 66
48 54 62
48 54 62
48 54 63
49 56 64
47 53 61
45 51 59
46 52 60
54 61 71
48 54 62
53 59 68
51 57 66
51 57 65
48 53 61
50 57 66
49 56 64
47 53 61
47 53 61
51 58 66
51 58 66
46 53 61
49 55 63
46 52 59
46 52 60
49 55 63
48 54 62
49 56 64
45 51 58
51 57 66
47 53 61
50 57 65
48 54 63
47 52 60
48 54 63
48 54 62
46 52 60
47 53 61
48 54 61
50 56 65
47 53 61
47 53 61
45 51 58
47 53 61
48 54 62
46 52 60
46 51 59
47 53 61
49 55 64
49 55 63
48 54 62
44 49 57
48 54 62
43 49 57
53 60 69
49 55 63
47 53 62
48 54 62
49 55 63
45 52 60
44 50 58
52 59 67
51 58 66
47 53 61
47 53 61
47 53 61
49 55 63
46 52 59
46 51 59
49 56 64
48 54 62
46 52 60
48 54 63
48 54 62
50 57 66
52 58 67
47 53 61
46 52 60
49 56 64
46 51 59
50 57 65
48 54 63
49 55 63
50 56 65
46 52 60
51 57 65
47 54 62
45 51 59
50 56 64
49 56 64
48 54 62
48 54 62
51 58 67
50 56 65
48 54 63
52 58 67
49 56 65
53 60 69
51 58 67
52 58 67
52 59 68
50 57 66
53 60 69
52 59 68
49 56 65
47 53 61
52 58 67
47 53 62
52 59 67
55 62 72
50 57 65
49 56 64
54 61 71
52 59 69
52 59 69
53 60 69
51 58 67
53 60 70
52 59 68
51 58 67
52 58 67
51 58 68
52 59 68
54 61 70
57 64 74
53 61 70
55 62 72
53 60 69
54 61 71
53 60 70
52 59 68
52 59 68
58 66 76
54 62 71
55 62 71
54 62 71
53 61 70
53 60 70
52 59 68
56 63 73
56 63 73
54 62 71
54 62 71
56 63 72
54 61 71
54 62 72
55 62 72
55 63 73
53 61 70
54 62 72
54 61 71
55 62 72
55 62 72
57 64 74
55 63 73
56 63 73
57 64 74
53 60 70
58 66 77
56 64 74
56 64 74
53 61 70
52 60 69
55 63 72
56 64 74
55 63 72
56 63 73
58 65 75
57 65 75
58 65 75
58 65 75
56 64 74
55 63 73
55 62 72
57 64 74
58 65 76
55 63 74
56 64 74
58 66 77
57 65 75
55 63 73
57 65 75
56 64 74
60 67 78
59 67 77
55 63 73
56 64 73
58 66 76
57 65 75
56 64 74
59 66 76
57 65 75
55 63 72
57 65 76
58 67 77
56 63 74
56 64 75
57 65 76
58 66 77
58 65 75
59 67 77
58 65 76
59 67 77
57 65 75
58 66 76
57 65 75
59 68 79
58 66 77
57 65 75
58 66 76
57 64 74
59 67 77
59 67 77
59 67 77
59 67 77
59 67 77
59 67 77
58 66 76
59 67 77
59 67 77
58 66 77
57 65 76
59 67 77
58 66 77
61 69 79
58 66 77
58 66 76
61 68 79
58 66 76
58 67 77
60 68 79
60 68 78
59 67 78
59 67 77
60 69 80
60 68 79
58 66 76
60 68 78
59 67 78
58 66 77
58 66 77
60 68 79
60 68 78
57 65 76
59 67 78
60 69 79
59 67 78
60 68 79
58 66 76
60 68 78
58 66 76
59 67 78
58 66 76
59 67 77
59 67 77
58 66 77
57 65 75
58 66 76
58 66 76
60 68 78
60 68 79
60 68 79
60 68 79
58 66 76
58 67 77
59 67 77
57 65 76
59 67 77
57 65 76
58 66 76
58 65 76
58 66 76
59 67 77
57 65 74
58 66 76
59 67 77
58 66 77
57 65 75
57 65 75
58 66 76
56 64 74
57 65 76
57 64 74
55 63 73
57 64 74
59 66 77
59 67 78
58 66 76
57 65 74
55 63 73
56 64 75
58 66 77
57 65 74
58 66 76
57 64 74
56 64 74
57 65 75
58 66 77
58 66 76
58 66 76
54 61 71
58 65 74
56 63 73
59 67 77
55 62 72
56 64 74
57 64 74
54 62 71
56 63 73
57 64 75
57 64 74
58 66 76
59 67 77
56 64 74
58 66 77
57 66 76
56 63 73
56 64 74
59 67 77
55 62 72
56 63 73
56 63 73
56 64 74
54 62 71
56 63 73
54 61 70
55 63 72
57 65 75
55 63 72
56 64 74
54 61 71
54 61 71
56 64 74
54 61 71
54 62 72
53 60 69
57 64 74
56 64 74
57 65 75
55 62 72
55 63 73
54 62 72
54 61 71
55 63 73
55 63 73
54 61 70
55 63 72
57 64 74
53 60 69
54 61 70
53 60 69
55 62 72
53 61 70
52 59 68
51 58 67
54 61 70
54 62 71
55 63 73
55 62 71
54 62 71
52 59 68
53 60 70
54 61 70
54 61 71
54 62 71
52 59 68
51 58 68
53 60 69
51 58 67
54 61 70
53 60 69
53 60 69
51 58 67
50 57 66
54 62 71
55 62 72
49 56 65
50 56 65
51 57 66
51 58 67
51 58 66
49 56 64
51 58 67
52 58 67
50 56 65
50 56 65
52 58 67
52 59 68
52 58 68
51 57 66
54 62 71
48 54 63
50 56 65
50 57 66
51 58 67
47 54 62
49 55 64
49 55 64
50 56 65
48 54 62
51 57 66
49 56 65
47 53 61
51 58 67
45 51 59
50 56 65
48 55 63
45 51 58
47 52 60
49 56 64
52 58 67
48 54 63
45 51 59
47 53 62
49 56 64
47 53 61
48 55 63
49 56 64
47 53 61
52 59 67
48 54 62
50 56 64
45 51 58
45 51 59
46 52 60
48 54 62
47 53 62
44 50 57
53 59 68
48 54 63
46 52 60
47 54 62
45 51 58
49 55 63
45 51 58
46 52 59
48 54 62
47 53 61
48 54 62
50 57 65
46 52 59
46 52 59
47 54 62
49 55 64
47 53 61
47 53 61
47 53 61
50 56 65
49 55 64
45 51 58
44 50 57
51 57 66
47 53 61
44 50 57
50 56 64
47 53 61
48 54 62
48 54 62
47 52 60
48 54 62
47 53 61
47 53 62
50 56 64
43 48 56
50 57 65
48 54 62
49 55 63
49 55 63
49 55 64
47 53 60
46 52 60
50 56 65
48 55 63
45 51 58
50 56 65
49 56 64
49 55 63
50 57 66
47 53 61
49 56 64
50 56 65
49 56 64
51 57 66
48 55 64
50 56 64
51 58 67
53 60 70
48 54 62
49 55 63
51 58 67
48 55 64
52 59 68
47 53 61
54 61 69
50 57 65
51 58 66
53 60 69
52 59 68
46 52 60
48 54 63
51 57 67
47 53 61
48 54 63
54 62 71
51 58 67
52 58 67
52 59 68
53 60 69
51 58 68
54 61 71
49 56 64
54 61 70
53 61 70
54 61 70
53 60 70
52 59 68
54 61 71
53 60 69
55 62 72
52 59 69
51 58 67
53 60 69
52 60 69
53 60 70
53 61 71
55 62 72
53 61 70
55 62 71
54 61 70
55 63 72
56 63 73
53 61 70
52 59 69
55 62 71
57 65 75
53 60 70
56 63 73
53 60 69
56 64 73
55 63 73
55 62 72
57 64 74
55 62 72
53 60 70
56 64 74
57 64 74
55 62 72
56 63 73
56 64 74
57 64 74
56 64 74
57 65 75
57 65 75
54 61 71
56 64 74
54 61 71
56 64 74
56 63 73
57 65 75
55 63 73
53 61 71
53 61 70
57 65 74
56 63 73
57 65 75
55 63 73
53 61 71
56 64 74
56 63 73
58 66 76
57 65 76
56 63 73
58 66 76
56 63 73
57 64 74
58 66 77
57 65 75
56 63 74
56 64 73
55 62 72
54 62 71
57 64 74
55 62 72
57 65 75
55 63 73
58 66 76
58 65 75
57 65 75
57 65 76
59 67 77
57 65 75
56 63 74
57 64 74
57 65 76
57 65 76
59 67 77
59 67 78
58 66 76
59 67 77
58 66 76
56 64 74
59 67 78
56 64 74
57 65 76
56 64 74
58 66 77
58 66 76
59 68 78
59 67 78
60 68 78
57 64 74
57 64 74
60 68 78
58 66 76
60 68 78
58 66 76
60 68 78
59 67 77
58 66 77
57 65 75
57 65 76
60 68 78
59 67 77
60 68 79
59 68 78
60 68 78
58 67 78
59 67 78
59 67 77
59 67 77
59 67 77
58 66 76
57 65 76
58 66 77
58 66 77
59 67 78
60 68 79
59 67 78
59 68 78
60 68 78
59 67 78
60 69 79
58 66 76
59 67 78
60 68 79
59 67 77
59 67 78
58 66 76
59 67 77
58 67 77
59 67 77
57 65 75
58 66 76
57 65 75
59 67 78
60 68 79
59 67 77
59 67 77
58 66 77
58 66 76
59 68 78
60 68 79
60 68 79
57 65 75
59 67 78
59 67 77
58 66 76
56 64 75
57 65 75
59 67 77
58 66 76
59 67 78
57 65 75
60 68 79
58 66 76
58 66 77
58 66 77
58 66 77
58 65 76
58 65 76
57 65 75
58 66 76
59 66 77
57 65 76
57 65 76
58 66 76
55 63 73
55 63 72
59 67 77
56 64 75
59 67 77
56 64 74
55 63 73
55 62 72
59 67 77
55 62 72
58 66 76
56 64 74
56 63 73
59 67 77
58 66 76
57 65 75
57 64 74
58 66 76
55 63 73
56 64 75
56 64 74
55 63 73
57 65 75
57 64 74
55 62 72
58 65 75
57 64 74
57 64 74
57 65 76
59 67 78
56 64 74
56 64 74
56 64 75
56 64 74
57 64 75
55 63 73
57 65 76
58 65 75
55 63 72
57 65 75
56 63 73
55 62 72
56 63 73
53 60 70
56 63 73
57 64 74
56 64 74
56 64 74
51 58 68
55 63 73
55 62 72
56 64 73
54 61 70
54 61 71
53 60 69
55 63 73
56 63 74
52 60 69
57 65 75
53 60 69
52 60 69
54 61 71
54 61 71
54 62 71
53 60 70
54 61 70
53 61 70
53 59 68
50 57 65
54 61 71
55 63 72
53 60 69
53 61 70
53 61 70
53 60 69
54 61 70
52 59 68
52 60 69
53 60 69
52 59 68
52 59 68
53 60 70
54 61 70
53 60 69
51 58 67
51 58 67
50 57 66
51 57 66
49 56 64
50 57 66
54 61 70
51 58 67
51 58 67
47 54 63
53 60 68
49 56 64
52 59 68
53 60 69
54 61 70
52 59 68
54 61 70
48 54 62
51 57 66
49 55 64
47 53 61
49 56 64
49 56 64
52 59 68
47 53 61
49 56 64
49 55 63
49 55 64
50 57 65
50 56 65
50 57 65
50 57 65
49 56 65
50 57 66
48 54 62
48 54 62
50 57 66
48 54 63
46 52 59
48 54 62
47 53 61
49 56 65
49 55 64
48 54 62
48 54 63
45 51 59
45 51 59
50 57 65
49 55 63
48 53 61
48 55 63
48 54 62
48 54 62
48 54 63
47 53 62
48 54 61
48 55 63
49 56 65
49 55 64
46 52 59
48 54 62
51 57 65
50 56 64
44 49 57
50 57 65
48 55 63
47 53 61
51 57 66
46 52 60
45 51 59
48 54 62
46 53 61
48 54 61
47 53 61
49 56 64
47 53 61
49 55 64
49 55 63
48 54 62
51 57 66
49 56 64
44 50 57
48 55 63
48 54 62
48 54 62
48 54 62
47 53 61
49 55 63
49 55 64
46 52 60
48 54 63
50 57 65
48 54 62
46 52 61
48 54 62
50 56 65
53 60 69
49 55 63
49 55 63
44 50 57
48 54 62
49 56 64
52 59 68
48 54 62
47 53 61
46 52 60
49 55 64
50 57 65
52 59 68
49 56 64
50 57 65
50 57 66
50 57 66
50 56 65
47 53 61
47 53 61
49 56 65
53 60 69
49 55 64
52 59 67
48 55 63
49 55 64
53 60 70
46 53 61
52 59 68
50 56 65
51 57 65
50 57 65
51 58 67
49 56 64
51 58 67
51 57 66
50 57 65
53 60 69
52 58 67
50 57 65
52 59 68
47 54 62
50 56 65
54 62 71
51 57 66
51 58 67
52 59 68
54 61 70
54 61 71
54 61 70
53 61 70
52 59 68
53 60 69
51 58 67
57 64 74
55 63 73
52 59 68
52 58 67
50 57 66
53 59 68
54 61 70
53 60 70
52 59 69
55 62 72
52 59 68
57 65 75
53 61 71
55 62 71
56 63 73
54 62 72
57 64 74
54 61 71
57 64 74
54 61 70
55 62 72
59 67 77
56 64 74
57 64 75
53 61 70
56 63 73
56 63 73
55 63 72
57 64 74
53 60 70
54 62 72
57 65 76
54 61 71
58 66 76
54 61 71
55 63 73
52 59 68
55 63 73
57 65 75
56 64 74
57 64 74
56 64 74
56 63 73
54 62 72
53 61 71
55 63 73
56 63 73
57 65 75
59 67 78
58 65 76
58 66 76
56 64 74
55 62 72
57 64 75
57 65 75
57 65 75
57 64 74
56 63 73
58 66 77
57 65 75
57 65 76
57 65 75
58 67 77
57 65 74
56 63 73
57 64 74
58 66 77
58 66 77
58 66 76
58 65 76
58 66 76
58 66 76
58 66 76
58 66 77
58 66 76
56 64 74
59 67 77
58 66 76
57 65 75
59 67 78
59 67 77
59 67 78
58 66 77
58 65 76
58 65 76
57 65 76
59 67 78
56 64 74
57 65 76
58 66 76
57 65 75
59 67 77
56 64 75
58 65 76
60 68 79
59 67 77
58 66 77
58 66 76
59 67 77
59 68 78
60 68 79
58 66 76
59 67 78
58 66 77
60 68 79
58 66 77
59 68 78
59 67 77
60 68 78
59 67 78
58 67 77
59 67 77
60 68 78
57 65 75
59 67 77
59 67 78
58 66 77
57 65 76
58 66 76
60 68 79
60 67 78
60 68 79
61 69 80
60 68 78
59 67 77
58 66 77
59 67 77
59 67 77
57 66 76
57 65 76
59 67 78
58 66 77
59 67 78
59 67 77
58 66 76
59 67 78
59 67 78
60 67 78
59 67 77
58 66 77
58 66 77
57 65 75
59 67 77
58 66 77
58 66 77
57 65 76
58 66 76
59 67 78
59 67 77
59 66 76
59 68 78
58 66 76
59 67 77
58 66 76
59 67 78
59 67 77
58 66 76
58 66 76
57 65 75
60 67 78
59 67 77
57 65 75
58 66 76
58 66 76
59 67 77
57 64 74
58 66 76
58 66 77
57 66 77
56 64 74
57 65 75
57 65 75
57 65 75
58 66 76
58 66 77
58 66 76
58 66 77
56 64 74
57 65 75
58 65 76
57 65 76
59 67 77
58 66 76
57 65 76
58 65 75
55 62 72
59 67 77
57 65 75
56 64 74
54 62 71
55 62 71
59 67 77
57 66 76
56 64 74
58 66 76
58 66 76
56 64 74
57 65 75
56 64 74
56 64 74
56 64 74
56 63 73
54 61 71
56 63 73
56 63 74
53 60 70
56 64 74
56 63 73
56 64 74
57 65 76
53 61 70
55 62 72
56 64 74
55 63 72
55 62 72
54 62 71
54 62 71
55 62 72
54 61 71
58 65 75
55 63 73
55 63 73
53 61 70
56 64 73
53 60 70
55 62 71
53 60 69
55 62 72
53 60 70
52 59 69
52 59 69
54 61 70
54 61 71
56 64 74
55 62 72
55 63 72
54 62 72
55 63 73
54 61 70
53 60 70
53 60 69
53 61 70
55 62 72
51 57 66
54 61 70
55 62 71
53 60 69
51 58 68
51 58 67
50 57 66
50 56 65
53 61 70
54 61 70
51 58 67
52 59 68
50 57 66
53 60 69
52 59 68
52 59 68
54 61 71
51 57 66
53 60 69
50 56 65
51 58 66
51 58 67
52 59 68
54 62 71
52 59 68
51 58 67
48 55 64
51 58 67
51 58 67
53 60 69
51 58 67
52 59 68
50 56 64
50 57 65
49 56 64
49 56 64
48 55 64
49 56 64
48 54 62
50 56 65
48 54 63
52 59 68
52 59 68
51 57 66
46 52 60
49 56 64
48 54 62
48 54 62
51 58 66
50 56 65
50 56 64
48 54 63
52 59 68
51 58 67
50 57 65
49 56 64
48 54 62
48 54 62
47 53 61
47 53 61
48 55 63
49 55 64
49 56 64
45 50 57
44 50 58
46 52 60
53 59 68
48 55 63
50 56 64
48 54 63
49 55 64
45 51 59
48 54 62
49 55 63
49 55 63
47 53 61
48 55 63
46 51 59
51 58 66
49 55 63
47 53 61
48 54 63
54 60 70
46 52 60
48 54 62
52 58 67
50 56 64
46 52 60
50 57 65
48 55 63
49 56 64
48 55 63
47 53 62
51 58 67
48 55 63
47 53 62
47 53 61
47 54 62
47 53 61
51 57 66
52 59 67
47 53 61
48 55 63
48 55 63
48 54 62
48 54 62
49 56 64
48 54 62
48 55 63
50 56 65
48 54 62
47 54 62
47 53 61
50 56 65
50 56 64
51 57 66
47 53 61
49 56 64
51 58 66
47 53 61
48 54 62
51 58 66
47 53 61
49 55 63
49 56 65
52 59 68
48 54 63
48 55 63
52 59 68
51 58 67
49 56 64
51 57 66
51 58 67
49 56 65
49 55 63
51 57 66
51 57 66
50 57 66
50 56 64
52 59 68
53 60 69
54 61 71
52 59 68
51 58 68
51 57 66
53 60 69
49 56 64
48 54 63
50 57 66
55 62 71
52 59 68
49 56 65
53 60 70
55 63 72
53 60 69
53 60 69
50 57 66
56 63 73
55 62 71
53 61 70
52 59 68
52 59 68
53 60 70
52 59 69
55 62 72
50 57 65
55 62 72
53 60 69
52 59 68
53 60 70
55 63 73
54 62 71
55 63 73
54 61 71
56 63 73
55 63 72
55 62 72
53 60 70
54 61 70
57 65 75
56 64 74
57 65 75
56 64 74
56 63 73
55 63 73
56 64 74
55 62 71
56 63 73
54 61 71
56 64 74
53 60 69
57 65 74
57 64 74
57 65 76
56 64 74
58 65 75
57 65 75
56 64 73
55 62 71
57 65 75
55 62 72
56 64 74
56 63 73
57 65 75
58 66 76
55 63 73
57 65 75
56 63 73
55 63 73
59 67 78
57 65 75
57 64 74
57 64 74
58 66 76
57 65 75
56 64 74
57 65 76
57 65 75
55 63 73
58 66 76
57 65 75
58 65 76
58 66 76
56 64 74
57 65 75
59 66 77
56 63 74
58 66 77
57 64 75
58 66 76
56 64 75
59 67 78
58 66 77
59 67 78
57 65 76
58 66 77
58 66 76
59 67 77
57 65 76
58 65 76
57 66 77
57 65 76
60 68 78
58 65 75
58 66 76
58 66 77
59 67 77
58 66 76
58 66 77
59 66 76
57 65 76
59 67 77
59 67 77
58 66 76
59 67 78
59 66 77
58 66 76
59 67 77
58 66 77
59 68 78
60 68 79
60 68 79
60 68 79
58 66 77
58 66 77
59 67 77
60 68 79
57 65 76
59 68 78
59 67 78
59 67 78
59 67 78
59 67 78
59 67 78
59 68 78
59 67 78
58 66 77
60 68 79
60 67 78
59 67 77
58 66 77
59 67 78
60 69 79
59 66 76
59 67 77
60 68 78
59 67 78
57 65 75
61 69 80
58 66 76
58 66 76
60 68 78
59 67 78
59 67 78
59 67 77
60 68 79
59 67 78
58 66 77
58 66 77
58 66 77
58 66 77
58 66 77
58 67 77
58 66 76
59 67 77
59 67 77
56 63 73
57 65 75
59 67 78
57 65 75
56 64 74
58 65 76
60 68 78
58 66 77
60 67 78
57 64 74
58 66 77
58 66 76
57 65 76
59 67 77
57 65 75
59 68 79
56 65 75
58 66 76
56 64 74
58 66 76
57 65 75
58 66 77
56 64 74
59 67 78
59 66 77
57 65 75
57 65 75
54 62 71
56 64 74
58 66 77
56 64 74
59 67 77
58 66 76
56 64 74
58 66 76
57 65 75
56 64 74
57 65 75
58 66 76
57 64 74
58 65 76
58 66 76
56 64 74
55 62 72
57 65 75
57 65 75
55 62 71
56 64 74
54 62 72
55 63 73
58 65 76
58 65 75
53 61 70
54 61 71
55 63 73
54 61 71
56 64 73
56 63 73
56 64 74
53 60 69
55 62 72
54 62 71
55 63 73
52 60 69
53 61 70
54 61 71
53 60 70
56 64 73
55 62 72
53 60 70
54 61 71
54 61 71
54 61 70
55 63 73
53 60 69
54 61 71
54 61 71
54 62 71
53 60 70
54 62 71
54 61 70
55 63 72
53 60 70
53 60 70
52 59 68
53 60 70
53 60 70
54 61 70
55 62 72
55 62 72
53 60 70
53 60 69
51 58 67
51 58 67
52 59 68
52 59 68
53 60 70
54 61 71
51 58 67
53 61 71
52 58 67
53 60 69
55 62 72
54 62 71
52 59 68
52 59 68
53 60 69
53 60 69
52 59 69
52 59 68
50 56 65
49 56 65
52 59 68
51 58 67
53 60 69
52 59 68
49 55 63
51 58 67
50 56 65
48 54 62
53 60 69
48 55 63
50 57 65
51 58 66
53 60 70
49 56 65
51 58 67
53 59 68
48 54 62
52 59 68
50 56 64
48 55 64
46 52 60
50 57 65
48 54 62
48 54 62
52 58 66
48 54 63
50 57 66
48 55 63
47 53 61
47 53 61
48 55 63
47 53 61
49 56 64
48 55 63
46 52 60
51 57 66
44 49 57
49 56 64
49 55 63
46 52 60
47 53 62
51 58 66
44 49 56
49 55 63
47 52 60
46 52 60
48 54 63
51 58 66
50 57 65
49 55 64
47 53 61
51 57 66
49 55 63
49 55 63
48 54 62
46 52 59
46 51 59
51 57 66
50 56 64
46 53 61
50 57 65
48 55 63
49 56 64
51 57 66
45 51 58
49 55 64
48 54 62
50 56 65
50 57 66
45 50 58
50 57 66
49 56 64
51 57 66
48 54 63
48 54 62
50 56 65
49 56 64
50 56 65
48 54 62
50 56 65
52 59 68
49 56 64
45 51 59
47 53 61
52 59 68
50 57 65
48 54 62
47 53 61
50 56 64
47 53 62
54 61 70
46 52 59
48 54 63
50 57 65
49 56 64
48 55 63
52 59 68
49 55 64
48 55 63
50 56 65
49 56 64
48 55 63
46 53 61
50 57 65
50 57 65
49 55 63
50 57 66
52 59 68
48 54 63
52 59 68
48 54 63
52 59 69
52 59 68
50 57 67
52 59 67
49 55 64
49 55 63
52 59 68
54 61 70
49 55 64
51 58 67
53 60 69
54 60 69
52 58 67
54 62 71
52 58 67
50 57 66
50 57 65
51 58 67
50 56 65
53 60 70
51 59 68
50 57 66
52 59 69
50 56 64
52 59 68
55 63 72
54 61 71
54 62 71
55 62 72
53 60 70
55 63 72
55 63 72
54 61 70
52 58 67
54 61 71
51 58 67
53 60 70
55 62 71
51 58 67
54 61 71
52 59 68
58 66 76
55 63 73
56 63 73
53 60 70
52 59 69
52 59 68
56 64 74
54 61 70
55 63 73
56 64 74
53 60 69
53 60 70
53 61 70
57 64 74
53 60 69
53 60 70
55 63 73
50 57 66
56 64 74
57 65 75
56 64 74
56 63 73
55 62 72
55 63 73
54 61 71
56 64 74
53 61 71
57 64 74
54 62 72
56 64 74
55 63 73
57 65 76
56 63 72
56 64 74
56 64 75
56 63 73
57 65 75
57 65 75
54 62 72
57 65 75
57 64 74
53 60 70
55 63 73
55 63 72
55 63 72
58 66 77
58 66 76
57 65 74
57 65 76
58 66 76
57 65 75
58 66 77
56 64 74
56 64 74
57 65 76
56 65 75
58 65 76
56 64 74
57 64 74
57 66 76
57 65 75
58 66 76
56 63 73
58 66 77
57 64 74
58 66 77
57 65 75
53 61 70
57 64 74
58 66 77
57 65 75
57 65 75
57 65 75
58 66 76
59 67 78
59 67 77
58 66 76
59 67 77
57 65 75
59 67 77
59 67 77
58 66 76
56 64 74
58 66 77
59 67 78
59 67 77
58 65 76
59 67 77
59 67 78
59 67 77
60 67 78
58 67 78
59 67 78
59 66 77
60 68 78
60 68 78
58 66 77
58 67 77
59 67 77
60 68 79
59 67 78
59 67 78
59 67 77
60 68 79
58 66 77
57 65 76
58 66 76
59 67 78
60 68 79
59 67 77
60 68 78
59 67 78
59 67 78
58 66 77
58 66 76
58 66 76
59 67 77
59 67 77
58 65 75
59 66 77
59 67 77
56 64 74
59 67 77
60 68 79
60 68 78
57 65 75
58 66 77
58 66 76
56 64 74
58 66 77
57 65 75
58 66 76
58 66 77
57 64 74
58 66 77
58 66 77
58 66 76
59 67 78
59 67 77
59 67 78
58 66 77
59 67 78
58 66 77
57 65 75
56 63 73
58 67 77
58 65 76
58 66 76
59 67 77
55 63 73
59 67 77
58 66 76
57 65 75
58 66 76
58 66 76
58 66 76
56 63 73
56 64 74
56 63 73
57 65 75
58 66 76
56 64 74
60 67 78
57 65 75
56 63 74
58 66 76
57 65 75
57 64 75
58 66 77
57 65 75
57 64 74
58 66 76
58 66 76
58 66 77
57 64 74
54 61 71
55 63 73
57 64 74
57 64 74
55 63 73
57 64 75
57 65 75
56 63 73
56 64 74
56 64 74
56 64 74
57 64 75
59 67 77
56 64 74
56 64 74
55 63 74
56 63 73
56 64 74
54 62 72
56 63 74
53 60 70
54 61 71
57 64 74
57 64 73
56 63 73
54 61 71
57 65 75
56 63 73
53 60 70
56 64 74
57 65 74
56 64 74
54 61 71
54 62 72
54 61 71
53 61 71
54 61 71
52 59 68
56 63 72
53 60 70
55 62 72
57 65 74
53 61 70
53 60 69
53 61 70
55 62 72
55 62 71
55 62 72
57 65 75
53 60 69
55 61 71
55 63 73
54 61 71
53 60 70
54 61 71
52 58 67
50 57 66
55 62 72
54 62 72
52 59 69
55 62 72
52 59 68
52 59 68
51 58 67
48 54 63
51 58 67
51 57 66
49 56 64
52 59 68
52 59 68
52 59 69
46 52 61
52 59 69
52 59 68
47 54 62
49 55 64
53 60 69
51 58 66
54 62 71
49 56 64
49 56 64
52 58 67
52 58 67
48 55 63
51 58 67
51 58 66
49 56 64
49 56 64
51 58 66
50 57 65
49 56 65
51 58 67
48 54 62
50 57 65
50 57 67
48 55 63
46 53 61
50 57 66
49 55 64
50 57 66
51 57 66
51 58 67
51 57 66
50 57 65
47 54 61
47 54 62
50 57 66
50 57 66
50 57 65
48 54 63
48 54 62
50 57 65
50 57 65
45 51 58
52 59 68
48 54 62
49 56 64
46 52 60
46 53 61
49 55 63
46 52 60
49 56 64
50 57 66
49 55 64
45 51 59
48 55 63
48 54 62
47 54 62
46 52 60
47 53 61
51 58 67
50 57 65
47 53 61
48 55 63
47 53 61
51 58 67
50 57 66
49 55 63
46 52 60
48 54 62
48 55 64
48 54 63
44 50 57
51 58 67
52 59 68
48 53 61
50 56 64
49 56 65
47 54 62
49 55 63
51 58 67
46 52 60
50 56 64
48 54 63
48 54 62
48 55 63
48 55 63
49 56 64
48 55 63
49 56 64
47 53 61
48 55 63
51 58 67
54 61 70
50 57 65
46 52 61
51 57 66
52 59 68
48 54 63
49 56 64
49 55 64
52 59 68
52 58 67
53 60 69
51 58 66
51 57 66
51 57 66
51 58 66
51 58 67
55 62 71
52 58 67
48 54 61
51 58 67
47 53 61
49 55 64
50 57 67
54 61 70
51 59 68
54 61 70
49 56 64
50 57 66
51 57 66
52 59 67
52 59 68
50 57 66
53 61 70
51 59 68
49 56 65
53 60 70
51 58 68
52 59 68
55 62 71
51 59 68
51 58 66
52 59 68
51 58 67
55 62 71
52 58 67
51 58 67
53 60 69
51 57 66
54 62 72
55 62 72
51 58 66
53 61 70
54 62 71
55 62 72
54 61 70
53 61 71
53 60 70
56 64 74
52 59 69
53 60 69
53 61 70
53 60 69
55 63 73
55 63 73
52 59 69
55 63 73
54 62 72
52 59 68
51 58 67
57 65 75
54 61 71
55 63 74
57 65 75
56 63 73
56 64 74
55 62 72
55 63 73
54 62 71
55 63 73
57 65 76
55 63 73
54 61 71
54 61 71
55 62 72
57 64 74
56 64 74
55 63 73
54 62 72
55 62 72
56 64 74
55 62 72
56 63 73
57 65 75
57 65 75
55 62 72
57 65 75
56 63 74
56 63 74
56 64 74
57 65 75
57 64 74
57 65 75
56 63 73
56 63 74
57 64 74
57 65 75
58 66 76
57 65 75
55 63 73
55 62 72
58 66 76
56 63 74
59 67 77
55 63 73
56 64 74
58 66 76
57 65 75
57 65 75
57 64 74
56 64 74
59 66 76
57 66 76
58 65 76
57 64 74
58 66 77
58 66 76
58 66 76
57 65 76
58 65 76
58 66 76
56 64 74
57 65 75
58 66 76
58 65 76
57 65 75
60 68 79
57 65 76
57 65 76
58 65 76
58 65 75
57 65 75
58 65 76
58 66 77
58 66 76
58 66 76
59 67 77
59 67 78
58 66 77
57 64 74
59 68 79
59 67 78
60 67 78
58 66 77
60 68 78
58 66 76
58 66 76
58 66 77
57 65 75
59 67 78
59 67 78
60 68 78
59 67 78
59 67 78
60 68 79
58 66 76
60 68 79
60 68 78
59 67 78
59 67 78
58 66 77
60 68 78
59 67 78
59 67 78
58 66 76
58 66 77
60 68 78
58 66 76
59 67 78
59 67 77
57 65 75
57 65 76
58 66 76
59 67 77
59 67 77
57 65 76
59 67 78
59 67 78
58 66 76
58 66 77
59 67 77
59 67 78
59 67 78
59 67 77
58 66 76
58 65 76
55 63 73
58 66 77
58 66 76
56 64 74
58 66 76
57 64 74
59 67 77
59 67 77
56 64 74
58 66 77
59 67 77
59 67 76
56 64 74
58 66 77
56 64 73
57 65 76
57 65 76
59 67 78
57 65 76
57 65 75
58 65 76
57 65 75
57 65 75
57 64 74
58 66 76
56 64 74
58 65 76
56 64 74
57 64 74
58 66 76
58 66 76
59 67 77
56 64 74
58 66 76
57 64 75
58 65 76
57 65 75
56 64 74
57 65 75
56 63 73
55 63 73
57 64 74
59 67 77
57 66 76
57 65 74
58 66 76
58 66 76
56 63 73
57 65 76
56 64 74
57 64 74
57 65 75
57 64 74
59 66 76
56 63 73
58 66 76
55 62 72
55 63 73
57 65 75
56 63 73
56 63 73
56 63 73
56 64 74
54 62 72
56 63 72
55 63 72
55 62 72
57 65 74
55 62 72
53 61 70
54 61 70
55 63 73
55 62 72
55 62 72
54 62 71
53 61 70
56 64 74
55 62 72
55 62 72
52 59 68
57 64 74
55 62 72
54 61 71
52 58 67
54 62 72
56 64 74
53 60 70
56 63 74
52 59 68
54 62 72
51 58 67
53 61 70
53 60 69
53 60 70
54 62 71
51 58 66
52 58 68
51 58 67
52 60 69
52 59 68
51 58 68
52 59 68
52 59 68
51 58 68
51 58 67
52 59 68
51 57 66
49 56 65
53 60 69
52 59 68
52 60 69
52 59 68
52 59 68
48 54 63
52 59 68
53 60 70
55 62 71
54 61 70
53 60 69
49 56 64
51 58 67
49 56 65
50 57 65
50 57 66
52 58 67
45 52 60
51 57 66
53 60 69
52 59 68
50 57 66
51 58 67
50 57 65
52 58 67
49 56 64
48 55 63
49 55 63
48 55 63
48 55 64
53 60 69
50 56 65
49 56 64
49 55 63
48 55 63
53 59 68
53 59 68
49 55 63
50 57 65
49 55 63
47 54 62
48 54 62
50 56 64
48 55 63
47 53 61
48 54 63
48 54 62
50 57 66
46 52 60
47 54 62
52 59 68
47 54 62
53 60 69
50 56 64
52 59 68
46 52 60
47 53 62
47 54 62
48 55 63
50 57 66
45 51 58
48 54 63
47 53 61
49 55 64
48 55 63
48 55 63
52 58 66
50 56 65
50 56 64
50 56 65
49 55 63
46 52 60
48 54 63
49 55 63
48 54 62
47 53 61
50 56 64
49 56 65
47 53 61
48 54 62
44 50 57
47 53 61
48 54 62
46 52 59
50 56 65
48 55 64
48 54 63
50 56 65
49 55 63
51 58 66
46 52 60
50 56 65
51 57 66
50 56 64
49 55 64
50 56 64
51 58 66
51 58 67
49 55 63
48 55 63
46 52 61
48 55 63
45 51 58
52 59 68
53 59 68
54 61 69
51 57 65
53 59 68
49 56 64
52 59 68
50 56 65
48 54 63
53 60 69
52 59 68
53 60 69
51 58 67
52 59 68
48 55 63
53 60 69
52 58 67
52 59 68
50 57 66
51 58 67
51 58 68
51 58 67
53 60 70
51 58 67
45 51 59
49 55 64
51 58 67
54 61 70
50 56 65
52 59 69
52 59 68
52 59 68
50 56 65
55 63 72
54 61 71
53 61 70
53 61 70
51 58 67
52 60 69
54 61 71
55 62 71
54 61 70
52 59 69
53 60 69
53 61 70
52 60 70
52 59 69
57 65 75
54 61 70
53 59 68
55 62 72
52 59 68
56 64 73
55 62 72
55 62 71
50 57 65
57 64 74
55 62 72
54 61 71
55 62 72
54 61 70
55 63 73
55 62 71
55 63 72
50 57 66
54 61 71
55 62 72
57 65 74
54 61 71
56 64 74
54 61 71
57 65 75
57 64 74
54 61 71
56 63 73
55 63 73
57 65 76
57 64 73
56 63 73
56 63 73
55 63 73
54 61 70
55 63 73
55 62 73
57 64 74
55 63 73
55 63 73
57 64 74
55 62 71
55 62 72
55 63 72
56 64 73
56 63 73
57 65 74
54 61 71
56 64 73
56 64 74
56 63 73
55 63 73
57 65 75
56 64 75
55 62 72
57 65 76
57 65 75
57 65 75
56 64 74
58 66 76
57 65 75
57 65 75
56 64 74
56 64 74
57 65 76
57 64 74
57 65 75
54 62 72
57 65 76
57 66 76
57 65 76
58 66 77
58 66 76
58 66 76
59 67 78
57 65 76
57 65 75
57 65 75
58 65 76
57 65 76
56 64 74
59 67 78
57 65 76
58 66 76
59 67 77
57 65 76
57 65 75
58 66 76
58 66 76
57 65 75
60 68 79
56 64 74
58 66 76
57 65 75
57 65 75
58 66 76
59 66 77
59 66 76
57 65 74
59 66 77
58 66 77
58 66 76
58 67 77
58 66 76
58 66 76
59 67 78
59 67 78
59 68 78
56 64 74
59 67 78
58 66 76
60 69 79
58 66 76
58 66 77
59 67 78
59 67 77
59 67 78
59 67 78
59 67 77
59 67 78
57 65 75
59 67 77
59 68 78
58 67 77
57 65 75
60 68 78
59 67 77
59 67 77
59 67 77
59 67 78
59 67 77
57 66 76
59 67 77
59 67 78
59 66 77
58 66 77
60 68 79
60 68 79
60 68 78
59 67 78
58 66 77
58 66 76
57 65 75
57 65 75
57 64 74
59 67 77
59 67 78
57 65 75
59 67 77
60 68 78
59 67 77
58 65 76
58 66 76
57 65 76
58 66 77
56 64 74
57 65 76
58 66 77
57 66 76
57 65 75
59 67 77
59 67 77
57 65 76
59 67 77
59 67 77
58 66 76
57 65 75
56 64 74
55 62 72
58 65 75
57 65 76
58 66 76
58 66 76
57 65 75
58 66 77
55 63 73
56 63 74
58 66 76
55 62 72
58 66 77
54 61 70
56 64 74
59 67 77
56 64 75
57 65 75
55 62 71
55 63 73
58 66 76
57 64 74
59 68 78
57 65 75
56 64 74
55 63 73
57 64 74
56 64 74
55 62 72
56 63 73
58 65 75
55 62 72
56 63 73
55 62 72
57 64 74
55 63 73
55 62 72
54 62 72
54 62 72
55 63 72
53 60 70
53 61 71
56 63 73
56 64 74
56 63 73
53 61 70
52 59 69
56 63 73
54 62 71
54 61 71
53 61 70
55 63 72
54 61 70
53 60 69
54 61 70
55 62 71
55 62 72
54 61 70
55 62 72
55 62 72
54 61 70
51 58 68
50 57 66
52 59 68
51 57 66
52 59 68
54 61 71
52 60 69
52 59 69
53 61 70
52 59 68
54 61 70
55 62 71
52 60 69
54 60 70
51 58 66
52 59 69
53 60 69
52 59 69
52 59 69
53 60 69
50 57 66
52 60 69
55 63 72
53 60 69
49 55 64
51 59 68
51 57 66
52 59 68
53 60 69
52 58 67
50 57 66
51 58 67
56 63 73
54 61 70
51 58 68
49 55 63
51 58 67
53 60 69
47 54 62
51 58 67
52 59 68
48 54 63
50 57 66
50 57 65
50 57 66
50 57 66
52 59 68
48 54 62
51 58 67
52 59 68
48 54 62
49 56 65
50 57 65
48 55 63
48 54 63
49 55 63
48 54 62
51 58 66
48 54 62
52 58 67
52 58 67
50 56 65
51 58 67
50 56 65
50 56 64
52 59 68
49 56 64
49 55 63
49 56 64
52 59 68
51 57 66
48 54 62
49 55 64
48 54 63
53 59 68
46 52 60
51 58 66
49 56 64
49 55 64
50 57 65
52 59 68
51 57 66
49 55 63
47 53 61
46 52 60
52 58 67
47 54 62
49 55 63
49 56 65
48 55 63
49 55 63
50 57 66
49 55 63
49 55 63
46 52 60
47 53 61
49 55 63
44 50 57
51 57 66
51 58 67
51 57 66
52 59 68
47 54 62
51 58 67
51 57 66
50 57 66
47 54 62
52 59 67
46 52 59
48 54 62
48 54 63
48 54 62
52 59 68
48 54 62
52 58 67
50 56 65
49 55 63
49 56 64
48 54 63
46 52 60
51 58 66
51 58 67
51 58 67
47 53 61
49 56 65
52 59 67
50 57 65
51 58 67
51 58 67
52 58 67
47 53 61
51 58 67
50 56 65
47 53 61
51 57 66
50 57 66
51 58 67
50 57 65
52 59 67
46 52 60
50 56 65
54 61 70
51 58 67
53 61 70
50 57 66
51 58 66
51 57 66
53 60 70
54 61 70
53 60 69
55 63 72
51 58 66
52 59 68
50 57 66
53 60 70
51 58 67
55 62 71
53 60 69
53 60 69
51 58 67
55 63 72
54 61 70
54 62 72
52 59 68
53 60 69
54 61 70
49 56 64
55 62 71
54 61 71
53 60 70
54 61 70
51 58 67
53 60 69
54 61 71
56 64 73
51 58 67
55 62 72
52 59 68
51 58 67
54 61 70
54 61 71
57 64 74
54 62 71
56 63 73
54 61 70
52 59 69
57 65 74
56 63 72
54 62 72
54 61 70
55 62 71
53 61 70
55 62 71
54 62 71
53 60 69
54 62 71
54 61 71
57 64 74
52 59 68
55 62 72
56 64 74
56 64 74
55 63 73
54 61 71
57 64 74
55 62 72
57 65 75
55 63 73
56 63 73
56 63 73
55 62 72
56 63 73
55 63 73
55 63 73
58 66 76
55 62 72
59 67 77
55 63 72
57 65 75
57 65 74
58 65 76
58 66 76
56 63 73
56 64 74
57 64 74
56 64 73
58 66 76
57 65 75
54 62 71
59 67 78
58 66 76
59 67 78
58 66 76
58 66 76
55 63 73
57 65 76
57 65 75
59 67 78
59 66 76
56 64 74
58 66 77
58 66 76
57 65 75
58 66 77
58 66 76
58 66 76
57 65 76
58 66 76
57 66 76
56 64 74
57 65 76
56 64 74
57 65 75
58 65 76
58 66 76
55 63 73
56 64 74
57 65 75
59 67 78
57 65 75
58 66 76
59 67 78
59 67 77
58 66 76
57 66 76
59 67 78
56 64 74
58 66 77
59 67 77
58 66 76
57 65 76
60 68 78
59 67 78
56 64 75
58 66 76
59 68 78
58 66 76
59 67 78
59 67 77
59 67 77
59 67 78
57 65 76
57 66 76
60 68 79
58 66 77
59 67 78
59 68 78
60 68 79
58 66 76
59 66 76
59 67 78
59 67 78
59 68 79
57 65 75
58 66 77
59 67 77
59 67 78
59 67 78
58 66 76
57 65 75
58 66 76
58 66 77
57 64 74
58 66 76
56 64 74
58 66 77
57 65 76
59 67 78
58 66 76
58 66 76
57 65 76
58 66 77
56 64 74
58 66 76
60 68 78
58 66 77
58 66 76
58 65 76
59 67 77
58 65 76
58 66 76
60 68 78
59 67 77
57 65 76
57 65 76
58 66 76
56 63 73
56 64 75
58 66 77
58 66 76
59 67 77
56 64 74
58 65 75
57 65 76
58 66 76
58 66 77
55 63 73
57 65 75
57 65 75
58 65 76
57 65 75
57 65 76
56 64 74
55 63 74
58 66 76
58 66 76
57 65 74
56 64 74
57 64 74
56 64 74
58 66 75
55 62 72
56 64 74
56 63 73
58 65 75
56 64 75
57 64 74
56 64 74
56 64 73
57 65 75
54 62 71
58 66 76
57 65 75
56 63 73
58 66 76
55 62 72
55 62 72
56 64 74
55 63 73
53 61 70
57 65 75
56 64 74
55 63 73
56 64 74
54 61 71
57 65 74
54 61 71
56 63 73
55 63 74
56 63 73
56 64 74
58 66 76
55 63 73
53 61 70
56 63 73
55 62 71
55 63 72
56 64 74
56 64 73
54 61 70
55 63 72
55 62 72
56 63 73
54 61 71
55 63 73
54 62 71
53 61 70
55 62 72
51 58 67
54 61 70
56 64 73
51 58 67
53 60 69
50 56 65
53 60 70
56 63 74
52 59 69
55 62 72
53 60 69
53 60 69
51 58 67
51 58 67
53 60 69
51 57 66
54 61 70
53 61 70
53 60 69
51 58 67
55 62 72
52 60 69
49 56 65
52 59 68
53 60 70
54 61 70
50 57 66
52 59 68
52 59 68
53 59 68
51 58 67
51 58 67
50 57 66
53 59 69
53 60 70
52 59 68
55 62 71
51 58 66
50 56 65
52 59 68
54 60 69
48 55 63
51 58 67
52 59 68
49 56 65
49 55 64
51 58 67
50 57 66
50 57 65
52 59 68
50 56 65
47 53 61
52 59 68
53 60 69
48 55 63
52 59 68
52 59 67
50 56 65
50 56 65
51 57 66
47 53 61
51 58 67
49 55 64
47 53 61
50 57 65
49 56 64
46 52 60
48 54 63
49 56 64
51 57 66
49 55 63
46 52 60
51 57 66
48 54 63
51 57 66
50 56 65
51 57 65
51 58 67
50 56 65
47 53 61
48 54 63
51 58 66
51 57 66
50 57 65
51 58 67
51 57 65
48 54 62
51 58 67
49 55 63
50 56 64
46 52 61
51 57 66
52 59 68
50 56 64
47 53 61
48 54 63
50 56 64
50 56 64
51 58 67
47 53 62
47 54 62
47 53 61
48 54 63
49 55 64
48 55 63
52 59 68
50 57 65
49 55 64
50 57 65
52 58 67
49 56 64
52 59 68
50 56 65
49 55 64
49 55 63
50 56 65
52 59 69
50 56 64
48 54 62
47 53 61
51 57 66
49 56 64
50 57 65
51 58 67
50 57 65
50 57 65
52 59 68
51 58 67
49 56 64
52 59 68
51 57 66
50 56 65
48 54 63
53 60 70
48 54 63
49 55 64
51 58 66
51 58 67
46 52 60
49 55 64
53 60 69
53 60 69
50 57 65
54 61 70
53 60 69
52 58 67
54 61 70
51 58 66
55 63 73
53 60 69
52 59 68
53 59 68
51 58 67
50 57 65
50 57 66
50 57 66
51 58 67
54 61 71
54 61 70
54 61 71
52 59 68
49 56 65
53 60 70
53 60 70
54 61 71
53 60 70
50 57 65
55 63 72
54 61 70
52 59 69
53 60 69
53 60 70
54 61 70
54 62 71
53 60 70
55 62 72
52 59 68
56 63 72
54 62 71
52 58 67
54 61 71
55 63 72
54 61 70
55 63 73
56 63 73
56 64 73
54 61 71
54 61 70
54 62 72
54 61 70
52 59 68
53 60 69
56 64 73
55 63 73
56 64 74
56 64 74
53 60 70
54 62 71
58 65 75
55 62 71
55 62 72
56 63 73
53 60 69
56 63 73
56 63 73
56 64 74
57 64 74
57 65 75
55 62 72
57 65 76
56 64 74
55 62 72
55 62 72
58 66 76
56 64 74
57 65 76
56 63 73
56 64 74
59 67 77
59 67 77
57 65 75
57 65 76
59 67 77
54 62 72
57 65 75
55 62 72
58 66 76
56 64 74
57 64 74
57 65 75
56 64 74
55 63 73
57 65 75
56 64 74
58 65 76
58 65 75
56 64 75
58 65 76
57 65 75
57 65 75
58 66 76
57 65 76
56 64 74
56 63 73
56 63 73
58 66 77
58 66 76
59 67 78
58 66 76
57 65 76
57 65 75
58 65 76
57 65 76
57 65 75
57 65 75
60 68 78
57 65 75
58 66 77
59 67 77
60 68 79
58 66 76
58 66 77
59 67 78
58 66 77
59 67 77
59 67 78
57 64 74
58 66 76
60 68 78
59 67 77
59 66 77
58 66 76
59 67 78
58 66 77
57 65 76
60 68 78
60 68 79
59 67 78
58 65 75
58 67 77
59 67 77
59 67 78
59 67 78
57 65 76
58 66 76
59 67 77
61 69 80
58 66 77
58 66 76
60 68 79
60 68 79
59 67 78
58 66 77
59 67 77
59 68 78
59 67 77
58 66 77
60 69 79
60 68 79
58 66 76
59 67 77
59 67 78
59 67 78
59 67 77
58 66 76
59 67 77
59 67 77
58 66 77
58 66 77
59 68 79
57 65 75
58 67 77
58 66 77
58 66 76
57 66 76
58 66 76
58 66 77
59 67 77
58 67 77
58 65 76
58 66 77
58 66 77
59 67 78
59 67 77
58 65 76
58 66 76
57 65 76
57 65 75
58 66 76
58 65 75
58 65 75
56 64 74
57 65 75
56 64 74
57 65 75
58 66 76
57 65 75
58 66 76
56 63 73
57 66 76
57 65 76
58 66 76
57 65 75
57 65 75
57 64 74
57 64 74
57 65 75
58 65 75
57 65 75
57 64 74
58 65 75
55 62 72
58 66 76
58 66 76
58 65 75
58 65 75
57 65 75
57 65 75
57 65 75
56 64 75
56 64 74
56 64 74
56 64 74
56 64 74
55 62 72
55 62 72
57 64 74
57 64 74
57 65 75
56 64 75
56 63 73
55 62 72
54 61 71
56 64 74
55 63 72
55 63 73
56 64 74
55 62 71
56 64 74
54 61 71
54 62 71
54 61 71
55 63 74
54 61 71
53 61 70
57 64 74
54 62 72
55 63 73
54 61 70
55 62 71
56 63 73
54 62 71
52 59 69
57 65 74
56 63 73
53 61 70
54 61 71
51 58 67
55 62 71
54 61 71
55 63 73
54 62 71
53 60 69
53 60 70
54 61 71
54 62 71
55 63 73
55 62 71
54 61 71
54 61 70
54 61 71
49 56 65
51 58 67
50 57 66
54 61 70
53 60 68
56 64 73
52 59 68
52 59 68
52 59 68
53 60 69
51 58 66
50 57 66
52 59 67
53 60 69
49 55 64
53 60 69
52 59 68
53 60 69
55 62 71
54 61 69
51 58 66
54 61 71
53 60 69
49 56 64
52 59 69
53 60 69
49 55 64
54 61 70
49 55 63
50 56 64
52 59 68
52 58 68
53 60 69
49 56 64
52 58 67
49 55 64
50 57 66
51 58 67
48 54 62
49 55 64
47 53 61
50 56 64
50 57 66
48 54 63
53 60 69
52 58 67
54 61 70
51 58 67
53 60 69
51 58 67
51 57 66
52 58 67
50 56 65
51 58 66
50 56 65
53 59 68
52 59 68
51 58 67
48 54 63
50 56 64
51 58 66
48 55 63
50 56 65
50 56 65
51 58 67
51 58 67
52 58 66
48 54 62
47 54 62
47 54 62
47 54 62
48 54 62
50 56 65
49 56 64
47 53 61
48 55 63
47 53 62
47 53 62
50 57 66
47 54 62
52 59 68
48 54 62
50 56 65
50 57 65
52 59 68
50 56 65
48 54 62
45 51 59
49 55 63
52 59 68
49 55 63
48 54 61
52 58 67
48 54 62
47 53 61
51 57 66
49 56 64
49 55 64
48 54 62
52 59 68
48 55 64
48 54 63
53 60 69
50 57 65
54 61 70
47 53 61
50 56 65
48 54 63
49 55 63
51 57 66
50 57 66
53 60 69
52 59 68
50 56 65
48 55 64
45 51 59
52 59 67
48 54 63
52 59 68
48 55 63
51 58 66
49 56 64
48 54 63
50 57 65
51 57 66
51 58 67
51 57 66
52 59 68
49 55 64
51 58 66
45 51 59
51 57 66
51 58 67
49 56 64
52 59 69
52 60 69
51 58 67
48 55 64
52 59 68
50 57 66
51 58 67
48 55 63
54 61 71
52 59 69
53 60 69
50 57 66
54 62 72
52 59 68
52 58 67
48 54 62
54 61 70
51 58 68
54 62 72
53 60 70
52 59 67
53 61 71
52 59 68
51 59 68
52 59 69
53 60 69
53 60 69
54 62 72
54 61 71
55 63 73
54 61 71
52 59 69
51 57 66
56 64 73
55 63 73
55 62 72
54 61 71
55 62 72
54 61 70
53 61 70
56 64 74
53 60 70
51 58 67
53 60 70
54 62 71
54 61 71
54 61 71
53 60 69
56 64 74
55 62 72
56 64 74
54 62 72
54 62 71
56 63 73
58 65 76
56 63 73
56 63 73
57 64 75
55 62 72
55 63 74
56 64 75
56 63 73
54 62 71
56 63 73
56 64 74
55 63 73
55 63 73
55 63 73
57 64 74
55 63 73
58 66 76
56 63 72
53 61 71
56 64 74
58 65 75
55 63 72
57 65 76
56 64 74
57 65 75
56 64 74
56 64 74
55 63 72
57 64 74
56 64 74
58 66 76
58 65 75
57 65 75
57 65 75
59 66 77
57 65 75
59 66 76
59 67 77
56 64 74
57 65 75
58 66 76
59 67 78
58 65 76
58 66 76
58 65 75
57 65 75
54 62 72
56 63 73
56 63 73
57 65 75
58 66 77
57 65 75
59 67 77
58 66 76
58 67 77
59 67 78
60 68 78
59 67 78
57 65 76
59 67 78
58 66 76
60 68 79
58 66 76
57 65 76
56 64 74
60 68 79
58 65 76
58 66 76
60 68 78
58 65 75
59 66 77
57 65 75
57 65 75
59 67 77
60 68 79
58 66 76
57 65 75
59 67 78
57 65 75
58 67 78
59 67 78
58 66 76
58 66 76
57 65 75
56 64 74
57 65 76
60 68 78
60 68 79
59 66 77
57 65 75
58 67 77
59 67 77
59 67 78
58 66 77
59 67 78
60 68 79
59 67 77
59 67 77
58 66 76
59 67 77
58 66 76
59 67 77
61 69 79
58 66 77
60 69 80
58 66 77
61 69 79
60 68 78
59 67 77
58 66 77
59 67 77
59 67 78
57 65 75
58 66 76
59 67 77
57 65 75
58 66 76
58 66 76
59 68 79
57 65 75
58 65 76
57 66 76
59 67 77
58 66 76
59 66 76
58 66 76
57 65 75
58 66 76
58 66 76
57 64 74
59 67 77
57 65 75
58 65 75
57 64 75
56 63 73
58 66 77
56 64 74
56 63 73
58 67 77
57 65 76
58 66 76
58 66 76
57 65 75
57 65 76
58 65 75
58 65 76
59 67 78
57 65 75
57 65 76
57 65 75
57 65 75
58 66 76
58 66 76
58 66 76
57 65 75
57 65 75
58 65 76
56 64 74
57 64 74
59 67 77
57 64 75
56 63 73
57 65 76
56 64 73
56 64 74
57 65 75
56 63 74
57 65 75
56 64 74
54 62 72
56 63 73
57 65 75
56 64 74
55 62 72
56 63 73
56 64 73
56 64 74
56 63 74
56 64 74
56 63 73
58 66 76
55 63 73
58 66 76
54 62 71
56 64 75
56 63 72
55 62 72
55 63 73
54 61 71
53 60 69
56 64 74
54 61 70
55 62 71
55 63 73
56 64 73
55 62 72
52 59 68
51 58 67
53 60 69
52 59 68
54 61 71
53 61 70
53 60 69
55 63 73
53 61 70
58 65 75
50 57 66
56 63 73
51 58 67
53 60 70
50 58 67
54 61 71
52 59 68
53 60 69
53 60 70
53 60 70
52 59 69
52 59 68
50 56 65
52 59 69
55 62 72
54 62 71
54 62 71
53 60 69
52 59 68
54 61 70
53 59 68
52 59 68
51 58 66
53 60 69
54 61 71
52 59 68
51 58 67
53 60 69
52 60 69
55 62 71
52 59 68
53 60 69
54 61 71
53 60 69
52 59 68
52 59 68
52 58 67
49 56 65
54 62 71
51 58 67
50 57 66
53 60 69
50 56 64
50 56 65
49 56 64
49 55 64
50 57 65
53 60 69
49 56 64
51 58 67
49 55 64
51 57 66
53 60 69
53 60 69
51 58 67
51 58 67
50 57 65
52 59 68
49 55 64
47 54 62
52 59 68
52 59 68
49 56 64
53 60 69
51 58 68
50 57 65
49 56 64
49 55 63
54 61 69
51 58 67
52 58 67
49 56 64
50 57 66
51 58 66
51 57 66
47 53 61
51 58 67
53 59 68
48 54 62
50 57 66
50 56 64
48 54 62
49 55 63
50 57 65
50 56 65
53 60 70
50 57 66
51 57 66
48 54 62
52 59 68
51 57 66
51 57 66
47 54 62
49 55 64
53 60 69
50 56 65
49 56 64
50 56 64
48 54 63
51 58 67
51 57 66
49 55 64
51 57 66
51 58 67
49 55 63
50 57 65
49 56 64
48 54 63
50 57 66
48 54 62
49 56 64
51 58 67
49 55 64
52 59 68
53 60 68
52 59 67
50 56 65
45 51 58
53 60 69
50 57 65
46 52 60
51 57 66
54 61 70
48 54 62
54 61 70
50 56 65
51 57 66
50 57 66
50 56 65
52 59 68
53 60 70
52 59 68
51 58 66
51 57 66
51 57 66
53 60 69
51 57 66
50 57 66
50 56 65
50 57 65
53 60 69
51 58 67
52 59 68
53 60 70
53 60 69
54 61 71
54 61 70
53 60 69
51 58 67
52 59 68
53 60 69
52 59 68
52 59 69
57 65 74
52 58 67
55 62 72
53 60 69
53 60 69
53 61 70
50 57 66
56 63 73
52 59 68
51 57 65
54 62 71
50 57 66
51 58 67
53 61 70
51 58 67
53 60 69
52 59 68
56 63 73
54 61 70
54 61 70
52 59 69
54 61 70
56 64 75
57 64 74
55 62 71
53 61 71
52 59 68
55 63 74
54 61 71
53 61 70
55 62 72
54 62 71
55 63 73
55 63 72
56 63 73
56 63 73
55 62 72
54 62 71
55 63 72
54 61 71
53 60 70
55 63 72
56 63 72
56 63 72
56 64 74
56 64 73
57 65 75
55 63 73
57 64 74
57 64 74
54 62 72
57 64 74
57 65 75
56 64 74
57 64 74
57 64 75
54 61 71
56 63 73
56 64 74
57 64 74
56 64 74
56 64 74
57 65 75
57 65 75
57 65 76
57 65 75
57 64 74
56 64 74
59 67 78
53 60 70
55 63 74
58 65 75
57 65 75
57 65 75
57 64 74
57 65 76
57 65 75
58 66 76
57 64 75
57 65 75
58 66 76
56 64 74
57 64 74
57 65 75
56 64 74
57 65 75
58 66 76
58 66 77
57 65 75
57 65 75
59 67 77
58 66 76
57 65 76
58 66 77
57 65 75
56 64 74
57 64 74
59 67 77
57 65 75
56 64 75
59 67 77
57 65 75
58 66 76
59 67 78
56 64 74
58 66 77
56 64 74
58 66 77
57 65 76
58 66 76
57 65 76
58 65 75
59 67 77
60 68 78
58 66 76
58 66 76
59 67 77
59 67 78
58 66 76
59 67 78
57 65 76
59 67 78
58 66 76
57 65 75
59 67 78
59 67 77
59 67 77
57 65 76
60 68 78
59 68 78
58 66 76
60 68 78
59 68 78
59 68 78
58 67 77
58 66 76
58 66 76
58 66 77
59 67 77
58 65 76
61 69 79
58 67 77
59 67 77
58 66 77
60 68 78
59 67 78
59 67 77
59 67 78
59 67 77
59 67 78
58 66 76
59 67 78
57 65 75
57 64 75
58 66 76
58 66 77
57 65 76
59 67 78
58 66 76
58 67 77
58 66 76
60 68 78
58 66 76
58 65 75
57 66 76
60 68 78
58 66 76
58 65 76
56 64 74
58 66 76
57 65 76
57 65 75
56 64 75
59 67 78
58 65 76
56 64 75
56 64 74
57 65 75
59 66 77
60 67 78
59 67 77
59 66 77
58 66 76
58 66 76
58 66 76
59 67 78
58 65 75
58 66 76
56 64 74
58 65 75
57 65 75
59 66 77
56 63 73
57 65 75
57 65 75
55 63 74
56 63 73
58 66 76
56 64 74
56 64 74
58 65 75
59 66 76
56 64 74
57 65 75
56 64 74
57 65 74
54 61 70
54 62 71
55 62 72
55 63 73
58 65 75
54 61 71
56 64 74
56 64 74
57 65 75
55 62 72
54 61 70
55 63 73
56 64 73
54 61 71
55 62 72
56 64 74
56 64 74
53 61 71
56 64 74
56 64 74
56 63 73
55 62 72
57 64 75
53 61 70
57 64 74
56 63 74
55 62 72
56 63 73
56 63 73
51 58 67
57 64 75
55 62 72
55 62 72
54 61 71
52 59 68
54 61 71
56 64 74
52 60 70
51 59 68
55 62 72
49 56 65
54 62 71
51 58 67
53 60 70
54 61 71
53 60 70
54 61 71
55 63 73
51 58 67
52 59 68
54 61 70
53 60 69
50 57 65
52 59 69
50 57 66
52 59 68
53 61 71
47 54 62
51 58 67
54 61 71
52 59 69
53 60 70
53 60 69
52 59 68
50 57 65
52 59 68
51 58 67
50 56 65
53 61 70
53 60 69
51 58 66
50 57 66
49 56 65
55 62 71
51 58 67
49 56 64
52 58 67
52 59 68
52 59 68
49 55 64
55 62 71
52 59 68
47 53 62
52 59 68
52 59 68
48 54 62
50 57 66
52 59 67
50 56 64
51 58 67
49 56 64
50 57 66
50 57 65
52 59 68
51 58 66
54 61 70
53 60 69
49 56 65
49 55 64
48 54 63
52 59 68
50 57 65
48 54 62
49 55 64
47 54 63
47 53 62
52 59 68
53 60 70
52 59 69
48 55 63
50 57 66
45 50 58
49 55 64
50 57 65
50 57 65
50 57 65
50 57 65
48 54 63
55 62 71
50 56 64
51 58 66
50 56 65
47 53 61
49 56 65
50 56 65
52 59 68
47 53 60
51 58 67
49 56 64
52 58 67
48 54 62
47 53 61
52 59 68
52 59 68
51 58 67
51 57 67
50 57 66
51 58 67
50 56 65
51 57 66
52 59 68
50 56 65
49 56 64
51 59 68
48 54 62
51 57 66
50 57 65
48 55 63
50 56 64
52 59 68
49 56 64
52 59 68
51 58 67
54 61 69
50 56 65
52 59 68
49 56 64
49 56 64
51 57 66
49 56 64
51 57 65
52 58 67
51 58 67
50 57 66
49 56 65
52 59 67
49 56 64
52 59 68
52 58 68
51 58 67
48 55 64
49 56 64
53 60 69
51 58 67
54 61 70
53 60 69
52 58 68
52 59 68
51 58 67
50 58 67
50 57 66
52 59 68
53 59 69
51 57 66
50 57 65
52 59 68
54 60 69
51 57 66
52 59 69
50 57 66
55 62 71
52 59 68
53 60 69
53 60 69
54 61 70
52 59 68
53 60 69
51 58 67
52 59 68
51 57 66
52 59 68
53 60 69
55 62 72
54 61 71
54 61 70
54 61 70
52 59 68
52 59 68
54 61 71
52 59 69
50 58 67
55 62 72
53 60 70
54 61 70
55 62 72
55 62 72
55 63 72
53 60 70
55 62 71
55 63 73
52 59 68
53 61 70
56 64 74
53 60 69
51 58 67
55 63 73
54 61 71
55 63 72
52 60 69
55 62 72
55 62 72
54 61 70
56 64 74
58 66 76
55 63 73
57 64 74
55 63 73
54 62 71
56 64 74
56 64 73
56 64 74
56 63 73
57 65 75
53 61 71
57 64 74
56 63 73
56 64 74
57 65 75
54 61 71
56 64 74
56 63 73
57 65 75
57 65 75
57 65 75
57 65 75
55 63 72
57 65 74
57 64 74
57 65 75
58 66 76
56 64 74
57 64 75
55 62 72
57 65 74
57 65 75
60 67 78
58 66 76
56 63 74
58 65 75
58 66 76
55 63 73
57 65 76
58 65 76
58 66 76
56 63 73
59 66 76
58 66 76
58 66 76
57 65 75
56 64 74
56 64 74
57 65 75
57 65 76
58 66 76
57 65 76
56 64 74
58 66 76
59 67 77
57 64 74
57 65 75
57 65 75
56 64 74
58 66 77
58 66 77
57 65 75
58 66 76
59 67 78
57 65 76
57 65 75
58 66 77
59 67 77
59 67 77
59 66 77
58 66 76
59 67 77
60 68 79
57 66 76
58 66 76
59 67 77
58 66 76
58 66 77
59 66 77
60 68 79
58 66 76
58 67 78
58 66 77
58 66 76
58 66 77
58 66 76
57 65 76
59 67 77
59 68 79
58 66 76
60 68 79
58 66 77
58 66 76
59 67 78
59 67 77
60 67 78
59 67 77
59 67 78
59 67 78
59 67 77
58 65 76
57 65 76
57 65 74
59 67 77
58 66 77
58 66 76
57 65 75
59 67 78
60 68 78
59 67 77
57 66 77
58 66 76
59 67 77
57 64 74
57 66 76
58 66 76
56 64 75
58 66 76
60 68 79
58 66 76
59 67 77
58 66 77
59 67 78
59 67 77
57 65 75
58 66 76
58 66 76
58 66 76
59 67 77
60 68 78
57 65 75
60 68 78
59 67 77
57 65 75
56 64 74
57 65 75
57 64 74
56 63 73
57 65 75
58 66 77
58 66 77
58 66 76
57 64 74
55 63 72
57 65 75
57 65 76
58 66 76
56 64 74
56 64 74
58 66 76
57 65 75
59 67 77
56 63 73
57 65 75
57 64 75
58 66 77
57 65 76
56 64 75
56 64 73
57 65 75
55 62 71
58 66 76
57 65 75
56 63 73
56 63 73
56 63 74
56 63 73
57 64 74
55 63 73
56 63 73
58 65 76
55 63 73
56 64 74
55 63 73
57 65 75
54 61 71
57 65 75
56 64 74
57 65 75
58 66 76
57 65 75
56 64 74
54 62 71
57 65 75
55 63 73
54 61 70
58 65 75
54 61 71
55 62 72
54 61 71
55 62 72
54 61 71
56 63 72
57 64 74
55 63 73
54 61 70
54 61 71
55 63 73
57 64 74
54 62 71
55 63 72
56 64 74
55 62 72
55 63 72
52 59 68
54 60 70
52 59 68
54 61 70
56 63 72
54 61 71
49 55 63
52 59 67
56 63 73
54 62 71
52 58 67
55 62 71
53 61 70
52 58 67
54 62 71
51 57 66
55 63 73
48 55 64
53 60 70
52 59 68
52 59 68
53 60 70
53 60 70
52 59 69
54 62 72
51 58 67
51 57 66
53 60 70
52 59 69
54 61 70
50 57 65
54 61 70
51 57 66
53 60 69
51 58 67
51 58 67
54 61 70
50 56 65
53 60 69
52 59 68
50 57 66
56 64 74
50 57 66
49 55 64
50 57 65
54 61 70
52 60 69
50 56 65
50 56 64
54 61 70
48 54 63
51 58 67
48 54 62
52 59 68
48 55 63
49 55 63
52 58 68
54 60 70
52 59 68
51 58 66
49 56 65
51 58 67
52 59 68
50 57 66
49 55 64
50 56 64
47 54 62
49 55 64
50 56 65
49 55 64
50 57 66
51 58 67
49 55 63
49 55 63
49 55 64
51 58 67
50 57 65
50 56 65
50 57 65
51 58 66
53 60 69
54 61 71
50 56 65
51 57 66
49 55 63
49 55 63
51 58 67
53 60 69
48 54 62
49 56 64
49 55 64
48 55 63
48 54 62
49 56 64
50 56 65
50 57 65
47 53 61
53 59 68
50 56 64
52 59 68
46 52 61
46 52 60
50 57 65
48 54 62
48 55 63
51 58 67
51 57 65
49 56 65
53 59 68
51 57 66
50 57 66
52 59 68
48 54 62
49 56 64
48 55 64
49 55 63
51 57 66
51 57 66
46 52 60
47 53 61
51 58 67
50 56 65
49 55 64
54 61 70
50 56 65
49 55 64
48 54 62
50 57 66
50 56 65
53 60 70
52 59 68
49 56 64
51 58 67
50 56 65
51 58 67
51 58 67
53 60 69
48 54 63
47 54 63
52 59 68
54 62 71
54 62 71
51 58 67
52 59 68
50 56 65
55 62 71
51 58 67
53 60 69
52 59 69
51 58 67
53 60 70
50 56 65
51 58 67
51 57 66
53 60 69
53 60 69
54 61 70
52 59 68
52 59 69
54 61 70
55 63 72
56 63 72
54 61 70
54 61 70
52 59 69
48 55 63
54 61 71
53 60 69
53 60 70
51 58 67
54 61 70
52 59 68
54 62 71
52 59 69
52 60 69
54 61 71
54 61 70
53 60 69
55 63 72
55 63 72
53 60 70
55 63 73
57 64 74
52 60 69
56 64 74
56 64 74
56 64 74
55 62 71
55 63 72
56 63 73
53 61 70
54 62 71
55 62 71
54 61 70
56 63 73
57 64 74
52 60 70
54 62 71
54 61 71
56 63 73
55 61 70
54 62 71
56 64 74
52 59 69
56 64 74
54 62 72
55 62 72
54 61 71
55 62 72
57 65 75
54 61 71
57 65 76
54 61 70
57 65 75
56 64 74
58 65 76
57 65 75
56 63 73
54 61 70
58 65 76
56 64 74
57 65 75
58 66 76
58 66 76
55 63 73
54 61 71
58 66 76
56 64 74
57 65 75
56 64 74
58 66 77
55 63 73
55 63 73
57 65 75
59 67 78
56 64 74
57 65 75
57 65 74
55 62 72
58 66 77
57 65 75
58 66 76
58 66 76
59 67 78
57 65 76
58 65 76
58 66 76
57 65 75
56 64 74
58 66 76
56 64 75
58 66 76
56 64 74
58 66 76
56 64 74
58 66 76
58 66 77
59 67 77
59 67 78
60 67 78
57 65 75
57 64 74
59 67 78
58 66 77
56 64 74
58 65 76
59 67 77
58 66 76
59 67 77
57 65 75
56 64 74
59 67 78
57 66 76
57 65 75
58 66 76
59 67 78
57 64 74
59 67 77
59 67 77
58 67 77
58 66 77
57 65 76
58 66 77
58 66 76
58 66 77
60 68 79
59 67 77
59 68 78
58 66 77
59 67 78
59 68 79
60 68 78
58 66 77
56 64 74
60 68 78
59 67 77
58 66 76
57 64 74
60 68 79
58 67 77
57 65 75
59 66 77
57 65 76
60 68 78
57 65 76
58 66 77
57 65 75
59 67 77
59 67 77
59 68 78
57 65 75
59 67 78
59 67 77
57 65 75
59 67 78
56 64 74
57 64 74
57 65 75
59 67 77
59 67 78
56 64 75
58 66 77
59 67 78
58 66 77
58 66 76
57 65 75
55 63 73
57 65 76
58 66 77
56 64 75
56 64 74
57 64 74
58 66 77
57 65 75
57 64 74
55 63 74
57 65 75
57 64 75
57 65 76
56 63 73
58 65 76
56 63 73
57 64 74
56 64 75
57 64 74
58 65 75
57 65 75
57 65 75
58 66 76
56 64 74
58 66 76
58 66 76
57 64 74
57 65 75
56 64 74
57 65 75
54 61 71
57 65 75
57 65 76
55 63 73
55 63 73
56 64 74
57 65 76
55 63 72
57 64 74
54 61 71
54 62 72
56 63 73
56 63 74
56 64 74
54 62 71
56 63 73
56 63 73
53 60 70
55 63 73
54 61 71
55 63 73
56 64 74
54 61 71
57 64 74
56 63 73
56 63 73
55 63 72
56 63 73
55 63 73
55 62 73
56 64 74
55 62 72
54 61 71
53 60 69
57 64 73
53 61 70
55 62 72
54 62 72
52 59 68
54 62 71
53 60 69
54 61 71
55 62 72
55 62 72
56 63 73
55 62 71
55 63 73
54 61 70
55 62 72
57 65 75
53 60 69
54 61 71
55 62 72
56 63 73
55 62 72
52 59 68
53 60 70
50 56 65
51 58 67
54 61 70
50 57 65
54 61 70
53 60 69
49 56 65
50 57 66
54 62 71
53 60 69
52 59 68
52 59 68
54 61 70
52 58 67
54 61 71
49 56 65
49 56 65
53 61 70
51 58 67
54 61 70
51 58 67
53 60 69
50 57 65
54 61 71
54 61 71
53 60 69
52 58 67
54 61 71
54 62 72
48 54 62
52 59 68
52 59 68
52 59 67
52 59 69
54 61 71
48 55 63
53 59 68
54 61 70
51 58 67
53 61 71
49 56 65
49 56 64
52 59 68
50 57 66
50 56 65
48 55 64
50 57 66
52 59 67
50 57 65
50 56 64
49 55 64
48 54 62
48 55 63
53 59 68
49 56 64
51 58 68
49 55 63
49 56 64
50 56 65
46 52 60
50 57 65
51 57 66
49 56 64
51 58 67
52 58 67
53 60 69
52 59 68
51 58 67
48 54 63
50 57 65
50 57 65
49 55 63
50 57 66
50 57 66
50 57 66
49 55 64
51 58 67
51 58 66
49 55 64
49 55 63
50 56 65
49 56 65
53 60 69
51 58 67
49 55 64
51 58 67
51 58 67
50 56 65
48 54 63
49 56 64
48 55 63
51 57 66
47 53 61
48 54 62
54 61 70
50 57 66
52 58 67
48 54 63
49 55 64
48 54 62
51 57 66
50 57 66
51 58 66
50 56 65
54 61 71
52 58 67
48 54 63
49 56 64
50 56 64
49 56 64
51 57 66
52 59 68
52 58 67
50 56 65
52 59 69
50 56 65
50 57 65
50 57 66
52 59 69
51 57 66
51 58 67
51 58 67
50 57 66
56 63 73
54 61 70
53 60 70
53 60 70
50 57 66
51 58 66
53 60 69
55 63 72
50 57 65
49 56 65
51 58 66
52 59 68
52 59 68
52 59 69
52 58 67
55 62 71
52 59 68
50 56 65
54 61 70
54 61 71
53 60 70
52 59 69
54 61 71
55 62 71
54 61 71
51 58 67
52 59 68
54 61 71
53 60 69
54 61 71
53 60 69
54 61 70
54 61 71
52 59 69
54 61 70
57 64 74
50 57 65
55 62 71
50 56 65
52 59 68
54 61 71
48 55 64
54 61 71
53 60 69
55 63 72
52 59 68
53 61 70
54 61 71
56 63 73
55 62 72
55 62 72
57 65 75
54 62 71
54 61 71
57 64 74
58 66 76
55 62 72
56 64 74
56 63 73
57 65 75
54 61 71
55 62 72
55 63 73
51 58 67
57 64 74
56 63 73
55 63 73
54 61 71
54 62 71
55 62 72
56 63 73
55 63 74
55 62 72
57 65 75
53 61 70
57 65 76
54 61 71
55 63 72
57 64 74
57 64 74
55 63 73
58 66 77
57 65 75
56 64 74
58 65 75
55 63 72
55 63 73
57 64 74
58 67 77
55 62 72
57 65 75
56 64 74
57 65 75
55 63 73
57 65 75
58 65 76
58 65 76
57 65 75
56 63 73
57 65 76
57 64 75
58 66 76
58 66 76
57 65 75
57 65 75
57 64 75
58 67 77
56 64 74
57 65 75
58 65 76
56 63 73
56 64 74
57 65 75
59 66 77
58 66 76
57 65 76
57 65 75
57 65 76
58 66 76
55 63 73
58 66 76
58 66 76
56 64 74
56 64 75
58 66 76
57 66 76
57 64 75
58 66 77
57 64 74
58 66 76
56 64 75
58 66 76
57 65 75
58 66 76
58 66 76
59 67 77
58 66 76
58 66 76
58 66 76
57 64 74
59 67 78
59 67 78
59 68 79
58 66 76
58 66 76
57 65 75
58 66 77
59 67 77
58 66 77
59 67 78
59 68 78
59 67 77
60 68 78
60 68 78
