P3
400 224
255
217 233 255
217 233 255
217 233 255
217 233 255
217 233 255
217 233 255
217 233 255
217 233 255
217 233 255
217 233 255
217 233 255
217 233 255
217 233 255
217 233 255
217 233 255
217 233 255
217 233 255
217 233 255
217 233 255
217 233 255
217 233 255
217 233 255
217 233 255
217 233 255
217 233 255
217 233 255
217 233 255
217 233 255
217 233 255
217 233 255
217 233 255
217 233 255
217 233 255
217 233 255
217 233 255
217 233 255
217 233 255
217 233 255
217 233 255
217 233 255
217 233 255
217 233 255
217 233 255
217 233 255
217 233 255
217 233 255
217 233 255
217 233 255
217 233 255
217 233 255
217 233 255
217 233 255
217 233 255
217 233 255
217 233 255
217 233 255
217 233 255
217 233 255
217 233 255
217 233 255
217 233 255
217 233 255
217 233 255
216 233 255
216 233 255
216 233 255
216 233 255
216 233 255
216 233 255
216 233 255
216 233 255
216 233 255
216 233 255
216 233 255
216 233 255
216 233 255
216 233 255
216 233 255
216 233 255
216 233 255
216 233 255
216 233 255
216 233 255
216 233 255
216 233 255
216 233 255
216 233 255
216 233 255
216 233 255
216 233 255
216 233 255
216 233 255
216 233 255
216 233 255
216 233 255
216 233 255
216 233 255
216 233 255
216 233 255
216 233 255
216 233 255
216 233 255
216 233 255
216 233 255
216 233 255
216 233 255
216 233 255
216 233 255
216 232 255
216 232 255
216 232 255
216 232 255
216 232 255
216 232 255
216 232 255
216 232 255
216 232 255
216 232 255
216 232 255
216 232 255
216 232 255
216 232 255
216 232 255
216 232 255
216 232 255
216 232 255
216 232 255
216 232 255
216 232 255
215 232 255
215 232 255
215 232 255
215 232 255
215 232 255
215 232 255
215 232 255
215 232 255
215 232 255
215 232 255
215 232 255
215 232 255
215 232 255
215 232 255
215 232 255
215 232 255
215 232 255
215 232 255
215 232 255
215 232 255
215 232 255
215 232 255
215 232 255
215 232 255
215 232 255
215 232 255
215 232 255
215 232 255
215 232 255
215 232 255
215 232 255
215 232 255
215 232 255
215 232 255
215 232 255
215 232 255
215 232 255
215 232 255
215 232 255
215 232 255
215 232 255
215 232 255
215 232 255
215 232 255
215 232 255
215 232 255
215 232 255
215 232 255
215 232 255
215 232 255
215 232 255
215 232 255
215 232 255
215 232 255
215 232 255
215 232 255
215 232 255
215 232 255
215 232 255
215 232 255
215 232 255
215 232 255
215 232 255
215 232 255
215 232 255
215 232 255
215 232 255
215 232 255
215 232 255
215 232 255
215 232 255
215 232 255
215 232 255
215 232 255
215 232 255
215 232 255
215 232 255
215 232 255
215 232 255
215 232 255
215 232 255
215 232 255
215 232 255
215 232 255
215 232 255
215 232 255
215 232 255
215 232 255
215 232 255
215 232 255
215 232 255
215 232 255
215 232 255
215 232 255
215 232 255
215 232 255
215 232 255
215 232 255
215 232 255
215 232 255
215 232 255
215 232 255
215 232 255
215 232 255
215 232 255
215 232 255
215 232 255
215 232 255
215 232 255
215 232 255
215 232 255
215 232 255
215 232 255
215 232 255
215 232 255
215 232 255
215 232 255
215 232 255
215 232 255
215 232 255
215 232 255
215 232 255
215 232 255
215 232 255
215 232 255
215 232 255
215 232 255
215 232 255
215 232 255
215 232 255
215 232 255
215 232 255
215 232 255
215 232 255
215 232 255
215 232 255
215 232 255
215 232 255
215 232 255
215 232 255
215 232 255
215 232 255
216 232 255
216 232 255
216 232 255
216 232 255
216 232 255
216 232 255
216 232 255
216 232 255
216 232 255
216 232 255
216 232 255
216 232 255
216 232 255
216 232 255
216 232 255
216 232 255
216 232 255
216 232 255
216 232 255
216 232 255
216 232 255
216 233 255
216 233 255
216 233 255
216 233 255
216 233 255
216 233 255
216 233 255
216 233 255
216 233 255
216 233 255
216 233 255
216 233 255
216 233 255
216 233 255
216 233 255
216 233 255
216 233 255
216 233 255
216 233 255
216 233 255
216 233 255
216 233 255
216 233 255
216 233 255
216 233 255
216 233 255
216 233 255
216 233 255
216 233 255
216 233 255
216 233 255
216 233 255
216 233 255
216 233 255
216 233 255
216 233 255
216 233 255
216 233 255
216 233 255
216 233 255
216 233 255
216 233 255
216 233 255
216 233 255
216 233 255
216 233 255
217 233 255
217 233 255
217 233 255
217 233 255
217 233 255
217 233 255
217 233 255
217 233 255
217 233 255
217 233 255
217 233 255
217 233 255
217 233 255
217 233 255
217 233 255
217 233 255
217 233 255
217 233 255
217 233 255
217 233 255
217 233 255
217 233 255
217 233 255
217 233 255
217 233 255
217 233 255
217 233 255
217 233 255
217 233 255
217 233 255
217 233 255
217 233 255
217 233 255
217 233 255
217 233 255
217 233 255
217 233 255
217 233 255
217 233 255
217 233 255
217 233 255
217 233 255
217 233 255
217 233 255
217 233 255
217 233 255
217 233 255
217 233 255
217 233 255
217 233 255
217 233 255
217 233 255
217 233 255
217 233 255
217 233 255
217 233 255
217 233 255
217 233 255
217 233 255
217 233 255
217 233 255
217 233 255
217 233 255
217 233 255
217 233 255
217 233 255
217 233 255
217 233 255
217 233 255
217 233 255
217 233 255
217 233 255
217 233 255
217 233 255
217 233 255
217 233 255
217 233 255
217 233 255
217 233 255
217 233 255
217 233 255
217 233 255
217 233 255
217 233 255
217 233 255
217 233 255
217 233 255
217 233 255
217 233 255
217 233 255
217 233 255
217 233 255
217 233 255
217 233 255
217 233 255
217 233 255
217 233 255
217 233 255
217 233 255
217 233 255
217 233 255
217 233 255
217 233 255
217 233 255
217 233 255
217 233 255
217 233 255
217 233 255
217 233 255
217 233 255
217 233 255
217 233 255
217 233 255
217 233 255
217 233 255
217 233 255
217 233 255
217 233 255
217 233 255
217 233 255
217 233 255
217 233 255
217 233 255
217 233 255
217 233 255
217 233 255
217 233 255
217 233 255
217 233 255
217 233 255
217 233 255
217 233 255
217 233 255
217 233 255
216 233 255
216 233 255
216 233 255
216 233 255
216 233 255
216 233 255
216 233 255
216 233 255
216 233 255
216 233 255
216 233 255
216 233 255
216 233 255
216 233 255
216 233 255
216 233 255
216 233 255
216 233 255
216 233 255
216 233 255
216 233 255
216 233 255
216 233 255
216 233 255
216 233 255
216 233 255
216 233 255
216 233 255
216 233 255
216 233 255
216 233 255
216 233 255
216 233 255
216 233 255
216 233 255
216 233 255
216 233 255
216 233 255
216 233 255
216 233 255
216 233 255
216 233 255
216 233 255
216 233 255
216 233 255
216 233 255
216 232 255
216 232 255
216 232 255
216 232 255
216 232 255
216 232 255
216 232 255
216 232 255
216 232 255
216 232 255
216 232 255
216 232 255
216 232 255
216 232 255
216 232 255
216 232 255
216 232 255
216 232 255
216 232 255
216 232 255
216 232 255
216 232 255
216 232 255
216 232 255
215 232 255
215 232 255
215 232 255
215 232 255
215 232 255
215 232 255
215 232 255
215 232 255
215 232 255
215 232 255
215 232 255
215 232 255
215 232 255
215 232 255
215 232 255
215 232 255
215 232 255
215 232 255
215 232 255
215 232 255
215 232 255
215 232 255
215 232 255
215 232 255
215 232 255
215 232 255
215 232 255
215 232 255
215 232 255
215 232 255
215 232 255
215 232 255
215 232 255
215 232 255
215 232 255
215 232 255
215 232 255
215 232 255
215 232 255
215 232 255
215 232 255
215 232 255
215 232 255
215 232 255
215 232 255
215 232 255
215 232 255
215 232 255
215 232 255
215 232 255
215 232 255
215 232 255
215 232 255
215 232 255
215 232 255
215 232 255
215 232 255
215 232 255
215 232 255
215 232 255
215 232 255
215 232 255
215 232 255
215 232 255
215 232 255
215 232 255
215 232 255
215 232 255
215 232 255
215 232 255
215 232 255
215 232 255
215 232 255
215 232 255
215 232 255
215 232 255
215 232 255
215 232 255
215 232 255
215 232 255
215 232 255
215 232 255
215 232 255
215 232 255
215 232 255
215 232 255
215 232 255
215 232 255
215 232 255
215 232 255
215 232 255
215 232 255
215 232 255
215 232 255
215 232 255
215 232 255
215 232 255
215 232 255
215 232 255
215 232 255
215 232 255
215 232 255
215 232 255
215 232 255
215 232 255
215 232 255
215 232 255
215 232 255
215 232 255
215 232 255
215 232 255
215 232 255
215 232 255
215 232 255
215 232 255
215 232 255
216 232 255
216 232 255
216 232 255
216 232 255
216 232 255
216 232 255
216 232 255
216 232 255
216 232 255
216 232 255
216 232 255
216 232 255
216 232 255
216 232 255
216 232 255
216 232 255
216 232 255
216 232 255
216 232 255
216 232 255
216 232 255
216 232 255
216 232 255
216 233 255
216 232 255
216 233 255
216 233 255
216 233 255
216 233 255
216 233 255
216 233 255
216 233 255
216 233 255
216 233 255
216 233 255
216 233 255
216 233 255
216 233 255
216 233 255
216 233 255
216 233 255
216 233 255
216 233 255
216 233 255
216 233 255
216 233 255
216 233 255
216 233 255
216 233 255
216 233 255
216 233 255
216 233 255
216 233 255
216 233 255
216 233 255
216 233 255
216 233 255
216 233 255
216 233 255
216 233 255
216 233 255
216 233 255
216 233 255
216 233 255
216 233 255
216 233 255
216 233 255
216 233 255
216 233 255
216 233 255
217 233 255
217 233 255
217 233 255
217 233 255
217 233 255
217 233 255
217 233 255
217 233 255
217 233 255
217 233 255
217 233 255
217 233 255
217 233 255
217 233 255
217 233 255
217 233 255
217 233 255
217 233 255
217 233 255
217 233 255
217 233 255
217 233 255
217 233 255
217 233 255
217 233 255
217 233 255
217 233 255
217 233 255
217 233 255
217 233 255
217 233 255
217 233 255
217 233 255
217 233 255
217 233 255
217 233 255
217 233 255
217 233 255
217 233 255
217 233 255
217 233 255
217 233 255
217 233 255
217 233 255
217 233 255
217 233 255
217 233 255
217 233 255
217 233 255
217 233 255
217 233 255
217 233 255
217 233 255
217 233 255
217 233 255
217 233 255
217 233 255
217 233 255
217 233 255
217 233 255
217 233 255
217 233 255
217 233 255
217 233 255
217 233 255
217 233 255
217 233 255
217 233 255
217 233 255
217 233 255
217 233 255
217 233 255
218 233 255
218 233 255
218 233 255
218 233 255
218 233 255
218 233 255
217 233 255
217 233 255
217 233 255
217 233 255
217 233 255
217 233 255
217 233 255
217 233 255
217 233 255
217 233 255
217 233 255
217 233 255
217 233 255
217 233 255
217 233 255
217 233 255
217 233 255
217 233 255
217 233 255
217 233 255
217 233 255
217 233 255
217 233 255
217 233 255
217 233 255
217 233 255
217 233 255
217 233 255
217 233 255
217 233 255
217 233 255
217 233 255
217 233 255
217 233 255
217 233 255
217 233 255
217 233 255
217 233 255
217 233 255
217 233 255
217 233 255
217 233 255
217 233 255
217 233 255
217 233 255
217 233 255
217 233 255
217 233 255
217 233 255
217 233 255
217 233 255
217 233 255
217 233 255
217 233 255
217 233 255
217 233 255
217 233 255
217 233 255
217 233 255
217 233 255
217 233 255
217 233 255
217 233 255
217 233 255
217 233 255
217 233 255
217 233 255
217 233 255
217 233 255
217 233 255
217 233 255
217 233 255
217 233 255
217 233 255
217 233 255
216 233 255
216 233 255
216 233 255
216 233 255
216 233 255
216 233 255
216 233 255
216 233 255
216 233 255
216 233 255
216 233 255
216 233 255
216 233 255
216 233 255
216 233 255
216 233 255
216 233 255
216 233 255
216 233 255
216 233 255
216 233 255
216 233 255
216 233 255
216 233 255
216 233 255
216 233 255
216 233 255
216 233 255
216 233 255
216 233 255
216 233 255
216 233 255
216 233 255
216 233 255
216 233 255
216 233 255
216 233 255
216 233 255
216 233 255
216 233 255
216 233 255
216 233 255
216 233 255
216 233 255
216 233 255
216 233 255
216 233 255
216 233 255
216 233 255
216 232 255
216 232 255
216 232 255
216 232 255
216 232 255
216 232 255
216 232 255
216 232 255
216 232 255
216 232 255
216 232 255
216 232 255
216 232 255
216 232 255
216 232 255
216 232 255
216 232 255
216 232 255
216 232 255
216 232 255
216 232 255
216 232 255
216 232 255
216 232 255
216 232 255
216 232 255
216 232 255
215 232 255
215 232 255
215 232 255
215 232 255
215 232 255
215 232 255
215 232 255
215 232 255
215 232 255
215 232 255
215 232 255
215 232 255
215 232 255
215 232 255
215 232 255
215 232 255
215 232 255
215 232 255
215 232 255
215 232 255
215 232 255
215 232 255
215 232 255
215 232 255
215 232 255
215 232 255
215 232 255
215 232 255
215 232 255
215 232 255
215 232 255
215 232 255
215 232 255
215 232 255
215 232 255
215 232 255
215 232 255
215 232 255
215 232 255
215 232 255
215 232 255
215 232 255
215 232 255
215 232 255
215 232 255
215 232 255
215 232 255
215 232 255
215 232 255
215 232 255
215 232 255
215 232 255
215 232 255
215 232 255
215 232 255
215 232 255
215 232 255
215 232 255
215 232 255
215 232 255
215 232 255
215 232 255
215 232 255
215 232 255
215 232 255
215 232 255
215 232 255
215 232 255
215 232 255
215 232 255
215 232 255
215 232 255
215 232 255
215 232 255
215 232 255
215 232 255
215 232 255
215 232 255
215 232 255
215 232 255
215 232 255
215 232 255
215 232 255
215 232 255
215 232 255
215 232 255
216 232 255
216 232 255
216 232 255
216 232 255
216 232 255
216 232 255
216 232 255
216 232 255
216 232 255
216 232 255
216 232 255
216 232 255
216 232 255
216 232 255
216 232 255
216 232 255
216 232 255
216 232 255
216 232 255
216 232 255
216 232 255
216 232 255
216 232 255
216 232 255
216 232 255
216 232 255
216 232 255
216 233 255
216 233 255
216 233 255
216 233 255
216 233 255
216 233 255
216 233 255
216 233 255
216 233 255
216 233 255
216 233 255
216 233 255
216 233 255
216 233 255
216 233 255
216 233 255
216 233 255
216 233 255
216 233 255
216 233 255
216 233 255
216 233 255
216 233 255
216 233 255
216 233 255
216 233 255
216 233 255
216 233 255
216 233 255
216 233 255
216 233 255
216 233 255
216 233 255
216 233 255
216 233 255
216 233 255
216 233 255
216 233 255
216 233 255
216 233 255
216 233 255
216 233 255
216 233 255
216 233 255
216 233 255
216 233 255
216 233 255
216 233 255
216 233 255
217 233 255
217 233 255
217 233 255
217 233 255
217 233 255
217 233 255
217 233 255
217 233 255
217 233 255
217 233 255
217 233 255
217 233 255
217 233 255
217 233 255
217 233 255
217 233 255
217 233 255
217 233 255
217 233 255
217 233 255
217 233 255
217 233 255
217 233 255
217 233 255
217 233 255
217 233 255
217 233 255
217 233 255
217 233 255
217 233 255
217 233 255
217 233 255
217 233 255
217 233 255
217 233 255
217 233 255
217 233 255
217 233 255
217 233 255
217 233 255
217 233 255
217 233 255
217 233 255
217 233 255
217 233 255
217 233 255
217 233 255
217 233 255
217 233 255
217 233 255
217 233 255
217 233 255
217 233 255
217 233 255
217 233 255
217 233 255
217 233 255
217 233 255
217 233 255
217 233 255
217 233 255
217 233 255
217 233 255
217 233 255
217 233 255
217 233 255
217 233 255
217 233 255
217 233 255
217 233 255
217 233 255
217 233 255
217 233 255
217 233 255
217 233 255
218 233 255
218 233 255
218 233 255
218 233 255
218 233 255
218 233 255
218 234 255
218 234 255
218 234 255
218 234 255
218 234 255
218 234 255
218 234 255
218 233 255
218 233 255
218 233 255
218 233 255
218 233 255
218 233 255
218 233 255
218 233 255
218 233 255
218 233 255
217 233 255
217 233 255
217 233 255
217 233 255
217 233 255
217 233 255
217 233 255
217 233 255
217 233 255
217 233 255
217 233 255
217 233 255
217 233 255
217 233 255
217 233 255
217 233 255
217 233 255
217 233 255
217 233 255
217 233 255
217 233 255
217 233 255
217 233 255
217 233 255
217 233 255
217 233 255
217 233 255
217 233 255
217 233 255
217 233 255
217 233 255
217 233 255
217 233 255
217 233 255
217 233 255
217 233 255
217 233 255
217 233 255
217 233 255
217 233 255
217 233 255
217 233 255
217 233 255
217 233 255
217 233 255
217 233 255
217 233 255
217 233 255
217 233 255
217 233 255
217 233 255
217 233 255
217 233 255
217 233 255
217 233 255
217 233 255
217 233 255
217 233 255
217 233 255
217 233 255
217 233 255
217 233 255
217 233 255
217 233 255
217 233 255
217 233 255
217 233 255
217 233 255
217 233 255
217 233 255
217 233 255
217 233 255
217 233 255
217 233 255
216 233 255
216 233 255
216 233 255
216 233 255
216 233 255
216 233 255
216 233 255
216 233 255
216 233 255
216 233 255
216 233 255
216 233 255
216 233 255
216 233 255
216 233 255
216 233 255
216 233 255
216 233 255
216 233 255
216 233 255
216 233 255
216 233 255
216 233 255
216 233 255
216 233 255
216 233 255
216 233 255
216 233 255
216 233 255
216 233 255
216 233 255
216 233 255
216 233 255
216 233 255
216 233 255
216 233 255
216 233 255
216 233 255
216 233 255
216 233 255
216 233 255
216 233 255
216 233 255
216 233 255
216 233 255
216 233 255
216 233 255
216 233 255
216 233 255
216 233 255
216 233 255
216 233 255
216 232 255
216 232 255
216 232 255
216 232 255
216 232 255
216 232 255
216 232 255
216 232 255
216 232 255
216 232 255
216 232 255
216 232 255
216 232 255
216 232 255
216 232 255
216 232 255
216 232 255
216 232 255
216 232 255
216 232 255
216 232 255
216 232 255
216 232 255
216 232 255
216 232 255
216 232 255
216 232 255
216 232 255
216 232 255
216 232 255
216 232 255
216 232 255
216 232 255
216 232 255
216 232 255
216 232 255
215 232 255
216 232 255
215 232 255
215 232 255
215 232 255
215 232 255
215 232 255
215 232 255
215 232 255
215 232 255
215 232 255
215 232 255
215 232 255
215 232 255
215 232 255
215 232 255
215 232 255
215 232 255
215 232 255
215 232 255
215 232 255
215 232 255
215 232 255
215 232 255
215 232 255
215 232 255
215 232 255
215 232 255
215 232 255
215 232 255
215 232 255
215 232 255
215 232 255
215 232 255
215 232 255
215 232 255
215 232 255
215 232 255
215 232 255
216 232 255
216 232 255
216 232 255
216 232 255
216 232 255
216 232 255
216 232 255
216 232 255
216 232 255
216 232 255
216 232 255
216 232 255
216 232 255
216 232 255
216 232 255
216 232 255
216 232 255
216 232 255
216 232 255
216 232 255
216 232 255
216 232 255
216 232 255
216 232 255
216 232 255
216 232 255
216 232 255
216 232 255
216 232 255
216 232 255
216 232 255
216 232 255
216 232 255
216 232 255
216 232 255
216 232 255
216 232 255
216 232 255
216 232 255
216 233 255
216 233 255
216 233 255
216 233 255
216 233 255
216 233 255
216 233 255
216 233 255
216 233 255
216 233 255
216 233 255
216 233 255
216 233 255
216 233 255
216 233 255
216 233 255
216 233 255
216 233 255
216 233 255
216 233 255
216 233 255
216 233 255
216 233 255
216 233 255
216 233 255
216 233 255
216 233 255
216 233 255
216 233 255
216 233 255
216 233 255
216 233 255
216 233 255
216 233 255
216 233 255
216 233 255
216 233 255
216 233 255
216 233 255
216 233 255
216 233 255
216 233 255
216 233 255
216 233 255
216 233 255
216 233 255
216 233 255
216 233 255
216 233 255
216 233 255
216 233 255
217 233 255
217 233 255
217 233 255
217 233 255
217 233 255
217 233 255
217 233 255
217 233 255
217 233 255
217 233 255
217 233 255
217 233 255
217 233 255
217 233 255
217 233 255
217 233 255
217 233 255
217 233 255
217 233 255
217 233 255
217 233 255
217 233 255
217 233 255
217 233 255
217 233 255
217 233 255
217 233 255
217 233 255
217 233 255
217 233 255
217 233 255
217 233 255
217 233 255
217 233 255
217 233 255
217 233 255
217 233 255
217 233 255
217 233 255
217 233 255
217 233 255
217 233 255
217 233 255
217 233 255
217 233 255
217 233 255
217 233 255
217 233 255
217 233 255
217 233 255
217 233 255
217 233 255
217 233 255
217 233 255
217 233 255
217 233 255
217 233 255
217 233 255
217 233 255
217 233 255
217 233 255
217 233 255
217 233 255
217 233 255
217 233 255
217 233 255
217 233 255
217 233 255
217 233 255
217 233 255
217 233 255
217 233 255
217 233 255
217 233 255
217 233 255
217 233 255
218 233 255
218 233 255
218 233 255
218 233 255
218 233 255
218 233 255
218 233 255
218 233 255
218 234 255
218 234 255
218 234 255
218 234 255
218 234 255
218 234 255
218 234 255
218 234 255
218 234 255
218 234 255
218 234 255
218 234 255
218 234 255
218 234 255
218 234 255
218 234 255
218 234 255
218 234 255
218 234 255
218 234 255
218 234 255
218 234 255
218 234 255
218 234 255
218 234 255
218 234 255
218 234 255
218 233 255
218 233 255
218 233 255
218 233 255
218 233 255
218 233 255
218 233 255
218 233 255
217 233 255
217 233 255
217 233 255
217 233 255
217 233 255
217 233 255
217 233 255
217 233 255
217 233 255
217 233 255
217 233 255
217 233 255
217 233 255
217 233 255
217 233 255
217 233 255
217 233 255
217 233 255
217 233 255
217 233 255
217 233 255
217 233 255
217 233 255
217 233 255
217 233 255
217 233 255
217 233 255
217 233 255
217 233 255
217 233 255
217 233 255
217 233 255
217 233 255
217 233 255
217 233 255
217 233 255
217 233 255
217 233 255
217 233 255
217 233 255
217 233 255
217 233 255
217 233 255
217 233 255
217 233 255
217 233 255
217 233 255
217 233 255
217 233 255
217 233 255
217 233 255
217 233 255
217 233 255
217 233 255
217 233 255
217 233 255
217 233 255
217 233 255
217 233 255
217 233 255
217 233 255
217 233 255
217 233 255
217 233 255
217 233 255
217 233 255
217 233 255
217 233 255
217 233 255
217 233 255
217 233 255
217 233 255
217 233 255
217 233 255
217 233 255
217 233 255
216 233 255
216 233 255
216 233 255
216 233 255
216 233 255
216 233 255
216 233 255
216 233 255
216 233 255
216 233 255
216 233 255
216 233 255
216 233 255
216 233 255
216 233 255
216 233 255
216 233 255
216 233 255
216 233 255
216 233 255
216 233 255
216 233 255
216 233 255
216 233 255
216 233 255
216 233 255
216 233 255
216 233 255
216 233 255
216 233 255
216 233 255
216 233 255
216 233 255
216 233 255
216 233 255
216 233 255
216 233 255
216 233 255
216 233 255
216 233 255
216 233 255
216 233 255
216 233 255
216 233 255
216 233 255
216 233 255
216 233 255
216 233 255
216 233 255
216 233 255
216 233 255
216 233 255
216 233 255
216 233 255
216 233 255
216 233 255
216 233 255
216 232 255
216 232 255
216 232 255
216 232 255
216 232 255
216 232 255
216 232 255
216 232 255
216 232 255
216 232 255
216 232 255
216 232 255
216 232 255
216 232 255
216 232 255
216 232 255
216 232 255
216 232 255
216 232 255
216 232 255
216 232 255
216 232 255
216 232 255
216 232 255
216 232 255
216 232 255
216 232 255
216 232 255
216 232 255
216 232 255
216 232 255
216 232 255
216 232 255
216 232 255
216 232 255
216 232 255
216 232 255
216 232 255
216 232 255
216 232 255
216 232 255
216 232 255
216 232 255
216 232 255
216 232 255
216 232 255
216 232 255
216 232 255
216 232 255
216 232 255
216 232 255
216 232 255
216 232 255
216 232 255
216 232 255
216 232 255
216 232 255
216 232 255
216 232 255
216 232 255
216 232 255
216 232 255
216 232 255
216 232 255
216 232 255
216 232 255
216 232 255
216 232 255
216 232 255
216 232 255
216 232 255
216 232 255
216 232 255
216 232 255
216 232 255
216 232 255
216 232 255
216 232 255
216 232 255
216 232 255
216 232 255
216 233 255
216 233 255
216 233 255
216 233 255
216 233 255
216 233 255
216 233 255
216 233 255
216 233 255
216 233 255
216 233 255
216 233 255
216 233 255
216 233 255
216 233 255
216 233 255
216 233 255
216 233 255
216 233 255
216 233 255
216 233 255
216 233 255
216 233 255
216 233 255
216 233 255
216 233 255
216 233 255
216 233 255
216 233 255
216 233 255
216 233 255
216 233 255
216 233 255
216 233 255
216 233 255
216 233 255
216 233 255
216 233 255
216 233 255
216 233 255
216 233 255
216 233 255
216 233 255
216 233 255
216 233 255
216 233 255
216 233 255
216 233 255
216 233 255
216 233 255
216 233 255
216 233 255
216 233 255
216 233 255
216 233 255
216 233 255
216 233 255
217 233 255
217 233 255
217 233 255
217 233 255
217 233 255
217 233 255
217 233 255
217 233 255
217 233 255
217 233 255
217 233 255
217 233 255
217 233 255
217 233 255
217 233 255
217 233 255
217 233 255
217 233 255
217 233 255
217 233 255
217 233 255
217 233 255
217 233 255
217 233 255
217 233 255
217 233 255
217 233 255
217 233 255
217 233 255
217 233 255
217 233 255
217 233 255
217 233 255
217 233 255
217 233 255
217 233 255
217 233 255
217 233 255
217 233 255
217 233 255
217 233 255
217 233 255
217 233 255
217 233 255
217 233 255
217 233 255
217 233 255
217 233 255
217 233 255
217 233 255
217 233 255
217 233 255
217 233 255
217 233 255
217 233 255
217 233 255
217 233 255
217 233 255
217 233 255
217 233 255
217 233 255
217 233 255
217 233 255
217 233 255
217 233 255
217 233 255
217 233 255
217 233 255
217 233 255
217 233 255
217 233 255
217 233 255
217 233 255
217 233 255
217 233 255
218 233 255
218 233 255
218 233 255
218 233 255
218 233 255
218 233 255
218 233 255
218 233 255
218 233 255
218 234 255
218 234 255
218 234 255
218 234 255
218 234 255
218 234 255
218 234 255
218 234 255
218 234 255
218 234 255
218 234 255
218 234 255
218 234 255
218 234 255
218 234 255
218 234 255
218 234 255
218 234 255
218 234 255
218 234 255
218 234 255
218 234 255
218 234 255
218 234 255
218 234 255
218 234 255
218 234 255
218 234 255
218 234 255
218 234 255
218 234 255
218 234 255
218 234 255
218 234 255
218 234 255
218 234 255
218 234 255
218 234 255
218 234 255
218 234 255
218 234 255
218 234 255
218 234 255
218 234 255
218 234 255
218 234 255
218 233 255
218 233 255
218 233 255
218 233 255
218 233 255
218 233 255
218 233 255
218 233 255
218 233 255
217 233 255
217 233 255
217 233 255
217 233 255
217 233 255
217 233 255
217 233 255
217 233 255
217 233 255
217 233 255
217 233 255
217 233 255
217 233 255
217 233 255
217 233 255
217 233 255
217 233 255
217 233 255
217 233 255
217 233 255
217 233 255
217 233 255
217 233 255
217 233 255
217 233 255
217 233 255
217 233 255
217 233 255
217 233 255
217 233 255
217 233 255
217 233 255
217 233 255
217 233 255
217 233 255
217 233 255
217 233 255
217 233 255
217 233 255
217 233 255
217 233 255
217 233 255
217 233 255
217 233 255
217 233 255
217 233 255
217 233 255
217 233 255
217 233 255
217 233 255
217 233 255
217 233 255
217 233 255
217 233 255
217 233 255
217 233 255
217 233 255
217 233 255
217 233 255
217 233 255
217 233 255
217 233 255
217 233 255
217 233 255
217 233 255
217 233 255
217 233 255
217 233 255
217 233 255
217 233 255
217 233 255
217 233 255
217 233 255
217 233 255
217 233 255
217 233 255
217 233 255
216 233 255
216 233 255
216 233 255
216 233 255
216 233 255
216 233 255
216 233 255
216 233 255
216 233 255
216 233 255
216 233 255
216 233 255
216 233 255
216 233 255
216 233 255
216 233 255
216 233 255
216 233 255
216 233 255
216 233 255
216 233 255
216 233 255
216 233 255
216 233 255
216 233 255
216 233 255
216 233 255
216 233 255
216 233 255
216 233 255
216 233 255
216 233 255
216 233 255
216 233 255
216 233 255
216 233 255
216 233 255
216 233 255
216 233 255
216 233 255
216 233 255
216 233 255
216 233 255
216 233 255
216 233 255
216 233 255
216 233 255
216 233 255
216 233 255
216 233 255
216 233 255
216 233 255
216 233 255
216 233 255
216 233 255
216 233 255
216 233 255
216 233 255
216 233 255
216 233 255
216 233 255
216 233 255
216 233 255
216 233 255
216 233 255
216 233 255
216 233 255
216 233 255
216 233 255
216 233 255
216 233 255
216 233 255
216 233 255
216 233 255
216 232 255
216 232 255
216 232 255
216 232 255
216 232 255
216 232 255
216 232 255
216 232 255
216 232 255
216 232 255
216 232 255
216 232 255
216 232 255
216 232 255
216 232 255
216 232 255
216 232 255
216 232 255
216 232 255
216 233 255
216 232 255
216 232 255
216 233 255
216 233 255
216 233 255
216 233 255
216 233 255
216 233 255
216 233 255
216 233 255
216 233 255
216 233 255
216 233 255
216 233 255
216 233 255
216 233 255
216 233 255
216 233 255
216 233 255
216 233 255
216 233 255
216 233 255
216 233 255
216 233 255
216 233 255
216 233 255
216 233 255
216 233 255
216 233 255
216 233 255
216 233 255
216 233 255
216 233 255
216 233 255
216 233 255
216 233 255
216 233 255
216 233 255
216 233 255
216 233 255
216 233 255
216 233 255
216 233 255
216 233 255
216 233 255
216 233 255
216 233 255
216 233 255
216 233 255
216 233 255
216 233 255
216 233 255
216 233 255
216 233 255
216 233 255
216 233 255
216 233 255
216 233 255
216 233 255
216 233 255
216 233 255
216 233 255
216 233 255
216 233 255
216 233 255
216 233 255
216 233 255
216 233 255
216 233 255
216 233 255
216 233 255
216 233 255
216 233 255
216 233 255
216 233 255
216 233 255
216 233 255
216 233 255
216 233 255
217 233 255
217 233 255
217 233 255
217 233 255
217 233 255
217 233 255
217 233 255
217 233 255
217 233 255
217 233 255
217 233 255
217 233 255
217 233 255
217 233 255
217 233 255
217 233 255
217 233 255
217 233 255
217 233 255
217 233 255
217 233 255
217 233 255
217 233 255
217 233 255
217 233 255
217 233 255
217 233 255
217 233 255
217 233 255
217 233 255
217 233 255
217 233 255
217 233 255
217 233 255
217 233 255
217 233 255
217 233 255
217 233 255
217 233 255
217 233 255
217 233 255
217 233 255
217 233 255
217 233 255
217 233 255
217 233 255
217 233 255
217 233 255
217 233 255
217 233 255
217 233 255
217 233 255
217 233 255
217 233 255
217 233 255
217 233 255
217 233 255
217 233 255
217 233 255
217 233 255
217 233 255
217 233 255
217 233 255
217 233 255
217 233 255
217 233 255
217 233 255
217 233 255
217 233 255
217 233 255
217 233 255
217 233 255
217 233 255
217 233 255
217 233 255
217 233 255
218 233 255
218 233 255
218 233 255
218 233 255
218 233 255
218 233 255
218 233 255
218 233 255
218 234 255
218 234 255
218 234 255
218 234 255
218 234 255
218 234 255
218 234 255
218 234 255
218 234 255
218 234 255
218 234 255
218 234 255
218 234 255
218 234 255
218 234 255
218 234 255
218 234 255
218 234 255
218 234 255
218 234 255
218 234 255
218 234 255
218 234 255
218 234 255
218 234 255
218 234 255
218 234 255
218 234 255
218 234 255
218 234 255
218 234 255
218 234 255
218 234 255
218 234 255
218 234 255
218 234 255
218 234 255
218 234 255
218 234 255
218 234 255
218 234 255
218 234 255
218 234 255
218 234 255
218 234 255
218 234 255
218 234 255
218 234 255
218 234 255
218 234 255
218 234 255
218 234 255
218 234 255
218 234 255
218 234 255
218 234 255
218 234 255
218 234 255
218 234 255
218 234 255
218 234 255
218 234 255
218 234 255
218 234 255
218 234 255
218 234 255
218 234 255
218 234 255
218 233 255
218 233 255
218 233 255
218 233 255
218 233 255
218 233 255
218 233 255
218 233 255
218 233 255
217 233 255
217 233 255
217 233 255
217 233 255
217 233 255
217 233 255
217 233 255
217 233 255
217 233 255
217 233 255
217 233 255
217 233 255
217 233 255
217 233 255
217 233 255
217 233 255
217 233 255
217 233 255
217 233 255
217 233 255
217 233 255
217 233 255
217 233 255
217 233 255
217 233 255
217 233 255
217 233 255
217 233 255
217 233 255
217 233 255
217 233 255
217 233 255
217 233 255
217 233 255
217 233 255
217 233 255
217 233 255
217 233 255
217 233 255
217 233 255
217 233 255
217 233 255
217 233 255
217 233 255
217 233 255
217 233 255
217 233 255
217 233 255
217 233 255
217 233 255
217 233 255
217 233 255
217 233 255
217 233 255
217 233 255
217 233 255
217 233 255
217 233 255
217 233 255
217 233 255
217 233 255
217 233 255
217 233 255
217 233 255
217 233 255
217 233 255
217 233 255
217 233 255
217 233 255
217 233 255
217 233 255
217 233 255
217 233 255
217 233 255
217 233 255
217 233 255
217 233 255
217 233 255
216 233 255
216 233 255
216 233 255
216 233 255
216 233 255
216 233 255
216 233 255
216 233 255
216 233 255
216 233 255
216 233 255
216 233 255
216 233 255
216 233 255
216 233 255
216 233 255
216 233 255
216 233 255
216 233 255
216 233 255
216 233 255
216 233 255
216 233 255
216 233 255
216 233 255
216 233 255
216 233 255
216 233 255
216 233 255
216 233 255
216 233 255
216 233 255
216 233 255
216 233 255
216 233 255
216 233 255
216 233 255
216 233 255
216 233 255
216 233 255
216 233 255
216 233 255
216 233 255
216 233 255
216 233 255
216 233 255
216 233 255
216 233 255
216 233 255
216 233 255
216 233 255
216 233 255
216 233 255
216 233 255
216 233 255
216 233 255
216 233 255
216 233 255
216 233 255
216 233 255
216 233 255
216 233 255
216 233 255
216 233 255
216 233 255
216 233 255
216 233 255
216 233 255
216 233 255
216 233 255
216 233 255
216 233 255
216 233 255
216 233 255
216 233 255
216 233 255
216 233 255
216 233 255
216 233 255
216 233 255
216 233 255
216 233 255
216 233 255
216 233 255
216 233 255
216 233 255
216 233 255
216 233 255
216 233 255
216 233 255
216 233 255
216 233 255
216 233 255
216 233 255
216 233 255
216 233 255
216 233 255
216 233 255
216 233 255
216 233 255
216 233 255
216 233 255
216 233 255
216 233 255
216 233 255
216 233 255
216 233 255
216 233 255
216 233 255
216 233 255
216 233 255
216 233 255
216 233 255
216 233 255
216 233 255
216 233 255
216 233 255
216 233 255
216 233 255
216 233 255
216 233 255
216 233 255
216 233 255
216 233 255
216 233 255
216 233 255
216 233 255
216 233 255
216 233 255
216 233 255
216 233 255
216 233 255
216 233 255
216 233 255
216 233 255
216 233 255
216 233 255
216 233 255
216 233 255
216 233 255
216 233 255
216 233 255
216 233 255
216 233 255
216 233 255
216 233 255
216 233 255
216 233 255
217 233 255
217 233 255
217 233 255
217 233 255
217 233 255
217 233 255
217 233 255
217 233 255
217 233 255
217 233 255
217 233 255
217 233 255
217 233 255
217 233 255
217 233 255
217 233 255
217 233 255
217 233 255
217 233 255
217 233 255
217 233 255
217 233 255
217 233 255
217 233 255
217 233 255
217 233 255
217 233 255
217 233 255
217 233 255
217 233 255
217 233 255
217 233 255
217 233 255
217 233 255
217 233 255
217 233 255
217 233 255
217 233 255
217 233 255
217 233 255
217 233 255
217 233 255
217 233 255
217 233 255
217 233 255
217 233 255
217 233 255
217 233 255
217 233 255
217 233 255
217 233 255
217 233 255
217 233 255
217 233 255
217 233 255
217 233 255
217 233 255
217 233 255
217 233 255
217 233 255
217 233 255
217 233 255
217 233 255
217 233 255
217 233 255
217 233 255
217 233 255
217 233 255
217 233 255
217 233 255
217 233 255
217 233 255
217 233 255
217 233 255
217 233 255
217 233 255
217 233 255
217 233 255
218 233 255
218 233 255
218 233 255
218 233 255
218 233 255
218 233 255
218 233 255
218 233 255
218 233 255
218 234 255
218 234 255
218 234 255
218 234 255
218 234 255
218 234 255
218 234 255
218 234 255
218 234 255
218 234 255
218 234 255
218 234 255
218 234 255
218 234 255
218 234 255
218 234 255
218 234 255
218 234 255
218 234 255
218 234 255
218 234 255
218 234 255
218 234 255
218 234 255
218 234 255
218 234 255
218 234 255
218 234 255
218 234 255
218 234 255
218 234 255
218 234 255
218 234 255
218 234 255
218 234 255
218 234 255
218 234 255
218 234 255
218 234 255
218 234 255
218 234 255
218 234 255
218 234 255
218 234 255
218 234 255
218 234 255
218 234 255
218 234 255
218 234 255
218 234 255
218 234 255
218 234 255
218 234 255
218 234 255
218 234 255
218 234 255
218 234 255
218 234 255
218 234 255
218 234 255
218 234 255
218 234 255
218 234 255
218 234 255
218 234 255
218 234 255
218 234 255
218 234 255
218 234 255
218 234 255
218 234 255
218 234 255
218 234 255
218 234 255
218 234 255
218 234 255
218 234 255
218 234 255
218 234 255
218 234 255
218 234 255
218 234 255
218 234 255
218 234 255
218 234 255
218 234 255
218 234 255
218 234 255
218 234 255
218 234 255
218 233 255
218 233 255
218 233 255
218 233 255
218 233 255
218 233 255
218 233 255
218 233 255
217 233 255
217 233 255
217 233 255
217 233 255
217 233 255
217 233 255
217 233 255
217 233 255
217 233 255
217 233 255
217 233 255
217 233 255
217 233 255
217 233 255
217 233 255
217 233 255
217 233 255
217 233 255
217 233 255
217 233 255
217 233 255
217 233 255
217 233 255
217 233 255
217 233 255
217 233 255
217 233 255
217 233 255
217 233 255
217 233 255
217 233 255
217 233 255
217 233 255
217 233 255
217 233 255
217 233 255
217 233 255
217 233 255
217 233 255
217 233 255
217 233 255
217 233 255
217 233 255
217 233 255
217 233 255
217 233 255
217 233 255
217 233 255
217 233 255
217 233 255
217 233 255
217 233 255
217 233 255
217 233 255
217 233 255
217 233 255
217 233 255
217 233 255
217 233 255
217 233 255
217 233 255
217 233 255
217 233 255
217 233 255
217 233 255
217 233 255
217 233 255
217 233 255
217 233 255
217 233 255
217 233 255
217 233 255
217 233 255
217 233 255
217 233 255
217 233 255
217 233 255
217 233 255
217 233 255
217 233 255
217 233 255
217 233 255
217 233 255
216 233 255
216 233 255
216 233 255
216 233 255
216 233 255
216 233 255
216 233 255
216 233 255
216 233 255
216 233 255
216 233 255
216 233 255
216 233 255
216 233 255
216 233 255
216 233 255
216 233 255
216 233 255
216 233 255
216 233 255
216 233 255
216 233 255
216 233 255
216 233 255
216 233 255
216 233 255
216 233 255
216 233 255
216 233 255
216 233 255
216 233 255
216 233 255
216 233 255
216 233 255
216 233 255
216 233 255
216 233 255
216 233 255
216 233 255
216 233 255
216 233 255
216 233 255
216 233 255
216 233 255
216 233 255
216 233 255
216 233 255
216 233 255
216 233 255
216 233 255
216 233 255
216 233 255
216 233 255
216 233 255
216 233 255
216 233 255
216 233 255
216 233 255
216 233 255
216 233 255
216 233 255
216 233 255
216 233 255
216 233 255
216 233 255
216 233 255
216 233 255
216 233 255
216 233 255
216 233 255
216 233 255
216 233 255
216 233 255
216 233 255
216 233 255
216 233 255
216 233 255
216 233 255
216 233 255
216 233 255
216 233 255
216 233 255
216 233 255
216 233 255
216 233 255
216 233 255
216 233 255
216 233 255
216 233 255
216 233 255
216 233 255
216 233 255
216 233 255
216 233 255
216 233 255
216 233 255
216 233 255
216 233 255
216 233 255
216 233 255
216 233 255
216 233 255
216 233 255
216 233 255
216 233 255
216 233 255
216 233 255
216 233 255
216 233 255
216 233 255
216 233 255
216 233 255
216 233 255
216 233 255
216 233 255
216 233 255
216 233 255
217 233 255
217 233 255
217 233 255
217 233 255
217 233 255
217 233 255
217 233 255
217 233 255
217 233 255
217 233 255
217 233 255
217 233 255
217 233 255
217 233 255
217 233 255
217 233 255
217 233 255
217 233 255
217 233 255
217 233 255
217 233 255
217 233 255
217 233 255
217 233 255
217 233 255
217 233 255
217 233 255
217 233 255
217 233 255
217 233 255
217 233 255
217 233 255
217 233 255
217 233 255
217 233 255
217 233 255
217 233 255
217 233 255
217 233 255
217 233 255
217 233 255
217 233 255
217 233 255
217 233 255
217 233 255
217 233 255
217 233 255
217 233 255
217 233 255
217 233 255
217 233 255
217 233 255
217 233 255
217 233 255
217 233 255
217 233 255
217 233 255
217 233 255
217 233 255
217 233 255
217 233 255
217 233 255
217 233 255
217 233 255
217 233 255
217 233 255
217 233 255
217 233 255
217 233 255
217 233 255
217 233 255
217 233 255
217 233 255
217 233 255
217 233 255
217 233 255
217 233 255
217 233 255
217 233 255
217 233 255
217 233 255
218 233 255
218 233 255
218 233 255
218 233 255
218 233 255
218 233 255
218 233 255
218 233 255
218 233 255
218 233 255
218 234 255
218 234 255
218 234 255
218 234 255
218 234 255
218 234 255
218 234 255
218 234 255
218 234 255
218 234 255
218 234 255
218 234 255
218 234 255
218 234 255
218 234 255
218 234 255
218 234 255
218 234 255
218 234 255
218 234 255
218 234 255
218 234 255
218 234 255
218 234 255
218 234 255
218 234 255
218 234 255
218 234 255
218 234 255
218 234 255
218 234 255
218 234 255
218 234 255
218 234 255
218 234 255
218 234 255
218 234 255
218 234 255
218 234 255
218 234 255
218 234 255
218 234 255
218 234 255
218 234 255
218 234 255
218 234 255
218 234 255
218 234 255
218 234 255
218 234 255
218 234 255
218 234 255
218 234 255
218 234 255
218 234 255
218 234 255
218 234 255
218 234 255
218 234 255
218 234 255
218 234 255
218 234 255
218 234 255
218 234 255
218 234 255
218 234 255
218 234 255
218 234 255
218 234 255
218 234 255
218 234 255
218 234 255
218 234 255
218 234 255
218 234 255
218 234 255
218 234 255
218 234 255
218 234 255
218 234 255
218 234 255
218 234 255
218 234 255
218 234 255
218 234 255
218 234 255
218 234 255
218 234 255
218 234 255
218 234 255
218 234 255
218 234 255
218 234 255
218 234 255
218 234 255
218 234 255
218 234 255
218 234 255
218 234 255
218 234 255
218 234 255
218 234 255
218 234 255
218 234 255
218 234 255
218 234 255
218 234 255
218 234 255
218 234 255
218 234 255
218 234 255
218 233 255
218 233 255
218 233 255
218 233 255
218 233 255
218 233 255
218 233 255
218 233 255
218 233 255
218 233 255
217 233 255
217 233 255
217 233 255
217 233 255
217 233 255
217 233 255
217 233 255
217 233 255
217 233 255
217 233 255
217 233 255
217 233 255
217 233 255
217 233 255
217 233 255
217 233 255
217 233 255
217 233 255
217 233 255
217 233 255
217 233 255
217 233 255
217 233 255
217 233 255
217 233 255
217 233 255
217 233 255
217 233 255
217 233 255
217 233 255
217 233 255
217 233 255
217 233 255
217 233 255
217 233 255
217 233 255
217 233 255
217 233 255
217 233 255
217 233 255
217 233 255
217 233 255
217 233 255
217 233 255
217 233 255
217 233 255
217 233 255
217 233 255
217 233 255
217 233 255
217 233 255
217 233 255
217 233 255
217 233 255
217 233 255
217 233 255
217 233 255
217 233 255
217 233 255
217 233 255
217 233 255
217 233 255
217 233 255
217 233 255
217 233 255
217 233 255
217 233 255
217 233 255
217 233 255
217 233 255
217 233 255
217 233 255
217 233 255
217 233 255
217 233 255
217 233 255
217 233 255
217 233 255
217 233 255
217 233 255
217 233 255
217 233 255
217 233 255
217 233 255
217 233 255
217 233 255
217 233 255
217 233 255
217 233 255
216 233 255
217 233 255
216 233 255
216 233 255
216 233 255
216 233 255
216 233 255
216 233 255
216 233 255
216 233 255
216 233 255
216 233 255
216 233 255
216 233 255
216 233 255
216 233 255
216 233 255
216 233 255
216 233 255
216 233 255
216 233 255
216 233 255
216 233 255
216 233 255
216 233 255
216 233 255
216 233 255
216 233 255
216 233 255
216 233 255
216 233 255
216 233 255
216 233 255
216 233 255
216 233 255
216 233 255
216 233 255
216 233 255
216 233 255
216 233 255
216 233 255
216 233 255
216 233 255
216 233 255
216 233 255
216 233 255
216 233 255
216 233 255
216 233 255
216 233 255
216 233 255
216 233 255
216 233 255
216 233 255
216 233 255
216 233 255
216 233 255
216 233 255
216 233 255
216 233 255
216 233 255
216 233 255
216 233 255
216 233 255
216 233 255
216 233 255
216 233 255
216 233 255
216 233 255
216 233 255
216 233 255
216 233 255
216 233 255
216 233 255
216 233 255
216 233 255
216 233 255
216 233 255
216 233 255
216 233 255
216 233 255
217 233 255
217 233 255
217 233 255
217 233 255
217 233 255
217 233 255
217 233 255
217 233 255
217 233 255
217 233 255
217 233 255
217 233 255
217 233 255
217 233 255
217 233 255
217 233 255
217 233 255
217 233 255
217 233 255
217 233 255
217 233 255
217 233 255
217 233 255
217 233 255
217 233 255
217 233 255
217 233 255
217 233 255
217 233 255
217 233 255
217 233 255
217 233 255
217 233 255
217 233 255
217 233 255
217 233 255
217 233 255
217 233 255
217 233 255
217 233 255
217 233 255
217 233 255
217 233 255
217 233 255
217 233 255
217 233 255
217 233 255
217 233 255
217 233 255
217 233 255
217 233 255
217 233 255
217 233 255
217 233 255
217 233 255
217 233 255
217 233 255
217 233 255
217 233 255
217 233 255
217 233 255
217 233 255
217 233 255
217 233 255
217 233 255
217 233 255
217 233 255
217 233 255
217 233 255
217 233 255
217 233 255
217 233 255
217 233 255
217 233 255
217 233 255
217 233 255
217 233 255
217 233 255
217 233 255
217 233 255
217 233 255
217 233 255
217 233 255
217 233 255
217 233 255
217 233 255
217 233 255
217 233 255
218 233 255
218 233 255
218 233 255
218 233 255
218 233 255
218 233 255
218 233 255
218 233 255
218 234 255
218 234 255
218 234 255
218 234 255
218 234 255
218 234 255
218 234 255
218 234 255
218 234 255
218 234 255
218 234 255
218 234 255
218 234 255
218 234 255
218 234 255
218 234 255
218 234 255
218 234 255
218 234 255
218 234 255
218 234 255
218 234 255
218 234 255
218 234 255
218 234 255
218 234 255
218 234 255
218 234 255
218 234 255
218 234 255
218 234 255
218 234 255
218 234 255
218 234 255
218 234 255
218 234 255
218 234 255
218 234 255
218 234 255
218 234 255
218 234 255
218 234 255
218 234 255
218 234 255
218 234 255
218 234 255
218 234 255
218 234 255
218 234 255
218 234 255
218 234 255
218 234 255
218 234 255
218 234 255
218 234 255
218 234 255
218 234 255
218 234 255
218 234 255
218 234 255
218 234 255
218 234 255
218 234 255
218 234 255
218 234 255
218 234 255
218 234 255
218 234 255
218 234 255
218 234 255
218 234 255
218 234 255
218 234 255
218 234 255
218 234 255
218 234 255
218 234 255
218 234 255
218 234 255
218 234 255
218 234 255
218 234 255
218 234 255
218 234 255
218 234 255
218 234 255
218 234 255
218 234 255
218 234 255
218 234 255
218 234 255
218 234 255
218 234 255
218 234 255
218 234 255
218 234 255
218 234 255
218 234 255
218 234 255
218 234 255
218 234 255
218 234 255
218 234 255
218 234 255
218 234 255
218 234 255
218 234 255
218 234 255
218 234 255
218 234 255
218 234 255
218 234 255
218 234 255
218 234 255
218 234 255
218 234 255
218 234 255
218 234 255
218 234 255
218 234 255
218 234 255
218 234 255
218 234 255
218 234 255
218 234 255
218 234 255
218 234 255
218 234 255
218 234 255
218 234 255
218 234 255
218 234 255
218 234 255
218 234 255
218 234 255
218 234 255
218 234 255
218 234 255
218 233 255
218 233 255
218 233 255
218 233 255
218 233 255
218 233 255
218 233 255
218 233 255
218 233 255
217 233 255
217 233 255
217 233 255
217 233 255
217 233 255
217 233 255
217 233 255
217 233 255
217 233 255
217 233 255
217 233 255
217 233 255
217 233 255
217 233 255
217 233 255
217 233 255
217 233 255
217 233 255
217 233 255
217 233 255
217 233 255
217 233 255
217 233 255
217 233 255
217 233 255
217 233 255
217 233 255
217 233 255
217 233 255
217 233 255
217 233 255
217 233 255
217 233 255
217 233 255
217 233 255
217 233 255
217 233 255
217 233 255
217 233 255
217 233 255
217 233 255
217 233 255
217 233 255
217 233 255
217 233 255
217 233 255
217 233 255
217 233 255
217 233 255
217 233 255
217 233 255
217 233 255
217 233 255
217 233 255
217 233 255
217 233 255
217 233 255
217 233 255
217 233 255
217 233 255
217 233 255
217 233 255
217 233 255
217 233 255
217 233 255
217 233 255
217 233 255
217 233 255
217 233 255
217 233 255
217 233 255
217 233 255
217 233 255
217 233 255
217 233 255
217 233 255
217 233 255
217 233 255
217 233 255
217 233 255
217 233 255
217 233 255
217 233 255
217 233 255
217 233 255
217 233 255
217 233 255
217 233 255
217 233 255
217 233 255
217 233 255
217 233 255
217 233 255
217 233 255
217 233 255
217 233 255
217 233 255
217 233 255
217 233 255
217 233 255
217 233 255
217 233 255
217 233 255
217 233 255
217 233 255
217 233 255
217 233 255
217 233 255
217 233 255
217 233 255
217 233 255
217 233 255
217 233 255
217 233 255
217 233 255
217 233 255
217 233 255
217 233 255
217 233 255
217 233 255
217 233 255
217 233 255
217 233 255
217 233 255
217 233 255
217 233 255
217 233 255
217 233 255
217 233 255
217 233 255
217 233 255
217 233 255
217 233 255
217 233 255
217 233 255
217 233 255
217 233 255
217 233 255
217 233 255
217 233 255
217 233 255
217 233 255
217 233 255
217 233 255
217 233 255
217 233 255
217 233 255
217 233 255
217 233 255
217 233 255
217 233 255
217 233 255
217 233 255
217 233 255
217 233 255
217 233 255
217 233 255
217 233 255
217 233 255
217 233 255
217 233 255
217 233 255
217 233 255
217 233 255
217 233 255
217 233 255
217 233 255
217 233 255
217 233 255
217 233 255
217 233 255
217 233 255
217 233 255
217 233 255
217 233 255
217 233 255
217 233 255
217 233 255
217 233 255
217 233 255
217 233 255
217 233 255
217 233 255
217 233 255
217 233 255
217 233 255
217 233 255
217 233 255
217 233 255
217 233 255
217 233 255
217 233 255
217 233 255
217 233 255
217 233 255
217 233 255
217 233 255
217 233 255
217 233 255
217 233 255
217 233 255
217 233 255
217 233 255
217 233 255
217 233 255
217 233 255
217 233 255
217 233 255
217 233 255
217 233 255
217 233 255
217 233 255
217 233 255
217 233 255
217 233 255
217 233 255
217 233 255
217 233 255
217 233 255
217 233 255
217 233 255
217 233 255
217 233 255
217 233 255
217 233 255
217 233 255
217 233 255
217 233 255
217 233 255
217 233 255
217 233 255
217 233 255
217 233 255
218 233 255
218 233 255
218 233 255
218 233 255
218 233 255
218 233 255
218 233 255
218 233 255
218 234 255
218 234 255
218 234 255
218 234 255
218 234 255
218 234 255
218 234 255
218 234 255
218 234 255
218 234 255
218 234 255
218 234 255
218 234 255
218 234 255
218 234 255
218 234 255
218 234 255
218 234 255
218 234 255
218 234 255
218 234 255
218 234 255
218 234 255
218 234 255
218 234 255
218 234 255
218 234 255
218 234 255
218 234 255
218 234 255
218 234 255
218 234 255
218 234 255
218 234 255
218 234 255
218 234 255
218 234 255
218 234 255
218 234 255
218 234 255
218 234 255
218 234 255
218 234 255
218 234 255
218 234 255
218 234 255
218 234 255
218 234 255
218 234 255
218 234 255
218 234 255
218 234 255
218 234 255
218 234 255
218 234 255
218 234 255
218 234 255
218 234 255
218 234 255
218 234 255
218 234 255
218 234 255
218 234 255
218 234 255
218 234 255
218 234 255
218 234 255
218 234 255
218 234 255
218 234 255
218 234 255
218 234 255
218 234 255
218 234 255
218 234 255
218 234 255
218 234 255
218 234 255
218 234 255
218 234 255
218 234 255
218 234 255
218 234 255
218 234 255
218 234 255
218 234 255
218 234 255
218 234 255
218 234 255
218 234 255
218 234 255
218 234 255
218 234 255
218 234 255
218 234 255
218 234 255
218 234 255
218 234 255
218 234 255
218 234 255
218 234 255
218 234 255
218 234 255
218 234 255
218 234 255
218 234 255
218 234 255
218 234 255
218 234 255
218 234 255
218 234 255
218 234 255
218 234 255
218 234 255
218 234 255
218 234 255
218 234 255
218 234 255
218 234 255
218 234 255
218 234 255
218 234 255
218 234 255
218 234 255
218 234 255
218 234 255
218 234 255
218 234 255
218 234 255
218 234 255
218 234 255
218 234 255
218 234 255
218 234 255
218 234 255
218 234 255
218 234 255
218 234 255
218 234 255
218 234 255
218 234 255
218 234 255
218 234 255
218 234 255
218 234 255
218 234 255
218 234 255
218 234 255
218 234 255
218 234 255
218 234 255
218 234 255
218 234 255
218 234 255
218 234 255
218 234 255
218 234 255
218 234 255
218 234 255
218 234 255
218 234 255
218 234 255
218 233 255
218 233 255
218 233 255
218 233 255
218 233 255
218 233 255
218 233 255
218 233 255
218 233 255
218 233 255
217 233 255
217 233 255
217 233 255
217 233 255
217 233 255
217 233 255
217 233 255
217 233 255
217 233 255
217 233 255
217 233 255
217 233 255
217 233 255
217 233 255
217 233 255
217 233 255
217 233 255
217 233 255
217 233 255
217 233 255
217 233 255
217 233 255
217 233 255
217 233 255
217 233 255
217 233 255
217 233 255
217 233 255
217 233 255
217 233 255
217 233 255
217 233 255
217 233 255
217 233 255
217 233 255
217 233 255
217 233 255
217 233 255
217 233 255
217 233 255
217 233 255
217 233 255
217 233 255
217 233 255
217 233 255
217 233 255
217 233 255
217 233 255
217 233 255
217 233 255
217 233 255
217 233 255
217 233 255
217 233 255
217 233 255
217 233 255
217 233 255
217 233 255
217 233 255
217 233 255
217 233 255
217 233 255
217 233 255
217 233 255
217 233 255
217 233 255
217 233 255
217 233 255
217 233 255
217 233 255
217 233 255
217 233 255
217 233 255
217 233 255
217 233 255
217 233 255
217 233 255
217 233 255
217 233 255
217 233 255
217 233 255
217 233 255
217 233 255
217 233 255
217 233 255
217 233 255
217 233 255
217 233 255
217 233 255
217 233 255
217 233 255
217 233 255
217 233 255
217 233 255
217 233 255
217 233 255
217 233 255
217 233 255
217 233 255
217 233 255
217 233 255
217 233 255
217 233 255
217 233 255
217 233 255
217 233 255
217 233 255
217 233 255
217 233 255
217 233 255
217 233 255
217 233 255
217 233 255
217 233 255
217 233 255
217 233 255
217 233 255
217 233 255
217 233 255
217 233 255
217 233 255
217 233 255
217 233 255
217 233 255
217 233 255
217 233 255
217 233 255
217 233 255
217 233 255
217 233 255
217 233 255
217 233 255
217 233 255
217 233 255
217 233 255
217 233 255
217 233 255
217 233 255
217 233 255
217 233 255
217 233 255
217 233 255
217 233 255
217 233 255
217 233 255
217 233 255
217 233 255
217 233 255
217 233 255
217 233 255
217 233 255
217 233 255
217 233 255
217 233 255
217 233 255
217 233 255
217 233 255
217 233 255
217 233 255
217 233 255
217 233 255
217 233 255
217 233 255
217 233 255
217 233 255
217 233 255
217 233 255
217 233 255
217 233 255
217 233 255
217 233 255
217 233 255
217 233 255
217 233 255
217 233 255
217 233 255
217 233 255
217 233 255
217 233 255
217 233 255
217 233 255
217 233 255
217 233 255
217 233 255
217 233 255
217 233 255
217 233 255
217 233 255
217 233 255
217 233 255
217 233 255
217 233 255
217 233 255
217 233 255
217 233 255
217 233 255
217 233 255
217 233 255
217 233 255
217 233 255
217 233 255
217 233 255
217 233 255
217 233 255
217 233 255
217 233 255
217 233 255
218 233 255
218 233 255
218 233 255
218 233 255
218 233 255
218 233 255
218 233 255
218 233 255
218 233 255
218 234 255
218 234 255
218 234 255
218 234 255
218 234 255
218 234 255
218 234 255
218 234 255
218 234 255
218 234 255
218 234 255
218 234 255
218 234 255
218 234 255
218 234 255
218 234 255
218 234 255
218 234 255
218 234 255
218 234 255
218 234 255
218 234 255
218 234 255
218 234 255
218 234 255
218 234 255
218 234 255
218 234 255
218 234 255
218 234 255
218 234 255
218 234 255
218 234 255
218 234 255
218 234 255
218 234 255
218 234 255
218 234 255
218 234 255
218 234 255
218 234 255
218 234 255
218 234 255
218 234 255
218 234 255
218 234 255
218 234 255
218 234 255
218 234 255
218 234 255
218 234 255
218 234 255
218 234 255
218 234 255
218 234 255
218 234 255
218 234 255
218 234 255
218 234 255
218 234 255
218 234 255
218 234 255
218 234 255
218 234 255
218 234 255
218 234 255
218 234 255
218 234 255
218 234 255
218 234 255
218 234 255
218 234 255
218 234 255
218 234 255
218 234 255
218 234 255
218 234 255
218 234 255
218 234 255
218 234 255
218 234 255
218 234 255
218 234 255
218 234 255
218 234 255
218 234 255
218 234 255
219 234 255
219 234 255
219 234 255
219 234 255
219 234 255
219 234 255
219 234 255
219 234 255
219 234 255
219 234 255
219 234 255
219 234 255
219 234 255
219 234 255
218 234 255
218 234 255
218 234 255
218 234 255
218 234 255
218 234 255
218 234 255
218 234 255
218 234 255
218 234 255
218 234 255
218 234 255
218 234 255
218 234 255
218 234 255
218 234 255
218 234 255
218 234 255
218 234 255
218 234 255
218 234 255
218 234 255
218 234 255
218 234 255
218 234 255
218 234 255
218 234 255
218 234 255
218 234 255
218 234 255
218 234 255
218 234 255
218 234 255
218 234 255
218 234 255
218 234 255
218 234 255
218 234 255
218 234 255
218 234 255
218 234 255
218 234 255
218 234 255
218 234 255
218 234 255
218 234 255
218 234 255
218 234 255
218 234 255
218 234 255
218 234 255
218 234 255
218 234 255
218 234 255
218 234 255
218 234 255
218 234 255
218 234 255
218 234 255
218 234 255
218 234 255
218 234 255
218 234 255
218 234 255
218 234 255
218 234 255
218 234 255
218 234 255
218 234 255
218 234 255
218 234 255
218 234 255
218 234 255
218 234 255
218 234 255
218 234 255
218 234 255
218 234 255
218 234 255
218 234 255
218 234 255
218 234 255
218 234 255
218 234 255
218 234 255
218 234 255
218 233 255
218 233 255
218 233 255
218 233 255
218 233 255
218 233 255
218 233 255
218 233 255
218 233 255
218 233 255
217 233 255
217 233 255
217 233 255
217 233 255
217 233 255
217 233 255
217 233 255
217 233 255
217 233 255
217 233 255
217 233 255
217 233 255
217 233 255
217 233 255
217 233 255
217 233 255
217 233 255
217 233 255
217 233 255
217 233 255
217 233 255
217 233 255
217 233 255
217 233 255
217 233 255
217 233 255
217 233 255
217 233 255
217 233 255
217 233 255
217 233 255
217 233 255
217 233 255
217 233 255
217 233 255
217 233 255
217 233 255
217 233 255
217 233 255
217 233 255
217 233 255
217 233 255
217 233 255
217 233 255
217 233 255
217 233 255
217 233 255
217 233 255
217 233 255
217 233 255
217 233 255
217 233 255
217 233 255
217 233 255
217 233 255
217 233 255
217 233 255
217 233 255
217 233 255
217 233 255
217 233 255
217 233 255
217 233 255
217 233 255
217 233 255
217 233 255
217 233 255
217 233 255
217 233 255
217 233 255
217 233 255
217 233 255
217 233 255
217 233 255
217 233 255
217 233 255
217 233 255
217 233 255
217 233 255
217 233 255
217 233 255
217 233 255
217 233 255
217 233 255
217 233 255
217 233 255
217 233 255
217 233 255
217 233 255
217 233 255
217 233 255
217 233 255
217 233 255
217 233 255
217 233 255
217 233 255
217 233 255
217 233 255
217 233 255
217 233 255
217 233 255
217 233 255
217 233 255
217 233 255
217 233 255
217 233 255
217 233 255
217 233 255
217 233 255
217 233 255
217 233 255
217 233 255
217 233 255
217 233 255
217 233 255
217 233 255
217 233 255
217 233 255
217 233 255
217 233 255
217 233 255
217 233 255
217 233 255
217 233 255
217 233 255
217 233 255
217 233 255
217 233 255
217 233 255
217 233 255
217 233 255
217 233 255
217 233 255
217 233 255
217 233 255
217 233 255
217 233 255
217 233 255
217 233 255
217 233 255
217 233 255
217 233 255
217 233 255
217 233 255
217 233 255
217 233 255
217 233 255
217 233 255
217 233 255
217 233 255
217 233 255
217 233 255
217 233 255
217 233 255
217 233 255
217 233 255
217 233 255
217 233 255
217 233 255
217 233 255
217 233 255
217 233 255
217 233 255
217 233 255
217 233 255
217 233 255
217 233 255
217 233 255
217 233 255
217 233 255
217 233 255
217 233 255
217 233 255
217 233 255
217 233 255
217 233 255
217 233 255
217 233 255
217 233 255
218 233 255
218 233 255
218 233 255
218 233 255
218 233 255
218 233 255
218 233 255
218 233 255
218 233 255
218 233 255
218 234 255
218 234 255
218 234 255
218 234 255
218 234 255
218 234 255
218 234 255
218 234 255
218 234 255
218 234 255
218 234 255
218 234 255
218 234 255
218 234 255
218 234 255
218 234 255
218 234 255
218 234 255
218 234 255
218 234 255
218 234 255
218 234 255
218 234 255
218 234 255
218 234 255
218 234 255
218 234 255
218 234 255
218 234 255
218 234 255
218 234 255
218 234 255
218 234 255
218 234 255
218 234 255
218 234 255
218 234 255
218 234 255
218 234 255
218 234 255
218 234 255
218 234 255
218 234 255
218 234 255
218 234 255
218 234 255
218 234 255
218 234 255
218 234 255
218 234 255
218 234 255
218 234 255
218 234 255
218 234 255
218 234 255
218 234 255
218 234 255
218 234 255
218 234 255
218 234 255
218 234 255
218 234 255
218 234 255
218 234 255
218 234 255
218 234 255
218 234 255
218 234 255
218 234 255
218 234 255
218 234 255
218 234 255
218 234 255
218 234 255
218 234 255
218 234 255
218 234 255
218 234 255
218 234 255
218 234 255
218 234 255
218 234 255
218 234 255
218 234 255
218 234 255
218 234 255
218 234 255
218 234 255
219 234 255
219 234 255
219 234 255
219 234 255
219 234 255
219 234 255
219 234 255
219 234 255
219 234 255
219 234 255
219 234 255
219 234 255
219 234 255
219 234 255
219 234 255
219 234 255
219 234 255
219 234 255
219 234 255
219 234 255
219 234 255
219 234 255
219 234 255
219 234 255
219 234 255
219 234 255
219 234 255
219 234 255
219 234 255
219 234 255
219 234 255
219 234 255
219 234 255
219 234 255
219 234 255
219 234 255
219 234 255
219 234 255
219 234 255
219 234 255
219 234 255
218 234 255
218 234 255
218 234 255
218 234 255
218 234 255
218 234 255
218 234 255
218 234 255
218 234 255
218 234 255
218 234 255
218 234 255
218 234 255
218 234 255
218 234 255
218 234 255
218 234 255
218 234 255
218 234 255
218 234 255
218 234 255
218 234 255
218 234 255
218 234 255
218 234 255
218 234 255
218 234 255
218 234 255
218 234 255
218 234 255
218 234 255
218 234 255
218 234 255
218 234 255
218 234 255
218 234 255
218 234 255
218 234 255
218 234 255
218 234 255
218 234 255
218 234 255
218 234 255
218 234 255
218 234 255
218 234 255
218 234 255
218 234 255
218 234 255
218 234 255
218 234 255
218 234 255
218 234 255
218 234 255
218 234 255
218 234 255
218 234 255
218 234 255
218 234 255
218 234 255
218 234 255
218 234 255
218 234 255
218 234 255
218 234 255
218 234 255
218 234 255
218 234 255
218 234 255
218 234 255
218 234 255
218 234 255
218 234 255
218 234 255
218 234 255
218 234 255
218 234 255
218 234 255
218 234 255
218 234 255
218 234 255
218 234 255
218 234 255
218 234 255
218 234 255
218 234 255
218 234 255
218 234 255
218 234 255
218 233 255
218 233 255
218 233 255
218 233 255
218 233 255
218 233 255
218 233 255
218 233 255
218 233 255
218 233 255
217 233 255
217 233 255
217 233 255
217 233 255
217 233 255
217 233 255
217 233 255
217 233 255
217 233 255
217 233 255
217 233 255
217 233 255
217 233 255
217 233 255
217 233 255
217 233 255
217 233 255
217 233 255
217 233 255
217 233 255
217 233 255
217 233 255
217 233 255
217 233 255
217 233 255
217 233 255
217 233 255
217 233 255
217 233 255
217 233 255
217 233 255
217 233 255
217 233 255
217 233 255
217 233 255
217 233 255
217 233 255
217 233 255
217 233 255
217 233 255
217 233 255
217 233 255
217 233 255
217 233 255
217 233 255
217 233 255
217 233 255
217 233 255
217 233 255
217 233 255
217 233 255
217 233 255
217 233 255
217 233 255
217 233 255
217 233 255
217 233 255
217 233 255
217 233 255
217 233 255
217 233 255
217 233 255
217 233 255
217 233 255
217 233 255
217 233 255
217 233 255
217 233 255
217 233 255
217 233 255
217 233 255
217 233 255
217 233 255
217 233 255
217 233 255
217 233 255
217 233 255
217 233 255
217 233 255
217 233 255
217 233 255
217 233 255
217 233 255
217 233 255
217 233 255
217 233 255
217 233 255
217 233 255
217 233 255
217 233 255
217 233 255
217 233 255
217 233 255
217 233 255
217 233 255
217 233 255
217 233 255
217 233 255
217 233 255
217 233 255
217 233 255
217 233 255
217 233 255
217 233 255
217 233 255
217 233 255
217 233 255
217 233 255
217 233 255
217 233 255
217 233 255
217 233 255
217 233 255
217 233 255
217 233 255
217 233 255
217 233 255
217 233 255
217 233 255
217 233 255
217 233 255
217 233 255
217 233 255
217 233 255
217 233 255
217 233 255
217 233 255
217 233 255
217 233 255
217 233 255
217 233 255
217 233 255
217 233 255
217 233 255
217 233 255
217 233 255
217 233 255
217 233 255
217 233 255
217 233 255
217 233 255
217 233 255
217 233 255
217 233 255
217 233 255
217 233 255
218 233 255
218 233 255
218 233 255
218 233 255
218 233 255
218 233 255
218 233 255
218 233 255
218 233 255
218 233 255
218 233 255
218 234 255
218 234 255
218 234 255
218 234 255
218 234 255
218 234 255
218 234 255
218 234 255
218 234 255
218 234 255
218 234 255
218 234 255
218 234 255
218 234 255
218 234 255
218 234 255
218 234 255
218 234 255
218 234 255
218 234 255
218 234 255
218 234 255
218 234 255
218 234 255
218 234 255
218 234 255
218 234 255
218 234 255
218 234 255
218 234 255
218 234 255
218 234 255
218 234 255
218 234 255
218 234 255
218 234 255
218 234 255
218 234 255
218 234 255
218 234 255
218 234 255
218 234 255
218 234 255
218 234 255
218 234 255
218 234 255
218 234 255
218 234 255
218 234 255
218 234 255
218 234 255
218 234 255
218 234 255
218 234 255
218 234 255
218 234 255
218 234 255
218 234 255
218 234 255
218 234 255
218 234 255
218 234 255
218 234 255
218 234 255
218 234 255
218 234 255
218 234 255
218 234 255
218 234 255
218 234 255
218 234 255
218 234 255
218 234 255
218 234 255
218 234 255
218 234 255
218 234 255
218 234 255
218 234 255
218 234 255
218 234 255
218 234 255
218 234 255
218 234 255
218 234 255
218 234 255
218 234 255
218 234 255
219 234 255
219 234 255
219 234 255
219 234 255
219 234 255
219 234 255
219 234 255
219 234 255
219 234 255
219 234 255
219 234 255
219 234 255
219 234 255
219 234 255
219 234 255
219 234 255
219 234 255
219 234 255
219 234 255
219 234 255
219 234 255
219 234 255
219 234 255
219 234 255
219 234 255
219 234 255
219 234 255
219 234 255
219 234 255
219 234 255
219 234 255
219 234 255
219 234 255
219 234 255
219 234 255
219 234 255
219 234 255
219 234 255
219 234 255
219 234 255
219 234 255
219 234 255
219 234 255
219 234 255
219 234 255
219 234 255
219 234 255
219 234 255
219 234 255
219 234 255
219 234 255
219 234 255
219 234 255
219 234 255
219 234 255
219 234 255
219 234 255
219 234 255
219 234 255
219 234 255
219 234 255
219 234 255
219 234 255
219 234 255
219 234 255
219 234 255
219 234 255
219 234 255
219 234 255
219 234 255
218 234 255
218 234 255
218 234 255
218 234 255
218 234 255
218 234 255
218 234 255
218 234 255
218 234 255
218 234 255
218 234 255
218 234 255
218 234 255
218 234 255
218 234 255
218 234 255
218 234 255
218 234 255
218 234 255
218 234 255
218 234 255
218 234 255
218 234 255
218 234 255
218 234 255
218 234 255
218 234 255
218 234 255
218 234 255
218 234 255
218 234 255
218 234 255
218 234 255
218 234 255
218 234 255
218 234 255
218 234 255
218 234 255
218 234 255
218 234 255
218 234 255
218 234 255
218 234 255
218 234 255
218 234 255
218 234 255
218 234 255
218 234 255
218 234 255
218 234 255
218 234 255
218 234 255
218 234 255
218 234 255
218 234 255
218 234 255
218 234 255
218 234 255
218 234 255
218 234 255
218 234 255
218 234 255
218 234 255
218 234 255
218 234 255
218 234 255
218 234 255
218 234 255
218 234 255
218 234 255
218 234 255
218 234 255
218 234 255
218 234 255
218 234 255
218 234 255
218 234 255
218 234 255
218 234 255
218 234 255
218 234 255
218 234 255
218 234 255
218 234 255
218 234 255
218 234 255
218 234 255
218 234 255
218 234 255
218 234 255
218 234 255
218 234 255
218 234 255
218 233 255
218 233 255
218 233 255
218 233 255
218 233 255
218 233 255
218 233 255
218 233 255
218 233 255
218 233 255
217 233 255
217 233 255
217 233 255
217 233 255
217 233 255
217 233 255
217 233 255
217 233 255
217 233 255
217 233 255
217 233 255
217 233 255
217 233 255
217 233 255
217 233 255
217 233 255
217 233 255
217 233 255
217 233 255
217 233 255
217 233 255
217 233 255
217 233 255
217 233 255
217 233 255
217 233 255
217 233 255
217 233 255
217 233 255
217 233 255
217 233 255
217 233 255
217 233 255
217 233 255
217 233 255
217 233 255
217 233 255
217 233 255
217 233 255
217 233 255
217 233 255
217 233 255
217 233 255
217 233 255
217 233 255
217 233 255
217 233 255
217 233 255
217 233 255
217 233 255
217 233 255
217 233 255
217 233 255
217 233 255
217 233 255
217 233 255
217 233 255
217 233 255
217 233 255
217 233 255
217 233 255
217 233 255
217 233 255
217 233 255
217 233 255
217 233 255
217 233 255
217 233 255
217 233 255
217 233 255
217 233 255
217 233 255
217 233 255
217 233 255
217 233 255
217 233 255
217 233 255
217 233 255
217 233 255
217 233 255
217 233 255
217 233 255
217 233 255
217 233 255
217 233 255
217 233 255
217 233 255
217 233 255
217 233 255
217 233 255
217 233 255
217 233 255
217 233 255
217 233 255
217 233 255
217 233 255
217 233 255
217 233 255
217 233 255
217 233 255
217 233 255
217 233 255
217 233 255
217 233 255
217 233 255
217 233 255
217 233 255
217 233 255
217 233 255
217 233 255
218 233 255
218 233 255
218 233 255
218 233 255
218 233 255
218 233 255
218 233 255
218 233 255
218 233 255
218 233 255
218 233 255
218 234 255
218 234 255
218 234 255
218 234 255
218 234 255
218 234 255
218 234 255
218 234 255
218 234 255
218 234 255
218 234 255
218 234 255
218 234 255
218 234 255
218 234 255
218 234 255
218 234 255
218 234 255
218 234 255
218 234 255
218 234 255
218 234 255
218 234 255
218 234 255
218 234 255
218 234 255
218 234 255
218 234 255
218 234 255
218 234 255
218 234 255
218 234 255
218 234 255
218 234 255
218 234 255
218 234 255
218 234 255
218 234 255
218 234 255
218 234 255
218 234 255
218 234 255
218 234 255
218 234 255
218 234 255
218 234 255
218 234 255
218 234 255
218 234 255
218 234 255
218 234 255
218 234 255
218 234 255
218 234 255
218 234 255
218 234 255
218 234 255
218 234 255
218 234 255
218 234 255
218 234 255
218 234 255
218 234 255
218 234 255
218 234 255
218 234 255
218 234 255
218 234 255
218 234 255
218 234 255
218 234 255
218 234 255
218 234 255
218 234 255
218 234 255
218 234 255
218 234 255
218 234 255
218 234 255
218 234 255
218 234 255
218 234 255
218 234 255
218 234 255
218 234 255
218 234 255
218 234 255
218 234 255
218 234 255
218 234 255
218 234 255
218 234 255
219 234 255
219 234 255
219 234 255
219 234 255
219 234 255
219 234 255
219 234 255
219 234 255
219 234 255
219 234 255
219 234 255
219 234 255
219 234 255
219 234 255
219 234 255
219 234 255
219 234 255
219 234 255
219 234 255
219 234 255
219 234 255
219 234 255
219 234 255
219 234 255
219 234 255
219 234 255
219 234 255
219 234 255
219 234 255
219 234 255
219 234 255
219 234 255
219 234 255
219 234 255
219 234 255
219 234 255
219 234 255
219 234 255
219 234 255
219 234 255
219 234 255
219 234 255
219 234 255
219 234 255
219 234 255
219 234 255
219 234 255
219 234 255
219 234 255
219 234 255
219 234 255
219 234 255
219 234 255
219 234 255
219 234 255
219 234 255
219 234 255
219 234 255
219 234 255
219 234 255
219 234 255
219 234 255
219 234 255
219 234 255
219 234 255
219 234 255
219 234 255
219 234 255
219 234 255
219 234 255
219 234 255
219 234 255
219 234 255
219 234 255
219 234 255
219 234 255
219 234 255
219 234 255
219 234 255
219 234 255
219 234 255
219 234 255
219 234 255
219 234 255
219 234 255
219 234 255
219 234 255
219 234 255
219 234 255
219 234 255
219 234 255
219 234 255
219 234 255
219 234 255
219 234 255
219 234 255
219 234 255
219 234 255
219 234 255
219 234 255
218 234 255
218 234 255
218 234 255
218 234 255
218 234 255
218 234 255
218 234 255
218 234 255
218 234 255
218 234 255
218 234 255
218 234 255
218 234 255
218 234 255
218 234 255
218 234 255
218 234 255
218 234 255
218 234 255
218 234 255
218 234 255
218 234 255
218 234 255
218 234 255
218 234 255
218 234 255
218 234 255
218 234 255
218 234 255
218 234 255
218 234 255
218 234 255
218 234 255
218 234 255
218 234 255
218 234 255
218 234 255
218 234 255
218 234 255
218 234 255
218 234 255
218 234 255
218 234 255
218 234 255
218 234 255
218 234 255
218 234 255
218 234 255
218 234 255
218 234 255
218 234 255
218 234 255
218 234 255
218 234 255
218 234 255
218 234 255
218 234 255
218 234 255
218 234 255
218 234 255
218 234 255
218 234 255
218 234 255
218 234 255
218 234 255
218 234 255
218 234 255
218 234 255
218 234 255
218 234 255
218 234 255
218 234 255
218 234 255
218 234 255
218 234 255
218 234 255
218 234 255
218 234 255
218 234 255
218 234 255
218 234 255
218 234 255
218 234 255
218 234 255
218 234 255
218 234 255
218 234 255
218 234 255
218 234 255
218 234 255
218 234 255
218 234 255
218 234 255
218 234 255
218 234 255
218 234 255
218 234 255
218 234 255
218 234 255
218 233 255
218 233 255
218 233 255
218 233 255
218 233 255
218 233 255
218 233 255
218 233 255
218 233 255
218 233 255
218 233 255
218 233 255
218 233 255
218 233 255
218 233 255
218 233 255
218 233 255
218 233 255
218 233 255
217 233 255
217 233 255
217 233 255
217 233 255
217 233 255
217 233 255
217 233 255
217 233 255
217 233 255
217 233 255
217 233 255
217 233 255
217 233 255
217 233 255
217 233 255
217 233 255
217 233 255
217 233 255
217 233 255
217 233 255
217 233 255
217 233 255
217 233 255
217 233 255
217 233 255
217 233 255
217 233 255
217 233 255
217 233 255
217 233 255
217 233 255
217 233 255
217 233 255
217 233 255
217 233 255
217 233 255
217 233 255
217 233 255
217 233 255
217 233 255
217 233 255
217 233 255
217 233 255
217 233 255
217 233 255
217 233 255
217 233 255
218 233 255
218 233 255
218 233 255
218 233 255
218 233 255
218 233 255
218 233 255
218 233 255
218 233 255
218 233 255
218 233 255
218 233 255
218 233 255
218 233 255
218 233 255
218 233 255
218 233 255
218 233 255
218 233 255
218 233 255
218 233 255
218 234 255
218 234 255
218 234 255
218 234 255
218 234 255
218 234 255
218 234 255
218 234 255
218 234 255
218 234 255
218 234 255
218 234 255
218 234 255
218 234 255
218 234 255
218 234 255
218 234 255
218 234 255
218 234 255
218 234 255
218 234 255
218 234 255
218 234 255
218 234 255
218 234 255
218 234 255
218 234 255
218 234 255
218 234 255
218 234 255
218 234 255
218 234 255
218 234 255
218 234 255
218 234 255
218 234 255
218 234 255
218 234 255
218 234 255
218 234 255
218 234 255
218 234 255
218 234 255
218 234 255
218 234 255
218 234 255
218 234 255
218 234 255
218 234 255
218 234 255
218 234 255
218 234 255
218 234 255
218 234 255
218 234 255
218 234 255
218 234 255
218 234 255
218 234 255
218 234 255
218 234 255
218 234 255
218 234 255
218 234 255
218 234 255
218 234 255
218 234 255
218 234 255
218 234 255
218 234 255
218 234 255
218 234 255
218 234 255
218 234 255
218 234 255
218 234 255
218 234 255
218 234 255
218 234 255
218 234 255
218 234 255
218 234 255
218 234 255
218 234 255
218 234 255
218 234 255
218 234 255
218 234 255
218 234 255
218 234 255
218 234 255
218 234 255
218 234 255
218 234 255
218 234 255
218 234 255
218 234 255
218 234 255
219 234 255
219 234 255
219 234 255
219 234 255
219 234 255
219 234 255
219 234 255
219 234 255
219 234 255
219 234 255
219 234 255
219 234 255
219 234 255
219 234 255
219 234 255
219 234 255
219 234 255
219 234 255
219 234 255
219 234 255
219 234 255
219 234 255
219 234 255
219 234 255
219 234 255
219 234 255
219 234 255
219 234 255
219 234 255
219 234 255
219 234 255
219 234 255
219 234 255
219 234 255
219 234 255
219 234 255
219 234 255
219 234 255
219 234 255
219 234 255
219 234 255
219 234 255
219 234 255
219 234 255
219 234 255
219 234 255
219 234 255
219 234 255
219 234 255
219 234 255
219 234 255
219 234 255
219 234 255
219 234 255
219 234 255
219 234 255
219 234 255
219 234 255
219 234 255
219 234 255
219 234 255
219 234 255
219 234 255
219 234 255
219 234 255
219 234 255
219 234 255
219 234 255
219 234 255
219 234 255
219 234 255
219 234 255
219 234 255
219 234 255
219 234 255
219 234 255
219 234 255
219 234 255
219 234 255
219 234 255
219 234 255
219 234 255
219 234 255
219 234 255
219 234 255
219 234 255
219 234 255
219 234 255
219 234 255
219 234 255
219 234 255
219 234 255
219 234 255
219 234 255
219 234 255
219 234 255
219 234 255
219 234 255
219 234 255
219 234 255
219 234 255
219 234 255
219 234 255
219 234 255
219 234 255
219 234 255
219 234 255
219 234 255
219 234 255
219 234 255
219 234 255
219 234 255
219 234 255
219 234 255
219 234 255
219 234 255
219 234 255
219 234 255
219 234 255
219 234 255
219 234 255
219 234 255
219 234 255
219 234 255
219 234 255
219 234 255
219 234 255
219 234 255
219 234 255
219 234 255
219 234 255
219 234 255
218 234 255
218 234 255
218 234 255
218 234 255
218 234 255
218 234 255
218 234 255
218 234 255
218 234 255
218 234 255
218 234 255
218 234 255
218 234 255
218 234 255
218 234 255
218 234 255
218 234 255
218 234 255
218 234 255
218 234 255
218 234 255
218 234 255
218 234 255
218 234 255
218 234 255
218 234 255
218 234 255
218 234 255
218 234 255
218 234 255
218 234 255
218 234 255
218 234 255
218 234 255
218 234 255
218 234 255
218 234 255
218 234 255
218 234 255
218 234 255
218 234 255
218 234 255
218 234 255
218 234 255
218 234 255
218 234 255
218 234 255
218 234 255
218 234 255
218 234 255
218 234 255
218 234 255
218 234 255
218 234 255
218 234 255
218 234 255
218 234 255
218 234 255
218 234 255
218 234 255
218 234 255
218 234 255
218 234 255
218 234 255
218 234 255
218 234 255
218 234 255
218 234 255
218 234 255
218 234 255
218 234 255
218 234 255
218 234 255
218 234 255
218 234 255
218 234 255
218 234 255
218 234 255
218 234 255
218 234 255
218 234 255
218 234 255
218 234 255
218 234 255
218 234 255
218 234 255
218 234 255
218 234 255
218 234 255
218 234 255
218 234 255
218 234 255
218 234 255
218 234 255
218 234 255
218 234 255
218 234 255
218 234 255
218 234 255
218 234 255
218 234 255
218 234 255
218 234 255
218 234 255
218 234 255
218 234 255
218 234 255
218 234 255
218 234 255
218 234 255
218 234 255
218 234 255
218 234 255
218 234 255
218 234 255
218 234 255
218 234 255
218 234 255
218 234 255
218 234 255
218 234 255
218 234 255
218 234 255
218 234 255
218 234 255
218 234 255
218 234 255
218 234 255
218 234 255
218 234 255
218 234 255
218 234 255
218 234 255
218 234 255
218 234 255
218 234 255
218 234 255
218 234 255
218 234 255
218 234 255
218 234 255
218 234 255
218 234 255
218 234 255
218 234 255
218 234 255
218 234 255
218 234 255
218 234 255
218 234 255
218 234 255
218 234 255
218 234 255
218 234 255
218 234 255
218 234 255
218 234 255
218 234 255
218 234 255
218 234 255
218 234 255
218 234 255
218 234 255
218 234 255
218 234 255
218 234 255
218 234 255
218 234 255
218 234 255
218 234 255
218 234 255
218 234 255
218 234 255
218 234 255
218 234 255
218 234 255
218 234 255
218 234 255
218 234 255
218 234 255
218 234 255
218 234 255
218 234 255
218 234 255
218 234 255
218 234 255
218 234 255
218 234 255
218 234 255
218 234 255
218 234 255
218 234 255
218 234 255
218 234 255
218 234 255
218 234 255
218 234 255
218 234 255
218 234 255
218 234 255
218 234 255
218 234 255
218 234 255
218 234 255
218 234 255
218 234 255
218 234 255
218 234 255
218 234 255
218 234 255
218 234 255
218 234 255
218 234 255
218 234 255
218 234 255
218 234 255
218 234 255
218 234 255
218 234 255
218 234 255
218 234 255
218 234 255
218 234 255
218 234 255
218 234 255
218 234 255
218 234 255
218 234 255
218 234 255
218 234 255
218 234 255
218 234 255
218 234 255
218 234 255
218 234 255
218 234 255
218 234 255
218 234 255
218 234 255
218 234 255
218 234 255
218 234 255
218 234 255
218 234 255
218 234 255
218 234 255
218 234 255
218 234 255
218 234 255
218 234 255
218 234 255
218 234 255
218 234 255
219 234 255
219 234 255
219 234 255
219 234 255
219 234 255
219 234 255
219 234 255
219 234 255
219 234 255
219 234 255
219 234 255
219 234 255
219 234 255
219 234 255
219 234 255
219 234 255
219 234 255
219 234 255
219 234 255
219 234 255
219 234 255
219 234 255
219 234 255
219 234 255
219 234 255
219 234 255
219 234 255
219 234 255
219 234 255
219 234 255
219 234 255
219 234 255
219 234 255
219 234 255
219 234 255
219 234 255
219 234 255
219 234 255
219 234 255
219 234 255
219 234 255
219 234 255
219 234 255
219 234 255
219 234 255
219 234 255
219 234 255
219 234 255
219 234 255
219 234 255
219 234 255
219 234 255
219 234 255
219 234 255
219 234 255
219 234 255
219 234 255
219 234 255
219 234 255
219 234 255
219 234 255
219 234 255
219 234 255
219 234 255
219 234 255
219 234 255
219 234 255
219 234 255
219 234 255
219 234 255
219 234 255
219 234 255
219 234 255
219 234 255
219 234 255
219 234 255
219 234 255
219 234 255
219 234 255
219 234 255
219 234 255
219 234 255
219 234 255
219 234 255
219 234 255
219 234 255
219 234 255
219 234 255
219 234 255
219 234 255
219 234 255
219 234 255
219 234 255
219 234 255
219 234 255
219 234 255
219 234 255
219 234 255
219 234 255
219 234 255
219 234 255
219 234 255
219 234 255
219 234 255
219 234 255
219 234 255
219 234 255
219 234 255
219 234 255
219 234 255
219 234 255
219 234 255
219 234 255
219 234 255
219 234 255
219 234 255
219 234 255
219 234 255
219 234 255
219 234 255
219 234 255
219 234 255
219 234 255
219 234 255
219 234 255
219 234 255
219 234 255
219 234 255
219 234 255
219 234 255
219 234 255
219 234 255
219 234 255
219 234 255
219 234 255
219 234 255
219 234 255
219 234 255
219 234 255
219 234 255
219 234 255
219 234 255
219 234 255
219 234 255
219 234 255
219 234 255
219 234 255
219 234 255
219 234 255
219 234 255
219 234 255
219 234 255
219 234 255
219 234 255
219 234 255
219 234 255
219 234 255
219 234 255
219 234 255
219 234 255
219 234 255
219 234 255
219 234 255
219 234 255
218 234 255
218 234 255
218 234 255
218 234 255
218 234 255
218 234 255
218 234 255
218 234 255
218 234 255
218 234 255
218 234 255
218 234 255
218 234 255
218 234 255
218 234 255
218 234 255
218 234 255
218 234 255
218 234 255
218 234 255
218 234 255
218 234 255
218 234 255
218 234 255
218 234 255
218 234 255
218 234 255
218 234 255
218 234 255
218 234 255
218 234 255
218 234 255
218 234 255
218 234 255
218 234 255
218 234 255
218 234 255
218 234 255
218 234 255
218 234 255
218 234 255
218 234 255
218 234 255
218 234 255
218 234 255
218 234 255
218 234 255
218 234 255
218 234 255
218 234 255
218 234 255
218 234 255
218 234 255
218 234 255
218 234 255
218 234 255
218 234 255
218 234 255
218 234 255
218 234 255
218 234 255
218 234 255
218 234 255
218 234 255
218 234 255
218 234 255
218 234 255
218 234 255
218 234 255
218 234 255
218 234 255
218 234 255
218 234 255
218 234 255
218 234 255
218 234 255
218 234 255
218 234 255
218 234 255
218 234 255
218 234 255
218 234 255
218 234 255
218 234 255
218 234 255
218 234 255
218 234 255
218 234 255
218 234 255
218 234 255
218 234 255
218 234 255
218 234 255
218 234 255
218 234 255
218 234 255
218 234 255
218 234 255
218 234 255
218 234 255
218 234 255
218 234 255
218 234 255
218 234 255
218 234 255
218 234 255
218 234 255
218 234 255
218 234 255
218 234 255
218 234 255
218 234 255
218 234 255
218 234 255
218 234 255
218 234 255
218 234 255
218 234 255
218 234 255
218 234 255
218 234 255
218 234 255
218 234 255
218 234 255
218 234 255
218 234 255
218 234 255
218 234 255
218 234 255
218 234 255
218 234 255
218 234 255
218 234 255
218 234 255
218 234 255
218 234 255
218 234 255
218 234 255
218 234 255
218 234 255
218 234 255
218 234 255
218 234 255
218 234 255
218 234 255
218 234 255
218 234 255
218 234 255
218 234 255
218 234 255
218 234 255
218 234 255
218 234 255
218 234 255
218 234 255
218 234 255
218 234 255
218 234 255
218 234 255
218 234 255
218 234 255
218 234 255
218 234 255
218 234 255
218 234 255
218 234 255
218 234 255
218 234 255
218 234 255
218 234 255
218 234 255
218 234 255
218 234 255
218 234 255
218 234 255
218 234 255
218 234 255
218 234 255
218 234 255
218 234 255
218 234 255
218 234 255
218 234 255
218 234 255
218 234 255
218 234 255
218 234 255
218 234 255
218 234 255
218 234 255
218 234 255
218 234 255
218 234 255
218 234 255
218 234 255
218 234 255
218 234 255
218 234 255
218 234 255
218 234 255
218 234 255
218 234 255
218 234 255
218 234 255
218 234 255
218 234 255
218 234 255
218 234 255
218 234 255
218 234 255
218 234 255
218 234 255
218 234 255
218 234 255
218 234 255
218 234 255
218 234 255
219 234 255
219 234 255
219 234 255
219 234 255
219 234 255
219 234 255
219 234 255
219 234 255
219 234 255
219 234 255
219 234 255
219 234 255
219 234 255
219 234 255
219 234 255
219 234 255
219 234 255
219 234 255
219 234 255
219 234 255
219 234 255
219 234 255
219 234 255
219 234 255
219 234 255
219 234 255
219 234 255
219 234 255
219 234 255
219 234 255
219 234 255
219 234 255
219 234 255
219 234 255
219 234 255
219 234 255
219 234 255
219 234 255
219 234 255
219 234 255
219 234 255
219 234 255
219 234 255
219 234 255
219 234 255
219 234 255
219 234 255
219 234 255
219 234 255
219 234 255
219 234 255
219 234 255
219 234 255
219 234 255
219 234 255
219 234 255
219 234 255
219 234 255
219 234 255
219 234 255
219 234 255
219 234 255
219 234 255
219 234 255
219 234 255
219 234 255
219 234 255
219 234 255
219 234 255
219 234 255
219 234 255
219 234 255
219 234 255
219 234 255
219 234 255
219 234 255
219 234 255
219 234 255
219 234 255
219 234 255
219 234 255
219 234 255
219 234 255
219 234 255
219 234 255
219 234 255
219 234 255
219 234 255
219 234 255
219 234 255
219 234 255
219 234 255
219 234 255
219 234 255
219 234 255
219 234 255
219 234 255
219 234 255
219 234 255
219 234 255
219 234 255
219 234 255
219 234 255
219 234 255
219 234 255
219 234 255
219 234 255
219 234 255
219 234 255
219 234 255
219 234 255
219 234 255
219 234 255
219 234 255
219 234 255
219 234 255
219 234 255
219 234 255
219 234 255
219 234 255
219 234 255
219 234 255
219 234 255
219 234 255
219 234 255
219 234 255
219 234 255
219 234 255
219 234 255
219 234 255
219 234 255
219 234 255
219 234 255
219 234 255
219 234 255
219 234 255
219 234 255
219 234 255
219 234 255
219 234 255
219 234 255
219 234 255
219 234 255
219 234 255
219 234 255
219 234 255
219 234 255
219 234 255
219 234 255
219 234 255
219 234 255
219 234 255
219 234 255
219 234 255
219 234 255
219 234 255
219 234 255
219 234 255
219 234 255
219 234 255
219 234 255
219 234 255
219 234 255
219 234 255
219 234 255
219 234 255
219 234 255
219 234 255
219 234 255
219 234 255
219 234 255
219 234 255
219 234 255
219 234 255
219 234 255
219 234 255
219 234 255
219 234 255
219 234 255
219 234 255
219 234 255
219 234 255
219 234 255
219 234 255
219 234 255
219 234 255
219 234 255
219 234 255
219 234 255
219 234 255
219 234 255
219 234 255
219 234 255
219 234 255
219 234 255
219 234 255
219 234 255
219 234 255
219 234 255
219 234 255
219 234 255
218 234 255
218 234 255
218 234 255
218 234 255
218 234 255
218 234 255
218 234 255
218 234 255
218 234 255
218 234 255
218 234 255
218 234 255
218 234 255
218 234 255
218 234 255
218 234 255
218 234 255
218 234 255
218 234 255
218 234 255
218 234 255
218 234 255
218 234 255
218 234 255
218 234 255
218 234 255
218 234 255
218 234 255
218 234 255
218 234 255
218 234 255
218 234 255
218 234 255
218 234 255
218 234 255
218 234 255
218 234 255
218 234 255
218 234 255
218 234 255
218 234 255
218 234 255
218 234 255
218 234 255
218 234 255
218 234 255
218 234 255
218 234 255
218 234 255
218 234 255
218 234 255
218 234 255
218 234 255
218 234 255
218 234 255
218 234 255
218 234 255
218 234 255
218 234 255
218 234 255
218 234 255
218 234 255
218 234 255
218 234 255
218 234 255
218 234 255
218 234 255
218 234 255
218 234 255
218 234 255
218 234 255
218 234 255
218 234 255
218 234 255
218 234 255
218 234 255
218 234 255
218 234 255
218 234 255
218 234 255
218 234 255
218 234 255
218 234 255
218 234 255
218 234 255
218 234 255
218 234 255
218 234 255
218 234 255
218 234 255
218 234 255
218 234 255
218 234 255
218 234 255
218 234 255
218 234 255
218 234 255
218 234 255
218 234 255
218 234 255
218 234 255
218 234 255
218 234 255
218 234 255
218 234 255
218 234 255
218 234 255
218 234 255
218 234 255
218 234 255
218 234 255
218 234 255
218 234 255
218 234 255
218 234 255
218 234 255
218 234 255
218 234 255
218 234 255
218 234 255
218 234 255
218 234 255
218 234 255
218 234 255
218 234 255
218 234 255
218 234 255
218 234 255
218 234 255
218 234 255
218 234 255
218 234 255
218 234 255
218 234 255
218 234 255
218 234 255
218 234 255
218 234 255
218 234 255
218 234 255
218 234 255
218 234 255
218 234 255
218 234 255
218 234 255
218 234 255
218 234 255
218 234 255
218 234 255
218 234 255
218 234 255
218 234 255
218 234 255
218 234 255
218 234 255
218 234 255
218 234 255
218 234 255
218 234 255
218 234 255
218 234 255
218 234 255
218 234 255
218 234 255
218 234 255
218 234 255
218 234 255
218 234 255
218 234 255
218 234 255
218 234 255
218 234 255
218 234 255
218 234 255
218 234 255
218 234 255
218 234 255
218 234 255
218 234 255
218 234 255
218 234 255
219 234 255
219 234 255
219 234 255
219 234 255
219 234 255
219 234 255
219 234 255
219 234 255
219 234 255
219 234 255
219 234 255
219 234 255
219 234 255
219 234 255
219 234 255
219 234 255
219 234 255
219 234 255
219 234 255
219 234 255
219 234 255
219 234 255
219 234 255
219 234 255
219 234 255
219 234 255
219 234 255
219 234 255
219 234 255
219 234 255
219 234 255
219 234 255
219 234 255
219 234 255
219 234 255
219 234 255
219 234 255
219 234 255
219 234 255
219 234 255
219 234 255
219 234 255
219 234 255
219 234 255
219 234 255
219 234 255
219 234 255
219 234 255
219 234 255
219 234 255
219 234 255
219 234 255
219 234 255
219 234 255
219 234 255
219 234 255
219 234 255
219 234 255
219 234 255
219 234 255
219 234 255
219 234 255
219 234 255
219 234 255
219 234 255
219 234 255
219 234 255
219 234 255
219 234 255
219 234 255
219 234 255
219 234 255
219 234 255
219 234 255
219 234 255
219 234 255
219 234 255
219 234 255
219 234 255
219 234 255
219 234 255
219 234 255
219 234 255
219 234 255
219 234 255
219 234 255
219 234 255
219 234 255
219 234 255
219 234 255
219 234 255
219 234 255
219 234 255
219 234 255
219 234 255
219 234 255
219 234 255
219 234 255
219 234 255
219 234 255
219 234 255
219 234 255
219 234 255
219 234 255
219 234 255
219 234 255
219 234 255
219 234 255
219 234 255
219 234 255
219 235 255
219 235 255
219 235 255
219 235 255
219 235 255
219 235 255
219 235 255
219 235 255
219 235 255
219 235 255
219 235 255
219 234 255
219 234 255
219 234 255
219 234 255
219 234 255
219 234 255
219 234 255
219 234 255
219 234 255
219 234 255
219 234 255
219 234 255
219 234 255
219 234 255
219 234 255
219 234 255
219 234 255
219 234 255
219 234 255
219 234 255
219 234 255
219 234 255
219 234 255
219 234 255
219 234 255
219 234 255
219 234 255
219 234 255
219 234 255
219 234 255
219 234 255
219 234 255
219 234 255
219 234 255
219 234 255
219 234 255
219 234 255
219 234 255
219 234 255
219 234 255
219 234 255
219 234 255
219 234 255
219 234 255
219 234 255
219 234 255
219 234 255
219 234 255
219 234 255
219 234 255
219 234 255
219 234 255
219 234 255
219 234 255
219 234 255
219 234 255
219 234 255
219 234 255
219 234 255
219 234 255
219 234 255
219 234 255
219 234 255
219 234 255
219 234 255
219 234 255
219 234 255
219 234 255
219 234 255
219 234 255
219 234 255
219 234 255
219 234 255
219 234 255
219 234 255
219 234 255
219 234 255
219 234 255
219 234 255
219 234 255
219 234 255
219 234 255
219 234 255
219 234 255
219 234 255
219 234 255
219 234 255
219 234 255
219 234 255
219 234 255
219 234 255
219 234 255
219 234 255
219 234 255
219 234 255
219 234 255
219 234 255
219 234 255
219 234 255
219 234 255
219 234 255
219 234 255
219 234 255
219 234 255
219 234 255
219 234 255
219 234 255
219 234 255
219 234 255
219 234 255
219 234 255
219 234 255
219 234 255
219 234 255
219 234 255
219 234 255
219 234 255
219 234 255
219 234 255
219 234 255
219 234 255
219 234 255
218 234 255
218 234 255
218 234 255
218 234 255
218 234 255
218 234 255
218 234 255
218 234 255
218 234 255
218 234 255
218 234 255
218 234 255
218 234 255
218 234 255
218 234 255
218 234 255
218 234 255
218 234 255
218 234 255
218 234 255
218 234 255
218 234 255
218 234 255
218 234 255
218 234 255
218 234 255
218 234 255
218 234 255
218 234 255
218 234 255
218 234 255
218 234 255
218 234 255
218 234 255
218 234 255
218 234 255
218 234 255
218 234 255
218 234 255
218 234 255
218 234 255
218 234 255
218 234 255
218 234 255
218 234 255
218 234 255
218 234 255
218 234 255
218 234 255
218 234 255
218 234 255
218 234 255
218 234 255
218 234 255
218 234 255
218 234 255
218 234 255
218 234 255
218 234 255
218 234 255
218 234 255
218 234 255
218 234 255
218 234 255
218 234 255
218 234 255
218 234 255
218 234 255
218 234 255
218 234 255
218 234 255
218 234 255
218 234 255
218 234 255
218 234 255
218 234 255
218 234 255
218 234 255
218 234 255
218 234 255
218 234 255
218 234 255
218 234 255
218 234 255
218 234 255
218 234 255
218 234 255
218 234 255
218 234 255
218 234 255
218 234 255
218 234 255
218 234 255
218 234 255
218 234 255
218 234 255
218 234 255
218 234 255
218 234 255
218 234 255
218 234 255
218 234 255
218 234 255
218 234 255
218 234 255
218 234 255
218 234 255
218 234 255
218 234 255
218 234 255
218 234 255
218 234 255
218 234 255
218 234 255
218 234 255
218 234 255
218 234 255
218 234 255
218 234 255
218 234 255
218 234 255
218 234 255
218 234 255
218 234 255
218 234 255
218 234 255
218 234 255
218 234 255
218 234 255
218 234 255
218 234 255
218 234 255
218 234 255
218 234 255
218 234 255
219 234 255
219 234 255
219 234 255
219 234 255
219 234 255
219 234 255
219 234 255
219 234 255
219 234 255
219 234 255
219 234 255
219 234 255
219 234 255
219 234 255
219 234 255
219 234 255
219 234 255
219 234 255
219 234 255
219 234 255
219 234 255
219 234 255
219 234 255
219 234 255
219 234 255
219 234 255
219 234 255
219 234 255
219 234 255
219 234 255
219 234 255
219 234 255
219 234 255
219 234 255
219 234 255
219 234 255
219 234 255
219 234 255
219 234 255
219 234 255
219 234 255
219 234 255
219 234 255
219 234 255
219 234 255
219 234 255
219 234 255
219 234 255
219 234 255
219 234 255
219 234 255
219 234 255
219 234 255
219 234 255
219 234 255
219 234 255
219 234 255
219 234 255
219 234 255
219 234 255
219 234 255
219 234 255
219 234 255
219 234 255
219 234 255
219 234 255
219 234 255
219 234 255
219 234 255
219 234 255
219 234 255
219 234 255
219 234 255
219 234 255
219 234 255
219 234 255
219 234 255
219 234 255
219 234 255
219 234 255
219 234 255
219 234 255
219 234 255
219 234 255
219 234 255
219 234 255
219 234 255
219 234 255
219 234 255
219 234 255
219 234 255
219 234 255
219 234 255
219 234 255
219 234 255
219 234 255
219 234 255
219 234 255
219 234 255
219 234 255
219 234 255
219 234 255
219 234 255
219 234 255
219 234 255
219 234 255
219 234 255
219 234 255
219 234 255
219 234 255
219 234 255
219 234 255
219 234 255
219 234 255
219 234 255
219 234 255
219 234 255
219 234 255
219 234 255
219 234 255
219 234 255
219 235 255
219 235 255
219 235 255
219 235 255
219 235 255
219 235 255
219 235 255
219 235 255
219 235 255
219 235 255
219 235 255
220 235 255
220 235 255
220 235 255
220 235 255
220 235 255
220 235 255
220 235 255
220 235 255
220 235 255
220 235 255
220 235 255
220 235 255
220 235 255
219 235 255
219 235 255
219 235 255
219 235 255
219 235 255
219 235 255
219 235 255
219 235 255
219 235 255
219 235 255
219 235 255
219 235 255
219 235 255
219 235 255
219 235 255
219 235 255
219 235 255
219 235 255
219 235 255
219 234 255
219 234 255
219 234 255
219 234 255
219 234 255
219 234 255
219 234 255
219 234 255
219 234 255
219 234 255
219 234 255
219 234 255
219 234 255
219 234 255
219 234 255
219 234 255
219 234 255
219 234 255
219 234 255
219 234 255
219 234 255
219 234 255
219 234 255
219 234 255
219 234 255
219 234 255
219 234 255
219 234 255
219 234 255
219 234 255
219 234 255
219 234 255
219 234 255
219 234 255
219 234 255
219 234 255
219 234 255
219 234 255
219 234 255
219 234 255
219 234 255
219 234 255
219 234 255
219 234 255
219 234 255
219 234 255
219 234 255
219 234 255
219 234 255
219 234 255
219 234 255
219 234 255
219 234 255
219 234 255
219 234 255
219 234 255
219 234 255
219 234 255
219 234 255
219 234 255
219 234 255
219 234 255
219 234 255
219 234 255
219 234 255
219 234 255
219 234 255
219 234 255
219 234 255
219 234 255
219 234 255
219 234 255
219 234 255
219 234 255
219 234 255
219 234 255
219 234 255
219 234 255
219 234 255
219 234 255
219 234 255
219 234 255
219 234 255
219 234 255
219 234 255
219 234 255
219 234 255
219 234 255
219 234 255
219 234 255
219 234 255
219 234 255
219 234 255
219 234 255
219 234 255
219 234 255
219 234 255
219 234 255
219 234 255
219 234 255
219 234 255
219 234 255
219 234 255
219 234 255
219 234 255
219 234 255
219 234 255
219 234 255
219 234 255
219 234 255
219 234 255
219 234 255
219 234 255
219 234 255
219 234 255
219 234 255
219 234 255
219 234 255
219 234 255
219 234 255
219 234 255
219 234 255
219 234 255
219 234 255
219 234 255
219 234 255
219 234 255
219 234 255
219 234 255
219 234 255
219 234 255
219 234 255
219 234 255
218 234 255
218 234 255
218 234 255
218 234 255
218 234 255
218 234 255
218 234 255
218 234 255
218 234 255
218 234 255
218 234 255
218 234 255
218 234 255
218 234 255
218 234 255
218 234 255
218 234 255
218 234 255
218 234 255
218 234 255
218 234 255
218 234 255
218 234 255
218 234 255
218 234 255
218 234 255
218 234 255
218 234 255
218 234 255
218 234 255
218 234 255
218 234 255
218 234 255
218 234 255
218 234 255
218 234 255
218 234 255
218 234 255
218 234 255
218 234 255
218 234 255
218 234 255
218 234 255
218 234 255
218 234 255
218 234 255
218 234 255
218 234 255
218 234 255
218 234 255
218 234 255
218 234 255
218 234 255
218 234 255
218 234 255
218 234 255
218 234 255
218 234 255
218 234 255
218 234 255
218 234 255
218 234 255
218 234 255
218 234 255
218 234 255
218 234 255
218 234 255
218 234 255
218 234 255
218 234 255
219 234 255
219 234 255
219 234 255
219 234 255
219 234 255
219 234 255
219 234 255
219 234 255
219 234 255
219 234 255
219 234 255
219 234 255
219 234 255
219 234 255
219 234 255
219 234 255
219 234 255
219 234 255
219 234 255
219 234 255
219 234 255
219 234 255
219 234 255
219 234 255
219 234 255
219 234 255
219 234 255
219 234 255
219 234 255
219 234 255
219 234 255
219 234 255
219 234 255
219 234 255
219 234 255
219 234 255
219 234 255
219 234 255
219 234 255
219 234 255
219 234 255
219 234 255
219 234 255
219 234 255
219 234 255
219 234 255
219 234 255
219 234 255
219 234 255
219 234 255
219 234 255
219 234 255
219 234 255
219 234 255
219 234 255
219 234 255
219 234 255
219 234 255
219 234 255
219 234 255
219 234 255
219 234 255
219 234 255
219 234 255
219 234 255
219 234 255
219 234 255
219 234 255
219 234 255
219 234 255
219 234 255
219 234 255
219 234 255
219 234 255
219 234 255
219 234 255
219 234 255
219 234 255
219 234 255
219 234 255
219 234 255
219 234 255
219 234 255
219 234 255
219 234 255
219 234 255
219 234 255
219 234 255
219 234 255
219 234 255
219 234 255
219 234 255
219 234 255
219 234 255
219 234 255
219 234 255
219 234 255
219 234 255
219 234 255
219 234 255
219 234 255
219 234 255
219 234 255
219 234 255
219 234 255
219 234 255
219 234 255
219 234 255
219 234 255
219 234 255
219 234 255
219 234 255
219 234 255
219 234 255
219 234 255
219 234 255
219 234 255
219 234 255
219 234 255
219 234 255
219 234 255
219 234 255
219 234 255
219 234 255
219 234 255
219 234 255
219 234 255
219 234 255
219 234 255
219 234 255
219 234 255
219 234 255
219 234 255
219 234 255
219 235 255
219 235 255
219 235 255
219 235 255
219 235 255
219 235 255
219 235 255
219 235 255
219 235 255
219 235 255
219 235 255
219 235 255
219 235 255
219 235 255
219 235 255
219 235 255
219 235 255
219 235 255
220 235 255
220 235 255
220 235 255
220 235 255
220 235 255
220 235 255
220 235 255
220 235 255
220 235 255
220 235 255
220 235 255
220 235 255
220 235 255
220 235 255
220 235 255
220 235 255
220 235 255
220 235 255
220 235 255
220 235 255
220 235 255
220 235 255
220 235 255
220 235 255
220 235 255
220 235 255
220 235 255
220 235 255
220 235 255
220 235 255
220 235 255
220 235 255
220 235 255
220 235 255
220 235 255
220 235 255
220 235 255
220 235 255
220 235 255
220 235 255
220 235 255
220 235 255
220 235 255
220 235 255
220 235 255
220 235 255
220 235 255
220 235 255
220 235 255
219 235 255
219 235 255
219 235 255
219 235 255
219 235 255
219 235 255
219 235 255
219 235 255
219 235 255
219 235 255
219 235 255
219 235 255
219 235 255
219 235 255
219 235 255
219 235 255
219 235 255
219 234 255
219 234 255
219 234 255
219 234 255
219 234 255
219 234 255
219 234 255
219 234 255
219 234 255
219 234 255
219 234 255
219 234 255
219 234 255
219 234 255
219 234 255
219 234 255
219 234 255
219 234 255
219 234 255
219 234 255
219 234 255
219 234 255
219 234 255
219 234 255
219 234 255
219 234 255
219 234 255
219 234 255
219 234 255
219 234 255
219 234 255
219 234 255
219 234 255
219 234 255
219 234 255
219 234 255
219 234 255
219 234 255
219 234 255
219 234 255
219 234 255
219 234 255
219 234 255
219 234 255
219 234 255
219 234 255
219 234 255
219 234 255
219 234 255
219 234 255
219 234 255
219 234 255
219 234 255
219 234 255
219 234 255
219 234 255
219 234 255
219 234 255
219 234 255
219 234 255
219 234 255
219 234 255
219 234 255
219 234 255
219 234 255
219 234 255
219 234 255
219 234 255
219 234 255
219 234 255
219 234 255
219 234 255
219 234 255
219 234 255
219 234 255
219 234 255
219 234 255
219 234 255
219 234 255
219 234 255
219 234 255
219 234 255
219 234 255
219 234 255
219 234 255
219 234 255
219 234 255
219 234 255
219 234 255
219 234 255
219 234 255
219 234 255
219 234 255
219 234 255
219 234 255
219 234 255
219 234 255
219 234 255
219 234 255
219 234 255
219 234 255
219 234 255
219 234 255
219 234 255
219 234 255
219 234 255
219 234 255
219 234 255
219 234 255
219 234 255
219 234 255
219 234 255
219 234 255
219 234 255
219 234 255
219 234 255
219 234 255
219 234 255
219 234 255
219 234 255
219 234 255
219 234 255
219 234 255
219 234 255
219 234 255
219 234 255
219 234 255
219 234 255
219 234 255
219 234 255
219 234 255
219 234 255
219 234 255
219 234 255
219 234 255
219 234 255
219 234 255
219 234 255
219 234 255
219 234 255
219 234 255
219 234 255
219 234 255
219 234 255
219 234 255
219 234 255
219 234 255
219 234 255
219 234 255
219 234 255
219 234 255
219 234 255
219 234 255
219 234 255
219 234 255
219 234 255
219 234 255
219 234 255
219 234 255
219 234 255
219 234 255
219 234 255
219 234 255
219 234 255
219 234 255
219 234 255
219 234 255
219 234 255
219 234 255
219 234 255
219 234 255
219 234 255
219 234 255
219 234 255
219 234 255
219 234 255
219 234 255
219 234 255
219 234 255
219 234 255
219 234 255
219 234 255
219 234 255
219 234 255
219 234 255
219 234 255
219 234 255
219 234 255
219 234 255
219 234 255
219 234 255
219 234 255
219 234 255
219 234 255
219 234 255
219 234 255
219 234 255
219 234 255
219 234 255
219 234 255
219 234 255
219 234 255
219 234 255
219 234 255
219 234 255
219 234 255
219 234 255
219 234 255
219 234 255
219 234 255
219 234 255
219 234 255
219 234 255
219 234 255
219 234 255
219 234 255
219 234 255
219 234 255
219 234 255
219 234 255
219 234 255
219 234 255
219 234 255
219 234 255
219 234 255
219 234 255
219 234 255
219 234 255
219 234 255
219 234 255
219 234 255
219 234 255
219 234 255
219 234 255
219 234 255
219 234 255
219 234 255
219 234 255
219 234 255
219 234 255
219 234 255
219 234 255
219 234 255
219 234 255
219 234 255
219 234 255
219 234 255
219 234 255
219 234 255
219 234 255
219 234 255
219 234 255
219 234 255
219 234 255
219 234 255
219 234 255
219 234 255
219 234 255
219 234 255
219 234 255
219 234 255
219 234 255
219 234 255
219 234 255
219 234 255
219 234 255
219 234 255
219 234 255
219 234 255
219 234 255
219 234 255
219 234 255
219 234 255
219 234 255
219 234 255
219 234 255
219 234 255
219 234 255
219 234 255
219 234 255
219 234 255
219 234 255
219 234 255
219 234 255
219 234 255
219 234 255
219 234 255
219 234 255
219 234 255
219 234 255
219 234 255
219 234 255
219 234 255
219 234 255
219 235 255
219 235 255
219 235 255
219 235 255
219 235 255
219 235 255
219 235 255
219 235 255
219 235 255
219 235 255
219 235 255
219 235 255
219 235 255
219 235 255
219 235 255
219 235 255
219 235 255
219 235 255
220 235 255
220 235 255
220 235 255
220 235 255
220 235 255
220 235 255
220 235 255
220 235 255
220 235 255
220 235 255
220 235 255
220 235 255
220 235 255
220 235 255
220 235 255
220 235 255
220 235 255
220 235 255
220 235 255
220 235 255
220 235 255
220 235 255
220 235 255
220 235 255
220 235 255
220 235 255
220 235 255
220 235 255
220 235 255
220 235 255
220 235 255
220 235 255
220 235 255
220 235 255
220 235 255
220 235 255
220 235 255
220 235 255
220 235 255
220 235 255
220 235 255
220 235 255
220 235 255
220 235 255
220 235 255
220 235 255
220 235 255
220 235 255
220 235 255
220 235 255
220 235 255
220 235 255
220 235 255
220 235 255
220 235 255
220 235 255
220 235 255
220 235 255
220 235 255
220 235 255
220 235 255
220 235 255
220 235 255
220 235 255
220 235 255
220 235 255
220 235 255
220 235 255
220 235 255
220 235 255
220 235 255
220 235 255
220 235 255
220 235 255
220 235 255
220 235 255
220 235 255
220 235 255
220 235 255
220 235 255
220 235 255
220 235 255
220 235 255
220 235 255
220 235 255
220 235 255
220 235 255
220 235 255
220 235 255
220 235 255
220 235 255
220 235 255
220 235 255
220 235 255
220 235 255
219 235 255
219 235 255
219 235 255
219 235 255
219 235 255
219 235 255
219 235 255
219 235 255
219 235 255
219 235 255
219 235 255
219 235 255
219 235 255
219 235 255
219 235 255
219 235 255
219 235 255
219 235 255
219 234 255
219 234 255
219 234 255
219 234 255
219 234 255
219 234 255
219 234 255
219 234 255
219 234 255
219 234 255
219 234 255
219 234 255
219 234 255
219 234 255
219 234 255
219 234 255
219 234 255
219 234 255
219 234 255
219 234 255
219 234 255
219 234 255
219 234 255
219 234 255
219 234 255
219 234 255
219 234 255
219 234 255
219 234 255
219 234 255
219 234 255
219 234 255
219 234 255
219 234 255
219 234 255
219 234 255
219 234 255
219 234 255
219 234 255
219 234 255
219 234 255
219 234 255
219 234 255
219 234 255
219 234 255
219 234 255
219 234 255
219 234 255
219 234 255
219 234 255
219 234 255
219 234 255
219 234 255
219 234 255
219 234 255
219 234 255
219 234 255
219 234 255
219 234 255
219 234 255
219 234 255
219 234 255
219 234 255
219 234 255
219 234 255
219 234 255
219 234 255
219 234 255
219 234 255
219 234 255
219 234 255
219 234 255
219 234 255
219 234 255
219 234 255
219 234 255
219 234 255
219 234 255
219 234 255
219 234 255
219 234 255
219 234 255
219 234 255
219 234 255
219 234 255
219 234 255
219 234 255
219 234 255
219 234 255
219 234 255
219 234 255
219 234 255
219 234 255
219 234 255
219 234 255
219 234 255
219 234 255
219 234 255
219 234 255
219 234 255
219 234 255
219 234 255
219 234 255
219 234 255
219 234 255
219 234 255
219 234 255
219 234 255
219 234 255
219 234 255
219 234 255
219 234 255
219 234 255
219 234 255
219 234 255
219 234 255
219 234 255
219 234 255
219 234 255
219 234 255
219 234 255
219 234 255
219 234 255
219 234 255
219 234 255
219 234 255
219 234 255
219 234 255
219 234 255
219 234 255
219 234 255
219 234 255
219 234 255
219 234 255
219 234 255
219 234 255
219 234 255
219 234 255
219 234 255
219 234 255
219 234 255
219 234 255
219 234 255
219 234 255
219 234 255
219 234 255
219 234 255
219 234 255
219 234 255
219 234 255
219 234 255
219 234 255
219 234 255
219 234 255
219 234 255
219 234 255
219 234 255
219 234 255
219 234 255
219 234 255
219 234 255
219 234 255
219 234 255
219 234 255
219 234 255
219 234 255
219 234 255
219 234 255
219 234 255
219 234 255
219 234 255
219 234 255
219 234 255
219 234 255
219 234 255
219 234 255
219 234 255
219 234 255
219 234 255
219 234 255
219 234 255
219 234 255
219 234 255
219 234 255
219 234 255
219 234 255
219 234 255
219 234 255
219 234 255
219 234 255
219 234 255
219 234 255
219 234 255
219 234 255
219 234 255
219 234 255
219 234 255
219 234 255
219 234 255
219 234 255
219 234 255
219 234 255
219 234 255
219 234 255
219 234 255
219 234 255
219 234 255
219 234 255
219 234 255
219 234 255
219 234 255
219 234 255
219 234 255
219 234 255
219 234 255
219 234 255
219 234 255
219 234 255
219 234 255
219 234 255
219 234 255
219 234 255
219 234 255
219 234 255
219 234 255
219 234 255
219 234 255
219 234 255
219 234 255
219 234 255
219 234 255
219 234 255
219 234 255
219 234 255
219 234 255
219 234 255
219 234 255
219 234 255
219 234 255
219 234 255
219 234 255
219 234 255
219 234 255
219 234 255
219 235 255
219 235 255
219 235 255
219 235 255
219 235 255
219 235 255
219 235 255
219 235 255
219 235 255
219 235 255
219 235 255
219 235 255
219 235 255
219 235 255
219 235 255
219 235 255
219 235 255
219 235 255
220 235 255
220 235 255
220 235 255
220 235 255
220 235 255
220 235 255
220 235 255
220 235 255
220 235 255
220 235 255
220 235 255
220 235 255
220 235 255
220 235 255
220 235 255
220 235 255
220 235 255
220 235 255
220 235 255
220 235 255
220 235 255
220 235 255
220 235 255
220 235 255
220 235 255
220 235 255
220 235 255
220 235 255
220 235 255
220 235 255
220 235 255
220 235 255
220 235 255
220 235 255
220 235 255
220 235 255
220 235 255
220 235 255
220 235 255
220 235 255
220 235 255
220 235 255
220 235 255
220 235 255
220 235 255
220 235 255
220 235 255
220 235 255
220 235 255
220 235 255
220 235 255
220 235 255
220 235 255
220 235 255
220 235 255
220 235 255
220 235 255
220 235 255
220 235 255
220 235 255
220 235 255
220 235 255
220 235 255
220 235 255
220 235 255
220 235 255
220 235 255
220 235 255
220 235 255
220 235 255
220 235 255
220 235 255
220 235 255
220 235 255
220 235 255
220 235 255
220 235 255
220 235 255
220 235 255
220 235 255
220 235 255
220 235 255
220 235 255
220 235 255
220 235 255
220 235 255
220 235 255
220 235 255
220 235 255
220 235 255
220 235 255
220 235 255
220 235 255
220 235 255
220 235 255
220 235 255
220 235 255
220 235 255
220 235 255
220 235 255
220 235 255
220 235 255
220 235 255
220 235 255
220 235 255
220 235 255
220 235 255
220 235 255
220 235 255
220 235 255
220 235 255
220 235 255
220 235 255
220 235 255
220 235 255
220 235 255
220 235 255
220 235 255
220 235 255
220 235 255
220 235 255
220 235 255
220 235 255
220 235 255
220 235 255
220 235 255
220 235 255
220 235 255
220 235 255
220 235 255
220 235 255
220 235 255
220 235 255
220 235 255
220 235 255
220 235 255
220 235 255
220 235 255
220 235 255
220 235 255
220 235 255
220 235 255
220 235 255
220 235 255
220 235 255
219 235 255
219 235 255
219 235 255
219 235 255
219 235 255
219 235 255
219 235 255
219 235 255
219 235 255
219 235 255
219 235 255
219 235 255
219 235 255
219 235 255
219 235 255
219 235 255
219 235 255
219 235 255
219 235 255
219 235 255
219 235 255
219 234 255
219 234 255
219 234 255
219 234 255
219 234 255
219 234 255
219 234 255
219 234 255
219 234 255
219 234 255
219 234 255
219 234 255
219 234 255
219 234 255
219 234 255
219 234 255
219 234 255
219 234 255
219 234 255
219 234 255
219 234 255
219 234 255
219 234 255
219 234 255
219 234 255
219 234 255
219 234 255
219 234 255
219 234 255
219 234 255
219 234 255
219 234 255
219 234 255
219 234 255
219 234 255
219 234 255
219 234 255
219 234 255
219 234 255
219 234 255
219 234 255
219 234 255
219 234 255
219 234 255
219 234 255
219 234 255
219 234 255
219 234 255
219 234 255
219 234 255
219 234 255
219 234 255
219 234 255
219 234 255
219 234 255
219 234 255
219 234 255
219 234 255
219 234 255
219 234 255
219 234 255
219 234 255
219 234 255
219 234 255
219 234 255
219 234 255
219 234 255
219 234 255
219 234 255
219 234 255
219 234 255
219 234 255
219 234 255
219 234 255
219 234 255
219 234 255
219 234 255
219 234 255
219 234 255
219 234 255
219 234 255
219 234 255
219 234 255
219 234 255
219 234 255
219 234 255
219 234 255
219 234 255
219 234 255
219 234 255
219 234 255
219 234 255
219 234 255
219 234 255
219 234 255
219 234 255
219 234 255
219 234 255
219 234 255
219 234 255
219 234 255
219 234 255
219 234 255
219 234 255
219 234 255
219 234 255
219 234 255
219 234 255
219 234 255
219 234 255
219 234 255
219 234 255
219 234 255
219 234 255
219 234 255
219 234 255
219 234 255
219 234 255
219 234 255
219 234 255
219 234 255
219 234 255
219 234 255
219 234 255
219 234 255
219 234 255
219 234 255
219 234 255
219 234 255
219 234 255
219 234 255
219 234 255
219 234 255
219 234 255
219 234 255
219 234 255
219 234 255
219 234 255
219 234 255
219 234 255
219 234 255
219 234 255
219 234 255
219 234 255
219 234 255
219 234 255
219 234 255
219 234 255
219 234 255
219 234 255
219 234 255
219 234 255
219 234 255
219 234 255
219 234 255
219 234 255
219 234 255
219 234 255
219 234 255
219 234 255
219 234 255
219 234 255
219 234 255
219 234 255
219 234 255
219 234 255
219 234 255
219 234 255
219 234 255
219 234 255
219 234 255
219 234 255
219 234 255
219 234 255
219 234 255
219 234 255
219 234 255
219 234 255
219 234 255
219 234 255
219 234 255
219 234 255
219 234 255
219 234 255
219 234 255
219 234 255
219 234 255
219 234 255
219 234 255
219 234 255
219 235 255
219 235 255
219 235 255
219 235 255
219 235 255
219 235 255
219 235 255
219 235 255
219 235 255
219 235 255
219 235 255
219 235 255
219 235 255
219 235 255
219 235 255
219 235 255
219 235 255
219 235 255
220 235 255
219 235 255
220 235 255
220 235 255
220 235 255
220 235 255
220 235 255
220 235 255
220 235 255
220 235 255
220 235 255
220 235 255
220 235 255
220 235 255
220 235 255
220 235 255
220 235 255
220 235 255
220 235 255
220 235 255
220 235 255
220 235 255
220 235 255
220 235 255
220 235 255
220 235 255
220 235 255
220 235 255
220 235 255
220 235 255
220 235 255
220 235 255
220 235 255
220 235 255
220 235 255
220 235 255
220 235 255
220 235 255
220 235 255
220 235 255
220 235 255
220 235 255
220 235 255
220 235 255
220 235 255
220 235 255
220 235 255
220 235 255
220 235 255
220 235 255
220 235 255
220 235 255
220 235 255
220 235 255
220 235 255
220 235 255
220 235 255
220 235 255
220 235 255
220 235 255
220 235 255
220 235 255
220 235 255
220 235 255
220 235 255
220 235 255
220 235 255
220 235 255
220 235 255
220 235 255
220 235 255
220 235 255
220 235 255
220 235 255
220 235 255
220 235 255
220 235 255
220 235 255
220 235 255
220 235 255
220 235 255
220 235 255
220 235 255
220 235 255
220 235 255
220 235 255
220 235 255
220 235 255
220 235 255
220 235 255
220 235 255
220 235 255
220 235 255
220 235 255
220 235 255
220 235 255
220 235 255
220 235 255
220 235 255
220 235 255
220 235 255
220 235 255
220 235 255
220 235 255
220 235 255
220 235 255
220 235 255
220 235 255
220 235 255
220 235 255
220 235 255
220 235 255
220 235 255
220 235 255
220 235 255
220 235 255
220 235 255
220 235 255
220 235 255
220 235 255
220 235 255
220 235 255
220 235 255
220 235 255
220 235 255
220 235 255
220 235 255
220 235 255
220 235 255
220 235 255
220 235 255
220 235 255
220 235 255
220 235 255
220 235 255
220 235 255
220 235 255
220 235 255
220 235 255
220 235 255
220 235 255
220 235 255
220 235 255
220 235 255
220 235 255
220 235 255
220 235 255
220 235 255
220 235 255
220 235 255
220 235 255
220 235 255
220 235 255
220 235 255
220 235 255
220 235 255
220 235 255
220 235 255
220 235 255
220 235 255
220 235 255
220 235 255
220 235 255
220 235 255
220 235 255
220 235 255
220 235 255
220 235 255
220 235 255
220 235 255
220 235 255
220 235 255
220 235 255
220 235 255
220 235 255
220 235 255
220 235 255
220 235 255
220 235 255
220 235 255
220 235 255
220 235 255
220 235 255
220 235 255
220 235 255
220 235 255
220 235 255
220 235 255
220 235 255
220 235 255
220 235 255
220 235 255
220 235 255
220 235 255
220 235 255
220 235 255
220 235 255
220 235 255
220 235 255
220 235 255
220 235 255
220 235 255
220 235 255
219 235 255
219 235 255
219 235 255
219 235 255
219 235 255
219 235 255
219 235 255
219 235 255
219 235 255
219 235 255
219 235 255
219 235 255
219 235 255
219 235 255
219 235 255
219 235 255
219 235 255
219 235 255
219 235 255
219 235 255
219 235 255
219 234 255
219 234 255
219 234 255
219 234 255
219 234 255
219 234 255
219 234 255
219 234 255
219 234 255
219 234 255
219 234 255
219 234 255
219 234 255
219 234 255
219 234 255
219 234 255
219 234 255
219 234 255
219 234 255
219 234 255
219 234 255
219 234 255
219 234 255
219 234 255
219 234 255
219 234 255
219 234 255
219 234 255
219 234 255
219 234 255
219 234 255
219 234 255
219 234 255
219 234 255
219 234 255
219 234 255
219 234 255
219 234 255
219 234 255
219 234 255
219 234 255
219 234 255
219 234 255
219 234 255
219 234 255
219 234 255
219 234 255
219 234 255
219 234 255
219 234 255
219 234 255
219 234 255
219 234 255
219 234 255
219 234 255
219 234 255
219 234 255
219 234 255
219 234 255
219 234 255
219 234 255
219 234 255
219 234 255
219 234 255
219 234 255
219 234 255
219 234 255
219 234 255
219 234 255
219 234 255
219 234 255
219 234 255
219 234 255
219 234 255
219 234 255
219 234 255
219 234 255
219 234 255
219 234 255
219 234 255
219 234 255
219 234 255
219 234 255
219 234 255
219 234 255
219 234 255
219 234 255
219 234 255
219 234 255
219 234 255
219 234 255
219 234 255
219 234 255
219 234 255
219 234 255
219 234 255
219 234 255
219 234 255
219 234 255
219 234 255
219 234 255
219 234 255
219 234 255
219 234 255
219 234 255
219 234 255
219 234 255
219 234 255
219 234 255
219 234 255
219 234 255
219 234 255
219 234 255
219 234 255
219 234 255
219 234 255
219 234 255
219 234 255
219 234 255
219 234 255
219 234 255
219 234 255
219 234 255
219 234 255
219 235 255
219 235 255
219 235 255
219 235 255
219 235 255
219 235 255
219 235 255
219 235 255
219 235 255
219 235 255
219 235 255
219 235 255
219 235 255
219 235 255
219 235 255
219 235 255
219 235 255
219 235 255
219 235 255
219 235 255
219 235 255
220 235 255
220 235 255
220 235 255
220 235 255
220 235 255
220 235 255
220 235 255
220 235 255
220 235 255
220 235 255
220 235 255
220 235 255
220 235 255
220 235 255
220 235 255
220 235 255
220 235 255
220 235 255
220 235 255
220 235 255
220 235 255
220 235 255
220 235 255
220 235 255
220 235 255
220 235 255
220 235 255
220 235 255
220 235 255
220 235 255
220 235 255
220 235 255
220 235 255
220 235 255
220 235 255
220 235 255
220 235 255
220 235 255
220 235 255
220 235 255
220 235 255
220 235 255
220 235 255
220 235 255
220 235 255
220 235 255
220 235 255
220 235 255
220 235 255
220 235 255
220 235 255
220 235 255
220 235 255
220 235 255
220 235 255
220 235 255
220 235 255
220 235 255
220 235 255
220 235 255
220 235 255
220 235 255
220 235 255
220 235 255
220 235 255
220 235 255
220 235 255
220 235 255
220 235 255
220 235 255
220 235 255
220 235 255
220 235 255
220 235 255
220 235 255
220 235 255
220 235 255
220 235 255
220 235 255
220 235 255
220 235 255
220 235 255
220 235 255
220 235 255
220 235 255
220 235 255
220 235 255
220 235 255
220 235 255
220 235 255
220 235 255
220 235 255
220 235 255
220 235 255
220 235 255
220 235 255
220 235 255
220 235 255
220 235 255
220 235 255
220 235 255
220 235 255
220 235 255
220 235 255
220 235 255
220 235 255
220 235 255
220 235 255
220 235 255
220 235 255
220 235 255
220 235 255
220 235 255
220 235 255
220 235 255
220 235 255
220 235 255
220 235 255
220 235 255
220 235 255
220 235 255
220 235 255
220 235 255
220 235 255
220 235 255
220 235 255
220 235 255
220 235 255
220 235 255
220 235 255
220 235 255
220 235 255
220 235 255
220 235 255
220 235 255
220 235 255
220 235 255
220 235 255
220 235 255
220 235 255
220 235 255
220 235 255
220 235 255
220 235 255
220 235 255
220 235 255
220 235 255
220 235 255
220 235 255
220 235 255
220 235 255
220 235 255
220 235 255
220 235 255
220 235 255
220 235 255
220 235 255
220 235 255
220 235 255
220 235 255
220 235 255
220 235 255
220 235 255
220 235 255
220 235 255
220 235 255
220 235 255
220 235 255
220 235 255
220 235 255
220 235 255
220 235 255
220 235 255
220 235 255
220 235 255
220 235 255
220 235 255
220 235 255
220 235 255
220 235 255
220 235 255
220 235 255
220 235 255
220 235 255
220 235 255
220 235 255
220 235 255
220 235 255
220 235 255
220 235 255
220 235 255
220 235 255
220 235 255
220 235 255
220 235 255
220 235 255
220 235 255
220 235 255
220 235 255
220 235 255
220 235 255
220 235 255
220 235 255
220 235 255
220 235 255
220 235 255
220 235 255
220 235 255
220 235 255
220 235 255
220 235 255
220 235 255
220 235 255
220 235 255
220 235 255
220 235 255
220 235 255
220 235 255
220 235 255
220 235 255
220 235 255
220 235 255
220 235 255
220 235 255
220 235 255
220 235 255
220 235 255
220 235 255
220 235 255
220 235 255
220 235 255
220 235 255
220 235 255
220 235 255
220 235 255
220 235 255
220 235 255
220 235 255
220 235 255
220 235 255
220 235 255
220 235 255
220 235 255
220 235 255
220 235 255
220 235 255
220 235 255
220 235 255
220 235 255
220 235 255
220 235 255
220 235 255
220 235 255
220 235 255
220 235 255
220 235 255
220 235 255
220 235 255
220 235 255
220 235 255
220 235 255
220 235 255
220 235 255
220 235 255
220 235 255
220 235 255
220 235 255
220 235 255
220 235 255
220 235 255
220 235 255
220 235 255
220 235 255
220 235 255
220 235 255
220 235 255
220 235 255
219 235 255
219 235 255
219 235 255
219 235 255
219 235 255
219 235 255
219 235 255
219 235 255
219 235 255
219 235 255
219 235 255
219 235 255
219 235 255
219 235 255
219 235 255
219 235 255
219 235 255
219 235 255
219 235 255
219 235 255
219 235 255
219 235 255
219 235 255
219 235 255
219 235 255
219 235 255
219 235 255
219 235 255
219 235 255
219 235 255
219 235 255
219 235 255
219 235 255
219 235 255
219 235 255
219 235 255
219 235 255
219 235 255
219 235 255
219 235 255
219 235 255
219 235 255
219 235 255
219 235 255
219 235 255
219 235 255
219 235 255
219 235 255
219 235 255
219 235 255
219 235 255
219 235 255
219 235 255
219 235 255
219 235 255
219 235 255
219 235 255
219 235 255
219 235 255
219 235 255
219 235 255
219 235 255
219 235 255
219 235 255
219 235 255
219 235 255
219 235 255
219 235 255
219 235 255
219 235 255
219 235 255
219 235 255
219 235 255
219 235 255
219 235 255
219 235 255
219 235 255
219 235 255
219 235 255
219 235 255
220 235 255
220 235 255
220 235 255
220 235 255
220 235 255
220 235 255
220 235 255
220 235 255
220 235 255
220 235 255
220 235 255
220 235 255
220 235 255
220 235 255
220 235 255
220 235 255
220 235 255
220 235 255
220 235 255
220 235 255
220 235 255
220 235 255
220 235 255
220 235 255
220 235 255
220 235 255
220 235 255
220 235 255
220 235 255
220 235 255
220 235 255
220 235 255
220 235 255
220 235 255
220 235 255
220 235 255
220 235 255
220 235 255
220 235 255
220 235 255
220 235 255
220 235 255
220 235 255
220 235 255
220 235 255
220 235 255
220 235 255
220 235 255
220 235 255
220 235 255
220 235 255
220 235 255
220 235 255
220 235 255
220 235 255
220 235 255
220 235 255
220 235 255
220 235 255
220 235 255
220 235 255
220 235 255
220 235 255
220 235 255
220 235 255
220 235 255
220 235 255
220 235 255
220 235 255
220 235 255
220 235 255
220 235 255
220 235 255
220 235 255
220 235 255
220 235 255
220 235 255
220 235 255
220 235 255
220 235 255
220 235 255
220 235 255
220 235 255
220 235 255
220 235 255
220 235 255
220 235 255
220 235 255
220 235 255
220 235 255
220 235 255
220 235 255
220 235 255
220 235 255
220 235 255
220 235 255
220 235 255
220 235 255
220 235 255
220 235 255
220 235 255
220 235 255
220 235 255
220 235 255
220 235 255
220 235 255
220 235 255
220 235 255
220 235 255
220 235 255
220 235 255
220 235 255
220 235 255
220 235 255
220 235 255
220 235 255
220 235 255
220 235 255
220 235 255
220 235 255
220 235 255
220 235 255
220 235 255
220 235 255
220 235 255
220 235 255
220 235 255
220 235 255
220 235 255
220 235 255
220 235 255
220 235 255
220 235 255
220 235 255
220 235 255
220 235 255
220 235 255
220 235 255
220 235 255
220 235 255
220 235 255
220 235 255
220 235 255
220 235 255
220 235 255
220 235 255
220 235 255
220 235 255
220 235 255
220 235 255
220 235 255
220 235 255
220 235 255
220 235 255
220 235 255
220 235 255
220 235 255
220 235 255
220 235 255
220 235 255
220 235 255
220 235 255
220 235 255
220 235 255
220 235 255
220 235 255
220 235 255
220 235 255
220 235 255
220 235 255
220 235 255
220 235 255
220 235 255
220 235 255
220 235 255
220 235 255
220 235 255
220 235 255
220 235 255
220 235 255
220 235 255
220 235 255
220 235 255
220 235 255
220 235 255
220 235 255
220 235 255
220 235 255
220 235 255
220 235 255
220 235 255
220 235 255
220 235 255
220 235 255
220 235 255
220 235 255
220 235 255
220 235 255
220 235 255
220 235 255
220 235 255
220 235 255
220 235 255
220 235 255
220 235 255
220 235 255
220 235 255
220 235 255
220 235 255
220 235 255
220 235 255
220 235 255
220 235 255
220 235 255
220 235 255
220 235 255
220 235 255
220 235 255
220 235 255
220 235 255
220 235 255
220 235 255
220 235 255
220 235 255
220 235 255
220 235 255
220 235 255
220 235 255
220 235 255
220 235 255
220 235 255
220 235 255
220 235 255
220 235 255
220 235 255
220 235 255
220 235 255
220 235 255
220 235 255
220 235 255
220 235 255
220 235 255
220 235 255
220 235 255
220 235 255
220 235 255
220 235 255
220 235 255
220 235 255
220 235 255
220 235 255
220 235 255
220 235 255
220 235 255
220 235 255
220 235 255
220 235 255
220 235 255
220 235 255
220 235 255
220 235 255
220 235 255
220 235 255
220 235 255
220 235 255
220 235 255
220 235 255
220 235 255
220 235 255
220 235 255
220 235 255
220 235 255
220 235 255
220 235 255
220 235 255
220 235 255
220 235 255
220 235 255
220 235 255
220 235 255
220 235 255
220 235 255
220 235 255
220 235 255
220 235 255
220 235 255
220 235 255
220 235 255
220 235 255
220 235 255
220 235 255
220 235 255
220 235 255
220 235 255
220 235 255
220 235 255
220 235 255
220 235 255
220 235 255
220 235 255
220 235 255
220 235 255
220 235 255
220 235 255
220 235 255
220 235 255
220 235 255
220 235 255
220 235 255
220 235 255
220 235 255
220 235 255
220 235 255
220 235 255
220 235 255
220 235 255
220 235 255
220 235 255
220 235 255
220 235 255
220 235 255
220 235 255
220 235 255
220 235 255
220 235 255
220 235 255
220 235 255
220 235 255
220 235 255
220 235 255
220 235 255
220 235 255
220 235 255
220 235 255
220 235 255
220 235 255
220 235 255
220 235 255
220 235 255
220 235 255
220 235 255
220 235 255
220 235 255
220 235 255
220 235 255
220 235 255
220 235 255
220 235 255
220 235 255
220 235 255
220 235 255
220 235 255
220 235 255
220 235 255
220 235 255
220 235 255
220 235 255
220 235 255
220 235 255
220 235 255
220 235 255
220 235 255
220 235 255
220 235 255
220 235 255
220 235 255
220 235 255
220 235 255
220 235 255
220 235 255
220 235 255
220 235 255
220 235 255
220 235 255
220 235 255
220 235 255
220 235 255
220 235 255
220 235 255
220 235 255
220 235 255
220 235 255
220 235 255
220 235 255
220 235 255
220 235 255
220 235 255
220 235 255
220 235 255
220 235 255
220 235 255
220 235 255
220 235 255
220 235 255
220 235 255
220 235 255
220 235 255
220 235 255
220 235 255
220 235 255
220 235 255
220 235 255
220 235 255
220 235 255
220 235 255
220 235 255
220 235 255
220 235 255
220 235 255
220 235 255
220 235 255
220 235 255
220 235 255
220 235 255
220 235 255
220 235 255
220 235 255
220 235 255
220 235 255
220 235 255
220 235 255
220 235 255
220 235 255
220 235 255
220 235 255
220 235 255
220 235 255
220 235 255
220 235 255
220 235 255
220 235 255
220 235 255
220 235 255
220 235 255
220 235 255
220 235 255
220 235 255
220 235 255
220 235 255
220 235 255
220 235 255
220 235 255
220 235 255
220 235 255
220 235 255
220 235 255
220 235 255
220 235 255
220 235 255
220 235 255
220 235 255
220 235 255
220 235 255
220 235 255
220 235 255
220 235 255
220 235 255
220 235 255
220 235 255
220 235 255
220 235 255
220 235 255
220 235 255
220 235 255
220 235 255
220 235 255
220 235 255
220 235 255
220 235 255
220 235 255
220 235 255
220 235 255
220 235 255
220 235 255
220 235 255
220 235 255
220 235 255
220 235 255
220 235 255
220 235 255
220 235 255
220 235 255
220 235 255
220 235 255
220 235 255
220 235 255
220 235 255
220 235 255
220 235 255
220 235 255
220 235 255
220 235 255
220 235 255
220 235 255
220 235 255
220 235 255
220 235 255
220 235 255
220 235 255
220 235 255
220 235 255
220 235 255
220 235 255
220 235 255
220 235 255
220 235 255
220 235 255
220 235 255
220 235 255
220 235 255
220 235 255
220 235 255
220 235 255
220 235 255
220 235 255
220 235 255
220 235 255
220 235 255
220 235 255
220 235 255
220 235 255
220 235 255
220 235 255
220 235 255
220 235 255
220 235 255
220 235 255
220 235 255
220 235 255
220 235 255
220 235 255
220 235 255
220 235 255
220 235 255
220 235 255
220 235 255
220 235 255
220 235 255
220 235 255
220 235 255
220 235 255
220 235 255
220 235 255
220 235 255
220 235 255
220 235 255
220 235 255
220 235 255
220 235 255
220 235 255
220 235 255
220 235 255
220 235 255
220 235 255
220 235 255
220 235 255
220 235 255
220 235 255
220 235 255
220 235 255
220 235 255
220 235 255
220 235 255
220 235 255
220 235 255
220 235 255
220 235 255
220 235 255
220 235 255
220 235 255
220 235 255
220 235 255
220 235 255
220 235 255
220 235 255
220 235 255
220 235 255
220 235 255
220 235 255
220 235 255
220 235 255
220 235 255
220 235 255
220 235 255
220 235 255
220 235 255
220 235 255
220 235 255
220 235 255
220 235 255
220 235 255
220 235 255
220 235 255
220 235 255
220 235 255
220 235 255
220 235 255
220 235 255
220 235 255
220 235 255
220 235 255
220 235 255
220 235 255
220 235 255
220 235 255
220 235 255
220 235 255
220 235 255
220 235 255
220 235 255
220 235 255
220 235 255
220 235 255
220 235 255
220 235 255
220 235 255
220 235 255
220 235 255
220 235 255
220 235 255
220 235 255
220 235 255
220 235 255
220 235 255
220 235 255
220 235 255
220 235 255
220 235 255
220 235 255
220 235 255
220 235 255
220 235 255
220 235 255
220 235 255
220 235 255
220 235 255
220 235 255
220 235 255
220 235 255
220 235 255
220 235 255
220 235 255
220 235 255
220 235 255
220 235 255
220 235 255
220 235 255
220 235 255
220 235 255
220 235 255
220 235 255
220 235 255
220 235 255
220 235 255
220 235 255
220 235 255
220 235 255
220 235 255
220 235 255
220 235 255
220 235 255
220 235 255
220 235 255
220 235 255
220 235 255
220 235 255
220 235 255
220 235 255
220 235 255
220 235 255
220 235 255
220 235 255
220 235 255
220 235 255
220 235 255
220 235 255
220 235 255
220 235 255
220 235 255
220 235 255
220 235 255
220 235 255
220 235 255
220 235 255
220 235 255
220 235 255
220 235 255
220 235 255
220 235 255
220 235 255
220 235 255
220 235 255
220 235 255
220 235 255
220 235 255
220 235 255
220 235 255
220 235 255
220 235 255
220 235 255
220 235 255
220 235 255
220 235 255
220 235 255
220 235 255
220 235 255
220 235 255
220 235 255
220 235 255
220 235 255
220 235 255
220 235 255
220 235 255
220 235 255
220 235 255
220 235 255
220 235 255
220 235 255
220 235 255
220 235 255
220 235 255
220 235 255
220 235 255
220 235 255
220 235 255
220 235 255
220 235 255
220 235 255
220 235 255
220 235 255
220 235 255
220 235 255
220 235 255
220 235 255
220 235 255
220 235 255
220 235 255
220 235 255
220 235 255
220 235 255
220 235 255
220 235 255
220 235 255
220 235 255
220 235 255
220 235 255
220 235 255
220 235 255
220 235 255
220 235 255
220 235 255
220 235 255
220 235 255
220 235 255
220 235 255
220 235 255
220 235 255
220 235 255
220 235 255
220 235 255
220 235 255
220 235 255
220 235 255
220 235 255
220 235 255
220 235 255
220 235 255
220 235 255
220 235 255
220 235 255
220 235 255
220 235 255
220 235 255
220 235 255
220 235 255
220 235 255
220 235 255
220 235 255
220 235 255
220 235 255
220 235 255
220 235 255
220 235 255
220 235 255
220 235 255
220 235 255
220 235 255
220 235 255
220 235 255
220 235 255
220 235 255
220 235 255
220 235 255
220 235 255
220 235 255
220 235 255
220 235 255
220 235 255
220 235 255
220 235 255
220 235 255
220 235 255
220 235 255
220 235 255
220 235 255
220 235 255
220 235 255
220 235 255
220 235 255
220 235 255
220 235 255
220 235 255
220 235 255
220 235 255
220 235 255
220 235 255
220 235 255
220 235 255
220 235 255
220 235 255
220 235 255
220 235 255
220 235 255
220 235 255
220 235 255
220 235 255
220 235 255
220 235 255
220 235 255
220 235 255
220 235 255
220 235 255
220 235 255
220 235 255
220 235 255
220 235 255
220 235 255
220 235 255
220 235 255
220 235 255
220 235 255
220 235 255
220 235 255
220 235 255
220 235 255
220 235 255
220 235 255
220 235 255
220 235 255
220 235 255
220 235 255
220 235 255
220 235 255
220 235 255
220 235 255
220 235 255
220 235 255
220 235 255
220 235 255
220 235 255
220 235 255
220 235 255
220 235 255
220 235 255
220 235 255
220 235 255
220 235 255
220 235 255
220 235 255
220 235 255
220 235 255
220 235 255
220 235 255
220 235 255
220 235 255
220 235 255
220 235 255
220 235 255
220 235 255
220 235 255
220 235 255
220 235 255
220 235 255
220 235 255
220 235 255
220 235 255
220 235 255
220 235 255
220 235 255
220 235 255
220 235 255
220 235 255
220 235 255
220 235 255
220 235 255
220 235 255
220 235 255
220 235 255
220 235 255
220 235 255
220 235 255
220 235 255
220 235 255
220 235 255
220 235 255
220 235 255
220 235 255
220 235 255
220 235 255
220 235 255
220 235 255
220 235 255
220 235 255
220 235 255
220 235 255
220 235 255
220 235 255
220 235 255
220 235 255
220 235 255
220 235 255
220 235 255
220 235 255
220 235 255
220 235 255
220 235 255
220 235 255
220 235 255
220 235 255
220 235 255
220 235 255
220 235 255
220 235 255
220 235 255
220 235 255
220 235 255
220 235 255
220 235 255
220 235 255
220 235 255
220 235 255
220 235 255
220 235 255
220 235 255
220 235 255
220 235 255
220 235 255
220 235 255
220 235 255
220 235 255
220 235 255
220 235 255
220 235 255
220 235 255
220 235 255
220 235 255
220 235 255
220 235 255
220 235 255
220 235 255
221 235 255
221 235 255
221 235 255
221 235 255
221 235 255
221 235 255
221 235 255
221 235 255
221 235 255
221 235 255
221 235 255
221 235 255
221 235 255
221 235 255
221 235 255
221 235 255
221 235 255
221 235 255
221 235 255
220 235 255
221 235 255
221 235 255
220 235 255
220 235 255
220 235 255
220 235 255
220 235 255
220 235 255
220 235 255
220 235 255
220 235 255
220 235 255
220 235 255
220 235 255
220 235 255
220 235 255
220 235 255
220 235 255
220 235 255
220 235 255
220 235 255
220 235 255
220 235 255
220 235 255
220 235 255
220 235 255
220 235 255
220 235 255
220 235 255
220 235 255
220 235 255
220 235 255
220 235 255
220 235 255
220 235 255
220 235 255
220 235 255
220 235 255
220 235 255
220 235 255
220 235 255
220 235 255
220 235 255
220 235 255
220 235 255
220 235 255
220 235 255
220 235 255
220 235 255
220 235 255
220 235 255
220 235 255
220 235 255
220 235 255
220 235 255
220 235 255
220 235 255
220 235 255
220 235 255
220 235 255
220 235 255
220 235 255
220 235 255
220 235 255
220 235 255
220 235 255
220 235 255
220 235 255
220 235 255
220 235 255
220 235 255
220 235 255
220 235 255
220 235 255
220 235 255
220 235 255
220 235 255
220 235 255
220 235 255
220 235 255
220 235 255
220 235 255
220 235 255
220 235 255
220 235 255
220 235 255
220 235 255
220 235 255
220 235 255
220 235 255
220 235 255
220 235 255
220 235 255
220 235 255
220 235 255
220 235 255
220 235 255
220 235 255
220 235 255
220 235 255
220 235 255
220 235 255
220 235 255
220 235 255
220 235 255
220 235 255
220 235 255
220 235 255
220 235 255
220 235 255
220 235 255
220 235 255
220 235 255
220 235 255
220 235 255
220 235 255
220 235 255
220 235 255
220 235 255
220 235 255
220 235 255
220 235 255
220 235 255
220 235 255
220 235 255
220 235 255
220 235 255
220 235 255
220 235 255
220 235 255
220 235 255
220 235 255
220 235 255
220 235 255
220 235 255
220 235 255
220 235 255
220 235 255
220 235 255
220 235 255
220 235 255
220 235 255
220 235 255
220 235 255
220 235 255
220 235 255
220 235 255
220 235 255
220 235 255
220 235 255
220 235 255
220 235 255
220 235 255
220 235 255
220 235 255
220 235 255
220 235 255
220 235 255
220 235 255
220 235 255
220 235 255
220 235 255
220 235 255
220 235 255
220 235 255
220 235 255
220 235 255
220 235 255
220 235 255
220 235 255
220 235 255
220 235 255
220 235 255
220 235 255
220 235 255
220 235 255
220 235 255
220 235 255
220 235 255
220 235 255
220 235 255
220 235 255
220 235 255
220 235 255
220 235 255
220 235 255
220 235 255
220 235 255
220 235 255
220 235 255
220 235 255
220 235 255
220 235 255
220 235 255
220 235 255
220 235 255
220 235 255
220 235 255
220 235 255
220 235 255
220 235 255
220 235 255
220 235 255
220 235 255
220 235 255
220 235 255
220 235 255
220 235 255
220 235 255
220 235 255
220 235 255
220 235 255
220 235 255
220 235 255
220 235 255
220 235 255
220 235 255
220 235 255
220 235 255
220 235 255
220 235 255
220 235 255
220 235 255
220 235 255
220 235 255
220 235 255
220 235 255
220 235 255
220 235 255
220 235 255
220 235 255
220 235 255
220 235 255
220 235 255
220 235 255
220 235 255
220 235 255
220 235 255
220 235 255
220 235 255
220 235 255
220 235 255
220 235 255
220 235 255
220 235 255
220 235 255
220 235 255
220 235 255
220 235 255
220 235 255
220 235 255
220 235 255
220 235 255
220 235 255
220 235 255
220 235 255
220 235 255
220 235 255
220 235 255
220 235 255
220 235 255
220 235 255
220 235 255
220 235 255
220 235 255
220 235 255
220 235 255
220 235 255
220 235 255
220 235 255
220 235 255
220 235 255
220 235 255
220 235 255
220 235 255
220 235 255
220 235 255
220 235 255
220 235 255
220 235 255
220 235 255
220 235 255
220 235 255
220 235 255
220 235 255
220 235 255
220 235 255
220 235 255
220 235 255
220 235 255
220 235 255
220 235 255
220 235 255
220 235 255
220 235 255
220 235 255
220 235 255
220 235 255
220 235 255
220 235 255
220 235 255
220 235 255
220 235 255
220 235 255
220 235 255
220 235 255
220 235 255
220 235 255
220 235 255
220 235 255
220 235 255
220 235 255
220 235 255
220 235 255
220 235 255
220 235 255
220 235 255
220 235 255
220 235 255
220 235 255
220 235 255
220 235 255
220 235 255
220 235 255
220 235 255
220 235 255
220 235 255
220 235 255
220 235 255
220 235 255
220 235 255
220 235 255
220 235 255
220 235 255
220 235 255
220 235 255
220 235 255
220 235 255
220 235 255
220 235 255
220 235 255
220 235 255
220 235 255
220 235 255
220 235 255
220 235 255
220 235 255
220 235 255
220 235 255
220 235 255
220 235 255
220 235 255
220 235 255
220 235 255
220 235 255
220 235 255
220 235 255
220 235 255
220 235 255
221 235 255
220 235 255
221 235 255
221 235 255
221 235 255
221 235 255
221 235 255
221 235 255
221 235 255
221 235 255
221 235 255
221 235 255
221 235 255
221 235 255
221 235 255
221 235 255
221 235 255
221 235 255
221 235 255
221 235 255
221 235 255
221 235 255
221 235 255
221 235 255
221 235 255
221 235 255
221 235 255
221 235 255
221 235 255
221 235 255
221 235 255
221 235 255
221 235 255
221 235 255
221 235 255
221 235 255
221 235 255
221 235 255
221 235 255
221 235 255
221 235 255
221 235 255
221 235 255
221 235 255
221 235 255
221 235 255
221 235 255
221 235 255
221 235 255
221 235 255
221 235 255
221 235 255
221 235 255
221 235 255
221 235 255
221 235 255
221 235 255
221 235 255
221 235 255
221 235 255
221 235 255
221 235 255
221 235 255
221 235 255
221 235 255
221 235 255
221 235 255
221 235 255
221 235 255
221 235 255
221 235 255
221 235 255
221 235 255
221 235 255
221 235 255
221 235 255
221 235 255
221 235 255
221 235 255
221 235 255
221 235 255
221 235 255
221 235 255
221 235 255
221 235 255
221 235 255
221 235 255
221 235 255
221 235 255
221 235 255
221 235 255
221 235 255
221 235 255
221 235 255
221 235 255
221 235 255
221 235 255
220 235 255
221 235 255
220 235 255
220 235 255
220 235 255
220 235 255
220 235 255
220 235 255
220 235 255
220 235 255
220 235 255
220 235 255
220 235 255
220 235 255
220 235 255
220 235 255
220 235 255
220 235 255
220 235 255
220 235 255
220 235 255
220 235 255
220 235 255
220 235 255
220 235 255
220 235 255
220 235 255
220 235 255
220 235 255
220 235 255
220 235 255
220 235 255
220 235 255
220 235 255
220 235 255
220 235 255
220 235 255
220 235 255
220 235 255
220 235 255
220 235 255
220 235 255
220 235 255
220 235 255
220 235 255
220 235 255
220 235 255
220 235 255
220 235 255
220 235 255
220 235 255
220 235 255
220 235 255
220 235 255
220 235 255
220 235 255
220 235 255
220 235 255
220 235 255
220 235 255
220 235 255
220 235 255
220 235 255
220 235 255
220 235 255
220 235 255
220 235 255
220 235 255
220 235 255
220 235 255
220 235 255
220 235 255
220 235 255
220 235 255
220 235 255
220 235 255
220 235 255
220 235 255
220 235 255
220 235 255
220 235 255
220 235 255
220 235 255
220 235 255
220 235 255
220 235 255
220 235 255
220 235 255
220 235 255
220 235 255
220 235 255
220 235 255
220 235 255
220 235 255
220 235 255
220 235 255
220 235 255
220 235 255
220 235 255
220 235 255
220 235 255
220 235 255
220 235 255
220 235 255
220 235 255
220 235 255
220 235 255
220 235 255
220 235 255
220 235 255
220 235 255
220 235 255
220 235 255
220 235 255
220 235 255
220 235 255
220 235 255
220 235 255
220 235 255
220 235 255
220 235 255
220 235 255
220 235 255
220 235 255
220 235 255
220 235 255
220 235 255
220 235 255
220 235 255
220 235 255
220 235 255
220 235 255
220 235 255
220 235 255
220 235 255
220 235 255
220 235 255
220 235 255
220 235 255
220 235 255
220 235 255
220 235 255
220 235 255
220 235 255
220 235 255
220 235 255
220 235 255
220 235 255
220 235 255
220 235 255
220 235 255
220 235 255
220 235 255
220 235 255
220 235 255
220 235 255
220 235 255
220 235 255
220 235 255
220 235 255
220 235 255
220 235 255
220 235 255
220 235 255
220 235 255
220 235 255
220 235 255
220 235 255
220 235 255
220 235 255
220 235 255
220 235 255
220 235 255
220 235 255
220 235 255
220 235 255
220 235 255
220 235 255
220 235 255
220 235 255
220 235 255
220 235 255
220 235 255
220 235 255
220 235 255
220 235 255
220 235 255
220 235 255
220 235 255
220 235 255
220 235 255
220 235 255
220 235 255
220 235 255
220 235 255
220 235 255
220 235 255
220 235 255
220 235 255
220 235 255
220 235 255
220 235 255
220 235 255
220 235 255
220 235 255
220 235 255
220 235 255
220 235 255
220 235 255
220 235 255
220 235 255
220 235 255
220 235 255
220 235 255
220 235 255
220 235 255
220 235 255
220 235 255
220 235 255
220 235 255
220 235 255
220 235 255
220 235 255
220 235 255
220 235 255
220 235 255
220 235 255
220 235 255
220 235 255
220 235 255
220 235 255
220 235 255
220 235 255
220 235 255
220 235 255
220 235 255
220 235 255
220 235 255
220 235 255
220 235 255
220 235 255
220 235 255
220 235 255
220 235 255
220 235 255
220 235 255
220 235 255
221 235 255
221 235 255
221 235 255
221 235 255
221 235 255
221 235 255
221 235 255
221 235 255
221 235 255
221 235 255
221 235 255
221 235 255
221 235 255
221 235 255
221 235 255
221 235 255
221 235 255
221 235 255
221 235 255
221 235 255
221 235 255
221 235 255
221 235 255
221 235 255
221 235 255
221 235 255
221 235 255
221 235 255
221 235 255
221 235 255
221 235 255
221 235 255
221 235 255
221 235 255
221 235 255
221 235 255
221 235 255
221 235 255
221 235 255
221 235 255
221 235 255
221 235 255
221 235 255
221 235 255
221 235 255
221 235 255
221 235 255
221 235 255
221 235 255
221 235 255
221 235 255
221 235 255
221 235 255
221 235 255
221 235 255
221 235 255
221 235 255
221 235 255
221 235 255
221 235 255
221 235 255
221 235 255
221 235 255
221 235 255
221 235 255
221 235 255
221 235 255
221 235 255
221 235 255
221 235 255
221 235 255
221 235 255
221 235 255
221 235 255
221 235 255
221 235 255
221 235 255
221 235 255
221 235 255
221 235 255
221 235 255
221 235 255
221 235 255
221 235 255
221 235 255
221 235 255
221 235 255
221 235 255
221 235 255
221 235 255
221 235 255
221 235 255
221 235 255
221 235 255
221 235 255
221 235 255
221 235 255
221 235 255
221 235 255
221 235 255
221 235 255
221 235 255
221 235 255
221 235 255
221 235 255
221 235 255
221 235 255
221 235 255
221 235 255
221 235 255
221 235 255
221 235 255
221 235 255
221 235 255
221 235 255
221 235 255
221 235 255
221 235 255
221 235 255
221 235 255
221 235 255
221 235 255
221 235 255
221 235 255
221 235 255
221 235 255
221 235 255
221 235 255
221 235 255
221 235 255
221 235 255
221 235 255
221 235 255
221 235 255
221 235 255
221 235 255
221 235 255
221 235 255
221 235 255
221 235 255
221 235 255
221 235 255
221 235 255
221 235 255
221 235 255
221 235 255
221 235 255
221 235 255
221 235 255
221 235 255
221 235 255
221 235 255
221 235 255
221 235 255
221 235 255
221 235 255
221 235 255
221 235 255
221 235 255
221 235 255
221 235 255
221 235 255
221 235 255
221 235 255
221 235 255
221 235 255
221 235 255
221 235 255
221 235 255
221 235 255
221 235 255
221 235 255
221 235 255
221 235 255
221 235 255
221 235 255
221 235 255
221 235 255
221 235 255
221 235 255
221 235 255
221 235 255
221 235 255
221 235 255
221 235 255
221 235 255
221 235 255
221 235 255
221 235 255
221 235 255
221 235 255
221 235 255
221 235 255
221 235 255
221 235 255
221 235 255
221 235 255
221 235 255
221 235 255
221 235 255
221 235 255
221 235 255
221 235 255
221 235 255
221 235 255
221 235 255
221 235 255
221 235 255
221 235 255
221 235 255
221 235 255
221 235 255
221 235 255
221 235 255
221 235 255
221 235 255
221 235 255
221 235 255
221 235 255
221 235 255
221 235 255
221 235 255
221 235 255
221 235 255
221 235 255
221 235 255
221 235 255
221 235 255
221 235 255
221 235 255
221 235 255
221 235 255
221 235 255
221 235 255
221 235 255
221 235 255
221 235 255
221 235 255
221 235 255
221 235 255
221 235 255
221 235 255
221 235 255
221 235 255
221 235 255
221 235 255
220 235 255
221 235 255
220 235 255
220 235 255
220 235 255
220 235 255
220 235 255
220 235 255
220 235 255
220 235 255
221 235 255
220 235 255
220 235 255
220 235 255
220 235 255
221 235 255
220 235 255
220 235 255
220 235 255
220 235 255
220 235 255
220 235 255
220 235 255
220 235 255
220 235 255
220 235 255
220 235 255
220 235 255
220 235 255
220 235 255
220 235 255
220 235 255
220 235 255
220 235 255
220 235 255
220 235 255
220 235 255
220 235 255
220 235 255
220 235 255
220 235 255
220 235 255
220 235 255
220 235 255
220 235 255
220 235 255
220 235 255
220 235 255
220 235 255
220 235 255
220 235 255
220 235 255
220 235 255
220 235 255
221 235 255
220 235 255
220 235 255
220 235 255
220 235 255
220 235 255
220 235 255
220 235 255
221 235 255
221 235 255
221 235 255
221 235 255
221 235 255
221 235 255
221 235 255
221 235 255
221 235 255
221 235 255
221 235 255
221 235 255
221 235 255
221 235 255
221 235 255
221 235 255
221 235 255
221 235 255
221 235 255
221 235 255
221 235 255
221 235 255
221 235 255
221 235 255
221 235 255
221 235 255
221 235 255
221 235 255
221 235 255
221 235 255
221 235 255
221 235 255
221 235 255
221 235 255
221 235 255
221 235 255
221 235 255
221 235 255
221 235 255
221 235 255
221 235 255
221 235 255
221 235 255
221 235 255
221 235 255
221 235 255
221 235 255
221 235 255
221 235 255
221 235 255
221 235 255
221 235 255
221 235 255
221 235 255
221 235 255
221 235 255
221 235 255
221 235 255
221 235 255
221 235 255
221 235 255
221 235 255
221 235 255
221 235 255
221 235 255
221 235 255
221 235 255
221 235 255
221 235 255
221 235 255
221 235 255
221 235 255
221 235 255
221 235 255
221 235 255
221 235 255
221 235 255
221 235 255
221 235 255
221 235 255
221 235 255
221 235 255
221 235 255
221 235 255
221 235 255
221 235 255
221 235 255
221 235 255
221 235 255
221 235 255
221 235 255
221 235 255
221 235 255
221 235 255
221 235 255
221 235 255
221 235 255
221 235 255
221 235 255
221 235 255
221 235 255
221 235 255
221 235 255
221 235 255
221 235 255
221 235 255
221 235 255
221 235 255
221 235 255
221 235 255
221 235 255
221 235 255
221 235 255
221 235 255
221 235 255
221 235 255
221 235 255
221 235 255
221 235 255
221 235 255
221 235 255
221 235 255
221 235 255
221 235 255
221 235 255
221 235 255
221 235 255
221 235 255
221 235 255
221 235 255
221 235 255
221 235 255
221 235 255
221 235 255
221 235 255
221 235 255
221 235 255
221 235 255
221 235 255
221 235 255
221 235 255
221 235 255
221 235 255
221 235 255
221 235 255
221 235 255
221 235 255
221 235 255
221 235 255
221 235 255
221 235 255
221 235 255
221 235 255
221 235 255
221 235 255
221 235 255
221 235 255
221 235 255
221 235 255
221 235 255
221 235 255
221 235 255
221 235 255
221 235 255
221 235 255
221 235 255
221 235 255
221 235 255
221 235 255
221 235 255
221 235 255
221 235 255
221 235 255
221 235 255
221 235 255
221 235 255
221 235 255
221 235 255
221 235 255
221 235 255
221 235 255
221 235 255
221 235 255
221 235 255
221 235 255
221 235 255
221 235 255
221 235 255
221 235 255
221 235 255
221 235 255
221 235 255
221 235 255
221 235 255
221 235 255
221 235 255
221 235 255
221 235 255
221 235 255
221 235 255
221 235 255
221 235 255
221 235 255
221 235 255
221 235 255
221 235 255
221 235 255
221 235 255
221 235 255
221 235 255
221 235 255
221 235 255
221 235 255
221 235 255
221 235 255
221 235 255
221 235 255
221 235 255
221 235 255
221 235 255
221 235 255
221 235 255
221 235 255
221 235 255
221 235 255
221 235 255
221 235 255
221 235 255
221 235 255
221 235 255
221 235 255
221 235 255
221 235 255
221 235 255
221 235 255
221 235 255
221 235 255
221 235 255
221 235 255
221 235 255
221 235 255
221 235 255
221 235 255
221 235 255
221 235 255
221 235 255
221 235 255
221 235 255
221 235 255
221 235 255
221 235 255
221 235 255
221 235 255
221 235 255
221 235 255
221 235 255
221 235 255
221 235 255
221 235 255
221 235 255
221 235 255
221 235 255
221 235 255
221 235 255
221 235 255
221 235 255
221 235 255
221 235 255
221 235 255
221 235 255
221 235 255
221 235 255
221 235 255
221 235 255
221 235 255
221 235 255
221 235 255
221 235 255
221 235 255
221 235 255
221 235 255
221 235 255
221 235 255
221 235 255
221 235 255
221 235 255
221 235 255
221 235 255
221 235 255
221 235 255
221 235 255
221 235 255
221 235 255
221 235 255
221 235 255
221 235 255
221 235 255
221 235 255
221 235 255
221 235 255
221 235 255
221 235 255
221 235 255
221 235 255
221 235 255
221 235 255
221 235 255
221 235 255
221 235 255
221 235 255
221 235 255
221 235 255
221 235 255
221 235 255
221 235 255
221 235 255
221 235 255
221 235 255
221 235 255
221 235 255
221 235 255
221 235 255
221 235 255
221 235 255
221 235 255
221 235 255
221 235 255
221 235 255
221 235 255
221 235 255
221 235 255
221 235 255
221 235 255
221 235 255
221 235 255
221 235 255
221 235 255
221 235 255
221 235 255
221 235 255
221 235 255
221 235 255
221 235 255
221 235 255
221 235 255
221 235 255
221 235 255
221 235 255
221 235 255
221 235 255
221 235 255
221 235 255
221 235 255
221 235 255
221 235 255
221 235 255
221 235 255
221 235 255
221 235 255
221 235 255
221 235 255
221 235 255
221 235 255
221 235 255
221 235 255
221 235 255
221 235 255
221 235 255
221 235 255
221 235 255
221 235 255
221 235 255
221 235 255
221 235 255
221 235 255
221 235 255
221 235 255
221 235 255
221 235 255
221 235 255
221 235 255
221 235 255
221 235 255
221 235 255
221 235 255
221 235 255
221 235 255
221 235 255
221 235 255
221 235 255
221 235 255
221 235 255
221 235 255
221 235 255
221 235 255
221 235 255
221 235 255
221 235 255
221 235 255
221 235 255
221 235 255
221 235 255
221 235 255
221 235 255
221 235 255
221 235 255
221 235 255
221 235 255
221 235 255
221 235 255
221 235 255
221 235 255
221 235 255
221 235 255
221 235 255
221 235 255
221 235 255
221 235 255
221 235 255
221 235 255
221 235 255
221 235 255
221 235 255
221 235 255
221 235 255
221 235 255
221 235 255
221 235 255
221 235 255
221 235 255
221 235 255
221 235 255
221 235 255
221 235 255
221 235 255
221 235 255
221 235 255
221 235 255
221 235 255
221 235 255
221 235 255
221 235 255
221 235 255
221 235 255
221 235 255
221 235 255
221 235 255
221 235 255
221 235 255
221 235 255
221 235 255
221 235 255
221 235 255
221 235 255
221 235 255
221 235 255
221 235 255
221 235 255
221 235 255
221 235 255
221 235 255
221 235 255
221 235 255
221 235 255
221 235 255
221 235 255
221 235 255
221 235 255
221 235 255
221 235 255
221 235 255
221 235 255
221 235 255
221 235 255
221 235 255
221 235 255
221 235 255
221 235 255
221 235 255
221 235 255
221 235 255
221 235 255
221 235 255
221 235 255
221 235 255
221 235 255
221 235 255
221 235 255
221 235 255
221 235 255
221 235 255
221 235 255
221 235 255
221 235 255
221 235 255
221 235 255
221 235 255
221 235 255
221 235 255
221 235 255
221 235 255
221 235 255
221 235 255
221 235 255
221 235 255
221 235 255
221 235 255
221 235 255
221 235 255
221 235 255
221 235 255
221 235 255
221 235 255
221 235 255
221 235 255
221 235 255
221 235 255
221 235 255
221 235 255
221 235 255
221 235 255
221 235 255
221 235 255
221 235 255
221 235 255
221 235 255
221 235 255
221 235 255
221 235 255
221 235 255
221 235 255
221 235 255
221 235 255
221 235 255
221 235 255
221 235 255
221 235 255
221 235 255
221 235 255
221 235 255
221 235 255
221 235 255
221 235 255
221 235 255
221 235 255
221 235 255
221 235 255
221 235 255
221 235 255
221 235 255
221 235 255
221 235 255
221 235 255
221 235 255
221 235 255
221 235 255
221 235 255
221 235 255
221 235 255
221 235 255
221 235 255
221 235 255
221 235 255
221 235 255
221 235 255
221 235 255
221 235 255
221 235 255
221 235 255
221 235 255
221 235 255
221 235 255
221 235 255
221 235 255
221 235 255
221 235 255
221 235 255
221 235 255
221 235 255
221 235 255
221 235 255
221 235 255
221 235 255
221 235 255
221 235 255
221 235 255
221 235 255
221 235 255
221 235 255
221 235 255
221 235 255
221 235 255
221 235 255
221 235 255
221 235 255
221 235 255
221 235 255
221 235 255
221 235 255
221 235 255
221 235 255
221 235 255
221 235 255
221 235 255
221 235 255
221 235 255
221 235 255
221 235 255
221 235 255
221 235 255
221 235 255
221 235 255
221 235 255
221 235 255
221 235 255
221 235 255
221 235 255
221 235 255
221 235 255
221 235 255
221 235 255
221 235 255
221 235 255
221 235 255
221 235 255
221 235 255
221 235 255
221 235 255
221 235 255
221 235 255
221 235 255
221 235 255
221 235 255
221 235 255
221 235 255
221 235 255
221 235 255
221 235 255
221 235 255
221 235 255
221 235 255
221 235 255
221 235 255
221 235 255
221 235 255
221 235 255
221 235 255
221 235 255
221 235 255
221 235 255
221 235 255
221 235 255
221 235 255
221 235 255
221 235 255
221 235 255
221 235 255
221 235 255
221 235 255
221 235 255
221 235 255
221 235 255
221 235 255
221 235 255
221 235 255
221 235 255
221 235 255
221 235 255
221 235 255
221 235 255
221 235 255
221 235 255
221 235 255
221 235 255
221 235 255
221 235 255
221 235 255
221 235 255
221 235 255
221 235 255
221 235 255
221 235 255
221 235 255
221 235 255
221 235 255
221 235 255
221 235 255
221 235 255
221 235 255
221 235 255
221 235 255
221 235 255
221 235 255
221 235 255
221 235 255
221 235 255
221 235 255
221 235 255
221 235 255
221 235 255
221 235 255
221 235 255
221 235 255
221 235 255
221 235 255
221 235 255
221 235 255
221 235 255
221 235 255
221 235 255
221 235 255
221 235 255
221 235 255
221 235 255
221 235 255
221 235 255
221 235 255
221 235 255
221 235 255
221 235 255
221 235 255
221 235 255
221 235 255
221 235 255
221 235 255
221 235 255
221 235 255
221 235 255
221 235 255
221 235 255
221 235 255
221 235 255
221 235 255
221 235 255
221 235 255
221 235 255
221 235 255
221 235 255
221 235 255
221 235 255
221 235 255
221 235 255
221 235 255
221 235 255
221 235 255
221 235 255
221 235 255
221 235 255
221 235 255
221 235 255
221 235 255
221 235 255
221 235 255
221 235 255
221 235 255
221 235 255
221 235 255
221 235 255
221 235 255
221 235 255
221 235 255
221 235 255
221 235 255
221 235 255
221 235 255
221 235 255
221 235 255
221 235 255
221 235 255
221 235 255
221 235 255
221 235 255
221 235 255
221 235 255
221 235 255
221 235 255
221 235 255
221 235 255
221 235 255
221 235 255
221 235 255
221 235 255
221 235 255
221 235 255
221 235 255
221 235 255
221 235 255
221 235 255
221 235 255
221 235 255
221 235 255
221 235 255
221 235 255
221 235 255
221 235 255
221 235 255
221 235 255
221 235 255
221 235 255
221 235 255
221 235 255
221 235 255
221 235 255
221 235 255
221 235 255
221 235 255
221 235 255
221 235 255
221 235 255
221 235 255
221 235 255
221 235 255
221 235 255
221 235 255
221 235 255
221 235 255
221 235 255
221 235 255
221 235 255
221 235 255
221 235 255
221 235 255
221 235 255
221 235 255
221 235 255
221 235 255
221 235 255
221 235 255
221 235 255
221 235 255
221 235 255
221 235 255
221 235 255
221 235 255
221 235 255
221 235 255
221 235 255
221 235 255
221 235 255
221 235 255
221 235 255
221 235 255
221 235 255
221 235 255
221 235 255
221 235 255
221 235 255
221 235 255
221 235 255
221 235 255
221 235 255
221 235 255
221 235 255
221 235 255
221 235 255
221 235 255
221 235 255
221 235 255
221 235 255
221 235 255
221 235 255
221 235 255
221 235 255
221 235 255
221 235 255
221 235 255
221 235 255
221 235 255
221 235 255
221 235 255
221 235 255
221 235 255
221 235 255
221 235 255
221 235 255
221 235 255
221 235 255
221 235 255
221 235 255
221 235 255
221 235 255
221 235 255
221 235 255
221 235 255
221 235 255
221 235 255
221 235 255
221 235 255
221 235 255
221 235 255
221 235 255
221 235 255
221 235 255
221 235 255
221 235 255
221 235 255
221 235 255
221 235 255
221 235 255
221 235 255
221 235 255
221 235 255
221 235 255
221 235 255
221 235 255
221 235 255
221 235 255
221 235 255
221 235 255
221 235 255
221 235 255
221 235 255
221 235 255
221 235 255
221 235 255
221 235 255
221 235 255
221 235 255
221 235 255
221 235 255
221 235 255
221 235 255
221 235 255
221 235 255
221 235 255
221 235 255
221 235 255
221 235 255
221 235 255
221 235 255
221 235 255
221 235 255
221 235 255
221 235 255
221 235 255
221 235 255
221 235 255
221 235 255
221 235 255
221 235 255
221 235 255
221 235 255
221 235 255
221 235 255
221 235 255
221 235 255
221 235 255
221 235 255
221 235 255
221 235 255
221 235 255
221 235 255
221 235 255
221 235 255
221 235 255
221 235 255
221 235 255
221 235 255
221 235 255
221 235 255
221 235 255
221 235 255
221 235 255
221 235 255
221 235 255
221 235 255
221 235 255
221 235 255
221 235 255
221 235 255
221 235 255
221 235 255
221 236 255
221 235 255
221 235 255
221 235 255
221 235 255
221 235 255
221 235 255
221 235 255
221 235 255
221 235 255
221 235 255
221 235 255
221 235 255
221 236 255
221 235 255
221 235 255
221 235 255
221 235 255
221 235 255
221 235 255
221 235 255
221 235 255
221 235 255
221 235 255
221 235 255
221 235 255
221 235 255
221 235 255
221 235 255
221 235 255
221 235 255
221 235 255
221 235 255
221 235 255
221 235 255
221 236 255
221 235 255
221 235 255
221 235 255
221 235 255
221 235 255
221 235 255
221 235 255
221 235 255
221 235 255
221 235 255
221 235 255
221 235 255
221 235 255
221 235 255
221 235 255
221 235 255
221 235 255
221 235 255
221 235 255
221 235 255
221 235 255
221 235 255
221 235 255
221 235 255
221 235 255
221 235 255
221 235 255
221 235 255
221 235 255
221 235 255
221 235 255
221 235 255
221 235 255
221 235 255
221 235 255
221 235 255
221 235 255
221 235 255
221 235 255
221 235 255
221 235 255
221 235 255
221 235 255
221 235 255
221 235 255
221 235 255
221 235 255
221 235 255
221 235 255
221 235 255
221 235 255
221 235 255
221 235 255
221 235 255
221 235 255
221 235 255
221 235 255
221 235 255
221 235 255
221 235 255
221 235 255
221 235 255
221 235 255
221 235 255
221 235 255
221 235 255
221 235 255
221 235 255
221 235 255
221 235 255
221 235 255
221 235 255
221 235 255
221 235 255
221 235 255
221 235 255
221 235 255
221 235 255
221 235 255
221 235 255
221 235 255
221 235 255
221 235 255
221 235 255
221 235 255
221 235 255
221 235 255
221 235 255
221 235 255
221 235 255
221 235 255
221 235 255
221 235 255
221 235 255
221 235 255
221 235 255
221 235 255
221 235 255
221 235 255
221 235 255
221 235 255
221 235 255
221 235 255
221 235 255
221 235 255
221 235 255
221 235 255
221 235 255
221 235 255
221 235 255
221 235 255
221 235 255
221 235 255
221 235 255
221 235 255
221 235 255
221 235 255
221 235 255
221 235 255
221 235 255
221 235 255
221 235 255
221 235 255
221 235 255
221 235 255
221 235 255
221 235 255
221 235 255
221 235 255
221 235 255
221 235 255
221 235 255
221 235 255
221 235 255
221 235 255
221 235 255
221 235 255
221 235 255
221 235 255
221 235 255
221 235 255
221 235 255
221 235 255
221 235 255
221 235 255
221 235 255
221 235 255
221 235 255
221 235 255
221 235 255
221 235 255
221 235 255
221 235 255
221 235 255
221 235 255
221 235 255
221 235 255
221 235 255
221 235 255
221 235 255
221 235 255
221 235 255
221 235 255
221 235 255
221 235 255
221 235 255
221 235 255
221 235 255
221 235 255
221 235 255
221 235 255
221 235 255
221 235 255
221 235 255
221 235 255
221 235 255
221 235 255
221 235 255
221 235 255
221 235 255
221 235 255
221 235 255
221 235 255
221 235 255
221 235 255
221 235 255
221 235 255
221 235 255
221 235 255
221 235 255
221 235 255
221 235 255
221 235 255
221 235 255
221 235 255
221 235 255
221 235 255
221 235 255
221 235 255
221 235 255
221 235 255
221 235 255
221 235 255
221 235 255
221 235 255
221 235 255
221 235 255
221 235 255
221 235 255
221 235 255
221 235 255
221 235 255
221 235 255
221 235 255
221 235 255
221 235 255
221 235 255
221 235 255
221 235 255
221 235 255
221 235 255
221 235 255
221 235 255
221 235 255
221 235 255
221 235 255
221 235 255
221 235 255
221 235 255
221 235 255
221 235 255
221 235 255
221 235 255
221 235 255
221 235 255
221 235 255
221 235 255
221 235 255
221 235 255
221 235 255
221 235 255
221 235 255
221 235 255
221 235 255
221 235 255
221 235 255
221 235 255
221 235 255
221 235 255
221 235 255
221 235 255
221 235 255
221 235 255
221 235 255
221 235 255
221 235 255
221 235 255
221 235 255
221 235 255
221 235 255
221 235 255
221 235 255
221 235 255
221 235 255
221 235 255
221 235 255
221 235 255
221 235 255
221 235 255
221 235 255
221 235 255
221 235 255
221 235 255
221 235 255
221 235 255
221 235 255
221 235 255
221 235 255
221 235 255
221 235 255
221 235 255
221 235 255
221 235 255
221 235 255
221 235 255
221 235 255
221 235 255
221 235 255
221 235 255
221 235 255
221 235 255
221 235 255
221 235 255
221 235 255
221 235 255
221 235 255
221 235 255
221 235 255
221 235 255
221 235 255
221 235 255
221 235 255
221 235 255
221 235 255
221 235 255
221 235 255
221 235 255
221 235 255
221 235 255
221 235 255
221 235 255
221 235 255
221 235 255
221 235 255
221 235 255
221 235 255
221 235 255
221 235 255
221 235 255
221 235 255
221 235 255
221 235 255
221 235 255
221 235 255
221 235 255
221 235 255
221 235 255
221 235 255
221 235 255
221 235 255
221 235 255
221 235 255
221 235 255
221 235 255
221 235 255
221 235 255
221 235 255
221 235 255
221 235 255
221 236 255
221 235 255
221 235 255
221 235 255
221 235 255
221 235 255
221 235 255
221 235 255
221 235 255
221 236 255
221 235 255
221 235 255
221 235 255
221 235 255
221 235 255
221 235 255
221 235 255
221 235 255
221 235 255
221 235 255
221 235 255
221 235 255
221 236 255
221 236 255
221 236 255
221 236 255
221 236 255
221 236 255
221 236 255
221 236 255
221 236 255
221 236 255
221 236 255
221 236 255
221 236 255
221 236 255
221 236 255
221 236 255
221 236 255
221 236 255
221 236 255
221 236 255
221 236 255
221 236 255
221 236 255
221 236 255
221 236 255
221 236 255
221 236 255
221 236 255
221 236 255
221 236 255
221 236 255
221 236 255
221 236 255
221 236 255
221 236 255
221 236 255
221 236 255
221 236 255
221 236 255
221 236 255
221 236 255
221 236 255
221 236 255
221 236 255
221 236 255
221 236 255
221 236 255
221 236 255
221 236 255
221 236 255
221 236 255
221 236 255
221 236 255
221 236 255
221 236 255
221 236 255
221 236 255
221 236 255
221 236 255
221 236 255
221 236 255
221 236 255
221 236 255
221 236 255
221 236 255
221 236 255
221 236 255
221 236 255
221 236 255
221 236 255
221 236 255
221 236 255
221 236 255
221 236 255
221 236 255
221 236 255
221 236 255
221 236 255
221 236 255
221 236 255
221 236 255
221 236 255
221 236 255
221 236 255
221 236 255
221 236 255
221 236 255
221 236 255
221 236 255
221 236 255
221 236 255
221 236 255
221 236 255
221 236 255
221 236 255
221 236 255
221 236 255
221 236 255
221 236 255
221 236 255
221 236 255
221 236 255
221 236 255
221 236 255
221 236 255
221 236 255
221 236 255
221 236 255
221 236 255
221 236 255
221 236 255
221 236 255
221 236 255
221 236 255
221 236 255
221 236 255
221 236 255
221 236 255
221 236 255
221 236 255
221 236 255
221 236 255
221 236 255
221 236 255
221 236 255
221 236 255
221 236 255
221 236 255
221 236 255
221 236 255
221 236 255
221 236 255
221 236 255
221 236 255
221 236 255
221 236 255
221 236 255
221 236 255
221 236 255
221 236 255
221 236 255
221 236 255
221 236 255
221 236 255
221 236 255
221 236 255
221 236 255
221 236 255
221 236 255
221 236 255
221 236 255
221 236 255
221 236 255
221 236 255
221 236 255
221 236 255
221 236 255
221 236 255
221 236 255
221 236 255
221 236 255
221 236 255
221 236 255
221 236 255
221 236 255
221 236 255
221 236 255
221 236 255
221 236 255
221 236 255
221 236 255
221 236 255
221 236 255
221 236 255
221 236 255
221 236 255
221 236 255
221 236 255
221 236 255
221 236 255
221 236 255
221 236 255
221 236 255
221 236 255
221 236 255
221 236 255
221 236 255
221 236 255
221 236 255
221 236 255
221 236 255
221 236 255
221 236 255
221 236 255
221 236 255
221 236 255
221 236 255
221 236 255
221 236 255
221 236 255
221 236 255
221 236 255
221 236 255
221 236 255
221 236 255
221 236 255
221 236 255
221 236 255
221 236 255
221 236 255
221 236 255
221 236 255
221 236 255
221 236 255
221 236 255
221 236 255
221 236 255
221 236 255
221 236 255
221 236 255
221 236 255
221 236 255
221 236 255
221 236 255
221 236 255
221 236 255
221 236 255
221 236 255
221 236 255
221 236 255
221 236 255
221 236 255
221 236 255
221 236 255
221 236 255
221 236 255
221 236 255
221 236 255
221 236 255
221 236 255
221 236 255
221 236 255
221 236 255
221 236 255
221 236 255
221 236 255
221 236 255
221 236 255
221 236 255
221 236 255
221 236 255
221 236 255
221 236 255
221 236 255
221 236 255
221 236 255
221 236 255
221 236 255
221 236 255
221 236 255
221 236 255
221 236 255
221 236 255
221 236 255
221 236 255
221 236 255
221 236 255
221 236 255
221 236 255
221 236 255
221 236 255
221 236 255
221 236 255
221 236 255
221 236 255
221 236 255
221 236 255
221 236 255
221 236 255
221 236 255
221 236 255
221 236 255
221 236 255
221 236 255
221 236 255
221 236 255
221 236 255
221 236 255
221 236 255
221 236 255
221 236 255
221 236 255
221 236 255
221 236 255
221 236 255
221 236 255
221 236 255
221 236 255
221 236 255
221 236 255
221 236 255
221 236 255
221 236 255
221 236 255
221 236 255
221 236 255
221 236 255
221 236 255
221 236 255
221 236 255
221 236 255
221 236 255
221 236 255
221 236 255
221 236 255
221 236 255
221 236 255
221 236 255
221 236 255
221 236 255
221 236 255
221 236 255
221 236 255
221 236 255
221 236 255
221 236 255
221 236 255
221 236 255
221 236 255
221 236 255
221 236 255
221 236 255
221 236 255
221 236 255
221 236 255
221 236 255
221 236 255
221 236 255
221 236 255
221 236 255
221 236 255
221 236 255
221 236 255
221 236 255
221 236 255
221 236 255
221 236 255
221 236 255
221 236 255
221 236 255
221 236 255
221 236 255
221 236 255
221 236 255
221 236 255
221 236 255
221 236 255
221 236 255
221 236 255
221 236 255
221 236 255
221 236 255
221 236 255
221 236 255
221 236 255
221 236 255
221 236 255
221 236 255
221 236 255
221 236 255
221 236 255
221 236 255
221 236 255
221 236 255
221 236 255
221 236 255
221 236 255
221 236 255
221 236 255
221 236 255
221 236 255
221 236 255
221 236 255
221 236 255
221 236 255
221 236 255
221 236 255
221 236 255
221 236 255
221 236 255
221 236 255
221 236 255
221 236 255
221 236 255
221 236 255
221 236 255
221 236 255
221 236 255
221 236 255
221 236 255
221 236 255
221 236 255
221 236 255
221 236 255
221 236 255
221 236 255
221 236 255
221 236 255
221 236 255
221 236 255
221 236 255
221 236 255
221 236 255
221 236 255
221 236 255
221 236 255
221 236 255
221 236 255
221 236 255
221 236 255
221 236 255
221 236 255
221 236 255
221 236 255
221 236 255
221 236 255
221 236 255
221 236 255
221 236 255
221 236 255
221 236 255
221 236 255
221 236 255
221 236 255
221 236 255
221 236 255
221 236 255
221 236 255
221 236 255
221 236 255
221 236 255
221 236 255
221 236 255
221 236 255
221 236 255
221 236 255
221 236 255
221 236 255
221 236 255
221 236 255
221 236 255
221 236 255
221 236 255
221 236 255
221 236 255
221 236 255
221 236 255
221 236 255
221 236 255
221 236 255
221 236 255
221 236 255
221 236 255
221 236 255
221 236 255
221 236 255
221 236 255
221 236 255
221 236 255
221 236 255
221 236 255
221 236 255
221 236 255
221 236 255
221 236 255
221 236 255
221 236 255
221 236 255
221 236 255
221 236 255
221 236 255
221 236 255
221 236 255
221 236 255
221 236 255
221 236 255
221 236 255
221 236 255
221 236 255
222 236 255
221 236 255
221 236 255
221 236 255
221 236 255
222 236 255
221 236 255
222 236 255
221 236 255
222 236 255
222 236 255
221 236 255
222 236 255
221 236 255
222 236 255
222 236 255
222 236 255
222 236 255
222 236 255
222 236 255
222 236 255
222 236 255
222 236 255
222 236 255
222 236 255
222 236 255
222 236 255
222 236 255
222 236 255
222 236 255
222 236 255
222 236 255
222 236 255
222 236 255
222 236 255
222 236 255
222 236 255
222 236 255
222 236 255
222 236 255
222 236 255
222 236 255
222 236 255
222 236 255
222 236 255
222 236 255
222 236 255
222 236 255
222 236 255
222 236 255
222 236 255
222 236 255
222 236 255
222 236 255
222 236 255
222 236 255
222 236 255
222 236 255
222 236 255
222 236 255
222 236 255
222 236 255
222 236 255
222 236 255
222 236 255
222 236 255
222 236 255
222 236 255
222 236 255
222 236 255
222 236 255
222 236 255
222 236 255
222 236 255
222 236 255
222 236 255
222 236 255
222 236 255
222 236 255
222 236 255
222 236 255
222 236 255
222 236 255
222 236 255
222 236 255
222 236 255
222 236 255
222 236 255
222 236 255
222 236 255
222 236 255
222 236 255
222 236 255
222 236 255
222 236 255
222 236 255
222 236 255
222 236 255
222 236 255
222 236 255
222 236 255
222 236 255
222 236 255
222 236 255
222 236 255
222 236 255
222 236 255
222 236 255
222 236 255
222 236 255
222 236 255
222 236 255
222 236 255
222 236 255
222 236 255
222 236 255
222 236 255
222 236 255
222 236 255
222 236 255
222 236 255
222 236 255
222 236 255
222 236 255
222 236 255
222 236 255
222 236 255
222 236 255
222 236 255
222 236 255
222 236 255
222 236 255
222 236 255
222 236 255
222 236 255
222 236 255
222 236 255
222 236 255
222 236 255
222 236 255
222 236 255
222 236 255
222 236 255
222 236 255
222 236 255
222 236 255
222 236 255
222 236 255
222 236 255
222 236 255
222 236 255
222 236 255
222 236 255
222 236 255
222 236 255
222 236 255
222 236 255
222 236 255
222 236 255
222 236 255
222 236 255
222 236 255
222 236 255
222 236 255
222 236 255
222 236 255
222 236 255
222 236 255
222 236 255
222 236 255
222 236 255
222 236 255
222 236 255
222 236 255
222 236 255
222 236 255
222 236 255
222 236 255
222 236 255
222 236 255
222 236 255
222 236 255
222 236 255
222 236 255
222 236 255
222 236 255
222 236 255
222 236 255
222 236 255
222 236 255
222 236 255
222 236 255
222 236 255
222 236 255
222 236 255
222 236 255
222 236 255
222 236 255
222 236 255
222 236 255
222 236 255
222 236 255
222 236 255
222 236 255
222 236 255
222 236 255
222 236 255
222 236 255
222 236 255
222 236 255
222 236 255
222 236 255
222 236 255
222 236 255
222 236 255
221 236 255
222 236 255
222 236 255
221 236 255
222 236 255
221 236 255
221 236 255
221 236 255
221 236 255
221 236 255
221 236 255
221 236 255
221 236 255
221 236 255
221 236 255
221 236 255
221 236 255
221 236 255
221 236 255
221 236 255
221 236 255
221 236 255
221 236 255
221 236 255
221 236 255
221 236 255
221 236 255
221 236 255
221 236 255
221 236 255
221 236 255
221 236 255
221 236 255
221 236 255
221 236 255
221 236 255
221 236 255
221 236 255
221 236 255
221 236 255
221 236 255
221 236 255
221 236 255
221 236 255
221 236 255
221 236 255
221 236 255
221 236 255
221 236 255
221 236 255
221 236 255
221 236 255
221 236 255
221 236 255
221 236 255
221 236 255
221 236 255
221 236 255
221 236 255
221 236 255
221 236 255
221 236 255
221 236 255
221 236 255
221 236 255
221 236 255
221 236 255
221 236 255
221 236 255
221 236 255
221 236 255
221 236 255
221 236 255
221 236 255
221 236 255
221 236 255
221 236 255
221 236 255
221 236 255
221 236 255
221 236 255
221 236 255
221 236 255
221 236 255
221 236 255
221 236 255
221 236 255
221 236 255
221 236 255
221 236 255
221 236 255
221 236 255
221 236 255
221 236 255
221 236 255
221 236 255
222 236 255
222 236 255
222 236 255
222 236 255
222 236 255
222 236 255
222 236 255
222 236 255
222 236 255
222 236 255
222 236 255
222 236 255
222 236 255
222 236 255
222 236 255
222 236 255
222 236 255
222 236 255
222 236 255
222 236 255
222 236 255
222 236 255
222 236 255
222 236 255
222 236 255
222 236 255
222 236 255
222 236 255
222 236 255
222 236 255
222 236 255
222 236 255
222 236 255
222 236 255
222 236 255
222 236 255
222 236 255
222 236 255
222 236 255
222 236 255
222 236 255
222 236 255
222 236 255
222 236 255
222 236 255
222 236 255
222 236 255
222 236 255
222 236 255
222 236 255
222 236 255
222 236 255
222 236 255
222 236 255
222 236 255
222 236 255
222 236 255
222 236 255
222 236 255
222 236 255
222 236 255
222 236 255
222 236 255
222 236 255
222 236 255
222 236 255
222 236 255
222 236 255
222 236 255
222 236 255
222 236 255
222 236 255
222 236 255
222 236 255
222 236 255
222 236 255
222 236 255
222 236 255
222 236 255
222 236 255
222 236 255
222 236 255
222 236 255
222 236 255
222 236 255
222 236 255
222 236 255
222 236 255
222 236 255
222 236 255
222 236 255
222 236 255
222 236 255
222 236 255
222 236 255
222 236 255
222 236 255
222 236 255
222 236 255
222 236 255
222 236 255
222 236 255
222 236 255
222 236 255
222 236 255
222 236 255
222 236 255
222 236 255
222 236 255
222 236 255
222 236 255
222 236 255
222 236 255
222 236 255
222 236 255
222 236 255
222 236 255
222 236 255
222 236 255
222 236 255
222 236 255
222 236 255
222 236 255
222 236 255
222 236 255
222 236 255
222 236 255
222 236 255
222 236 255
222 236 255
222 236 255
222 236 255
222 236 255
222 236 255
222 236 255
222 236 255
222 236 255
222 236 255
222 236 255
222 236 255
222 236 255
222 236 255
222 236 255
222 236 255
222 236 255
222 236 255
222 236 255
222 236 255
222 236 255
222 236 255
222 236 255
222 236 255
222 236 255
222 236 255
222 236 255
222 236 255
222 236 255
222 236 255
222 236 255
222 236 255
222 236 255
222 236 255
222 236 255
222 236 255
222 236 255
222 236 255
222 236 255
222 236 255
222 236 255
222 236 255
222 236 255
222 236 255
222 236 255
222 236 255
222 236 255
222 236 255
222 236 255
222 236 255
222 236 255
222 236 255
222 236 255
222 236 255
222 236 255
222 236 255
222 236 255
222 236 255
222 236 255
222 236 255
222 236 255
222 236 255
222 236 255
222 236 255
222 236 255
222 236 255
222 236 255
222 236 255
222 236 255
222 236 255
222 236 255
222 236 255
222 236 255
222 236 255
222 236 255
222 236 255
222 236 255
222 236 255
222 236 255
222 236 255
222 236 255
222 236 255
222 236 255
222 236 255
222 236 255
222 236 255
222 236 255
222 236 255
222 236 255
222 236 255
222 236 255
222 236 255
222 236 255
222 236 255
222 236 255
222 236 255
222 236 255
222 236 255
222 236 255
222 236 255
222 236 255
222 236 255
222 236 255
222 236 255
222 236 255
222 236 255
222 236 255
222 236 255
222 236 255
222 236 255
222 236 255
222 236 255
222 236 255
222 236 255
222 236 255
222 236 255
222 236 255
222 236 255
222 236 255
222 236 255
222 236 255
222 236 255
222 236 255
222 236 255
222 236 255
222 236 255
222 236 255
222 236 255
222 236 255
222 236 255
222 236 255
222 236 255
222 236 255
222 236 255
222 236 255
222 236 255
222 236 255
222 236 255
222 236 255
222 236 255
222 236 255
222 236 255
222 236 255
222 236 255
222 236 255
222 236 255
222 236 255
222 236 255
222 236 255
222 236 255
222 236 255
222 236 255
222 236 255
222 236 255
222 236 255
222 236 255
222 236 255
222 236 255
222 236 255
222 236 255
222 236 255
222 236 255
222 236 255
222 236 255
222 236 255
222 236 255
222 236 255
222 236 255
222 236 255
222 236 255
222 236 255
222 236 255
222 236 255
222 236 255
222 236 255
222 236 255
222 236 255
222 236 255
222 236 255
222 236 255
222 236 255
222 236 255
222 236 255
222 236 255
222 236 255
222 236 255
222 236 255
222 236 255
222 236 255
222 236 255
222 236 255
222 236 255
222 236 255
222 236 255
222 236 255
222 236 255
222 236 255
222 236 255
222 236 255
222 236 255
222 236 255
222 236 255
222 236 255
222 236 255
222 236 255
222 236 255
222 236 255
222 236 255
222 236 255
222 236 255
222 236 255
222 236 255
222 236 255
222 236 255
222 236 255
222 236 255
222 236 255
222 236 255
222 236 255
222 236 255
222 236 255
222 236 255
222 236 255
222 236 255
222 236 255
222 236 255
222 236 255
222 236 255
222 236 255
222 236 255
222 236 255
222 236 255
222 236 255
222 236 255
222 236 255
222 236 255
222 236 255
222 236 255
222 236 255
222 236 255
222 236 255
222 236 255
222 236 255
222 236 255
222 236 255
222 236 255
222 236 255
222 236 255
222 236 255
222 236 255
222 236 255
222 236 255
222 236 255
222 236 255
222 236 255
222 236 255
222 236 255
222 236 255
222 236 255
222 236 255
222 236 255
222 236 255
222 236 255
222 236 255
222 236 255
222 236 255
222 236 255
222 236 255
222 236 255
222 236 255
222 236 255
222 236 255
222 236 255
222 236 255
222 236 255
222 236 255
222 236 255
222 236 255
222 236 255
222 236 255
222 236 255
222 236 255
222 236 255
222 236 255
222 236 255
222 236 255
222 236 255
222 236 255
222 236 255
222 236 255
222 236 255
222 236 255
222 236 255
222 236 255
222 236 255
222 236 255
222 236 255
222 236 255
222 236 255
222 236 255
222 236 255
222 236 255
222 236 255
222 236 255
222 236 255
222 236 255
222 236 255
222 236 255
222 236 255
222 236 255
222 236 255
222 236 255
222 236 255
222 236 255
222 236 255
222 236 255
222 236 255
222 236 255
222 236 255
222 236 255
222 236 255
222 236 255
222 236 255
222 236 255
222 236 255
222 236 255
222 236 255
222 236 255
222 236 255
222 236 255
222 236 255
222 236 255
222 236 255
222 236 255
222 236 255
222 236 255
222 236 255
222 236 255
222 236 255
222 236 255
222 236 255
222 236 255
222 236 255
222 236 255
222 236 255
222 236 255
222 236 255
222 236 255
222 236 255
222 236 255
222 236 255
222 236 255
222 236 255
222 236 255
222 236 255
222 236 255
222 236 255
222 236 255
222 236 255
222 236 255
222 236 255
222 236 255
222 236 255
222 236 255
222 236 255
222 236 255
222 236 255
222 236 255
222 236 255
222 236 255
222 236 255
222 236 255
222 236 255
222 236 255
222 236 255
222 236 255
222 236 255
222 236 255
222 236 255
222 236 255
222 236 255
222 236 255
222 236 255
222 236 255
222 236 255
222 236 255
222 236 255
222 236 255
222 236 255
222 236 255
222 236 255
222 236 255
222 236 255
222 236 255
222 236 255
222 236 255
222 236 255
222 236 255
222 236 255
222 236 255
222 236 255
222 236 255
222 236 255
222 236 255
222 236 255
222 236 255
222 236 255
222 236 255
222 236 255
222 236 255
222 236 255
222 236 255
222 236 255
222 236 255
222 236 255
222 236 255
222 236 255
222 236 255
222 236 255
222 236 255
222 236 255
222 236 255
222 236 255
222 236 255
222 236 255
222 236 255
222 236 255
222 236 255
222 236 255
222 236 255
222 236 255
222 236 255
222 236 255
222 236 255
222 236 255
222 236 255
222 236 255
222 236 255
222 236 255
222 236 255
222 236 255
222 236 255
222 236 255
222 236 255
222 236 255
222 236 255
222 236 255
222 236 255
222 236 255
222 236 255
222 236 255
222 236 255
222 236 255
222 236 255
222 236 255
222 236 255
222 236 255
222 236 255
222 236 255
222 236 255
222 236 255
222 236 255
222 236 255
222 236 255
222 236 255
222 236 255
222 236 255
222 236 255
222 236 255
222 236 255
222 236 255
222 236 255
222 236 255
222 236 255
222 236 255
222 236 255
222 236 255
222 236 255
222 236 255
222 236 255
222 236 255
222 236 255
222 236 255
222 236 255
222 236 255
222 236 255
222 236 255
222 236 255
222 236 255
222 236 255
222 236 255
222 236 255
222 236 255
222 236 255
222 236 255
222 236 255
222 236 255
222 236 255
222 236 255
222 236 255
222 236 255
222 236 255
222 236 255
222 236 255
222 236 255
222 236 255
222 236 255
222 236 255
222 236 255
222 236 255
222 236 255
222 236 255
222 236 255
222 236 255
222 236 255
222 236 255
222 236 255
222 236 255
222 236 255
222 236 255
222 236 255
222 236 255
222 236 255
222 236 255
222 236 255
222 236 255
222 236 255
222 236 255
222 236 255
222 236 255
222 236 255
222 236 255
222 236 255
222 236 255
222 236 255
222 236 255
222 236 255
222 236 255
222 236 255
222 236 255
222 236 255
222 236 255
222 236 255
222 236 255
222 236 255
222 236 255
222 236 255
222 236 255
222 236 255
222 236 255
222 236 255
222 236 255
222 236 255
222 236 255
222 236 255
222 236 255
222 236 255
222 236 255
222 236 255
222 236 255
222 236 255
222 236 255
222 236 255
222 236 255
222 236 255
222 236 255
222 236 255
222 236 255
222 236 255
222 236 255
222 236 255
222 236 255
222 236 255
222 236 255
222 236 255
222 236 255
222 236 255
222 236 255
222 236 255
222 236 255
222 236 255
222 236 255
222 236 255
222 236 255
222 236 255
222 236 255
222 236 255
222 236 255
222 236 255
222 236 255
222 236 255
222 236 255
222 236 255
222 236 255
222 236 255
222 236 255
222 236 255
222 236 255
222 236 255
222 236 255
222 236 255
222 236 255
222 236 255
222 236 255
222 236 255
222 236 255
222 236 255
222 236 255
222 236 255
222 236 255
222 236 255
222 236 255
222 236 255
222 236 255
222 236 255
222 236 255
222 236 255
222 236 255
222 236 255
222 236 255
222 236 255
222 236 255
222 236 255
222 236 255
222 236 255
222 236 255
222 236 255
222 236 255
222 236 255
222 236 255
222 236 255
222 236 255
222 236 255
222 236 255
222 236 255
222 236 255
222 236 255
222 236 255
222 236 255
222 236 255
222 236 255
222 236 255
222 236 255
222 236 255
222 236 255
222 236 255
222 236 255
222 236 255
222 236 255
222 236 255
222 236 255
222 236 255
222 236 255
222 236 255
222 236 255
222 236 255
222 236 255
222 236 255
222 236 255
222 236 255
222 236 255
222 236 255
222 236 255
222 236 255
222 236 255
222 236 255
222 236 255
222 236 255
222 236 255
222 236 255
222 236 255
222 236 255
222 236 255
222 236 255
222 236 255
222 236 255
222 236 255
222 236 255
222 236 255
222 236 255
222 236 255
222 236 255
222 236 255
222 236 255
222 236 255
222 236 255
222 236 255
222 236 255
222 236 255
222 236 255
222 236 255
222 236 255
222 236 255
222 236 255
222 236 255
222 236 255
222 236 255
222 236 255
222 236 255
222 236 255
222 236 255
222 236 255
222 236 255
222 236 255
222 236 255
222 236 255
222 236 255
222 236 255
222 236 255
222 236 255
222 236 255
222 236 255
222 236 255
222 236 255
222 236 255
222 236 255
222 236 255
222 236 255
222 236 255
222 236 255
222 236 255
222 236 255
222 236 255
222 236 255
222 236 255
222 236 255
222 236 255
222 236 255
222 236 255
222 236 255
222 236 255
222 236 255
222 236 255
222 236 255
222 236 255
222 236 255
222 236 255
222 236 255
222 236 255
222 236 255
222 236 255
222 236 255
222 236 255
222 236 255
222 236 255
222 236 255
222 236 255
222 236 255
222 236 255
222 236 255
222 236 255
222 236 255
222 236 255
222 236 255
222 236 255
222 236 255
222 236 255
222 236 255
222 236 255
222 236 255
222 236 255
222 236 255
222 236 255
222 236 255
222 236 255
222 236 255
222 236 255
222 236 255
222 236 255
222 236 255
222 236 255
222 236 255
222 236 255
222 236 255
222 236 255
222 236 255
222 236 255
222 236 255
222 236 255
222 236 255
222 236 255
222 236 255
222 236 255
222 236 255
222 236 255
222 236 255
222 236 255
222 236 255
222 236 255
222 236 255
222 236 255
222 236 255
222 236 255
222 236 255
222 236 255
222 236 255
222 236 255
222 236 255
222 236 255
222 236 255
222 236 255
222 236 255
222 236 255
222 236 255
222 236 255
222 236 255
222 236 255
222 236 255
222 236 255
222 236 255
222 236 255
222 236 255
222 236 255
222 236 255
222 236 255
222 236 255
222 236 255
222 236 255
222 236 255
222 236 255
222 236 255
222 236 255
222 236 255
222 236 255
222 236 255
222 236 255
222 236 255
222 236 255
222 236 255
222 236 255
222 236 255
222 236 255
222 236 255
222 236 255
222 236 255
222 236 255
222 236 255
222 236 255
222 236 255
222 236 255
222 236 255
222 236 255
222 236 255
222 236 255
222 236 255
222 236 255
222 236 255
222 236 255
222 236 255
222 236 255
222 236 255
222 236 255
222 236 255
222 236 255
222 236 255
222 236 255
222 236 255
222 236 255
222 236 255
222 236 255
222 236 255
222 236 255
222 236 255
222 236 255
222 236 255
222 236 255
222 236 255
222 236 255
222 236 255
222 236 255
222 236 255
222 236 255
222 236 255
222 236 255
222 236 255
222 236 255
222 236 255
222 236 255
222 236 255
222 236 255
222 236 255
222 236 255
222 236 255
222 236 255
222 236 255
222 236 255
222 236 255
222 236 255
222 236 255
222 236 255
222 236 255
222 236 255
222 236 255
222 236 255
222 236 255
222 236 255
222 236 255
222 236 255
222 236 255
222 236 255
222 236 255
222 236 255
222 236 255
222 236 255
222 236 255
222 236 255
222 236 255
222 236 255
222 236 255
222 236 255
222 236 255
222 236 255
222 236 255
222 236 255
222 236 255
222 236 255
222 236 255
222 236 255
222 236 255
222 236 255
222 236 255
222 236 255
222 236 255
222 236 255
222 236 255
222 236 255
222 236 255
222 236 255
222 236 255
222 236 255
222 236 255
222 236 255
222 236 255
222 236 255
222 236 255
222 236 255
222 236 255
222 236 255
222 236 255
222 236 255
222 236 255
222 236 255
222 236 255
222 236 255
222 236 255
222 236 255
222 236 255
222 236 255
222 236 255
222 236 255
222 236 255
222 236 255
222 236 255
222 236 255
222 236 255
222 236 255
222 236 255
222 236 255
222 236 255
222 236 255
222 236 255
222 236 255
222 236 255
222 236 255
222 236 255
222 236 255
222 236 255
222 236 255
222 236 255
222 236 255
222 236 255
222 236 255
222 236 255
222 236 255
222 236 255
222 236 255
222 236 255
222 236 255
222 236 255
222 236 255
222 236 255
222 236 255
222 236 255
222 236 255
222 236 255
222 236 255
222 236 255
222 236 255
222 236 255
222 236 255
222 236 255
222 236 255
222 236 255
222 236 255
222 236 255
222 236 255
222 236 255
222 236 255
222 236 255
222 236 255
222 236 255
222 236 255
222 236 255
222 236 255
222 236 255
222 236 255
222 236 255
222 236 255
222 236 255
222 236 255
222 236 255
222 236 255
222 236 255
222 236 255
222 236 255
222 236 255
222 236 255
222 236 255
222 236 255
222 236 255
222 236 255
222 236 255
222 236 255
222 236 255
222 236 255
222 236 255
222 236 255
222 236 255
222 236 255
222 236 255
222 236 255
222 236 255
222 236 255
222 236 255
222 236 255
222 236 255
222 236 255
222 236 255
222 236 255
222 236 255
222 236 255
222 236 255
222 236 255
222 236 255
222 236 255
222 236 255
222 236 255
222 236 255
222 236 255
222 236 255
222 236 255
222 236 255
222 236 255
222 236 255
222 236 255
222 236 255
222 236 255
222 236 255
222 236 255
222 236 255
222 236 255
222 236 255
222 236 255
222 236 255
222 236 255
222 236 255
222 236 255
222 236 255
222 236 255
222 236 255
222 236 255
222 236 255
222 236 255
222 236 255
222 236 255
222 236 255
222 236 255
222 236 255
222 236 255
222 236 255
222 236 255
222 236 255
222 236 255
222 236 255
222 236 255
222 236 255
222 236 255
222 236 255
222 236 255
222 236 255
222 236 255
222 236 255
222 236 255
222 236 255
222 236 255
222 236 255
222 236 255
222 236 255
222 236 255
222 236 255
222 236 255
222 236 255
222 236 255
222 236 255
222 236 255
222 236 255
222 236 255
222 236 255
222 236 255
222 236 255
222 236 255
222 236 255
222 236 255
222 236 255
222 236 255
222 236 255
222 236 255
222 236 255
222 236 255
222 236 255
222 236 255
222 236 255
222 236 255
222 236 255
222 236 255
222 236 255
222 236 255
222 236 255
222 236 255
222 236 255
222 236 255
222 236 255
222 236 255
222 236 255
222 236 255
222 236 255
222 236 255
222 236 255
222 236 255
222 236 255
222 236 255
222 236 255
222 236 255
222 236 255
222 236 255
222 236 255
222 236 255
222 236 255
222 236 255
222 236 255
222 236 255
222 236 255
222 236 255
222 236 255
222 236 255
222 236 255
222 236 255
222 236 255
222 236 255
222 236 255
222 236 255
222 236 255
222 236 255
222 236 255
222 236 255
222 236 255
222 236 255
222 236 255
222 236 255
222 236 255
222 236 255
222 236 255
222 236 255
222 236 255
222 236 255
222 236 255
222 236 255
222 236 255
222 236 255
222 236 255
222 236 255
222 236 255
222 236 255
222 236 255
222 236 255
222 236 255
222 236 255
222 236 255
222 236 255
222 236 255
222 236 255
222 236 255
222 236 255
222 236 255
222 236 255
222 236 255
222 236 255
222 236 255
222 236 255
222 236 255
222 236 255
222 236 255
222 236 255
222 236 255
222 236 255
222 236 255
222 236 255
222 236 255
222 236 255
222 236 255
222 236 255
222 236 255
222 236 255
222 236 255
222 236 255
222 236 255
222 236 255
222 236 255
222 236 255
222 236 255
222 236 255
222 236 255
222 236 255
222 236 255
222 236 255
222 236 255
222 236 255
222 236 255
222 236 255
222 236 255
222 236 255
222 236 255
222 236 255
222 236 255
222 236 255
222 236 255
222 236 255
222 236 255
222 236 255
222 236 255
222 236 255
222 236 255
222 236 255
222 236 255
222 236 255
222 236 255
222 236 255
222 236 255
222 236 255
222 236 255
222 236 255
222 236 255
222 236 255
222 236 255
222 236 255
222 236 255
222 236 255
222 236 255
222 236 255
222 236 255
222 236 255
222 236 255
222 236 255
222 236 255
222 236 255
222 236 255
222 236 255
222 236 255
222 236 255
222 236 255
222 236 255
222 236 255
222 236 255
222 236 255
222 236 255
222 236 255
222 236 255
222 236 255
222 236 255
222 236 255
222 236 255
222 236 255
222 236 255
222 236 255
222 236 255
222 236 255
222 236 255
222 236 255
222 236 255
222 236 255
222 236 255
222 236 255
222 236 255
222 236 255
222 236 255
222 236 255
222 236 255
222 236 255
222 236 255
222 236 255
222 236 255
222 236 255
222 236 255
222 236 255
222 236 255
222 236 255
222 236 255
222 236 255
222 236 255
222 236 255
222 236 255
222 236 255
222 236 255
222 236 255
222 236 255
222 236 255
222 236 255
222 236 255
222 236 255
222 236 255
222 236 255
222 236 255
222 236 255
222 236 255
222 236 255
222 236 255
222 236 255
222 236 255
222 236 255
222 236 255
222 236 255
222 236 255
222 236 255
222 236 255
222 236 255
222 236 255
222 236 255
222 236 255
222 236 255
222 236 255
222 236 255
222 236 255
222 236 255
222 236 255
222 236 255
222 236 255
222 236 255
222 236 255
222 236 255
222 236 255
222 236 255
222 236 255
222 236 255
222 236 255
222 236 255
222 236 255
222 236 255
222 236 255
222 236 255
222 236 255
222 236 255
222 236 255
222 236 255
222 236 255
222 236 255
222 236 255
222 236 255
222 236 255
222 236 255
222 236 255
222 236 255
222 236 255
222 236 255
222 236 255
222 236 255
222 236 255
222 236 255
222 236 255
222 236 255
222 236 255
222 236 255
222 236 255
222 236 255
222 236 255
222 236 255
222 236 255
222 236 255
222 236 255
222 236 255
222 236 255
222 236 255
222 236 255
222 236 255
222 236 255
222 236 255
222 236 255
222 236 255
222 236 255
222 236 255
222 236 255
222 236 255
222 236 255
222 236 255
222 236 255
222 236 255
222 236 255
222 236 255
222 236 255
222 236 255
222 236 255
222 236 255
222 236 255
222 236 255
222 236 255
222 236 255
222 236 255
222 236 255
222 236 255
222 236 255
222 236 255
222 236 255
222 236 255
222 236 255
222 236 255
222 236 255
222 236 255
222 236 255
222 236 255
222 236 255
222 236 255
222 236 255
222 236 255
222 236 255
222 236 255
222 236 255
222 236 255
222 236 255
222 236 255
222 236 255
222 236 255
222 236 255
222 236 255
222 236 255
222 236 255
222 236 255
222 236 255
222 236 255
222 236 255
222 236 255
222 236 255
222 236 255
222 236 255
222 236 255
222 236 255
222 236 255
222 236 255
222 236 255
222 236 255
222 236 255
222 236 255
222 236 255
222 236 255
222 236 255
222 236 255
222 236 255
222 236 255
222 236 255
222 236 255
222 236 255
222 236 255
222 236 255
222 236 255
222 236 255
222 236 255
222 236 255
222 236 255
222 236 255
222 236 255
222 236 255
222 236 255
222 236 255
222 236 255
222 236 255
222 236 255
222 236 255
222 236 255
222 236 255
222 236 255
222 236 255
222 236 255
222 236 255
222 236 255
222 236 255
222 236 255
222 236 255
222 236 255
222 236 255
222 236 255
222 236 255
222 236 255
222 236 255
222 236 255
222 236 255
222 236 255
222 236 255
222 236 255
222 236 255
222 236 255
222 236 255
222 236 255
222 236 255
222 236 255
222 236 255
222 236 255
222 236 255
222 236 255
222 236 255
222 236 255
222 236 255
222 236 255
222 236 255
222 236 255
222 236 255
222 236 255
222 236 255
222 236 255
222 236 255
222 236 255
222 236 255
222 236 255
222 236 255
222 236 255
222 236 255
222 236 255
222 236 255
222 236 255
222 236 255
222 236 255
222 236 255
222 236 255
222 236 255
222 236 255
222 236 255
222 236 255
222 236 255
222 236 255
222 236 255
222 236 255
222 236 255
222 236 255
222 236 255
222 236 255
222 236 255
222 236 255
222 236 255
222 236 255
222 236 255
222 236 255
222 236 255
222 236 255
222 236 255
222 236 255
222 236 255
222 236 255
222 236 255
222 236 255
222 236 255
222 236 255
222 236 255
222 236 255
222 236 255
222 236 255
222 236 255
222 236 255
222 236 255
222 236 255
222 236 255
222 236 255
222 236 255
222 236 255
222 236 255
222 236 255
222 236 255
222 236 255
222 236 255
222 236 255
222 236 255
222 236 255
222 236 255
222 236 255
222 236 255
222 236 255
223 236 255
223 236 255
223 236 255
223 236 255
223 236 255
223 236 255
223 236 255
223 236 255
223 236 255
223 236 255
223 236 255
223 236 255
223 236 255
223 236 255
223 236 255
223 236 255
223 236 255
223 236 255
223 236 255
223 236 255
223 236 255
223 236 255
223 236 255
223 236 255
223 236 255
223 236 255
223 236 255
223 236 255
223 236 255
223 236 255
223 236 255
223 236 255
223 236 255
223 236 255
223 236 255
223 236 255
223 236 255
223 236 255
223 236 255
223 236 255
223 236 255
223 236 255
223 236 255
223 236 255
223 236 255
223 236 255
223 236 255
223 236 255
223 236 255
223 236 255
223 236 255
223 236 255
223 236 255
223 236 255
223 236 255
223 236 255
223 236 255
223 236 255
223 236 255
223 236 255
223 236 255
223 236 255
223 236 255
223 236 255
223 236 255
223 236 255
223 236 255
223 236 255
223 236 255
223 236 255
223 236 255
223 236 255
223 236 255
223 236 255
223 236 255
223 236 255
223 236 255
223 236 255
223 236 255
223 236 255
223 236 255
223 236 255
223 236 255
223 236 255
223 236 255
223 236 255
223 236 255
223 236 255
223 236 255
223 236 255
223 236 255
223 236 255
223 236 255
223 236 255
223 236 255
223 236 255
223 236 255
223 236 255
223 236 255
223 236 255
223 236 255
223 236 255
223 236 255
223 236 255
223 236 255
223 236 255
223 236 255
223 236 255
223 236 255
223 236 255
223 236 255
223 236 255
223 236 255
223 236 255
223 236 255
223 236 255
223 236 255
223 236 255
223 236 255
223 236 255
223 236 255
223 236 255
223 236 255
223 236 255
223 236 255
223 236 255
223 236 255
223 236 255
223 236 255
223 236 255
223 236 255
223 236 255
223 236 255
223 236 255
223 236 255
223 236 255
223 236 255
223 236 255
223 236 255
223 236 255
223 236 255
223 236 255
223 236 255
223 236 255
223 236 255
223 236 255
223 236 255
223 236 255
223 236 255
223 236 255
223 236 255
223 236 255
223 236 255
223 236 255
223 236 255
223 236 255
223 236 255
223 236 255
223 236 255
223 236 255
222 236 255
222 236 255
222 236 255
222 236 255
222 236 255
222 236 255
222 236 255
222 236 255
222 236 255
222 236 255
222 236 255
222 236 255
222 236 255
222 236 255
222 236 255
222 236 255
222 236 255
222 236 255
222 236 255
222 236 255
222 236 255
222 236 255
222 236 255
222 236 255
222 236 255
222 236 255
222 236 255
222 236 255
222 236 255
222 236 255
222 236 255
222 236 255
222 236 255
222 236 255
222 236 255
222 236 255
222 236 255
222 236 255
222 236 255
222 236 255
222 236 255
222 236 255
222 236 255
222 236 255
222 236 255
222 236 255
222 236 255
222 236 255
222 236 255
222 236 255
222 236 255
222 236 255
222 236 255
222 236 255
222 236 255
222 236 255
222 236 255
222 236 255
222 236 255
222 236 255
222 236 255
222 236 255
222 236 255
222 236 255
222 236 255
222 236 255
222 236 255
222 236 255
222 236 255
222 236 255
222 236 255
222 236 255
222 236 255
222 236 255
222 236 255
222 236 255
222 236 255
222 236 255
222 236 255
222 236 255
222 236 255
222 236 255
222 236 255
222 236 255
222 236 255
222 236 255
222 236 255
222 236 255
222 236 255
222 236 255
222 236 255
222 236 255
222 236 255
222 236 255
222 236 255
222 236 255
222 236 255
222 236 255
222 236 255
222 236 255
222 236 255
222 236 255
222 236 255
222 236 255
222 236 255
222 236 255
222 236 255
222 236 255
222 236 255
222 236 255
222 236 255
222 236 255
222 236 255
222 236 255
222 236 255
222 236 255
222 236 255
222 236 255
222 236 255
222 236 255
222 236 255
222 236 255
222 236 255
222 236 255
222 236 255
222 236 255
222 236 255
222 236 255
222 236 255
222 236 255
222 236 255
222 236 255
222 236 255
222 236 255
222 236 255
222 236 255
222 236 255
222 236 255
222 236 255
222 236 255
222 236 255
222 236 255
222 236 255
222 236 255
222 236 255
222 236 255
222 236 255
222 236 255
222 236 255
222 236 255
222 236 255
222 236 255
222 236 255
222 236 255
222 236 255
222 236 255
222 236 255
222 236 255
222 236 255
222 236 255
222 236 255
222 236 255
222 236 255
222 236 255
222 236 255
222 236 255
222 236 255
222 236 255
222 236 255
222 236 255
222 236 255
222 236 255
222 236 255
222 236 255
222 236 255
222 236 255
222 236 255
222 236 255
222 236 255
222 236 255
222 236 255
222 236 255
222 236 255
222 236 255
222 236 255
222 236 255
222 236 255
222 236 255
222 236 255
222 236 255
222 236 255
222 236 255
222 236 255
222 236 255
222 236 255
222 236 255
222 236 255
222 236 255
222 236 255
222 236 255
222 236 255
222 236 255
223 236 255
223 236 255
223 236 255
223 236 255
223 236 255
223 236 255
223 236 255
223 236 255
223 236 255
223 236 255
223 236 255
223 236 255
223 236 255
223 236 255
223 236 255
223 236 255
223 236 255
223 236 255
223 236 255
223 236 255
223 236 255
223 236 255
223 236 255
223 236 255
223 236 255
223 236 255
223 236 255
223 236 255
223 236 255
223 236 255
223 236 255
223 236 255
223 236 255
223 236 255
223 236 255
223 236 255
223 236 255
223 236 255
223 236 255
223 236 255
223 236 255
223 236 255
223 236 255
223 236 255
223 236 255
223 236 255
223 236 255
223 236 255
223 236 255
223 236 255
223 236 255
223 236 255
223 236 255
223 236 255
223 236 255
223 236 255
223 236 255
223 236 255
223 236 255
223 236 255
223 236 255
223 236 255
223 236 255
223 236 255
223 236 255
223 236 255
223 236 255
223 236 255
223 236 255
223 236 255
223 236 255
223 236 255
223 236 255
223 236 255
223 236 255
223 236 255
223 236 255
223 236 255
223 236 255
223 236 255
223 236 255
223 236 255
223 236 255
223 236 255
223 236 255
223 236 255
223 236 255
223 236 255
223 236 255
223 236 255
223 236 255
223 236 255
223 236 255
223 236 255
223 236 255
223 236 255
223 236 255
223 236 255
223 236 255
223 236 255
223 236 255
223 236 255
223 236 255
223 236 255
223 236 255
223 237 255
223 237 255
223 237 255
223 236 255
223 236 255
223 237 255
223 236 255
223 237 255
223 237 255
223 237 255
223 237 255
223 237 255
223 237 255
223 237 255
223 237 255
223 237 255
223 237 255
223 237 255
223 237 255
223 237 255
223 237 255
223 236 255
223 237 255
223 237 255
223 236 255
223 236 255
223 237 255
223 236 255
223 236 255
223 236 255
223 236 255
223 236 255
223 236 255
223 236 255
223 236 255
223 236 255
223 236 255
223 236 255
223 236 255
223 236 255
223 236 255
223 236 255
223 236 255
223 236 255
223 236 255
223 236 255
223 236 255
223 236 255
223 236 255
223 236 255
223 236 255
223 236 255
223 236 255
223 236 255
223 236 255
223 236 255
223 236 255
223 236 255
223 236 255
223 236 255
223 236 255
223 236 255
223 236 255
223 236 255
223 236 255
223 236 255
223 236 255
223 236 255
223 236 255
223 236 255
223 236 255
223 236 255
223 236 255
223 236 255
223 236 255
223 236 255
223 236 255
223 236 255
223 236 255
223 236 255
223 236 255
223 236 255
223 236 255
223 236 255
223 236 255
223 236 255
223 236 255
223 236 255
223 236 255
223 236 255
223 236 255
223 236 255
223 236 255
223 236 255
223 236 255
223 236 255
223 236 255
223 236 255
223 236 255
223 236 255
223 236 255
223 236 255
223 236 255
223 236 255
223 236 255
223 236 255
223 236 255
223 236 255
223 236 255
223 236 255
223 236 255
223 236 255
223 236 255
223 236 255
223 236 255
223 236 255
223 236 255
223 236 255
223 236 255
223 236 255
223 236 255
223 236 255
223 236 255
223 236 255
223 236 255
223 236 255
223 236 255
223 236 255
223 236 255
223 236 255
223 236 255
223 236 255
222 236 255
222 236 255
222 236 255
222 236 255
222 236 255
222 236 255
222 236 255
222 236 255
222 236 255
222 236 255
222 236 255
222 236 255
222 236 255
222 236 255
222 236 255
222 236 255
222 236 255
222 236 255
222 236 255
222 236 255
222 236 255
222 236 255
222 236 255
222 236 255
222 236 255
222 236 255
222 236 255
222 236 255
222 236 255
222 236 255
222 236 255
222 236 255
222 236 255
222 236 255
222 236 255
222 236 255
222 236 255
222 236 255
222 236 255
222 236 255
222 236 255
222 236 255
222 236 255
222 236 255
222 236 255
222 236 255
222 236 255
222 236 255
222 236 255
222 236 255
222 236 255
222 236 255
222 236 255
222 236 255
222 236 255
222 236 255
222 236 255
222 236 255
222 236 255
222 236 255
222 236 255
222 236 255
222 236 255
222 236 255
222 236 255
222 236 255
222 236 255
222 236 255
222 236 255
222 236 255
222 236 255
222 236 255
222 236 255
222 236 255
222 236 255
222 236 255
222 236 255
222 236 255
222 236 255
222 236 255
222 236 255
222 236 255
222 236 255
222 236 255
222 236 255
222 236 255
222 236 255
222 236 255
222 236 255
222 236 255
222 236 255
222 236 255
222 236 255
222 236 255
222 236 255
222 236 255
222 236 255
222 236 255
222 236 255
222 236 255
222 236 255
222 236 255
222 236 255
222 236 255
222 236 255
222 236 255
222 236 255
222 236 255
222 236 255
222 236 255
222 236 255
222 236 255
222 236 255
222 236 255
222 236 255
222 236 255
222 236 255
222 236 255
222 236 255
222 236 255
222 236 255
222 236 255
222 236 255
222 236 255
222 236 255
222 236 255
222 236 255
222 236 255
223 236 255
223 236 255
223 236 255
223 236 255
223 236 255
223 236 255
223 236 255
223 236 255
223 236 255
223 236 255
223 236 255
223 236 255
223 236 255
223 236 255
223 236 255
223 236 255
223 236 255
223 236 255
223 236 255
223 236 255
223 236 255
223 236 255
223 236 255
223 236 255
223 236 255
223 236 255
223 236 255
223 236 255
223 236 255
223 236 255
223 236 255
223 236 255
223 236 255
223 236 255
223 236 255
223 236 255
223 236 255
223 236 255
223 236 255
223 236 255
223 236 255
223 236 255
223 236 255
223 236 255
223 236 255
223 236 255
223 236 255
223 236 255
223 236 255
223 236 255
223 236 255
223 236 255
223 236 255
223 236 255
223 236 255
223 236 255
223 236 255
223 236 255
223 236 255
223 236 255
223 236 255
223 236 255
223 236 255
223 236 255
223 236 255
223 236 255
223 236 255
223 236 255
223 236 255
223 236 255
223 236 255
223 236 255
223 236 255
223 236 255
223 236 255
223 236 255
223 236 255
223 236 255
223 236 255
223 236 255
223 236 255
223 236 255
223 237 255
223 237 255
223 237 255
223 237 255
223 237 255
223 237 255
223 237 255
223 237 255
223 237 255
223 237 255
223 237 255
223 237 255
223 237 255
223 237 255
223 237 255
223 237 255
223 237 255
223 237 255
223 237 255
223 237 255
223 237 255
223 237 255
223 237 255
223 237 255
223 237 255
223 237 255
223 237 255
223 237 255
223 237 255
223 237 255
223 237 255
223 237 255
223 237 255
223 237 255
223 237 255
223 237 255
223 237 255
223 237 255
223 237 255
223 237 255
223 237 255
223 237 255
223 237 255
223 237 255
223 237 255
223 237 255
223 237 255
223 237 255
223 237 255
223 237 255
223 237 255
223 237 255
223 237 255
223 237 255
223 237 255
223 237 255
223 237 255
223 237 255
223 237 255
223 237 255
223 237 255
223 237 255
223 237 255
223 237 255
223 237 255
223 237 255
223 237 255
223 237 255
223 237 255
223 237 255
223 237 255
223 237 255
223 237 255
223 237 255
223 237 255
223 237 255
223 237 255
223 237 255
223 237 255
223 237 255
223 237 255
223 237 255
223 237 255
223 237 255
223 237 255
223 237 255
223 237 255
223 237 255
223 237 255
223 237 255
223 237 255
223 237 255
223 237 255
223 237 255
223 237 255
223 237 255
223 237 255
223 237 255
223 237 255
223 237 255
223 237 255
223 237 255
223 237 255
223 237 255
223 237 255
223 237 255
223 237 255
223 237 255
223 237 255
223 237 255
223 237 255
223 237 255
223 237 255
223 237 255
223 237 255
223 237 255
223 237 255
223 237 255
223 237 255
223 237 255
223 237 255
223 237 255
223 237 255
223 237 255
223 237 255
223 237 255
223 237 255
223 237 255
223 237 255
223 237 255
223 237 255
223 237 255
223 237 255
223 237 255
223 237 255
223 237 255
223 237 255
223 237 255
223 237 255
223 237 255
223 237 255
223 237 255
223 237 255
223 236 255
223 236 255
223 236 255
223 236 255
223 236 255
223 236 255
223 236 255
223 236 255
223 236 255
223 236 255
223 236 255
223 236 255
223 236 255
223 236 255
223 236 255
223 236 255
223 236 255
223 236 255
223 236 255
223 236 255
223 236 255
223 236 255
223 236 255
223 236 255
223 236 255
223 236 255
223 236 255
223 236 255
223 236 255
223 236 255
223 236 255
223 236 255
223 236 255
223 236 255
223 236 255
223 236 255
223 236 255
223 236 255
223 236 255
223 236 255
223 236 255
223 236 255
223 236 255
223 236 255
223 236 255
223 236 255
223 236 255
223 236 255
223 236 255
223 236 255
223 236 255
223 236 255
223 236 255
223 236 255
223 236 255
223 236 255
223 236 255
223 236 255
223 236 255
223 236 255
223 236 255
223 236 255
223 236 255
223 236 255
223 236 255
223 236 255
223 236 255
223 236 255
223 236 255
223 236 255
223 236 255
223 236 255
223 236 255
223 236 255
223 236 255
223 236 255
223 236 255
223 236 255
223 236 255
223 236 255
222 236 255
222 236 255
222 236 255
222 236 255
222 236 255
222 236 255
222 236 255
222 236 255
222 236 255
222 236 255
222 236 255
222 236 255
222 236 255
222 236 255
222 236 255
222 236 255
222 236 255
222 236 255
222 236 255
222 236 255
222 236 255
222 236 255
222 236 255
222 236 255
222 236 255
222 236 255
222 236 255
222 236 255
222 236 255
222 236 255
222 236 255
222 236 255
222 236 255
222 236 255
222 236 255
222 236 255
222 236 255
222 236 255
222 236 255
222 236 255
222 236 255
222 236 255
222 236 255
222 236 255
222 236 255
222 236 255
222 236 255
222 236 255
222 236 255
222 236 255
222 236 255
222 236 255
222 236 255
222 236 255
222 236 255
222 236 255
222 236 255
222 236 255
222 236 255
222 236 255
222 236 255
222 236 255
222 236 255
222 236 255
222 236 255
222 236 255
223 236 255
223 236 255
223 236 255
223 236 255
223 236 255
223 236 255
223 236 255
223 236 255
223 236 255
223 236 255
223 236 255
223 236 255
223 236 255
223 236 255
223 236 255
223 236 255
223 236 255
223 236 255
223 236 255
223 236 255
223 236 255
223 236 255
223 236 255
223 236 255
223 236 255
223 236 255
223 236 255
223 236 255
223 236 255
223 236 255
223 236 255
223 236 255
223 236 255
223 236 255
223 236 255
223 236 255
223 236 255
223 236 255
223 236 255
223 236 255
223 236 255
223 236 255
223 236 255
223 236 255
223 236 255
223 236 255
223 236 255
223 236 255
223 236 255
223 236 255
223 236 255
223 236 255
223 236 255
223 236 255
223 236 255
223 236 255
223 236 255
223 236 255
223 236 255
223 236 255
223 236 255
223 236 255
223 236 255
223 236 255
223 236 255
223 236 255
223 236 255
223 236 255
223 236 255
223 236 255
223 236 255
223 236 255
223 236 255
223 236 255
223 236 255
223 236 255
223 236 255
223 236 255
223 237 255
223 237 255
223 237 255
223 237 255
223 237 255
223 237 255
223 237 255
223 237 255
223 237 255
223 237 255
223 237 255
223 237 255
223 237 255
223 237 255
223 237 255
223 237 255
223 237 255
223 237 255
223 237 255
223 237 255
223 237 255
223 237 255
223 237 255
223 237 255
223 237 255
223 237 255
223 237 255
223 237 255
223 237 255
223 237 255
223 237 255
223 237 255
223 237 255
223 237 255
223 237 255
223 237 255
223 237 255
223 237 255
223 237 255
223 237 255
223 237 255
223 237 255
223 237 255
223 237 255
223 237 255
223 237 255
223 237 255
223 237 255
223 237 255
223 237 255
223 237 255
223 237 255
223 237 255
223 237 255
223 237 255
223 237 255
223 237 255
223 237 255
223 237 255
223 237 255
223 237 255
223 237 255
223 237 255
223 237 255
223 237 255
223 237 255
223 237 255
223 237 255
223 237 255
223 237 255
223 237 255
223 237 255
223 237 255
223 237 255
223 237 255
223 237 255
223 237 255
223 237 255
223 237 255
223 237 255
223 237 255
223 237 255
223 237 255
223 237 255
223 237 255
223 237 255
223 237 255
223 237 255
223 237 255
223 237 255
223 237 255
223 237 255
223 237 255
223 237 255
223 237 255
223 237 255
223 237 255
223 237 255
223 237 255
223 237 255
223 237 255
223 237 255
223 237 255
223 237 255
223 237 255
223 237 255
223 237 255
223 237 255
223 237 255
223 237 255
223 237 255
223 237 255
223 237 255
223 237 255
223 237 255
223 237 255
223 237 255
223 237 255
223 237 255
223 237 255
223 237 255
223 237 255
223 237 255
223 237 255
223 237 255
223 237 255
223 237 255
223 237 255
223 237 255
223 237 255
223 237 255
223 237 255
223 237 255
223 237 255
223 237 255
223 237 255
223 237 255
223 237 255
223 237 255
223 237 255
223 237 255
223 237 255
223 237 255
223 237 255
223 237 255
223 237 255
223 237 255
223 237 255
223 237 255
223 237 255
223 237 255
223 237 255
223 237 255
223 237 255
223 237 255
223 237 255
223 237 255
223 237 255
223 237 255
223 237 255
223 237 255
223 237 255
223 237 255
223 237 255
223 237 255
223 237 255
223 237 255
223 237 255
223 237 255
223 237 255
223 237 255
223 237 255
223 237 255
223 237 255
223 237 255
223 237 255
223 237 255
223 237 255
223 237 255
223 237 255
223 237 255
223 237 255
223 237 255
223 237 255
223 237 255
223 237 255
223 237 255
223 237 255
223 237 255
223 237 255
223 237 255
223 237 255
223 237 255
223 237 255
223 237 255
223 237 255
223 237 255
223 237 255
223 237 255
223 237 255
223 237 255
223 237 255
223 237 255
223 237 255
223 237 255
223 237 255
223 237 255
223 237 255
223 236 255
223 236 255
223 236 255
223 236 255
223 236 255
223 236 255
223 236 255
223 236 255
223 236 255
223 236 255
223 236 255
223 236 255
223 236 255
223 236 255
223 236 255
223 236 255
223 236 255
223 236 255
223 236 255
223 236 255
223 236 255
223 236 255
223 236 255
223 236 255
223 236 255
223 236 255
223 236 255
223 236 255
223 236 255
223 236 255
223 236 255
223 236 255
223 236 255
223 236 255
223 236 255
223 236 255
223 236 255
223 236 255
223 236 255
223 236 255
223 236 255
223 236 255
223 236 255
223 236 255
223 236 255
223 236 255
223 236 255
223 236 255
223 236 255
223 236 255
223 236 255
223 236 255
223 236 255
223 236 255
223 236 255
223 236 255
223 236 255
223 236 255
223 236 255
223 236 255
223 236 255
223 236 255
223 236 255
223 236 255
223 236 255
223 236 255
223 236 255
223 236 255
223 236 255
223 236 255
223 236 255
223 236 255
223 236 255
223 236 255
223 236 255
223 236 255
223 236 255
223 236 255
223 236 255
222 236 255
222 236 255
222 236 255
222 236 255
222 236 255
222 236 255
222 236 255
222 236 255
222 236 255
222 236 255
222 236 255
222 236 255
222 236 255
222 236 255
222 236 255
222 236 255
222 236 255
223 236 255
223 236 255
223 236 255
223 236 255
223 236 255
223 236 255
223 236 255
223 236 255
223 236 255
223 236 255
223 236 255
223 236 255
223 236 255
223 236 255
223 236 255
223 236 255
223 236 255
223 236 255
223 236 255
223 236 255
223 236 255
223 236 255
223 236 255
223 236 255
223 236 255
223 236 255
223 236 255
223 236 255
223 236 255
223 236 255
223 236 255
223 236 255
223 236 255
223 236 255
223 236 255
223 236 255
223 236 255
223 236 255
223 236 255
223 236 255
223 236 255
223 236 255
223 236 255
223 236 255
223 236 255
223 236 255
223 236 255
223 236 255
223 236 255
223 236 255
223 236 255
223 236 255
223 236 255
223 236 255
223 236 255
223 236 255
223 236 255
223 236 255
223 236 255
223 236 255
223 236 255
223 236 255
223 236 255
223 236 255
223 236 255
223 236 255
223 236 255
223 236 255
223 236 255
223 236 255
223 237 255
223 237 255
223 237 255
223 237 255
223 237 255
223 237 255
223 237 255
223 237 255
223 237 255
223 237 255
223 237 255
223 237 255
223 237 255
223 237 255
223 237 255
223 237 255
223 237 255
223 237 255
223 237 255
223 237 255
223 237 255
223 237 255
223 237 255
223 237 255
223 237 255
223 237 255
223 237 255
223 237 255
223 237 255
223 237 255
223 237 255
223 237 255
223 237 255
223 237 255
223 237 255
223 237 255
223 237 255
223 237 255
223 237 255
223 237 255
223 237 255
223 237 255
223 237 255
223 237 255
223 237 255
223 237 255
223 237 255
223 237 255
223 237 255
223 237 255
223 237 255
223 237 255
223 237 255
223 237 255
223 237 255
223 237 255
223 237 255
223 237 255
223 237 255
223 237 255
223 237 255
223 237 255
223 237 255
223 237 255
223 237 255
223 237 255
223 237 255
223 237 255
223 237 255
223 237 255
223 237 255
223 237 255
223 237 255
223 237 255
223 237 255
223 237 255
223 237 255
223 237 255
223 237 255
223 237 255
223 237 255
223 237 255
224 237 255
224 237 255
224 237 255
224 237 255
224 237 255
224 237 255
224 237 255
224 237 255
224 237 255
224 237 255
224 237 255
224 237 255
224 237 255
224 237 255
224 237 255
224 237 255
224 237 255
224 237 255
224 237 255
224 237 255
224 237 255
224 237 255
224 237 255
224 237 255
224 237 255
224 237 255
224 237 255
224 237 255
224 237 255
224 237 255
224 237 255
224 237 255
224 237 255
224 237 255
224 237 255
224 237 255
224 237 255
224 237 255
224 237 255
224 237 255
224 237 255
224 237 255
224 237 255
224 237 255
224 237 255
224 237 255
224 237 255
224 237 255
224 237 255
224 237 255
224 237 255
224 237 255
224 237 255
224 237 255
224 237 255
224 237 255
224 237 255
224 237 255
224 237 255
224 237 255
224 237 255
224 237 255
224 237 255
224 237 255
224 237 255
224 237 255
224 237 255
224 237 255
224 237 255
224 237 255
224 237 255
224 237 255
224 237 255
224 237 255
224 237 255
224 237 255
224 237 255
224 237 255
224 237 255
224 237 255
224 237 255
224 237 255
224 237 255
224 237 255
224 237 255
224 237 255
224 237 255
224 237 255
224 237 255
224 237 255
224 237 255
224 237 255
224 237 255
224 237 255
224 237 255
224 237 255
224 237 255
223 237 255
223 237 255
223 237 255
223 237 255
223 237 255
223 237 255
223 237 255
223 237 255
223 237 255
223 237 255
223 237 255
223 237 255
223 237 255
223 237 255
223 237 255
223 237 255
223 237 255
223 237 255
223 237 255
223 237 255
223 237 255
223 237 255
223 237 255
223 237 255
223 237 255
223 237 255
223 237 255
223 237 255
223 237 255
223 237 255
223 237 255
223 237 255
223 237 255
223 237 255
223 237 255
223 237 255
223 237 255
223 237 255
223 237 255
223 237 255
223 237 255
223 237 255
223 237 255
223 237 255
223 237 255
223 237 255
223 237 255
223 237 255
223 237 255
223 237 255
223 237 255
223 237 255
223 237 255
223 237 255
223 237 255
223 237 255
223 237 255
223 237 255
223 237 255
223 237 255
223 237 255
223 237 255
223 237 255
223 237 255
223 237 255
223 237 255
223 237 255
223 237 255
223 237 255
223 237 255
223 237 255
223 237 255
223 237 255
223 237 255
223 237 255
223 237 255
223 237 255
223 237 255
223 237 255
223 237 255
223 237 255
223 237 255
223 236 255
223 236 255
223 236 255
223 236 255
223 236 255
223 236 255
223 236 255
223 236 255
223 236 255
223 236 255
223 236 255
223 236 255
223 236 255
223 236 255
223 236 255
223 236 255
223 236 255
223 236 255
223 236 255
223 236 255
223 236 255
223 236 255
223 236 255
223 236 255
223 236 255
223 236 255
223 236 255
223 236 255
223 236 255
223 236 255
223 236 255
223 236 255
223 236 255
223 236 255
223 236 255
223 236 255
223 236 255
223 236 255
223 236 255
223 236 255
223 236 255
223 236 255
223 236 255
223 236 255
223 236 255
223 236 255
223 236 255
223 236 255
223 236 255
223 236 255
223 236 255
223 236 255
223 236 255
223 236 255
223 236 255
223 236 255
223 236 255
223 236 255
223 236 255
223 236 255
223 236 255
223 236 255
223 236 255
223 236 255
223 236 255
223 236 255
223 236 255
223 236 255
223 236 255
223 236 255
223 236 255
223 236 255
223 236 255
223 236 255
223 236 255
223 236 255
223 236 255
223 236 255
223 236 255
223 236 255
223 236 255
223 236 255
223 236 255
223 236 255
223 236 255
223 236 255
223 236 255
223 236 255
223 236 255
223 236 255
223 236 255
223 236 255
223 236 255
223 236 255
223 236 255
223 236 255
223 236 255
223 236 255
223 236 255
223 236 255
223 236 255
223 236 255
223 236 255
223 236 255
223 236 255
223 236 255
223 236 255
223 236 255
223 236 255
223 236 255
223 236 255
223 236 255
223 236 255
223 236 255
223 236 255
223 237 255
223 237 255
223 237 255
223 237 255
223 237 255
223 237 255
223 237 255
223 237 255
223 237 255
223 237 255
223 237 255
223 237 255
223 237 255
223 237 255
223 237 255
223 237 255
223 237 255
223 237 255
223 237 255
223 237 255
223 237 255
223 237 255
223 237 255
223 237 255
223 237 255
223 237 255
223 237 255
223 237 255
223 237 255
223 237 255
223 237 255
223 237 255
223 237 255
223 237 255
223 237 255
223 237 255
223 237 255
223 237 255
223 237 255
223 237 255
223 237 255
223 237 255
223 237 255
223 237 255
223 237 255
223 237 255
223 237 255
223 237 255
223 237 255
223 237 255
223 237 255
223 237 255
223 237 255
223 237 255
223 237 255
223 237 255
223 237 255
223 237 255
223 237 255
223 237 255
223 237 255
223 237 255
223 237 255
223 237 255
223 237 255
223 237 255
223 237 255
223 237 255
223 237 255
223 237 255
223 237 255
223 237 255
223 237 255
223 237 255
223 237 255
224 237 255
224 237 255
224 237 255
224 237 255
224 237 255
224 237 255
224 237 255
224 237 255
224 237 255
224 237 255
224 237 255
224 237 255
224 237 255
224 237 255
224 237 255
224 237 255
224 237 255
224 237 255
224 237 255
224 237 255
224 237 255
224 237 255
224 237 255
224 237 255
224 237 255
224 237 255
224 237 255
224 237 255
224 237 255
224 237 255
224 237 255
224 237 255
224 237 255
224 237 255
224 237 255
224 237 255
224 237 255
224 237 255
224 237 255
224 237 255
224 237 255
224 237 255
224 237 255
224 237 255
224 237 255
224 237 255
224 237 255
224 237 255
224 237 255
224 237 255
224 237 255
224 237 255
224 237 255
224 237 255
224 237 255
224 237 255
224 237 255
224 237 255
224 237 255
224 237 255
224 237 255
224 237 255
224 237 255
224 237 255
224 237 255
224 237 255
224 237 255
224 237 255
224 237 255
224 237 255
224 237 255
224 237 255
224 237 255
224 237 255
224 237 255
224 237 255
224 237 255
224 237 255
224 237 255
224 237 255
224 237 255
224 237 255
224 237 255
224 237 255
224 237 255
224 237 255
224 237 255
224 237 255
224 237 255
224 237 255
224 237 255
224 237 255
224 237 255
224 237 255
224 237 255
224 237 255
224 237 255
224 237 255
224 237 255
224 237 255
224 237 255
224 237 255
224 237 255
224 237 255
224 237 255
224 237 255
224 237 255
224 237 255
224 237 255
224 237 255
224 237 255
224 237 255
224 237 255
224 237 255
224 237 255
224 237 255
224 237 255
224 237 255
224 237 255
224 237 255
224 237 255
224 237 255
224 237 255
224 237 255
224 237 255
224 237 255
224 237 255
224 237 255
224 237 255
224 237 255
224 237 255
224 237 255
224 237 255
224 237 255
224 237 255
224 237 255
224 237 255
224 237 255
224 237 255
224 237 255
224 237 255
224 237 255
224 237 255
224 237 255
224 237 255
224 237 255
224 237 255
224 237 255
224 237 255
224 237 255
224 237 255
224 237 255
224 237 255
224 237 255
224 237 255
224 237 255
224 237 255
224 237 255
223 237 255
223 237 255
223 237 255
223 237 255
223 237 255
223 237 255
223 237 255
223 237 255
223 237 255
223 237 255
223 237 255
223 237 255
223 237 255
223 237 255
223 237 255
223 237 255
223 237 255
223 237 255
223 237 255
223 237 255
223 237 255
223 237 255
223 237 255
223 237 255
223 237 255
223 237 255
223 237 255
223 237 255
223 237 255
223 237 255
223 237 255
223 237 255
223 237 255
223 237 255
223 237 255
223 237 255
223 237 255
223 237 255
223 237 255
223 237 255
223 237 255
223 237 255
223 237 255
223 237 255
223 237 255
223 237 255
223 237 255
223 237 255
223 237 255
223 237 255
223 237 255
223 237 255
223 237 255
223 237 255
223 237 255
223 237 255
223 237 255
223 237 255
223 237 255
223 237 255
223 237 255
223 237 255
223 237 255
223 237 255
223 237 255
223 237 255
223 237 255
223 237 255
223 237 255
223 237 255
223 237 255
223 237 255
223 237 255
223 237 255
223 237 255
223 236 255
223 236 255
223 236 255
223 236 255
223 236 255
223 236 255
223 236 255
223 236 255
223 236 255
223 236 255
223 236 255
223 236 255
223 236 255
223 236 255
223 236 255
223 236 255
223 236 255
223 236 255
223 236 255
223 236 255
223 236 255
223 236 255
223 236 255
223 236 255
223 236 255
223 236 255
223 236 255
223 236 255
223 236 255
223 236 255
223 236 255
223 236 255
223 236 255
223 236 255
223 236 255
223 236 255
223 236 255
223 236 255
223 236 255
223 236 255
223 236 255
223 236 255
223 236 255
223 236 255
223 236 255
223 236 255
223 236 255
223 236 255
223 236 255
223 236 255
223 236 255
223 236 255
223 236 255
223 236 255
223 236 255
223 236 255
223 236 255
223 236 255
223 236 255
223 236 255
223 236 255
223 236 255
223 236 255
223 236 255
223 236 255
223 236 255
223 236 255
223 236 255
223 236 255
223 236 255
223 237 255
223 237 255
223 237 255
223 237 255
223 237 255
223 237 255
223 237 255
223 237 255
223 237 255
223 237 255
223 237 255
223 237 255
223 237 255
223 237 255
223 237 255
223 237 255
223 237 255
223 237 255
223 237 255
223 237 255
223 237 255
223 237 255
223 237 255
223 237 255
223 237 255
223 237 255
223 237 255
223 237 255
223 237 255
223 237 255
223 237 255
223 237 255
223 237 255
223 237 255
223 237 255
223 237 255
223 237 255
223 237 255
223 237 255
223 237 255
223 237 255
223 237 255
223 237 255
223 237 255
223 237 255
223 237 255
223 237 255
223 237 255
223 237 255
223 237 255
223 237 255
223 237 255
223 237 255
223 237 255
223 237 255
223 237 255
223 237 255
223 237 255
223 237 255
223 237 255
223 237 255
223 237 255
223 237 255
223 237 255
223 237 255
223 237 255
223 237 255
223 237 255
223 237 255
223 237 255
223 237 255
223 237 255
223 237 255
223 237 255
224 237 255
224 237 255
224 237 255
224 237 255
224 237 255
224 237 255
224 237 255
224 237 255
224 237 255
224 237 255
224 237 255
224 237 255
224 237 255
224 237 255
224 237 255
224 237 255
224 237 255
224 237 255
224 237 255
224 237 255
224 237 255
224 237 255
224 237 255
224 237 255
224 237 255
224 237 255
224 237 255
224 237 255
224 237 255
224 237 255
224 237 255
224 237 255
224 237 255
224 237 255
224 237 255
224 237 255
224 237 255
224 237 255
224 237 255
224 237 255
224 237 255
224 237 255
224 237 255
224 237 255
224 237 255
224 237 255
224 237 255
224 237 255
224 237 255
224 237 255
224 237 255
224 237 255
224 237 255
224 237 255
224 237 255
224 237 255
224 237 255
224 237 255
224 237 255
224 237 255
224 237 255
224 237 255
224 237 255
224 237 255
224 237 255
224 237 255
224 237 255
224 237 255
224 237 255
224 237 255
224 237 255
224 237 255
224 237 255
224 237 255
224 237 255
224 237 255
224 237 255
224 237 255
224 237 255
224 237 255
224 237 255
224 237 255
224 237 255
224 237 255
224 237 255
224 237 255
224 237 255
224 237 255
224 237 255
224 237 255
224 237 255
224 237 255
224 237 255
224 237 255
224 237 255
224 237 255
224 237 255
224 237 255
224 237 255
224 237 255
224 237 255
224 237 255
224 237 255
224 237 255
224 237 255
224 237 255
224 237 255
224 237 255
224 237 255
224 237 255
224 237 255
224 237 255
224 237 255
224 237 255
224 237 255
224 237 255
224 237 255
224 237 255
224 237 255
224 237 255
224 237 255
224 237 255
224 237 255
224 237 255
224 237 255
224 237 255
224 237 255
224 237 255
224 237 255
224 237 255
224 237 255
224 237 255
224 237 255
224 237 255
224 237 255
224 237 255
224 237 255
224 237 255
224 237 255
224 237 255
224 237 255
224 237 255
224 237 255
224 237 255
224 237 255
224 237 255
224 237 255
224 237 255
224 237 255
224 237 255
224 237 255
224 237 255
224 237 255
224 237 255
224 237 255
224 237 255
224 237 255
224 237 255
224 237 255
224 237 255
224 237 255
224 237 255
224 237 255
224 237 255
224 237 255
224 237 255
224 237 255
224 237 255
224 237 255
224 237 255
224 237 255
224 237 255
224 237 255
224 237 255
224 237 255
224 237 255
224 237 255
224 237 255
224 237 255
224 237 255
224 237 255
224 237 255
224 237 255
224 237 255
224 237 255
224 237 255
224 237 255
224 237 255
224 237 255
224 237 255
224 237 255
224 237 255
224 237 255
224 237 255
224 237 255
224 237 255
224 237 255
224 237 255
224 237 255
224 237 255
224 237 255
224 237 255
224 237 255
224 237 255
223 237 255
223 237 255
223 237 255
223 237 255
223 237 255
223 237 255
223 237 255
223 237 255
223 237 255
223 237 255
223 237 255
223 237 255
223 237 255
223 237 255
223 237 255
223 237 255
223 237 255
223 237 255
223 237 255
223 237 255
223 237 255
223 237 255
223 237 255
223 237 255
223 237 255
223 237 255
223 237 255
223 237 255
223 237 255
223 237 255
223 237 255
223 237 255
223 237 255
223 237 255
223 237 255
223 237 255
223 237 255
223 237 255
223 237 255
223 237 255
223 237 255
223 237 255
223 237 255
223 237 255
223 237 255
223 237 255
223 237 255
223 237 255
223 237 255
223 237 255
223 237 255
223 237 255
223 237 255
223 237 255
223 237 255
223 237 255
223 237 255
223 237 255
223 237 255
223 237 255
223 237 255
223 237 255
223 237 255
223 237 255
223 237 255
223 237 255
223 237 255
223 237 255
223 237 255
223 237 255
223 237 255
223 237 255
223 237 255
223 237 255
223 236 255
223 236 255
223 236 255
223 236 255
223 236 255
223 236 255
223 236 255
223 236 255
223 236 255
223 236 255
223 236 255
223 236 255
223 236 255
223 236 255
223 236 255
223 236 255
223 236 255
223 236 255
223 236 255
223 236 255
223 236 255
223 236 255
223 236 255
223 236 255
223 236 255
223 236 255
223 237 255
223 237 255
223 237 255
223 237 255
223 237 255
223 237 255
223 237 255
223 237 255
223 237 255
223 237 255
223 237 255
223 237 255
223 237 255
223 237 255
223 237 255
223 237 255
223 237 255
223 237 255
223 237 255
223 237 255
223 237 255
223 237 255
223 237 255
223 237 255
223 237 255
223 237 255
223 237 255
223 237 255
223 237 255
223 237 255
223 237 255
223 237 255
223 237 255
223 237 255
223 237 255
223 237 255
223 237 255
223 237 255
223 237 255
223 237 255
223 237 255
223 237 255
223 237 255
223 237 255
223 237 255
223 237 255
223 237 255
223 237 255
223 237 255
223 237 255
223 237 255
223 237 255
223 237 255
223 237 255
223 237 255
223 237 255
223 237 255
223 237 255
223 237 255
223 237 255
223 237 255
223 237 255
223 237 255
223 237 255
223 237 255
223 237 255
223 237 255
223 237 255
223 237 255
223 237 255
223 237 255
223 237 255
223 237 255
223 237 255
224 237 255
224 237 255
224 237 255
224 237 255
224 237 255
224 237 255
224 237 255
224 237 255
224 237 255
224 237 255
224 237 255
224 237 255
224 237 255
224 237 255
224 237 255
224 237 255
224 237 255
224 237 255
224 237 255
224 237 255
224 237 255
224 237 255
224 237 255
224 237 255
224 237 255
224 237 255
224 237 255
224 237 255
224 237 255
224 237 255
224 237 255
224 237 255
224 237 255
224 237 255
224 237 255
224 237 255
224 237 255
224 237 255
224 237 255
224 237 255
224 237 255
224 237 255
224 237 255
224 237 255
224 237 255
224 237 255
224 237 255
224 237 255
224 237 255
224 237 255
224 237 255
224 237 255
224 237 255
224 237 255
224 237 255
224 237 255
224 237 255
224 237 255
224 237 255
224 237 255
224 237 255
224 237 255
224 237 255
224 237 255
224 237 255
224 237 255
224 237 255
224 237 255
224 237 255
224 237 255
224 237 255
224 237 255
224 237 255
224 237 255
224 237 255
224 237 255
224 237 255
224 237 255
224 237 255
224 237 255
224 237 255
224 237 255
224 237 255
224 237 255
224 237 255
224 237 255
224 237 255
224 237 255
224 237 255
224 237 255
224 237 255
224 237 255
224 237 255
224 237 255
224 237 255
224 237 255
224 237 255
224 237 255
224 237 255
224 237 255
224 237 255
224 237 255
224 237 255
224 237 255
224 237 255
224 237 255
224 237 255
224 237 255
224 237 255
224 237 255
224 237 255
224 237 255
224 237 255
224 237 255
224 237 255
224 237 255
224 237 255
224 237 255
224 237 255
224 237 255
224 237 255
224 237 255
224 237 255
224 237 255
224 237 255
224 237 255
224 237 255
224 237 255
224 237 255
224 237 255
224 237 255
224 237 255
224 237 255
224 237 255
224 237 255
224 237 255
224 237 255
224 237 255
224 237 255
224 237 255
224 237 255
224 237 255
224 237 255
224 237 255
224 237 255
224 237 255
224 237 255
224 237 255
224 237 255
224 237 255
224 237 255
224 237 255
224 237 255
224 237 255
224 237 255
224 237 255
224 237 255
224 237 255
224 237 255
224 237 255
224 237 255
224 237 255
224 237 255
224 237 255
224 237 255
224 237 255
224 237 255
224 237 255
224 237 255
224 237 255
224 237 255
224 237 255
224 237 255
224 237 255
224 237 255
224 237 255
224 237 255
224 237 255
224 237 255
224 237 255
224 237 255
224 237 255
224 237 255
224 237 255
224 237 255
224 237 255
224 237 255
224 237 255
224 237 255
224 237 255
224 237 255
224 237 255
224 237 255
224 237 255
224 237 255
224 237 255
224 237 255
224 237 255
224 237 255
224 237 255
224 237 255
224 237 255
224 237 255
224 237 255
224 237 255
224 237 255
224 237 255
224 237 255
224 237 255
224 237 255
224 237 255
224 237 255
224 237 255
224 237 255
224 237 255
224 237 255
224 237 255
224 237 255
224 237 255
224 237 255
224 237 255
224 237 255
224 237 255
224 237 255
224 237 255
224 237 255
224 237 255
224 237 255
224 237 255
224 237 255
224 237 255
224 237 255
224 237 255
224 237 255
224 237 255
224 237 255
224 237 255
224 237 255
224 237 255
224 237 255
224 237 255
224 237 255
224 237 255
224 237 255
224 237 255
224 237 255
224 237 255
223 237 255
223 237 255
223 237 255
223 237 255
223 237 255
223 237 255
223 237 255
223 237 255
223 237 255
223 237 255
223 237 255
223 237 255
223 237 255
223 237 255
223 237 255
223 237 255
223 237 255
223 237 255
223 237 255
223 237 255
223 237 255
223 237 255
223 237 255
223 237 255
223 237 255
223 237 255
223 237 255
223 237 255
223 237 255
223 237 255
223 237 255
223 237 255
223 237 255
223 237 255
223 237 255
223 237 255
223 237 255
223 237 255
223 237 255
223 237 255
223 237 255
223 237 255
223 237 255
223 237 255
223 237 255
223 237 255
223 237 255
223 237 255
223 237 255
223 237 255
223 237 255
223 237 255
223 237 255
223 237 255
223 237 255
223 237 255
223 237 255
223 237 255
223 237 255
223 237 255
223 237 255
223 237 255
223 237 255
223 237 255
223 237 255
223 237 255
223 237 255
223 237 255
223 237 255
223 237 255
223 237 255
223 237 255
223 237 255
223 237 255
223 237 255
223 236 255
223 236 255
223 237 255
223 237 255
223 237 255
223 237 255
223 237 255
223 237 255
223 237 255
223 237 255
223 237 255
223 237 255
223 237 255
223 237 255
223 237 255
223 237 255
223 237 255
223 237 255
223 237 255
223 237 255
223 237 255
223 237 255
223 237 255
223 237 255
223 237 255
223 237 255
223 237 255
223 237 255
223 237 255
223 237 255
223 237 255
223 237 255
223 237 255
223 237 255
223 237 255
223 237 255
223 237 255
223 237 255
223 237 255
223 237 255
223 237 255
223 237 255
223 237 255
223 237 255
223 237 255
223 237 255
223 237 255
223 237 255
223 237 255
223 237 255
223 237 255
223 237 255
223 237 255
223 237 255
223 237 255
223 237 255
223 237 255
223 237 255
223 237 255
223 237 255
223 237 255
224 237 255
224 237 255
224 237 255
224 237 255
224 237 255
224 237 255
224 237 255
224 237 255
224 237 255
224 237 255
224 237 255
224 237 255
224 237 255
224 237 255
224 237 255
224 237 255
224 237 255
224 237 255
224 237 255
224 237 255
224 237 255
224 237 255
224 237 255
224 237 255
224 237 255
224 237 255
224 237 255
224 237 255
224 237 255
224 237 255
224 237 255
224 237 255
224 237 255
224 237 255
224 237 255
224 237 255
224 237 255
224 237 255
224 237 255
224 237 255
224 237 255
224 237 255
224 237 255
224 237 255
224 237 255
224 237 255
224 237 255
224 237 255
224 237 255
224 237 255
224 237 255
224 237 255
224 237 255
224 237 255
224 237 255
224 237 255
224 237 255
224 237 255
224 237 255
224 237 255
224 237 255
224 237 255
224 237 255
224 237 255
224 237 255
224 237 255
224 237 255
224 237 255
224 237 255
224 237 255
224 237 255
224 237 255
224 237 255
224 237 255
224 237 255
224 237 255
224 237 255
224 237 255
224 237 255
224 237 255
224 237 255
224 237 255
224 237 255
224 237 255
224 237 255
224 237 255
224 237 255
224 237 255
224 237 255
224 237 255
224 237 255
224 237 255
224 237 255
224 237 255
224 237 255
224 237 255
224 237 255
224 237 255
224 237 255
224 237 255
224 237 255
224 237 255
224 237 255
224 237 255
224 237 255
224 237 255
224 237 255
225 237 255
225 237 255
224 237 255
225 237 255
225 237 255
225 237 255
225 237 255
225 237 255
225 237 255
225 237 255
225 237 255
225 237 255
225 237 255
225 237 255
225 237 255
225 237 255
225 237 255
225 237 255
225 237 255
225 237 255
225 237 255
225 237 255
225 237 255
225 237 255
225 237 255
225 237 255
225 237 255
225 237 255
225 237 255
225 237 255
225 237 255
225 237 255
225 237 255
225 237 255
225 237 255
225 237 255
225 237 255
225 237 255
225 237 255
225 237 255
225 237 255
225 237 255
225 237 255
225 237 255
225 237 255
225 237 255
225 237 255
225 237 255
225 237 255
225 237 255
225 237 255
225 237 255
225 237 255
225 237 255
225 237 255
225 237 255
225 237 255
225 237 255
225 237 255
225 237 255
225 237 255
225 237 255
225 237 255
225 237 255
225 237 255
225 237 255
224 237 255
224 237 255
224 237 255
224 237 255
224 237 255
224 237 255
224 237 255
224 237 255
224 237 255
224 237 255
224 237 255
224 237 255
224 237 255
224 237 255
224 237 255
224 237 255
224 237 255
224 237 255
224 237 255
224 237 255
224 237 255
224 237 255
224 237 255
224 237 255
224 237 255
224 237 255
224 237 255
224 237 255
224 237 255
224 237 255
224 237 255
224 237 255
224 237 255
224 237 255
224 237 255
224 237 255
224 237 255
224 237 255
224 237 255
224 237 255
224 237 255
224 237 255
224 237 255
224 237 255
224 237 255
224 237 255
224 237 255
224 237 255
224 237 255
224 237 255
224 237 255
224 237 255
224 237 255
224 237 255
224 237 255
224 237 255
224 237 255
224 237 255
224 237 255
224 237 255
224 237 255
224 237 255
224 237 255
224 237 255
224 237 255
224 237 255
224 237 255
224 237 255
224 237 255
224 237 255
224 237 255
224 237 255
224 237 255
224 237 255
224 237 255
224 237 255
224 237 255
224 237 255
224 237 255
224 237 255
224 237 255
224 237 255
224 237 255
224 237 255
224 237 255
224 237 255
224 237 255
224 237 255
224 237 255
224 237 255
224 237 255
224 237 255
224 237 255
224 237 255
224 237 255
224 237 255
224 237 255
224 237 255
224 237 255
224 237 255
224 237 255
224 237 255
224 237 255
224 237 255
224 237 255
224 237 255
224 237 255
224 237 255
224 237 255
224 237 255
223 237 255
223 237 255
223 237 255
223 237 255
223 237 255
223 237 255
223 237 255
223 237 255
223 237 255
223 237 255
223 237 255
223 237 255
223 237 255
223 237 255
223 237 255
223 237 255
223 237 255
223 237 255
223 237 255
223 237 255
223 237 255
223 237 255
223 237 255
223 237 255
223 237 255
223 237 255
223 237 255
223 237 255
223 237 255
223 237 255
223 237 255
223 237 255
223 237 255
223 237 255
223 237 255
223 237 255
223 237 255
223 237 255
223 237 255
223 237 255
223 237 255
223 237 255
223 237 255
223 237 255
223 237 255
223 237 255
223 237 255
223 237 255
223 237 255
223 237 255
223 237 255
223 237 255
223 237 255
223 237 255
223 237 255
223 237 255
223 237 255
223 237 255
223 237 255
223 237 255
223 237 255
223 237 255
223 237 255
223 237 255
223 237 255
223 237 255
223 237 255
223 237 255
223 237 255
223 237 255
223 237 255
223 237 255
223 237 255
223 237 255
223 237 255
223 237 255
223 237 255
223 237 255
223 237 255
223 237 255
223 237 255
223 237 255
223 237 255
223 237 255
223 237 255
223 237 255
223 237 255
223 237 255
223 237 255
223 237 255
223 237 255
223 237 255
223 237 255
223 237 255
223 237 255
223 237 255
223 237 255
223 237 255
223 237 255
224 237 255
224 237 255
224 237 255
224 237 255
224 237 255
224 237 255
224 237 255
224 237 255
224 237 255
224 237 255
224 237 255
224 237 255
224 237 255
224 237 255
224 237 255
224 237 255
224 237 255
224 237 255
224 237 255
224 237 255
224 237 255
224 237 255
224 237 255
224 237 255
224 237 255
224 237 255
224 237 255
224 237 255
224 237 255
224 237 255
224 237 255
224 237 255
224 237 255
224 237 255
224 237 255
224 237 255
224 237 255
224 237 255
224 237 255
224 237 255
224 237 255
224 237 255
224 237 255
224 237 255
224 237 255
224 237 255
224 237 255
224 237 255
224 237 255
224 237 255
224 237 255
224 237 255
224 237 255
224 237 255
224 237 255
224 237 255
224 237 255
224 237 255
224 237 255
224 237 255
224 237 255
224 237 255
224 237 255
224 237 255
224 237 255
224 237 255
224 237 255
224 237 255
224 237 255
224 237 255
224 237 255
224 237 255
224 237 255
224 237 255
224 237 255
224 237 255
224 237 255
224 237 255
224 237 255
224 237 255
224 237 255
224 237 255
224 237 255
224 237 255
224 237 255
224 237 255
224 237 255
224 237 255
224 237 255
224 237 255
224 237 255
224 237 255
224 237 255
224 237 255
224 237 255
224 237 255
224 237 255
225 237 255
225 237 255
225 237 255
225 237 255
225 237 255
225 237 255
225 237 255
225 237 255
225 237 255
225 237 255
225 237 255
225 237 255
225 237 255
225 237 255
225 237 255
225 237 255
225 237 255
225 237 255
225 237 255
225 237 255
225 237 255
225 237 255
225 237 255
225 238 255
225 238 255
225 238 255
225 238 255
225 238 255
225 238 255
225 238 255
225 238 255
225 238 255
225 238 255
225 238 255
225 238 255
225 238 255
225 238 255
225 238 255
225 238 255
225 238 255
225 238 255
225 238 255
225 238 255
225 238 255
225 238 255
225 238 255
225 238 255
225 238 255
225 238 255
225 238 255
225 238 255
225 238 255
225 238 255
225 238 255
225 238 255
225 238 255
225 238 255
225 238 255
225 238 255
225 238 255
225 238 255
225 238 255
225 238 255
225 238 255
225 238 255
225 238 255
225 238 255
225 238 255
225 238 255
225 238 255
225 238 255
225 238 255
225 238 255
225 238 255
225 238 255
225 238 255
225 238 255
225 238 255
225 238 255
225 238 255
225 238 255
225 238 255
225 238 255
225 238 255
225 238 255
225 238 255
225 238 255
225 238 255
225 238 255
225 238 255
225 238 255
225 238 255
225 238 255
225 238 255
225 238 255
225 238 255
225 238 255
225 238 255
225 238 255
225 237 255
225 237 255
225 237 255
225 237 255
225 237 255
225 237 255
225 237 255
225 237 255
225 237 255
225 237 255
225 237 255
225 237 255
225 237 255
225 237 255
225 237 255
225 237 255
225 237 255
225 237 255
225 237 255
225 237 255
225 237 255
225 237 255
225 237 255
225 237 255
224 237 255
224 237 255
224 237 255
224 237 255
224 237 255
224 237 255
224 237 255
224 237 255
224 237 255
224 237 255
224 237 255
224 237 255
224 237 255
224 237 255
224 237 255
224 237 255
224 237 255
224 237 255
224 237 255
224 237 255
224 237 255
224 237 255
224 237 255
224 237 255
224 237 255
224 237 255
224 237 255
224 237 255
224 237 255
224 237 255
224 237 255
224 237 255
224 237 255
224 237 255
224 237 255
224 237 255
224 237 255
224 237 255
224 237 255
224 237 255
224 237 255
224 237 255
224 237 255
224 237 255
224 237 255
224 237 255
224 237 255
224 237 255
224 237 255
224 237 255
224 237 255
224 237 255
224 237 255
224 237 255
224 237 255
224 237 255
224 237 255
224 237 255
224 237 255
224 237 255
224 237 255
224 237 255
224 237 255
224 237 255
224 237 255
224 237 255
224 237 255
224 237 255
224 237 255
224 237 255
224 237 255
224 237 255
224 237 255
224 237 255
224 237 255
224 237 255
224 237 255
224 237 255
224 237 255
224 237 255
224 237 255
224 237 255
224 237 255
224 237 255
224 237 255
224 237 255
224 237 255
224 237 255
224 237 255
224 237 255
224 237 255
224 237 255
224 237 255
224 237 255
224 237 255
224 237 255
224 237 255
224 237 255
223 237 255
223 237 255
223 237 255
223 237 255
223 237 255
223 237 255
223 237 255
223 237 255
223 237 255
223 237 255
223 237 255
223 237 255
223 237 255
223 237 255
223 237 255
223 237 255
223 237 255
223 237 255
223 237 255
223 237 255
223 237 255
223 237 255
223 237 255
223 237 255
223 237 255
223 237 255
223 237 255
223 237 255
223 237 255
223 237 255
223 237 255
223 237 255
223 237 255
223 237 255
223 237 255
223 237 255
223 237 255
223 237 255
223 237 255
223 237 255
223 237 255
223 237 255
223 237 255
223 237 255
223 237 255
223 237 255
223 237 255
223 237 255
223 237 255
223 237 255
223 237 255
223 237 255
223 237 255
223 237 255
223 237 255
223 237 255
223 237 255
223 237 255
223 237 255
223 237 255
223 237 255
223 237 255
223 237 255
223 237 255
223 237 255
224 237 255
224 237 255
224 237 255
224 237 255
224 237 255
224 237 255
224 237 255
224 237 255
224 237 255
224 237 255
224 237 255
224 237 255
224 237 255
224 237 255
224 237 255
224 237 255
224 237 255
224 237 255
224 237 255
224 237 255
224 237 255
224 237 255
224 237 255
224 237 255
224 237 255
224 237 255
224 237 255
224 237 255
224 237 255
224 237 255
224 237 255
224 237 255
224 237 255
224 237 255
224 237 255
224 237 255
224 237 255
224 237 255
224 237 255
224 237 255
224 237 255
224 237 255
224 237 255
224 237 255
224 237 255
224 237 255
224 237 255
224 237 255
224 237 255
224 237 255
224 237 255
224 237 255
224 237 255
224 237 255
224 237 255
224 237 255
224 237 255
224 237 255
224 237 255
224 237 255
224 237 255
224 237 255
224 237 255
224 237 255
224 237 255
224 237 255
224 237 255
224 237 255
224 237 255
224 237 255
224 237 255
224 237 255
224 237 255
224 237 255
224 237 255
224 237 255
224 237 255
224 237 255
224 237 255
224 237 255
224 237 255
224 237 255
224 237 255
224 237 255
224 237 255
224 237 255
224 237 255
224 237 255
224 237 255
224 237 255
224 237 255
224 237 255
224 237 255
224 237 255
224 237 255
225 237 255
225 237 255
225 237 255
225 237 255
225 237 255
225 237 255
225 237 255
225 237 255
225 237 255
225 237 255
225 237 255
225 237 255
225 237 255
225 237 255
225 237 255
225 237 255
225 237 255
225 237 255
225 238 255
225 238 255
225 238 255
225 238 255
225 238 255
225 238 255
225 238 255
225 238 255
225 238 255
225 238 255
225 238 255
225 238 255
225 238 255
225 238 255
225 238 255
225 238 255
225 238 255
225 238 255
225 238 255
225 238 255
225 238 255
225 238 255
225 238 255
225 238 255
225 238 255
225 238 255
225 238 255
225 238 255
225 238 255
225 238 255
225 238 255
225 238 255
225 238 255
225 238 255
225 238 255
225 238 255
225 238 255
225 238 255
225 238 255
225 238 255
225 238 255
225 238 255
225 238 255
225 238 255
225 238 255
225 238 255
225 238 255
225 238 255
225 238 255
225 238 255
225 238 255
225 238 255
225 238 255
225 238 255
225 238 255
225 238 255
225 238 255
225 238 255
225 238 255
225 238 255
225 238 255
225 238 255
225 238 255
225 238 255
225 238 255
225 238 255
225 238 255
225 238 255
225 238 255
225 238 255
225 238 255
225 238 255
225 238 255
225 238 255
225 238 255
225 238 255
225 238 255
225 238 255
225 238 255
225 238 255
225 238 255
225 238 255
225 238 255
225 238 255
225 238 255
225 238 255
225 238 255
225 238 255
225 238 255
225 238 255
225 238 255
225 238 255
225 238 255
225 238 255
225 238 255
225 238 255
225 238 255
225 238 255
225 238 255
225 238 255
225 238 255
225 238 255
225 238 255
225 238 255
225 238 255
225 238 255
225 238 255
225 238 255
225 238 255
225 238 255
225 238 255
225 238 255
225 238 255
225 238 255
225 238 255
225 238 255
225 238 255
225 238 255
225 238 255
225 238 255
225 238 255
225 238 255
225 238 255
225 238 255
225 238 255
225 237 255
225 238 255
225 237 255
225 237 255
225 237 255
225 237 255
225 237 255
225 237 255
225 237 255
225 237 255
225 237 255
225 237 255
225 237 255
225 237 255
225 237 255
225 237 255
225 237 255
225 237 255
225 237 255
224 237 255
224 237 255
224 237 255
224 237 255
224 237 255
224 237 255
224 237 255
224 237 255
224 237 255
224 237 255
224 237 255
224 237 255
224 237 255
224 237 255
224 237 255
224 237 255
224 237 255
224 237 255
224 237 255
224 237 255
224 237 255
224 237 255
224 237 255
224 237 255
224 237 255
224 237 255
224 237 255
224 237 255
224 237 255
224 237 255
224 237 255
224 237 255
224 237 255
224 237 255
224 237 255
224 237 255
224 237 255
224 237 255
224 237 255
224 237 255
224 237 255
224 237 255
224 237 255
224 237 255
224 237 255
224 237 255
224 237 255
224 237 255
224 237 255
224 237 255
224 237 255
224 237 255
224 237 255
224 237 255
224 237 255
224 237 255
224 237 255
224 237 255
224 237 255
224 237 255
224 237 255
224 237 255
224 237 255
224 237 255
224 237 255
224 237 255
224 237 255
224 237 255
224 237 255
224 237 255
224 237 255
224 237 255
224 237 255
224 237 255
224 237 255
224 237 255
224 237 255
224 237 255
224 237 255
224 237 255
224 237 255
224 237 255
224 237 255
224 237 255
224 237 255
224 237 255
224 237 255
224 237 255
224 237 255
224 237 255
224 237 255
224 237 255
224 237 255
224 237 255
224 237 255
223 237 255
223 237 255
223 237 255
223 237 255
223 237 255
223 237 255
223 237 255
223 237 255
223 237 255
223 237 255
223 237 255
223 237 255
223 237 255
223 237 255
223 237 255
223 237 255
223 237 255
223 237 255
223 237 255
223 237 255
223 237 255
223 237 255
223 237 255
223 237 255
223 237 255
223 237 255
223 237 255
223 237 255
223 237 255
223 237 255
223 237 255
223 237 255
224 237 255
224 237 255
224 237 255
224 237 255
224 237 255
224 237 255
224 237 255
224 237 255
224 237 255
224 237 255
224 237 255
224 237 255
224 237 255
224 237 255
224 237 255
224 237 255
224 237 255
224 237 255
224 237 255
224 237 255
224 237 255
224 237 255
224 237 255
224 237 255
224 237 255
224 237 255
224 237 255
224 237 255
224 237 255
224 237 255
224 237 255
224 237 255
224 237 255
224 237 255
224 237 255
224 237 255
224 237 255
224 237 255
224 237 255
224 237 255
224 237 255
224 237 255
224 237 255
224 237 255
224 237 255
224 237 255
224 237 255
224 237 255
224 237 255
224 237 255
224 237 255
224 237 255
224 237 255
224 237 255
224 237 255
224 237 255
224 237 255
224 237 255
224 237 255
224 237 255
224 237 255
224 237 255
224 237 255
224 237 255
224 237 255
224 237 255
224 237 255
224 237 255
224 237 255
224 237 255
224 237 255
224 237 255
224 237 255
224 237 255
224 237 255
224 237 255
224 237 255
224 237 255
224 237 255
224 237 255
224 237 255
224 237 255
224 237 255
224 237 255
224 237 255
224 237 255
224 237 255
224 237 255
224 237 255
224 237 255
224 237 255
224 237 255
224 237 255
224 237 255
225 237 255
225 237 255
225 237 255
225 237 255
225 237 255
225 237 255
225 237 255
225 237 255
225 237 255
225 237 255
225 237 255
225 237 255
225 237 255
225 237 255
225 237 255
225 237 255
225 237 255
225 238 255
225 238 255
225 238 255
225 238 255
225 238 255
225 238 255
225 238 255
225 238 255
225 238 255
225 238 255
225 238 255
225 238 255
225 238 255
225 238 255
225 238 255
225 238 255
225 238 255
225 238 255
225 238 255
225 238 255
225 238 255
225 238 255
225 238 255
225 238 255
225 238 255
225 238 255
225 238 255
225 238 255
225 238 255
225 238 255
225 238 255
225 238 255
225 238 255
225 238 255
225 238 255
225 238 255
225 238 255
225 238 255
225 238 255
225 238 255
225 238 255
225 238 255
225 238 255
225 238 255
225 238 255
225 238 255
225 238 255
225 238 255
225 238 255
225 238 255
225 238 255
225 238 255
225 238 255
225 238 255
225 238 255
225 238 255
225 238 255
225 238 255
225 238 255
225 238 255
225 238 255
225 238 255
225 238 255
225 238 255
225 238 255
225 238 255
225 238 255
225 238 255
225 238 255
225 238 255
225 238 255
225 238 255
225 238 255
225 238 255
225 238 255
225 238 255
225 238 255
225 238 255
225 238 255
225 238 255
225 238 255
225 238 255
225 238 255
225 238 255
225 238 255
225 238 255
225 238 255
225 238 255
225 238 255
225 238 255
225 238 255
225 238 255
225 238 255
225 238 255
225 238 255
225 238 255
225 238 255
225 238 255
225 238 255
225 238 255
225 238 255
225 238 255
225 238 255
225 238 255
225 238 255
225 238 255
225 238 255
225 238 255
225 238 255
225 238 255
225 238 255
225 238 255
225 238 255
225 238 255
225 238 255
225 238 255
225 238 255
225 238 255
225 238 255
225 238 255
225 238 255
225 238 255
225 238 255
225 238 255
225 238 255
225 238 255
225 238 255
225 238 255
225 238 255
225 238 255
225 238 255
225 238 255
225 238 255
225 238 255
225 238 255
225 238 255
225 238 255
225 238 255
225 238 255
225 238 255
225 238 255
225 238 255
225 238 255
225 238 255
225 238 255
225 238 255
225 238 255
225 238 255
225 238 255
225 238 255
225 238 255
225 238 255
225 238 255
225 238 255
225 238 255
225 238 255
225 238 255
225 238 255
225 238 255
225 238 255
225 238 255
225 237 255
225 237 255
225 237 255
225 237 255
225 237 255
225 237 255
225 237 255
225 237 255
225 237 255
225 237 255
225 237 255
225 237 255
225 237 255
225 237 255
225 237 255
225 237 255
225 237 255
225 237 255
224 237 255
224 237 255
224 237 255
224 237 255
224 237 255
224 237 255
224 237 255
224 237 255
224 237 255
224 237 255
224 237 255
224 237 255
224 237 255
224 237 255
224 237 255
224 237 255
224 237 255
224 237 255
224 237 255
224 237 255
224 237 255
224 237 255
224 237 255
224 237 255
224 237 255
224 237 255
224 237 255
224 237 255
224 237 255
224 237 255
224 237 255
224 237 255
224 237 255
224 237 255
224 237 255
224 237 255
224 237 255
224 237 255
224 237 255
224 237 255
224 237 255
224 237 255
224 237 255
224 237 255
224 237 255
224 237 255
224 237 255
224 237 255
224 237 255
224 237 255
224 237 255
224 237 255
224 237 255
224 237 255
224 237 255
224 237 255
224 237 255
224 237 255
224 237 255
224 237 255
224 237 255
224 237 255
224 237 255
224 237 255
224 237 255
224 237 255
224 237 255
224 237 255
224 237 255
224 237 255
224 237 255
224 237 255
224 237 255
224 237 255
224 237 255
224 237 255
224 237 255
224 237 255
224 237 255
224 237 255
224 237 255
224 237 255
224 237 255
224 237 255
224 237 255
224 237 255
224 237 255
224 237 255
224 237 255
224 237 255
224 237 255
224 237 255
224 237 255
224 237 255
224 237 255
223 237 255
223 237 255
223 237 255
223 237 255
223 237 255
223 237 255
223 237 255
224 237 255
224 237 255
224 237 255
224 237 255
224 237 255
224 237 255
224 237 255
224 237 255
224 237 255
224 237 255
224 237 255
224 237 255
224 237 255
224 237 255
224 237 255
224 237 255
224 237 255
224 237 255
224 237 255
224 237 255
224 237 255
224 237 255
224 237 255
224 237 255
224 237 255
224 237 255
224 237 255
224 237 255
224 237 255
224 237 255
224 237 255
224 237 255
224 237 255
224 237 255
224 237 255
224 237 255
224 237 255
224 237 255
224 237 255
224 237 255
224 237 255
224 237 255
224 237 255
224 237 255
224 237 255
224 237 255
224 237 255
224 237 255
224 237 255
224 237 255
224 237 255
224 237 255
224 237 255
224 237 255
224 237 255
224 237 255
224 237 255
224 237 255
224 237 255
224 237 255
224 237 255
224 237 255
224 237 255
224 237 255
224 237 255
224 237 255
224 237 255
224 237 255
224 237 255
224 237 255
224 237 255
224 237 255
224 237 255
224 237 255
224 237 255
224 237 255
224 237 255
224 237 255
224 237 255
224 237 255
224 237 255
224 237 255
224 237 255
224 237 255
224 237 255
224 237 255
224 237 255
224 237 255
225 237 255
225 237 255
225 237 255
225 237 255
225 237 255
225 237 255
225 237 255
225 237 255
225 237 255
225 237 255
225 237 255
225 237 255
225 237 255
225 237 255
225 237 255
225 238 255
225 238 255
225 238 255
225 238 255
225 238 255
225 238 255
225 238 255
225 238 255
225 238 255
225 238 255
225 238 255
225 238 255
225 238 255
225 238 255
225 238 255
225 238 255
225 238 255
225 238 255
225 238 255
225 238 255
225 238 255
225 238 255
225 238 255
225 238 255
225 238 255
225 238 255
225 238 255
225 238 255
225 238 255
225 238 255
225 238 255
225 238 255
225 238 255
225 238 255
225 238 255
225 238 255
225 238 255
225 238 255
225 238 255
225 238 255
225 238 255
225 238 255
225 238 255
225 238 255
225 238 255
225 238 255
225 238 255
225 238 255
225 238 255
225 238 255
225 238 255
225 238 255
225 238 255
225 238 255
225 238 255
225 238 255
225 238 255
225 238 255
225 238 255
225 238 255
225 238 255
225 238 255
225 238 255
225 238 255
225 238 255
225 238 255
225 238 255
225 238 255
225 238 255
225 238 255
225 238 255
225 238 255
226 238 255
226 238 255
226 238 255
226 238 255
226 238 255
226 238 255
226 238 255
226 238 255
226 238 255
226 238 255
226 238 255
226 238 255
226 238 255
226 238 255
226 238 255
226 238 255
226 238 255
226 238 255
226 238 255
226 238 255
226 238 255
226 238 255
226 238 255
226 238 255
226 238 255
226 238 255
226 238 255
226 238 255
226 238 255
226 238 255
226 238 255
226 238 255
226 238 255
226 238 255
226 238 255
226 238 255
226 238 255
226 238 255
226 238 255
226 238 255
226 238 255
226 238 255
226 238 255
226 238 255
226 238 255
226 238 255
226 238 255
226 238 255
226 238 255
226 238 255
226 238 255
225 238 255
225 238 255
225 238 255
225 238 255
225 238 255
225 238 255
225 238 255
225 238 255
225 238 255
225 238 255
225 238 255
225 238 255
225 238 255
225 238 255
225 238 255
225 238 255
225 238 255
225 238 255
225 238 255
225 238 255
225 238 255
225 238 255
225 238 255
225 238 255
225 238 255
225 238 255
225 238 255
225 238 255
225 238 255
225 238 255
225 238 255
225 238 255
225 238 255
225 238 255
225 238 255
225 238 255
225 238 255
225 238 255
225 238 255
225 238 255
225 238 255
225 238 255
225 238 255
225 238 255
225 238 255
225 238 255
225 238 255
225 238 255
225 238 255
225 238 255
225 238 255
225 238 255
225 238 255
225 238 255
225 238 255
225 238 255
225 238 255
225 238 255
225 238 255
225 238 255
225 238 255
225 238 255
225 238 255
225 238 255
225 238 255
225 238 255
225 238 255
225 238 255
225 238 255
225 238 255
225 238 255
225 237 255
225 237 255
225 237 255
225 237 255
225 237 255
225 237 255
225 237 255
225 237 255
225 237 255
225 237 255
225 237 255
225 237 255
225 237 255
225 237 255
225 237 255
224 237 255
224 237 255
224 237 255
224 237 255
224 237 255
224 237 255
224 237 255
224 237 255
224 237 255
224 237 255
224 237 255
224 237 255
224 237 255
224 237 255
224 237 255
224 237 255
224 237 255
224 237 255
224 237 255
224 237 255
224 237 255
224 237 255
224 237 255
224 237 255
224 237 255
224 237 255
224 237 255
224 237 255
224 237 255
224 237 255
224 237 255
224 237 255
224 237 255
224 237 255
224 237 255
224 237 255
224 237 255
224 237 255
224 237 255
224 237 255
224 237 255
224 237 255
224 237 255
224 237 255
224 237 255
224 237 255
224 237 255
224 237 255
224 237 255
224 237 255
224 237 255
224 237 255
224 237 255
224 237 255
224 237 255
224 237 255
224 237 255
224 237 255
224 237 255
224 237 255
224 237 255
224 237 255
224 237 255
224 237 255
224 237 255
224 237 255
224 237 255
224 237 255
224 237 255
224 237 255
224 237 255
224 237 255
224 237 255
224 237 255
224 237 255
224 237 255
224 237 255
224 237 255
224 237 255
224 237 255
224 237 255
224 237 255
224 237 255
224 237 255
224 237 255
224 237 255
224 237 255
224 237 255
224 237 255
224 237 255
224 237 255
224 237 255
224 237 255
224 237 255
224 237 255
224 237 255
224 237 255
224 237 255
224 237 255
224 237 255
224 237 255
224 237 255
224 237 255
224 237 255
224 237 255
224 237 255
224 237 255
224 237 255
224 237 255
224 237 255
224 237 255
224 237 255
224 237 255
224 237 255
224 237 255
224 237 255
224 237 255
224 237 255
224 237 255
224 237 255
224 237 255
224 237 255
224 237 255
224 237 255
224 237 255
224 237 255
224 237 255
224 237 255
224 237 255
224 237 255
224 237 255
224 237 255
224 237 255
224 237 255
224 237 255
224 237 255
224 237 255
224 237 255
224 237 255
224 237 255
224 237 255
224 237 255
224 237 255
224 237 255
224 237 255
224 237 255
224 237 255
224 237 255
224 237 255
224 237 255
224 237 255
224 237 255
224 237 255
224 237 255
224 237 255
224 237 255
224 237 255
224 237 255
224 237 255
224 237 255
224 237 255
224 237 255
225 237 255
225 237 255
225 237 255
225 237 255
225 237 255
225 237 255
225 237 255
225 237 255
225 237 255
225 237 255
225 237 255
225 237 255
225 237 255
225 237 255
225 237 255
225 238 255
225 238 255
225 238 255
225 238 255
225 238 255
225 238 255
225 238 255
225 238 255
225 238 255
225 238 255
225 238 255
225 238 255
225 238 255
225 238 255
225 238 255
225 238 255
225 238 255
225 238 255
225 238 255
225 238 255
225 238 255
225 238 255
225 238 255
225 238 255
225 238 255
225 238 255
225 238 255
225 238 255
225 238 255
225 238 255
225 238 255
225 238 255
225 238 255
225 238 255
225 238 255
225 238 255
225 238 255
225 238 255
225 238 255
225 238 255
225 238 255
225 238 255
225 238 255
225 238 255
225 238 255
225 238 255
225 238 255
225 238 255
225 238 255
225 238 255
225 238 255
225 238 255
225 238 255
225 238 255
225 238 255
225 238 255
225 238 255
225 238 255
225 238 255
225 238 255
226 238 255
226 238 255
226 238 255
226 238 255
226 238 255
226 238 255
226 238 255
226 238 255
226 238 255
226 238 255
226 238 255
226 238 255
226 238 255
226 238 255
226 238 255
226 238 255
226 238 255
226 238 255
226 238 255
226 238 255
226 238 255
226 238 255
226 238 255
226 238 255
226 238 255
226 238 255
226 238 255
226 238 255
226 238 255
226 238 255
226 238 255
226 238 255
226 238 255
226 238 255
226 238 255
226 238 255
226 238 255
226 238 255
226 238 255
226 238 255
226 238 255
226 238 255
226 238 255
226 238 255
226 238 255
226 238 255
226 238 255
226 238 255
226 238 255
226 238 255
226 238 255
226 238 255
226 238 255
226 238 255
226 238 255
226 238 255
226 238 255
226 238 255
226 238 255
226 238 255
226 238 255
226 238 255
226 238 255
226 238 255
226 238 255
226 238 255
226 238 255
226 238 255
226 238 255
226 238 255
226 238 255
226 238 255
226 238 255
226 238 255
226 238 255
226 238 255
226 238 255
226 238 255
226 238 255
226 238 255
226 238 255
226 238 255
226 238 255
226 238 255
226 238 255
226 238 255
226 238 255
226 238 255
226 238 255
226 238 255
226 238 255
226 238 255
226 238 255
226 238 255
226 238 255
226 238 255
226 238 255
226 238 255
226 238 255
226 238 255
226 238 255
226 238 255
226 238 255
225 238 255
225 238 255
225 238 255
225 238 255
225 238 255
225 238 255
225 238 255
225 238 255
225 238 255
225 238 255
225 238 255
225 238 255
225 238 255
225 238 255
225 238 255
225 238 255
225 238 255
225 238 255
225 238 255
225 238 255
225 238 255
225 238 255
225 238 255
225 238 255
225 238 255
225 238 255
225 238 255
225 238 255
225 238 255
225 238 255
225 238 255
225 238 255
225 238 255
225 238 255
225 238 255
225 238 255
225 238 255
225 238 255
225 238 255
225 238 255
225 238 255
225 238 255
225 238 255
225 238 255
225 238 255
225 238 255
225 238 255
225 238 255
225 238 255
225 238 255
225 238 255
225 238 255
225 238 255
225 238 255
225 238 255
225 238 255
225 238 255
225 238 255
225 238 255
225 237 255
225 237 255
225 237 255
225 237 255
225 237 255
225 237 255
225 237 255
225 237 255
225 237 255
225 237 255
225 237 255
225 237 255
225 237 255
225 237 255
225 237 255
224 237 255
224 237 255
224 237 255
224 237 255
224 237 255
224 237 255
224 237 255
224 237 255
224 237 255
224 237 255
224 237 255
224 237 255
224 237 255
224 237 255
224 237 255
224 237 255
224 237 255
224 237 255
224 237 255
224 237 255
224 237 255
224 237 255
224 237 255
224 237 255
224 237 255
224 237 255
224 237 255
224 237 255
224 237 255
224 237 255
224 237 255
224 237 255
224 237 255
224 237 255
224 237 255
224 237 255
224 237 255
224 237 255
224 237 255
224 237 255
224 237 255
224 237 255
224 237 255
224 237 255
224 237 255
224 237 255
224 237 255
224 237 255
224 237 255
224 237 255
224 237 255
224 237 255
224 237 255
224 237 255
224 237 255
224 237 255
224 237 255
224 237 255
224 237 255
224 237 255
224 237 255
224 237 255
224 237 255
224 237 255
224 237 255
224 237 255
224 237 255
224 237 255
224 237 255
224 237 255
224 237 255
224 237 255
224 237 255
224 237 255
224 237 255
224 237 255
224 237 255
224 237 255
224 237 255
224 237 255
224 237 255
224 237 255
224 237 255
224 237 255
224 237 255
224 237 255
224 237 255
224 237 255
224 237 255
224 237 255
224 237 255
224 237 255
224 237 255
224 237 255
224 237 255
224 237 255
224 237 255
224 237 255
224 237 255
224 237 255
224 237 255
224 237 255
224 237 255
224 237 255
224 237 255
224 237 255
224 237 255
224 237 255
224 237 255
224 237 255
224 237 255
224 237 255
224 237 255
224 237 255
224 237 255
224 237 255
224 237 255
224 237 255
224 237 255
224 237 255
224 237 255
224 237 255
224 237 255
224 237 255
224 237 255
224 237 255
224 237 255
224 237 255
224 237 255
224 237 255
224 237 255
224 237 255
224 237 255
224 237 255
224 237 255
225 237 255
225 237 255
225 237 255
225 237 255
225 237 255
225 237 255
225 237 255
225 237 255
225 237 255
225 237 255
225 237 255
225 237 255
225 237 255
225 237 255
225 237 255
225 238 255
225 238 255
225 238 255
225 238 255
225 238 255
225 238 255
225 238 255
225 238 255
225 238 255
225 238 255
225 238 255
225 238 255
225 238 255
225 238 255
225 238 255
225 238 255
225 238 255
225 238 255
225 238 255
225 238 255
225 238 255
225 238 255
225 238 255
225 238 255
225 238 255
225 238 255
225 238 255
225 238 255
225 238 255
225 238 255
225 238 255
225 238 255
225 238 255
225 238 255
225 238 255
225 238 255
225 238 255
225 238 255
225 238 255
225 238 255
225 238 255
225 238 255
225 238 255
225 238 255
225 238 255
225 238 255
225 238 255
225 238 255
225 238 255
225 238 255
225 238 255
225 238 255
225 238 255
225 238 255
225 238 255
226 238 255
226 238 255
226 238 255
226 238 255
226 238 255
226 238 255
226 238 255
226 238 255
226 238 255
226 238 255
226 238 255
226 238 255
226 238 255
226 238 255
226 238 255
226 238 255
226 238 255
226 238 255
226 238 255
226 238 255
226 238 255
226 238 255
226 238 255
226 238 255
226 238 255
226 238 255
226 238 255
226 238 255
226 238 255
226 238 255
226 238 255
226 238 255
226 238 255
226 238 255
226 238 255
226 238 255
226 238 255
226 238 255
226 238 255
226 238 255
226 238 255
226 238 255
226 238 255
226 238 255
226 238 255
226 238 255
226 238 255
226 238 255
226 238 255
226 238 255
226 238 255
226 238 255
226 238 255
226 238 255
226 238 255
226 238 255
226 238 255
226 238 255
226 238 255
226 238 255
226 238 255
226 238 255
226 238 255
226 238 255
226 238 255
226 238 255
226 238 255
226 238 255
226 238 255
226 238 255
226 238 255
226 238 255
226 238 255
226 238 255
226 238 255
226 238 255
226 238 255
226 238 255
226 238 255
226 238 255
226 238 255
226 238 255
226 238 255
226 238 255
226 238 255
226 238 255
226 238 255
226 238 255
226 238 255
226 238 255
226 238 255
226 238 255
226 238 255
226 238 255
226 238 255
226 238 255
226 238 255
226 238 255
226 238 255
226 238 255
226 238 255
226 238 255
226 238 255
226 238 255
226 238 255
226 238 255
226 238 255
226 238 255
226 238 255
226 238 255
226 238 255
226 238 255
226 238 255
226 238 255
226 238 255
226 238 255
226 238 255
226 238 255
226 238 255
226 238 255
226 238 255
226 238 255
226 238 255
226 238 255
226 238 255
226 238 255
226 238 255
226 238 255
226 238 255
226 238 255
226 238 255
226 238 255
226 238 255
226 238 255
226 238 255
226 238 255
226 238 255
226 238 255
225 238 255
225 238 255
225 238 255
225 238 255
225 238 255
225 238 255
225 238 255
225 238 255
225 238 255
225 238 255
225 238 255
225 238 255
225 238 255
225 238 255
225 238 255
225 238 255
225 238 255
225 238 255
225 238 255
225 238 255
225 238 255
225 238 255
225 238 255
225 238 255
225 238 255
225 238 255
225 238 255
225 238 255
225 238 255
225 238 255
225 238 255
225 238 255
225 238 255
225 238 255
225 238 255
225 238 255
225 238 255
225 238 255
225 238 255
225 238 255
225 238 255
225 238 255
225 238 255
225 238 255
225 238 255
225 238 255
225 238 255
225 238 255
225 238 255
225 238 255
225 238 255
225 238 255
225 238 255
225 238 255
225 238 255
225 237 255
225 237 255
225 237 255
225 237 255
225 237 255
225 237 255
225 237 255
225 237 255
225 237 255
225 237 255
225 237 255
225 237 255
225 237 255
225 237 255
225 237 255
224 237 255
224 237 255
224 237 255
224 237 255
224 237 255
224 237 255
224 237 255
224 237 255
224 237 255
224 237 255
224 237 255
224 237 255
224 237 255
224 237 255
224 237 255
224 237 255
224 237 255
224 237 255
224 237 255
224 237 255
224 237 255
224 237 255
224 237 255
224 237 255
224 237 255
224 237 255
224 237 255
224 237 255
224 237 255
224 237 255
224 237 255
224 237 255
224 237 255
224 237 255
224 237 255
224 237 255
224 237 255
224 237 255
224 237 255
224 237 255
224 237 255
224 237 255
224 237 255
224 237 255
224 237 255
224 237 255
224 237 255
224 237 255
224 237 255
224 237 255
224 237 255
224 237 255
224 237 255
224 237 255
224 237 255
224 237 255
224 237 255
224 237 255
224 237 255
224 237 255
224 237 255
224 237 255
224 237 255
224 237 255
224 237 255
224 237 255
224 237 255
224 237 255
224 237 255
224 237 255
224 237 255
224 237 255
224 237 255
224 237 255
224 237 255
224 237 255
224 237 255
224 237 255
224 237 255
224 237 255
224 237 255
224 237 255
224 237 255
224 237 255
224 237 255
224 237 255
224 237 255
224 237 255
224 237 255
224 237 255
224 237 255
224 237 255
224 237 255
224 237 255
224 237 255
224 237 255
224 237 255
224 237 255
224 237 255
224 237 255
224 237 255
224 237 255
224 237 255
224 237 255
224 237 255
224 237 255
224 237 255
224 237 255
224 237 255
224 237 255
225 237 255
225 237 255
225 237 255
225 237 255
225 237 255
225 237 255
225 237 255
225 237 255
225 237 255
225 237 255
225 237 255
225 237 255
225 237 255
225 237 255
225 238 255
225 238 255
225 238 255
225 238 255
225 238 255
225 238 255
225 238 255
225 238 255
225 238 255
225 238 255
225 238 255
225 238 255
225 238 255
225 238 255
225 238 255
225 238 255
225 238 255
225 238 255
225 238 255
225 238 255
225 238 255
225 238 255
225 238 255
225 238 255
225 238 255
225 238 255
225 238 255
225 238 255
225 238 255
225 238 255
225 238 255
225 238 255
225 238 255
225 238 255
225 238 255
225 238 255
225 238 255
225 238 255
225 238 255
225 238 255
225 238 255
225 238 255
225 238 255
225 238 255
225 238 255
225 238 255
225 238 255
225 238 255
225 238 255
225 238 255
225 238 255
225 238 255
225 238 255
225 238 255
226 238 255
226 238 255
226 238 255
226 238 255
226 238 255
226 238 255
226 238 255
226 238 255
226 238 255
226 238 255
226 238 255
226 238 255
226 238 255
226 238 255
226 238 255
226 238 255
226 238 255
226 238 255
226 238 255
226 238 255
226 238 255
226 238 255
226 238 255
226 238 255
226 238 255
226 238 255
226 238 255
226 238 255
226 238 255
226 238 255
226 238 255
226 238 255
226 238 255
226 238 255
226 238 255
226 238 255
226 238 255
226 238 255
226 238 255
226 238 255
226 238 255
226 238 255
226 238 255
226 238 255
226 238 255
226 238 255
226 238 255
226 238 255
226 238 255
226 238 255
226 238 255
226 238 255
226 238 255
226 238 255
226 238 255
226 238 255
226 238 255
226 238 255
226 238 255
226 238 255
226 238 255
226 238 255
226 238 255
226 238 255
226 238 255
226 238 255
226 238 255
226 238 255
226 238 255
226 238 255
226 238 255
226 238 255
226 238 255
226 238 255
226 238 255
226 238 255
226 238 255
226 238 255
226 238 255
226 238 255
226 238 255
226 238 255
226 238 255
226 238 255
226 238 255
226 238 255
226 238 255
226 238 255
226 238 255
226 238 255
226 238 255
226 238 255
226 238 255
226 238 255
226 238 255
226 238 255
226 238 255
226 238 255
226 238 255
226 238 255
226 238 255
226 238 255
226 238 255
226 238 255
226 238 255
226 238 255
226 238 255
226 238 255
226 238 255
226 238 255
226 238 255
226 238 255
226 238 255
226 238 255
226 238 255
226 238 255
226 238 255
226 238 255
226 238 255
226 238 255
226 238 255
226 238 255
226 238 255
226 238 255
226 238 255
226 238 255
226 238 255
226 238 255
226 238 255
226 238 255
226 238 255
226 238 255
226 238 255
226 238 255
226 238 255
226 238 255
226 238 255
226 238 255
226 238 255
226 238 255
226 238 255
226 238 255
226 238 255
226 238 255
226 238 255
226 238 255
226 238 255
226 238 255
226 238 255
226 238 255
226 238 255
226 238 255
226 238 255
226 238 255
226 238 255
226 238 255
226 238 255
226 238 255
226 238 255
226 238 255
226 238 255
226 238 255
226 238 255
226 238 255
226 238 255
226 238 255
226 238 255
225 238 255
225 238 255
225 238 255
225 238 255
225 238 255
225 238 255
225 238 255
225 238 255
225 238 255
225 238 255
225 238 255
225 238 255
225 238 255
225 238 255
225 238 255
225 238 255
225 238 255
225 238 255
225 238 255
225 238 255
225 238 255
225 238 255
225 238 255
225 238 255
225 238 255
225 238 255
225 238 255
225 238 255
225 238 255
225 238 255
225 238 255
225 238 255
225 238 255
225 238 255
225 238 255
225 238 255
225 238 255
225 238 255
225 238 255
225 238 255
225 238 255
225 238 255
225 238 255
225 238 255
225 238 255
225 238 255
225 238 255
225 238 255
225 238 255
225 238 255
225 238 255
225 238 255
225 237 255
225 237 255
225 237 255
225 237 255
225 237 255
225 237 255
225 237 255
225 237 255
225 237 255
225 237 255
225 237 255
225 237 255
225 237 255
225 237 255
225 237 255
225 237 255
224 237 255
224 237 255
224 237 255
224 237 255
224 237 255
224 237 255
224 237 255
224 237 255
224 237 255
224 237 255
224 237 255
224 237 255
224 237 255
224 237 255
224 237 255
224 237 255
224 237 255
224 237 255
224 237 255
224 237 255
224 237 255
224 237 255
224 237 255
224 237 255
224 237 255
224 237 255
224 237 255
224 237 255
224 237 255
224 237 255
224 237 255
224 237 255
224 237 255
224 237 255
224 237 255
224 237 255
224 237 255
224 237 255
224 237 255
224 237 255
224 237 255
224 237 255
224 237 255
224 237 255
224 237 255
224 237 255
224 237 255
224 237 255
224 237 255
224 237 255
224 237 255
224 237 255
224 237 255
224 237 255
224 237 255
224 237 255
224 237 255
224 237 255
224 237 255
224 237 255
224 237 255
224 237 255
224 237 255
224 237 255
224 237 255
224 237 255
224 237 255
224 237 255
224 237 255
224 237 255
224 237 255
224 237 255
224 237 255
224 237 255
224 237 255
224 237 255
224 237 255
224 237 255
224 237 255
224 237 255
224 237 255
224 237 255
224 237 255
224 237 255
224 237 255
225 237 255
225 237 255
225 237 255
225 237 255
225 237 255
225 237 255
225 237 255
225 237 255
225 237 255
225 237 255
225 237 255
225 237 255
225 237 255
225 237 255
225 238 255
225 237 255
225 238 255
225 238 255
225 238 255
225 238 255
225 238 255
225 238 255
225 238 255
225 238 255
225 238 255
225 238 255
225 238 255
225 238 255
225 238 255
225 238 255
225 238 255
225 238 255
225 238 255
225 238 255
225 238 255
225 238 255
225 238 255
225 238 255
225 238 255
225 238 255
225 238 255
225 238 255
225 238 255
225 238 255
225 238 255
225 238 255
225 238 255
225 238 255
225 238 255
225 238 255
225 238 255
225 238 255
225 238 255
225 238 255
225 238 255
225 238 255
225 238 255
225 238 255
225 238 255
225 238 255
225 238 255
225 238 255
225 238 255
225 238 255
225 238 255
225 238 255
225 238 255
226 238 255
226 238 255
226 238 255
226 238 255
226 238 255
226 238 255
226 238 255
226 238 255
226 238 255
226 238 255
226 238 255
226 238 255
226 238 255
226 238 255
226 238 255
226 238 255
226 238 255
226 238 255
226 238 255
226 238 255
226 238 255
226 238 255
226 238 255
226 238 255
226 238 255
226 238 255
226 238 255
226 238 255
226 238 255
226 238 255
226 238 255
226 238 255
226 238 255
226 238 255
226 238 255
226 238 255
226 238 255
226 238 255
226 238 255
226 238 255
226 238 255
226 238 255
226 238 255
226 238 255
226 238 255
226 238 255
226 238 255
226 238 255
226 238 255
226 238 255
226 238 255
226 238 255
226 238 255
226 238 255
226 238 255
226 238 255
226 238 255
226 238 255
226 238 255
226 238 255
226 238 255
226 238 255
226 238 255
226 238 255
226 238 255
226 238 255
226 239 255
226 238 255
226 239 255
226 239 255
226 239 255
226 239 255
227 239 255
227 239 255
227 239 255
227 239 255
227 239 255
227 239 255
227 239 255
227 239 255
227 239 255
227 239 255
227 239 255
227 239 255
227 239 255
227 239 255
227 239 255
227 239 255
227 239 255
227 239 255
227 239 255
227 239 255
227 239 255
227 239 255
227 239 255
227 239 255
227 239 255
227 239 255
227 239 255
227 239 255
227 239 255
227 239 255
227 239 255
227 239 255
227 239 255
227 239 255
227 239 255
227 239 255
227 239 255
227 239 255
227 239 255
227 239 255
227 239 255
227 239 255
227 239 255
227 239 255
227 239 255
227 239 255
227 239 255
226 239 255
226 239 255
226 239 255
226 239 255
226 239 255
226 239 255
226 238 255
226 238 255
226 238 255
226 238 255
226 238 255
226 238 255
226 238 255
226 238 255
226 238 255
226 238 255
226 238 255
226 238 255
226 238 255
226 238 255
226 238 255
226 238 255
226 238 255
226 238 255
226 238 255
226 238 255
226 238 255
226 238 255
226 238 255
226 238 255
226 238 255
226 238 255
226 238 255
226 238 255
226 238 255
226 238 255
226 238 255
226 238 255
226 238 255
226 238 255
226 238 255
226 238 255
226 238 255
226 238 255
226 238 255
226 238 255
226 238 255
226 238 255
226 238 255
226 238 255
226 238 255
226 238 255
226 238 255
226 238 255
226 238 255
226 238 255
226 238 255
226 238 255
226 238 255
226 238 255
226 238 255
226 238 255
226 238 255
226 238 255
226 238 255
226 238 255
226 238 255
226 238 255
226 238 255
226 238 255
226 238 255
226 238 255
226 238 255
225 238 255
225 238 255
225 238 255
225 238 255
225 238 255
225 238 255
225 238 255
225 238 255
225 238 255
225 238 255
225 238 255
225 238 255
225 238 255
225 238 255
225 238 255
225 238 255
225 238 255
225 238 255
225 238 255
225 238 255
225 238 255
225 238 255
225 238 255
225 238 255
225 238 255
225 238 255
225 238 255
225 238 255
225 238 255
225 238 255
225 238 255
225 238 255
225 238 255
225 238 255
225 238 255
225 238 255
225 238 255
225 238 255
225 238 255
225 238 255
225 238 255
225 238 255
225 238 255
225 238 255
225 238 255
225 238 255
225 238 255
225 238 255
225 238 255
225 238 255
225 238 255
225 238 255
225 237 255
225 237 255
225 237 255
225 237 255
225 237 255
225 237 255
225 237 255
225 237 255
225 237 255
225 237 255
225 237 255
225 237 255
225 237 255
225 237 255
225 237 255
225 237 255
224 237 255
224 237 255
224 237 255
224 237 255
224 237 255
224 237 255
224 237 255
224 237 255
224 237 255
224 237 255
224 237 255
224 237 255
224 237 255
224 237 255
224 237 255
224 237 255
224 237 255
224 237 255
224 237 255
224 237 255
224 237 255
224 237 255
224 237 255
224 237 255
224 237 255
224 237 255
224 237 255
224 237 255
224 237 255
224 237 255
224 237 255
224 237 255
224 237 255
224 237 255
224 237 255
224 237 255
224 237 255
224 237 255
224 237 255
224 237 255
224 237 255
224 237 255
224 237 255
224 237 255
224 237 255
224 237 255
224 237 255
224 237 255
224 237 255
224 237 255
224 237 255
224 237 255
224 237 255
224 237 255
224 237 255
224 237 255
224 237 255
224 237 255
224 237 255
224 237 255
224 237 255
225 237 255
225 237 255
225 237 255
225 237 255
225 237 255
225 237 255
225 237 255
225 237 255
225 237 255
225 237 255
225 237 255
225 237 255
225 237 255
225 237 255
225 237 255
225 238 255
225 238 255
225 238 255
225 238 255
225 238 255
225 238 255
225 238 255
225 238 255
225 238 255
225 238 255
225 238 255
225 238 255
225 238 255
225 238 255
225 238 255
225 238 255
225 238 255
225 238 255
225 238 255
225 238 255
225 238 255
225 238 255
225 238 255
225 238 255
225 238 255
225 238 255
225 238 255
225 238 255
225 238 255
225 238 255
225 238 255
225 238 255
225 238 255
225 238 255
225 238 255
225 238 255
225 238 255
225 238 255
225 238 255
225 238 255
225 238 255
225 238 255
225 238 255
225 238 255
225 238 255
225 238 255
225 238 255
225 238 255
225 238 255
225 238 255
225 238 255
225 238 255
225 238 255
226 238 255
226 238 255
226 238 255
226 238 255
226 238 255
226 238 255
226 238 255
226 238 255
226 238 255
226 238 255
226 238 255
226 238 255
226 238 255
226 238 255
226 238 255
226 238 255
226 238 255
226 238 255
226 238 255
226 238 255
226 238 255
226 238 255
226 238 255
226 238 255
226 238 255
226 238 255
226 238 255
226 238 255
226 238 255
226 238 255
226 238 255
226 238 255
226 238 255
226 238 255
226 238 255
226 238 255
226 238 255
226 238 255
226 238 255
226 238 255
226 238 255
226 238 255
226 238 255
226 238 255
226 238 255
226 238 255
226 238 255
226 238 255
226 238 255
226 238 255
226 238 255
226 238 255
226 238 255
226 238 255
226 238 255
226 238 255
226 238 255
226 238 255
226 239 255
226 239 255
227 239 255
227 239 255
227 239 255
227 239 255
227 239 255
227 239 255
227 239 255
227 239 255
227 239 255
227 239 255
227 239 255
227 239 255
227 239 255
227 239 255
227 239 255
227 239 255
227 239 255
227 239 255
227 239 255
227 239 255
227 239 255
227 239 255
227 239 255
227 239 255
227 239 255
227 239 255
227 239 255
227 239 255
227 239 255
227 239 255
227 239 255
227 239 255
227 239 255
227 239 255
227 239 255
227 239 255
227 239 255
227 239 255
227 239 255
227 239 255
227 239 255
227 239 255
227 239 255
227 239 255
227 239 255
227 239 255
227 239 255
227 239 255
227 239 255
227 239 255
227 239 255
227 239 255
227 239 255
227 239 255
227 239 255
227 239 255
227 239 255
227 239 255
227 239 255
227 239 255
227 239 255
227 239 255
227 239 255
227 239 255
227 239 255
227 239 255
227 239 255
227 239 255
227 239 255
227 239 255
227 239 255
227 239 255
227 239 255
227 239 255
227 239 255
227 239 255
227 239 255
227 239 255
227 239 255
227 239 255
227 239 255
227 239 255
227 239 255
227 239 255
227 239 255
227 239 255
227 239 255
227 239 255
227 239 255
227 239 255
227 239 255
227 239 255
227 239 255
227 239 255
226 239 255
226 239 255
226 239 255
226 238 255
226 238 255
226 238 255
226 238 255
226 238 255
226 238 255
226 238 255
226 238 255
226 238 255
226 238 255
226 238 255
226 238 255
226 238 255
226 238 255
226 238 255
226 238 255
226 238 255
226 238 255
226 238 255
226 238 255
226 238 255
226 238 255
226 238 255
226 238 255
226 238 255
226 238 255
226 238 255
226 238 255
226 238 255
226 238 255
226 238 255
226 238 255
226 238 255
226 238 255
226 238 255
226 238 255
226 238 255
226 238 255
226 238 255
226 238 255
226 238 255
226 238 255
226 238 255
226 238 255
226 238 255
226 238 255
226 238 255
226 238 255
226 238 255
226 238 255
226 238 255
226 238 255
226 238 255
226 238 255
226 238 255
226 238 255
226 238 255
226 238 255
225 238 255
225 238 255
225 238 255
225 238 255
225 238 255
225 238 255
225 238 255
225 238 255
225 238 255
225 238 255
225 238 255
225 238 255
225 238 255
225 238 255
225 238 255
225 238 255
225 238 255
225 238 255
225 238 255
225 238 255
225 238 255
225 238 255
225 238 255
225 238 255
225 238 255
225 238 255
225 238 255
225 238 255
225 238 255
225 238 255
225 238 255
225 238 255
225 238 255
225 238 255
225 238 255
225 238 255
225 238 255
225 238 255
225 238 255
225 238 255
225 238 255
225 238 255
225 238 255
225 238 255
225 238 255
225 238 255
225 238 255
225 238 255
225 238 255
225 238 255
225 238 255
225 237 255
225 237 255
225 237 255
225 237 255
225 237 255
225 237 255
225 237 255
225 237 255
225 237 255
225 237 255
225 237 255
225 237 255
225 237 255
225 237 255
225 237 255
225 237 255
224 237 255
224 237 255
224 237 255
224 237 255
224 237 255
224 237 255
224 237 255
224 237 255
224 237 255
224 237 255
224 237 255
224 237 255
224 237 255
224 237 255
224 237 255
224 237 255
224 237 255
224 237 255
224 237 255
224 237 255
224 237 255
224 237 255
224 237 255
224 237 255
224 237 255
224 237 255
224 237 255
224 237 255
224 237 255
224 237 255
224 237 255
224 237 255
224 237 255
224 237 255
224 237 255
224 237 255
224 237 255
224 237 255
225 237 255
225 237 255
225 237 255
225 237 255
225 237 255
225 237 255
225 237 255
225 237 255
225 237 255
225 237 255
225 237 255
225 237 255
225 237 255
225 237 255
225 237 255
225 237 255
225 237 255
225 238 255
225 238 255
225 238 255
225 238 255
225 238 255
225 238 255
225 238 255
225 238 255
225 238 255
225 238 255
225 238 255
225 238 255
225 238 255
225 238 255
225 238 255
225 238 255
225 238 255
225 238 255
225 238 255
225 238 255
225 238 255
225 238 255
225 238 255
225 238 255
225 238 255
225 238 255
225 238 255
225 238 255
225 238 255
225 238 255
225 238 255
225 238 255
225 238 255
225 238 255
225 238 255
225 238 255
225 238 255
225 238 255
225 238 255
225 238 255
225 238 255
225 238 255
225 238 255
225 238 255
225 238 255
225 238 255
225 238 255
225 238 255
225 238 255
225 238 255
225 238 255
225 238 255
226 238 255
226 238 255
226 238 255
226 238 255
226 238 255
226 238 255
226 238 255
226 238 255
226 238 255
226 238 255
226 238 255
226 238 255
226 238 255
226 238 255
226 238 255
226 238 255
226 238 255
226 238 255
226 238 255
226 238 255
226 238 255
226 238 255
226 238 255
226 238 255
226 238 255
226 238 255
226 238 255
226 238 255
226 238 255
226 238 255
226 238 255
226 238 255
226 238 255
226 238 255
226 238 255
226 238 255
226 238 255
226 238 255
226 238 255
226 238 255
226 238 255
226 238 255
226 238 255
226 238 255
226 238 255
226 238 255
226 238 255
226 238 255
226 238 255
226 238 255
226 238 255
226 238 255
226 238 255
226 238 255
226 239 255
226 239 255
226 239 255
227 239 255
227 239 255
227 239 255
227 239 255
227 239 255
227 239 255
227 239 255
227 239 255
227 239 255
227 239 255
227 239 255
227 239 255
227 239 255
227 239 255
227 239 255
227 239 255
227 239 255
227 239 255
227 239 255
227 239 255
227 239 255
227 239 255
227 239 255
227 239 255
227 239 255
227 239 255
227 239 255
227 239 255
227 239 255
227 239 255
227 239 255
227 239 255
227 239 255
227 239 255
227 239 255
227 239 255
227 239 255
227 239 255
227 239 255
227 239 255
227 239 255
227 239 255
227 239 255
227 239 255
227 239 255
227 239 255
227 239 255
227 239 255
227 239 255
227 239 255
227 239 255
227 239 255
227 239 255
227 239 255
227 239 255
227 239 255
227 239 255
227 239 255
227 239 255
227 239 255
227 239 255
227 239 255
227 239 255
227 239 255
227 239 255
227 239 255
227 239 255
227 239 255
227 239 255
227 239 255
227 239 255
227 239 255
227 239 255
227 239 255
227 239 255
227 239 255
227 239 255
227 239 255
227 239 255
227 239 255
227 239 255
227 239 255
227 239 255
227 239 255
227 239 255
227 239 255
227 239 255
227 239 255
227 239 255
227 239 255
227 239 255
227 239 255
227 239 255
227 239 255
227 239 255
227 239 255
227 239 255
227 239 255
227 239 255
227 239 255
227 239 255
227 239 255
227 239 255
227 239 255
227 239 255
227 239 255
227 239 255
227 239 255
227 239 255
227 239 255
227 239 255
227 239 255
227 239 255
227 239 255
227 239 255
227 239 255
227 239 255
227 239 255
227 239 255
227 239 255
227 239 255
227 239 255
227 239 255
226 239 255
226 239 255
226 238 255
226 238 255
226 238 255
226 238 255
226 238 255
226 238 255
226 238 255
226 238 255
226 238 255
226 238 255
226 238 255
226 238 255
226 238 255
226 238 255
226 238 255
226 238 255
226 238 255
226 238 255
226 238 255
226 238 255
226 238 255
226 238 255
226 238 255
226 238 255
226 238 255
226 238 255
226 238 255
226 238 255
226 238 255
226 238 255
226 238 255
226 238 255
226 238 255
226 238 255
226 238 255
226 238 255
226 238 255
226 238 255
226 238 255
226 238 255
226 238 255
226 238 255
226 238 255
226 238 255
226 238 255
226 238 255
226 238 255
226 238 255
226 238 255
226 238 255
226 238 255
226 238 255
226 238 255
226 238 255
225 238 255
225 238 255
225 238 255
225 238 255
225 238 255
225 238 255
225 238 255
225 238 255
225 238 255
225 238 255
225 238 255
225 238 255
225 238 255
225 238 255
225 238 255
225 238 255
225 238 255
225 238 255
225 238 255
225 238 255
225 238 255
225 238 255
225 238 255
225 238 255
225 238 255
225 238 255
225 238 255
225 238 255
225 238 255
225 238 255
225 238 255
225 238 255
225 238 255
225 238 255
225 238 255
225 238 255
225 238 255
225 238 255
225 238 255
225 238 255
225 238 255
225 238 255
225 238 255
225 238 255
225 238 255
225 238 255
225 238 255
225 238 255
225 238 255
225 238 255
225 238 255
225 238 255
225 238 255
225 237 255
225 237 255
225 237 255
225 237 255
225 237 255
225 237 255
225 237 255
225 237 255
225 237 255
225 237 255
225 237 255
225 237 255
225 237 255
225 237 255
225 237 255
224 237 255
224 237 255
224 237 255
224 237 255
224 237 255
224 237 255
224 237 255
224 237 255
224 237 255
224 237 255
224 237 255
224 237 255
224 237 255
224 237 255
224 237 255
224 237 255
225 237 255
225 237 255
225 237 255
225 237 255
225 237 255
225 237 255
225 237 255
225 237 255
225 237 255
225 237 255
225 237 255
225 237 255
225 237 255
225 237 255
225 237 255
225 237 255
225 237 255
225 238 255
225 238 255
225 238 255
225 238 255
225 238 255
225 238 255
225 238 255
225 238 255
225 238 255
225 238 255
225 238 255
225 238 255
225 238 255
225 238 255
225 238 255
225 238 255
225 238 255
225 238 255
225 238 255
225 238 255
225 238 255
225 238 255
225 238 255
225 238 255
225 238 255
225 238 255
225 238 255
225 238 255
225 238 255
225 238 255
225 238 255
225 238 255
225 238 255
225 238 255
225 238 255
225 238 255
225 238 255
225 238 255
225 238 255
225 238 255
225 238 255
225 238 255
225 238 255
225 238 255
225 238 255
225 238 255
225 238 255
225 238 255
225 238 255
225 238 255
225 238 255
225 238 255
225 238 255
226 238 255
226 238 255
226 238 255
226 238 255
226 238 255
226 238 255
226 238 255
226 238 255
226 238 255
226 238 255
226 238 255
226 238 255
226 238 255
226 238 255
226 238 255
226 238 255
226 238 255
226 238 255
226 238 255
226 238 255
226 238 255
226 238 255
226 238 255
226 238 255
226 238 255
226 238 255
226 238 255
226 238 255
226 238 255
226 238 255
226 238 255
226 238 255
226 238 255
226 238 255
226 238 255
226 238 255
226 238 255
226 238 255
226 238 255
226 238 255
226 238 255
226 238 255
226 238 255
226 238 255
226 238 255
226 238 255
226 238 255
226 238 255
226 238 255
226 238 255
226 238 255
226 238 255
226 239 255
226 239 255
227 239 255
227 239 255
227 239 255
227 239 255
227 239 255
227 239 255
227 239 255
227 239 255
227 239 255
227 239 255
227 239 255
227 239 255
227 239 255
227 239 255
227 239 255
227 239 255
227 239 255
227 239 255
227 239 255
227 239 255
227 239 255
227 239 255
227 239 255
227 239 255
227 239 255
227 239 255
227 239 255
227 239 255
227 239 255
227 239 255
227 239 255
227 239 255
227 239 255
227 239 255
227 239 255
227 239 255
227 239 255
227 239 255
227 239 255
227 239 255
227 239 255
227 239 255
227 239 255
227 239 255
227 239 255
227 239 255
227 239 255
227 239 255
227 239 255
227 239 255
227 239 255
227 239 255
227 239 255
227 239 255
227 239 255
227 239 255
227 239 255
227 239 255
227 239 255
227 239 255
227 239 255
227 239 255
227 239 255
227 239 255
227 239 255
227 239 255
227 239 255
227 239 255
227 239 255
227 239 255
227 239 255
227 239 255
227 239 255
227 239 255
227 239 255
227 239 255
227 239 255
227 239 255
227 239 255
227 239 255
227 239 255
227 239 255
227 239 255
227 239 255
227 239 255
227 239 255
227 239 255
227 239 255
227 239 255
227 239 255
227 239 255
227 239 255
227 239 255
227 239 255
227 239 255
227 239 255
227 239 255
227 239 255
227 239 255
227 239 255
227 239 255
227 239 255
227 239 255
227 239 255
227 239 255
227 239 255
227 239 255
227 239 255
227 239 255
227 239 255
227 239 255
227 239 255
227 239 255
227 239 255
227 239 255
227 239 255
227 239 255
227 239 255
227 239 255
227 239 255
227 239 255
227 239 255
227 239 255
227 239 255
227 239 255
227 239 255
227 239 255
227 239 255
227 239 255
227 239 255
227 239 255
227 239 255
227 239 255
227 239 255
227 239 255
227 239 255
227 239 255
227 239 255
227 239 255
227 239 255
227 239 255
227 239 255
227 239 255
227 239 255
227 239 255
227 239 255
227 239 255
227 239 255
227 239 255
226 239 255
226 238 255
226 238 255
226 238 255
226 238 255
226 238 255
226 238 255
226 238 255
226 238 255
226 238 255
226 238 255
226 238 255
226 238 255
226 238 255
226 238 255
226 238 255
226 238 255
226 238 255
226 238 255
226 238 255
226 238 255
226 238 255
226 238 255
226 238 255
226 238 255
226 238 255
226 238 255
226 238 255
226 238 255
226 238 255
226 238 255
226 238 255
226 238 255
226 238 255
226 238 255
226 238 255
226 238 255
226 238 255
226 238 255
226 238 255
226 238 255
226 238 255
226 238 255
226 238 255
226 238 255
226 238 255
226 238 255
226 238 255
226 238 255
226 238 255
226 238 255
226 238 255
226 238 255
225 238 255
225 238 255
225 238 255
225 238 255
225 238 255
225 238 255
225 238 255
225 238 255
225 238 255
225 238 255
225 238 255
225 238 255
225 238 255
225 238 255
225 238 255
225 238 255
225 238 255
225 238 255
225 238 255
225 238 255
225 238 255
225 238 255
225 238 255
225 238 255
225 238 255
225 238 255
225 238 255
225 238 255
225 238 255
225 238 255
225 238 255
225 238 255
225 238 255
225 238 255
225 238 255
225 238 255
225 238 255
225 238 255
225 238 255
225 238 255
225 238 255
225 238 255
225 238 255
225 238 255
225 238 255
225 238 255
225 238 255
225 238 255
225 238 255
225 238 255
225 238 255
225 238 255
225 238 255
225 237 255
225 237 255
225 237 255
225 237 255
225 237 255
225 237 255
225 237 255
225 237 255
225 237 255
225 237 255
225 237 255
225 237 255
225 237 255
225 237 255
225 237 255
225 237 255
224 237 255
224 237 255
224 237 255
225 237 255
225 237 255
225 237 255
225 237 255
225 237 255
225 237 255
225 237 255
225 237 255
225 238 255
225 238 255
225 238 255
225 238 255
225 238 255
225 238 255
225 238 255
225 238 255
225 238 255
225 238 255
225 238 255
225 238 255
225 238 255
225 238 255
225 238 255
225 238 255
225 238 255
225 238 255
225 238 255
225 238 255
225 238 255
225 238 255
225 238 255
225 238 255
225 238 255
225 238 255
225 238 255
225 238 255
225 238 255
225 238 255
225 238 255
225 238 255
225 238 255
225 238 255
225 238 255
225 238 255
225 238 255
225 238 255
225 238 255
225 238 255
225 238 255
225 238 255
225 238 255
225 238 255
225 238 255
225 238 255
225 238 255
225 238 255
225 238 255
225 238 255
225 238 255
225 238 255
225 238 255
225 238 255
226 238 255
226 238 255
226 238 255
226 238 255
226 238 255
226 238 255
226 238 255
226 238 255
226 238 255
226 238 255
226 238 255
226 238 255
226 238 255
226 238 255
226 238 255
226 238 255
226 238 255
226 238 255
226 238 255
226 238 255
226 238 255
226 238 255
226 238 255
226 238 255
226 238 255
226 238 255
226 238 255
226 238 255
226 238 255
226 238 255
226 238 255
226 238 255
226 238 255
226 238 255
226 238 255
226 238 255
226 238 255
226 238 255
226 238 255
226 238 255
226 238 255
226 238 255
226 238 255
226 238 255
226 238 255
226 238 255
226 238 255
226 238 255
226 238 255
226 238 255
226 239 255
226 239 255
226 239 255
227 239 255
227 239 255
227 239 255
227 239 255
227 239 255
227 239 255
227 239 255
227 239 255
227 239 255
227 239 255
227 239 255
227 239 255
227 239 255
227 239 255
227 239 255
227 239 255
227 239 255
227 239 255
227 239 255
227 239 255
227 239 255
227 239 255
227 239 255
227 239 255
227 239 255
227 239 255
227 239 255
227 239 255
227 239 255
227 239 255
227 239 255
227 239 255
227 239 255
227 239 255
227 239 255
227 239 255
227 239 255
227 239 255
227 239 255
227 239 255
227 239 255
227 239 255
227 239 255
227 239 255
227 239 255
227 239 255
227 239 255
227 239 255
227 239 255
227 239 255
227 239 255
227 239 255
227 239 255
227 239 255
227 239 255
227 239 255
227 239 255
227 239 255
227 239 255
227 239 255
227 239 255
227 239 255
228 239 255
228 239 255
228 239 255
228 239 255
228 239 255
228 239 255
228 239 255
228 239 255
228 239 255
228 239 255
228 239 255
228 239 255
228 239 255
228 239 255
228 239 255
228 239 255
228 239 255
228 239 255
228 239 255
228 239 255
228 239 255
228 239 255
228 239 255
228 239 255
228 239 255
228 239 255
228 239 255
228 239 255
228 239 255
228 239 255
228 239 255
228 239 255
228 239 255
228 239 255
228 239 255
228 239 255
228 239 255
228 239 255
228 239 255
228 239 255
228 239 255
228 239 255
228 239 255
228 239 255
228 239 255
228 239 255
228 239 255
227 239 255
227 239 255
227 239 255
227 239 255
227 239 255
227 239 255
227 239 255
227 239 255
227 239 255
227 239 255
227 239 255
227 239 255
227 239 255
227 239 255
227 239 255
227 239 255
227 239 255
227 239 255
227 239 255
227 239 255
227 239 255
227 239 255
227 239 255
227 239 255
227 239 255
227 239 255
227 239 255
227 239 255
227 239 255
227 239 255
227 239 255
227 239 255
227 239 255
227 239 255
227 239 255
227 239 255
227 239 255
227 239 255
227 239 255
227 239 255
227 239 255
227 239 255
227 239 255
227 239 255
227 239 255
227 239 255
227 239 255
227 239 255
227 239 255
227 239 255
227 239 255
227 239 255
227 239 255
227 239 255
227 239 255
227 239 255
227 239 255
227 239 255
227 239 255
227 239 255
227 239 255
226 239 255
226 239 255
226 238 255
226 238 255
226 238 255
226 238 255
226 238 255
226 238 255
226 238 255
226 238 255
226 238 255
226 238 255
226 238 255
226 238 255
226 238 255
226 238 255
226 238 255
226 238 255
226 238 255
226 238 255
226 238 255
226 238 255
226 238 255
226 238 255
226 238 255
226 238 255
226 238 255
226 238 255
226 238 255
226 238 255
226 238 255
226 238 255
226 238 255
226 238 255
226 238 255
226 238 255
226 238 255
226 238 255
226 238 255
226 238 255
226 238 255
226 238 255
226 238 255
226 238 255
226 238 255
226 238 255
226 238 255
226 238 255
226 238 255
226 238 255
226 238 255
226 238 255
226 238 255
225 238 255
225 238 255
225 238 255
225 238 255
225 238 255
225 238 255
225 238 255
225 238 255
225 238 255
225 238 255
225 238 255
225 238 255
225 238 255
225 238 255
225 238 255
225 238 255
225 238 255
225 238 255
225 238 255
225 238 255
225 238 255
225 238 255
225 238 255
225 238 255
225 238 255
225 238 255
225 238 255
225 238 255
225 238 255
225 238 255
225 238 255
225 238 255
225 238 255
225 238 255
225 238 255
225 238 255
225 238 255
225 238 255
225 238 255
225 238 255
225 238 255
225 238 255
225 238 255
225 238 255
225 238 255
225 238 255
225 238 255
225 238 255
225 238 255
225 238 255
225 238 255
225 238 255
225 238 255
225 237 255
225 237 255
225 237 255
225 237 255
225 237 255
225 237 255
225 237 255
225 237 255
225 237 255
225 238 255
225 238 255
225 238 255
225 238 255
225 238 255
225 238 255
225 238 255
225 238 255
225 238 255
225 238 255
225 238 255
225 238 255
225 238 255
225 238 255
225 238 255
225 238 255
225 238 255
225 238 255
225 238 255
225 238 255
225 238 255
225 238 255
225 238 255
225 238 255
225 238 255
225 238 255
225 238 255
225 238 255
225 238 255
225 238 255
225 238 255
225 238 255
225 238 255
225 238 255
225 238 255
225 238 255
225 238 255
225 238 255
225 238 255
225 238 255
225 238 255
225 238 255
225 238 255
225 238 255
225 238 255
225 238 255
225 238 255
225 238 255
225 238 255
225 238 255
225 238 255
226 238 255
226 238 255
226 238 255
226 238 255
226 238 255
226 238 255
226 238 255
226 238 255
226 238 255
226 238 255
226 238 255
226 238 255
226 238 255
226 238 255
226 238 255
226 238 255
226 238 255
226 238 255
226 238 255
226 238 255
226 238 255
226 238 255
226 238 255
226 238 255
226 238 255
226 238 255
226 238 255
226 238 255
226 238 255
226 238 255
226 238 255
226 238 255
226 238 255
226 238 255
226 238 255
226 238 255
226 238 255
226 238 255
226 238 255
226 238 255
226 238 255
226 238 255
226 238 255
226 238 255
226 238 255
226 238 255
226 238 255
226 238 255
226 238 255
226 238 255
226 238 255
226 238 255
226 239 255
226 239 255
227 239 255
227 239 255
227 239 255
227 239 255
227 239 255
227 239 255
227 239 255
227 239 255
227 239 255
227 239 255
227 239 255
227 239 255
227 239 255
227 239 255
227 239 255
227 239 255
227 239 255
227 239 255
227 239 255
227 239 255
227 239 255
227 239 255
227 239 255
227 239 255
227 239 255
227 239 255
227 239 255
227 239 255
227 239 255
227 239 255
227 239 255
227 239 255
227 239 255
227 239 255
227 239 255
227 239 255
227 239 255
227 239 255
227 239 255
227 239 255
227 239 255
227 239 255
227 239 255
227 239 255
227 239 255
227 239 255
227 239 255
227 239 255
227 239 255
227 239 255
227 239 255
228 239 255
228 239 255
228 239 255
228 239 255
228 239 255
228 239 255
228 239 255
228 239 255
228 239 255
228 239 255
228 239 255
228 239 255
228 239 255
228 239 255
228 239 255
228 239 255
228 239 255
228 239 255
228 239 255
228 239 255
228 239 255
228 239 255
228 239 255
228 239 255
228 239 255
228 239 255
228 239 255
228 239 255
228 239 255
228 239 255
228 239 255
228 239 255
228 239 255
228 239 255
228 239 255
228 239 255
228 239 255
228 239 255
228 239 255
228 239 255
228 239 255
228 239 255
228 239 255
228 239 255
228 239 255
228 239 255
228 239 255
228 239 255
228 239 255
228 239 255
228 239 255
228 239 255
228 239 255
228 239 255
228 239 255
228 239 255
228 239 255
228 239 255
228 239 255
228 239 255
228 239 255
228 239 255
228 239 255
228 239 255
228 239 255
228 239 255
228 239 255
228 239 255
228 239 255
228 239 255
228 239 255
228 239 255
228 239 255
228 239 255
228 239 255
228 239 255
228 239 255
228 239 255
228 239 255
228 239 255
228 239 255
228 239 255
228 239 255
228 239 255
228 239 255
228 239 255
228 239 255
227 239 255
227 239 255
227 239 255
227 239 255
227 239 255
227 239 255
227 239 255
227 239 255
227 239 255
227 239 255
227 239 255
227 239 255
227 239 255
227 239 255
227 239 255
227 239 255
227 239 255
227 239 255
227 239 255
227 239 255
227 239 255
227 239 255
227 239 255
227 239 255
227 239 255
227 239 255
227 239 255
227 239 255
227 239 255
227 239 255
227 239 255
227 239 255
227 239 255
227 239 255
227 239 255
227 239 255
227 239 255
227 239 255
227 239 255
227 239 255
227 239 255
227 239 255
227 239 255
227 239 255
227 239 255
227 239 255
227 239 255
227 239 255
227 239 255
227 239 255
227 239 255
227 239 255
227 239 255
226 239 255
226 238 255
226 238 255
226 238 255
226 238 255
226 238 255
226 238 255
226 238 255
226 238 255
226 238 255
226 238 255
226 238 255
226 238 255
226 238 255
226 238 255
226 238 255
226 238 255
226 238 255
226 238 255
226 238 255
226 238 255
226 238 255
226 238 255
226 238 255
226 238 255
226 238 255
226 238 255
226 238 255
226 238 255
226 238 255
226 238 255
226 238 255
226 238 255
226 238 255
226 238 255
226 238 255
226 238 255
226 238 255
226 238 255
226 238 255
226 238 255
226 238 255
226 238 255
226 238 255
226 238 255
226 238 255
226 238 255
226 238 255
226 238 255
226 238 255
226 238 255
225 238 255
225 238 255
225 238 255
225 238 255
225 238 255
225 238 255
225 238 255
225 238 255
225 238 255
225 238 255
225 238 255
225 238 255
225 238 255
225 238 255
225 238 255
225 238 255
225 238 255
225 238 255
225 238 255
225 238 255
225 238 255
225 238 255
225 238 255
225 238 255
225 238 255
225 238 255
225 238 255
225 238 255
225 238 255
225 238 255
225 238 255
225 238 255
225 238 255
225 238 255
225 238 255
225 238 255
225 238 255
225 238 255
225 238 255
225 238 255
225 238 255
225 238 255
225 238 255
225 238 255
225 238 255
225 238 255
225 238 255
225 238 255
225 238 255
225 238 255
225 238 255
225 238 255
225 238 255
225 238 255
225 238 255
225 238 255
225 238 255
225 238 255
225 238 255
225 238 255
225 238 255
225 238 255
225 238 255
225 238 255
225 238 255
225 238 255
225 238 255
225 238 255
225 238 255
225 238 255
225 238 255
225 238 255
225 238 255
225 238 255
225 238 255
225 238 255
225 238 255
225 238 255
225 238 255
225 238 255
225 238 255
225 238 255
225 238 255
225 238 255
225 238 255
225 238 255
225 238 255
225 238 255
225 238 255
225 238 255
225 238 255
225 238 255
225 238 255
225 238 255
225 238 255
225 238 255
226 238 255
226 238 255
226 238 255
226 238 255
226 238 255
226 238 255
226 238 255
226 238 255
226 238 255
226 238 255
226 238 255
226 238 255
226 238 255
226 238 255
226 238 255
226 238 255
226 238 255
226 238 255
226 238 255
226 238 255
226 238 255
226 238 255
226 238 255
226 238 255
226 238 255
226 238 255
226 238 255
226 238 255
226 238 255
226 238 255
226 238 255
226 238 255
226 238 255
226 238 255
226 238 255
226 238 255
226 238 255
226 238 255
226 238 255
226 238 255
226 238 255
226 238 255
226 238 255
226 238 255
226 238 255
226 238 255
226 238 255
226 238 255
226 238 255
226 238 255
226 239 255
226 239 255
226 239 255
227 239 255
227 239 255
227 239 255
227 239 255
227 239 255
227 239 255
227 239 255
227 239 255
227 239 255
227 239 255
227 239 255
227 239 255
227 239 255
227 239 255
227 239 255
227 239 255
227 239 255
227 239 255
227 239 255
227 239 255
227 239 255
227 239 255
227 239 255
227 239 255
227 239 255
227 239 255
227 239 255
227 239 255
227 239 255
227 239 255
227 239 255
227 239 255
227 239 255
227 239 255
227 239 255
227 239 255
227 239 255
227 239 255
227 239 255
227 239 255
227 239 255
227 239 255
227 239 255
227 239 255
227 239 255
227 239 255
227 239 255
228 239 255
228 239 255
228 239 255
228 239 255
228 239 255
228 239 255
228 239 255
228 239 255
228 239 255
228 239 255
228 239 255
228 239 255
228 239 255
228 239 255
228 239 255
228 239 255
228 239 255
228 239 255
228 239 255
228 239 255
228 239 255
228 239 255
228 239 255
228 239 255
228 239 255
228 239 255
228 239 255
228 239 255
228 239 255
228 239 255
228 239 255
228 239 255
228 239 255
228 239 255
228 239 255
228 239 255
228 239 255
228 239 255
228 239 255
228 239 255
228 239 255
228 239 255
228 239 255
228 239 255
228 239 255
228 239 255
228 239 255
228 239 255
228 239 255
228 239 255
228 239 255
228 239 255
228 239 255
228 239 255
228 239 254
227 239 253
227 238 252
228 239 254
226 238 250
228 239 254
228 239 254
228 239 255
228 239 255
228 239 255
228 239 255
228 239 255
228 239 255
228 239 255
228 239 255
228 239 255
228 239 255
228 239 255
228 239 255
228 239 255
228 239 255
228 239 255
228 239 255
228 239 255
228 239 255
228 239 255
228 239 255
228 239 255
228 239 255
228 239 255
228 239 255
228 239 255
228 239 255
228 239 255
228 239 255
228 239 255
228 239 255
228 239 255
228 239 255
228 239 255
228 239 255
228 239 255
228 239 255
228 239 255
228 239 255
228 239 255
228 239 255
228 239 255
228 239 255
228 239 255
228 239 255
228 239 255
228 239 255
228 239 255
228 239 255
228 239 255
228 239 255
228 239 255
228 239 255
228 239 255
227 239 255
227 239 255
227 239 255
227 239 255
227 239 255
227 239 255
227 239 255
227 239 255
227 239 255
227 239 255
227 239 255
227 239 255
227 239 255
227 239 255
227 239 255
227 239 255
227 239 255
227 239 255
227 239 255
227 239 255
227 239 255
227 239 255
227 239 255
227 239 255
227 239 255
227 239 255
227 239 255
227 239 255
227 239 255
227 239 255
227 239 255
227 239 255
227 239 255
227 239 255
227 239 255
227 239 255
227 239 255
227 239 255
227 239 255
227 239 255
227 239 255
227 239 255
227 239 255
227 239 255
227 239 255
227 239 255
227 239 255
227 239 255
226 239 255
226 238 255
226 238 255
226 238 255
226 238 255
226 238 255
226 238 255
226 238 255
226 238 255
226 238 255
226 238 255
226 238 255
226 238 255
226 238 255
226 238 255
226 238 255
226 238 255
226 238 255
226 238 255
226 238 255
226 238 255
226 238 255
226 238 255
226 238 255
226 238 255
226 238 255
226 238 255
226 238 255
226 238 255
226 238 255
226 238 255
226 238 255
226 238 255
226 238 255
226 238 255
226 238 255
226 238 255
226 238 255
226 238 255
226 238 255
226 238 255
226 238 255
226 238 255
226 238 255
226 238 255
226 238 255
226 238 255
226 238 255
226 238 255
226 238 255
226 238 255
226 238 255
225 238 255
225 238 255
225 238 255
225 238 255
225 238 255
225 238 255
225 238 255
225 238 255
225 238 255
225 238 255
225 238 255
225 238 255
225 238 255
225 238 255
225 238 255
225 238 255
225 238 255
225 238 255
225 238 255
225 238 255
225 238 255
225 238 255
225 238 255
225 238 255
225 238 255
225 238 255
225 238 255
225 238 255
225 238 255
225 238 255
225 238 255
225 238 255
225 238 255
225 238 255
225 238 255
225 238 255
225 238 255
225 238 255
225 238 255
225 238 255
225 238 255
225 238 255
225 238 255
225 238 255
225 238 255
225 238 255
225 238 255
225 238 255
225 238 255
225 238 255
225 238 255
225 238 255
225 238 255
225 238 255
225 238 255
225 238 255
225 238 255
225 238 255
225 238 255
225 238 255
225 238 255
225 238 255
225 238 255
225 238 255
225 238 255
225 238 255
225 238 255
225 238 255
225 238 255
225 238 255
225 238 255
225 238 255
225 238 255
225 238 255
225 238 255
225 238 255
225 238 255
226 238 255
226 238 255
226 238 255
226 238 255
226 238 255
226 238 255
226 238 255
226 238 255
226 238 255
226 238 255
226 238 255
226 238 255
226 238 255
226 238 255
226 238 255
226 238 255
226 238 255
226 238 255
226 238 255
226 238 255
226 238 255
226 238 255
226 238 255
226 238 255
226 238 255
226 238 255
226 238 255
226 238 255
226 238 255
226 238 255
226 238 255
226 238 255
226 238 255
226 238 255
226 238 255
226 238 255
226 238 255
226 238 255
226 238 255
226 238 255
226 238 255
226 238 255
226 238 255
226 238 255
226 238 255
226 238 255
226 238 255
226 238 255
226 238 255
226 238 255
226 238 255
226 239 255
226 239 255
227 239 255
227 239 255
227 239 255
227 239 255
227 239 255
227 239 255
227 239 255
227 239 255
227 239 255
227 239 255
227 239 255
227 239 255
227 239 255
227 239 255
227 239 255
227 239 255
227 239 255
227 239 255
227 239 255
227 239 255
227 239 255
227 239 255
227 239 255
227 239 255
227 239 255
227 239 255
227 239 255
227 239 255
227 239 255
227 239 255
227 239 255
227 239 255
227 239 255
227 239 255
227 239 255
227 239 255
227 239 255
227 239 255
227 239 255
227 239 255
227 239 255
227 239 255
227 239 255
227 239 255
227 239 255
228 239 255
228 239 255
228 239 255
228 239 255
228 239 255
228 239 255
228 239 255
228 239 255
228 239 255
228 239 255
228 239 255
228 239 255
228 239 255
228 239 255
228 239 255
228 239 255
228 239 255
228 239 255
228 239 255
228 239 255
228 239 255
228 239 255
228 239 255
228 239 255
228 239 255
228 239 255
228 239 255
228 239 255
228 239 255
228 239 255
228 239 255
228 239 255
228 239 255
228 239 255
228 239 255
228 239 255
225 237 248
222 235 238
218 231 226
222 234 236
219 232 228
211 226 207
209 224 198
202 219 182
205 221 186
200 218 173
198 216 163
199 216 159
195 213 147
196 214 155
191 210 133
189 209 127
185 206 105
183 204 92
181 203 84
183 204 92
181 202 76
180 202 72
181 202 72
177 200 44
176 199 44
176 199 25
175 198 0
175 198 0
174 198 0
176 199 0
177 199 0
175 198 0
176 199 0
173 197 0
174 198 0
174 197 0
174 198 0
174 197 0
174 198 0
175 199 36
177 199 51
180 202 67
178 200 51
185 205 102
181 202 72
190 209 125
191 210 130
186 207 117
190 209 127
194 213 147
195 214 153
195 213 144
201 218 169
203 220 179
203 219 179
204 220 184
209 224 199
211 226 211
212 227 211
217 230 223
220 233 233
223 235 241
224 236 245
226 238 250
228 239 255
228 239 255
228 239 255
228 239 255
228 239 255
228 239 255
228 239 255
228 239 255
228 239 255
228 239 255
228 239 255
228 239 255
228 239 255
228 239 255
228 239 255
228 239 255
228 239 255
228 239 255
228 239 255
228 239 255
228 239 255
228 239 255
228 239 255
228 239 255
228 239 255
228 239 255
228 239 255
228 239 255
228 239 255
228 239 255
228 239 255
228 239 255
228 239 255
228 239 255
228 239 255
228 239 255
227 239 255
227 239 255
227 239 255
227 239 255
227 239 255
227 239 255
227 239 255
227 239 255
227 239 255
227 239 255
227 239 255
227 239 255
227 239 255
227 239 255
227 239 255
227 239 255
227 239 255
227 239 255
227 239 255
227 239 255
227 239 255
227 239 255
227 239 255
227 239 255
227 239 255
227 239 255
227 239 255
227 239 255
227 239 255
227 239 255
227 239 255
227 239 255
227 239 255
227 239 255
227 239 255
227 239 255
227 239 255
227 239 255
227 239 255
227 239 255
227 239 255
227 239 255
227 239 255
227 239 255
227 239 255
226 239 255
226 239 255
226 239 255
226 238 255
226 238 255
226 238 255
226 238 255
226 238 255
226 238 255
226 238 255
226 238 255
226 238 255
226 238 255
226 238 255
226 238 255
226 238 255
226 238 255
226 238 255
226 238 255
226 238 255
226 238 255
226 238 255
226 238 255
226 238 255
226 238 255
226 238 255
226 238 255
226 238 255
226 238 255
226 238 255
226 238 255
226 238 255
226 238 255
226 238 255
226 238 255
226 238 255
226 238 255
226 238 255
226 238 255
226 238 255
226 238 255
226 238 255
226 238 255
226 238 255
226 238 255
226 238 255
226 238 255
226 238 255
226 238 255
226 238 255
226 238 255
226 238 255
226 238 255
225 238 255
225 238 255
225 238 255
225 238 255
225 238 255
225 238 255
225 238 255
225 238 255
225 238 255
225 238 255
225 238 255
225 238 255
225 238 255
225 238 255
225 238 255
225 238 255
225 238 255
225 238 255
225 238 255
225 238 255
225 238 255
225 238 255
225 238 255
225 238 255
225 238 255
225 238 255
225 238 255
225 238 255
225 238 255
225 238 255
225 238 255
225 238 255
225 238 255
225 238 255
225 238 255
225 238 255
225 238 255
225 238 255
225 238 255
225 238 255
225 238 255
225 238 255
225 238 255
225 238 255
225 238 255
225 238 255
225 238 255
225 238 255
225 238 255
225 238 255
225 238 255
225 238 255
225 238 255
225 238 255
225 238 255
225 238 255
225 238 255
225 238 255
225 238 255
226 238 255
226 238 255
226 238 255
226 238 255
226 238 255
226 238 255
226 238 255
226 238 255
226 238 255
226 238 255
226 238 255
226 238 255
226 238 255
226 238 255
226 238 255
226 238 255
226 238 255
226 238 255
226 238 255
226 238 255
226 238 255
226 238 255
226 238 255
226 238 255
226 238 255
226 238 255
226 238 255
226 238 255
226 238 255
226 238 255
226 238 255
226 238 255
226 238 255
226 238 255
226 238 255
226 238 255
226 238 255
226 238 255
226 238 255
226 238 255
226 238 255
226 238 255
226 238 255
226 238 255
226 238 255
226 238 255
226 238 255
226 238 255
226 238 255
226 238 255
226 238 255
226 239 255
226 239 255
227 239 255
227 239 255
227 239 255
227 239 255
227 239 255
227 239 255
227 239 255
227 239 255
227 239 255
227 239 255
227 239 255
227 239 255
227 239 255
227 239 255
227 239 255
227 239 255
227 239 255
227 239 255
227 239 255
227 239 255
227 239 255
227 239 255
227 239 255
227 239 255
227 239 255
227 239 255
227 239 255
227 239 255
227 239 255
227 239 255
227 239 255
227 239 255
227 239 255
227 239 255
227 239 255
227 239 255
227 239 255
227 239 255
227 239 255
227 239 255
227 239 255
227 239 255
227 239 255
227 239 255
228 239 255
228 239 255
228 239 255
228 239 255
228 239 255
228 239 255
228 239 255
228 239 255
228 239 255
228 239 255
228 239 255
228 239 255
228 239 255
228 239 255
228 239 255
228 239 255
228 239 255
228 239 255
228 239 255
228 239 255
228 239 255
228 239 255
228 239 255
228 239 255
228 239 255
228 239 255
228 239 255
228 239 255
228 239 255
228 239 255
228 239 255
228 239 255
228 239 255
226 237 249
221 233 233
220 233 231
214 228 214
205 221 189
204 221 184
203 220 181
197 215 157
194 213 149
188 208 122
182 204 95
182 204 92
178 200 57
175 198 0
175 198 0
174 197 0
175 198 0
175 198 0
174 198 0
175 198 0
174 198 0
176 198 0
175 198 0
174 198 0
174 198 0
176 199 0
176 199 0
176 199 0
174 198 0
175 198 0
174 197 0
176 199 0
174 198 0
177 199 0
174 197 0
174 198 0
174 197 0
174 198 0
175 198 0
174 197 0
175 198 0
175 198 0
175 198 0
174 198 0
173 197 0
175 198 0
174 198 0
174 198 0
173 197 0
175 198 0
174 198 0
173 197 0
173 197 0
174 198 0
174 198 0
175 198 0
176 199 0
175 198 0
177 199 0
175 198 0
174 198 0
175 198 0
174 198 0
174 198 0
176 199 0
175 198 0
173 197 0
176 199 0
174 198 0
173 197 0
175 198 0
175 198 0
175 198 0
175 198 0
174 198 0
174 198 0
176 199 0
178 200 51
181 202 76
182 203 84
183 204 99
192 211 137
196 214 155
200 217 169
207 223 193
212 226 207
212 226 215
214 228 215
221 234 237
222 234 238
228 239 255
228 239 255
228 239 255
228 239 255
228 239 255
228 239 255
228 239 255
228 239 255
228 239 255
228 239 255
228 239 255
228 239 255
228 239 255
228 239 255
228 239 255
228 239 255
228 239 255
228 239 255
228 239 255
228 239 255
228 239 255
228 239 255
228 239 255
228 239 255
228 239 255
228 239 255
228 239 255
228 239 255
228 239 255
228 239 255
228 239 255
228 239 255
228 239 255
227 239 255
227 239 255
227 239 255
227 239 255
227 239 255
227 239 255
227 239 255
227 239 255
227 239 255
227 239 255
227 239 255
227 239 255
227 239 255
227 239 255
227 239 255
227 239 255
227 239 255
227 239 255
227 239 255
227 239 255
227 239 255
227 239 255
227 239 255
227 239 255
227 239 255
227 239 255
227 239 255
227 239 255
227 239 255
227 239 255
227 239 255
227 239 255
227 239 255
227 239 255
227 239 255
227 239 255
227 239 255
227 239 255
227 239 255
227 239 255
227 239 255
227 239 255
227 239 255
227 239 255
227 239 255
226 239 255
226 239 255
226 238 255
226 238 255
226 238 255
226 238 255
226 238 255
226 238 255
226 238 255
226 238 255
226 238 255
226 238 255
226 238 255
226 238 255
226 238 255
226 238 255
226 238 255
226 238 255
226 238 255
226 238 255
226 238 255
226 238 255
226 238 255
226 238 255
226 238 255
226 238 255
226 238 255
226 238 255
226 238 255
226 238 255
226 238 255
226 238 255
226 238 255
226 238 255
226 238 255
226 238 255
226 238 255
226 238 255
226 238 255
226 238 255
226 238 255
226 238 255
226 238 255
226 238 255
226 238 255
226 238 255
226 238 255
226 238 255
226 238 255
226 238 255
226 238 255
226 238 255
225 238 255
225 238 255
225 238 255
225 238 255
225 238 255
225 238 255
225 238 255
225 238 255
225 238 255
225 238 255
225 238 255
225 238 255
225 238 255
225 238 255
225 238 255
225 238 255
225 238 255
225 238 255
225 238 255
225 238 255
225 238 255
225 238 255
225 238 255
225 238 255
225 238 255
225 238 255
225 238 255
225 238 255
225 238 255
225 238 255
225 238 255
225 238 255
225 238 255
225 238 255
225 238 255
225 238 255
225 238 255
225 238 255
225 238 255
225 238 255
225 238 255
226 238 255
226 238 255
226 238 255
226 238 255
226 238 255
226 238 255
226 238 255
226 238 255
226 238 255
226 238 255
226 238 255
226 238 255
226 238 255
226 238 255
226 238 255
226 238 255
226 238 255
226 238 255
226 238 255
226 238 255
226 238 255
226 238 255
226 238 255
226 238 255
226 238 255
226 238 255
226 238 255
226 238 255
226 238 255
226 238 255
226 238 255
226 238 255
226 238 255
226 238 255
226 238 255
226 238 255
226 238 255
226 238 255
226 238 255
226 238 255
226 238 255
226 238 255
226 238 255
226 238 255
226 238 255
226 238 255
226 238 255
226 238 255
226 238 255
226 238 255
226 238 255
226 238 255
226 239 255
227 239 255
227 239 255
227 239 255
227 239 255
227 239 255
227 239 255
227 239 255
227 239 255
227 239 255
227 239 255
227 239 255
227 239 255
227 239 255
227 239 255
227 239 255
227 239 255
227 239 255
227 239 255
227 239 255
227 239 255
227 239 255
227 239 255
227 239 255
227 239 255
227 239 255
227 239 255
227 239 255
227 239 255
227 239 255
227 239 255
227 239 255
227 239 255
227 239 255
227 239 255
227 239 255
227 239 255
227 239 255
227 239 255
227 239 255
227 239 255
227 239 255
227 239 255
227 239 255
227 239 255
228 239 255
228 239 255
228 239 255
228 239 255
228 239 255
228 239 255
228 239 255
228 239 255
228 239 255
228 239 255
228 239 255
228 239 255
228 239 255
228 239 255
228 239 255
228 239 255
228 239 255
228 239 255
228 239 255
228 239 255
228 239 255
228 239 255
228 239 255
228 239 255
228 239 255
228 239 255
228 239 255
228 239 255
228 239 255
228 239 255
228 240 255
228 239 254
224 236 242
219 232 230
207 223 194
212 227 209
204 221 184
201 218 171
193 212 142
189 209 130
181 203 84
177 199 44
175 198 0
173 197 0
174 198 0
174 198 0
174 197 0
173 197 0
174 198 0
173 197 0
174 198 0
175 198 0
176 199 0
173 197 0
175 198 0
174 197 0
175 198 0
174 198 0
175 198 0
174 197 0
175 198 0
177 199 0
176 199 0
175 198 0
175 198 0
173 197 0
174 198 0
173 196 0
175 198 0
175 198 0
174 198 0
173 197 0
173 197 0
175 198 0
175 198 0
175 198 0
175 198 0
174 198 0
177 199 0
173 197 0
176 198 0
176 198 0
175 198 0
175 198 0
175 198 0
174 198 0
176 198 0
176 198 0
175 198 0
175 198 0
175 198 0
174 197 0
176 198 0
174 198 0
176 199 0
173 197 0
173 197 0
172 197 0
174 198 0
176 199 0
173 197 0
174 198 0
175 198 0
173 197 0
174 198 0
174 198 0
174 198 0
175 198 0
174 198 0
174 198 0
174 198 0
175 198 0
174 198 0
174 197 0
175 198 0
173 197 0
173 197 0
173 197 0
175 198 0
175 198 0
175 198 0
174 198 0
173 197 0
177 199 0
175 198 0
174 198 0
175 198 0
174 198 0
175 198 0
177 199 0
176 199 0
174 198 0
177 199 62
181 203 76
186 206 105
191 210 135
203 219 179
201 218 171
203 220 181
213 228 214
216 230 220
218 231 228
227 238 252
228 240 255
228 239 255
228 239 255
228 239 255
228 239 255
228 239 255
228 239 255
228 239 255
228 239 255
228 239 255
228 239 255
228 239 255
228 239 255
228 239 255
228 239 255
228 239 255
228 239 255
228 239 255
228 239 255
228 239 255
228 239 255
228 239 255
228 239 255
228 239 255
228 239 255
228 239 255
228 239 255
228 239 255
228 239 255
228 239 255
228 239 255
227 239 255
227 239 255
227 239 255
227 239 255
227 239 255
227 239 255
227 239 255
227 239 255
227 239 255
227 239 255
227 239 255
227 239 255
227 239 255
227 239 255
227 239 255
227 239 255
227 239 255
227 239 255
227 239 255
227 239 255
227 239 255
227 239 255
227 239 255
227 239 255
227 239 255
227 239 255
227 239 255
227 239 255
227 239 255
227 239 255
227 239 255
227 239 255
227 239 255
227 239 255
227 239 255
227 239 255
227 239 255
227 239 255
227 239 255
227 239 255
227 239 255
227 239 255
227 239 255
227 239 255
226 239 255
226 238 255
226 238 255
226 238 255
226 238 255
226 238 255
226 238 255
226 238 255
226 238 255
226 238 255
226 238 255
226 238 255
226 238 255
226 238 255
226 238 255
226 238 255
226 238 255
226 238 255
226 238 255
226 238 255
226 238 255
226 238 255
226 238 255
226 238 255
226 238 255
226 238 255
226 238 255
226 238 255
226 238 255
226 238 255
226 238 255
226 238 255
226 238 255
226 238 255
226 238 255
226 238 255
226 238 255
226 238 255
226 238 255
226 238 255
226 238 255
226 238 255
226 238 255
226 238 255
226 238 255
226 238 255
226 238 255
226 238 255
226 238 255
226 238 255
226 238 255
226 238 255
226 238 255
225 238 255
225 238 255
225 238 255
225 238 255
225 238 255
225 238 255
225 238 255
225 238 255
225 238 255
225 238 255
225 238 255
225 238 255
225 238 255
225 238 255
225 238 255
225 238 255
225 238 255
225 238 255
225 238 255
225 238 255
225 238 255
225 238 255
225 238 255
225 238 255
226 238 255
226 238 255
226 238 255
226 238 255
226 238 255
226 238 255
226 238 255
226 238 255
226 238 255
226 238 255
226 238 255
226 238 255
226 238 255
226 238 255
226 238 255
226 238 255
226 238 255
226 238 255
226 238 255
226 238 255
226 238 255
226 238 255
226 238 255
226 238 255
226 238 255
226 238 255
226 238 255
226 238 255
226 238 255
226 238 255
226 238 255
226 238 255
226 238 255
226 238 255
226 238 255
226 238 255
226 238 255
226 238 255
226 238 255
226 238 255
226 238 255
226 238 255
226 238 255
226 238 255
226 238 255
226 238 255
226 238 255
226 238 255
226 238 255
226 238 255
226 238 255
226 238 255
226 239 255
226 239 255
227 239 255
227 239 255
227 239 255
227 239 255
227 239 255
227 239 255
227 239 255
227 239 255
227 239 255
227 239 255
227 239 255
227 239 255
227 239 255
227 239 255
227 239 255
227 239 255
227 239 255
227 239 255
227 239 255
227 239 255
227 239 255
227 239 255
227 239 255
227 239 255
227 239 255
227 239 255
227 239 255
227 239 255
227 239 255
227 239 255
227 239 255
227 239 255
227 239 255
227 239 255
227 239 255
227 239 255
227 239 255
227 239 255
227 239 255
227 239 255
227 239 255
227 239 255
228 239 255
228 239 255
228 239 255
228 239 255
228 239 255
228 239 255
228 239 255
228 239 255
228 239 255
228 239 255
228 239 255
228 239 255
228 239 255
228 239 255
228 239 255
228 239 255
228 239 255
228 239 255
228 239 255
228 239 255
228 239 255
228 239 255
228 239 255
228 239 255
228 239 255
228 239 255
228 239 255
228 239 255
228 239 255
228 240 255
228 240 255
228 240 255
221 234 236
214 228 212
212 226 206
203 219 175
204 220 181
191 210 130
187 207 117
183 204 88
176 199 25
175 198 0
174 198 0
176 198 0
174 197 0
176 198 0
173 197 0
173 197 0
175 198 0
174 198 0
176 199 0
174 198 0
175 198 0
175 198 0
173 196 0
175 198 0
175 198 0
174 198 0
174 197 0
175 198 0
176 199 0
174 198 0
175 198 0
174 197 0
175 198 0
175 198 0
176 199 0
175 198 0
174 197 0
174 198 0
176 199 0
176 198 0
175 198 0
174 197 0
175 198 0
174 198 0
174 198 0
174 198 0
173 196 0
175 198 0
174 198 0
174 197 0
177 199 0
175 198 0
176 199 0
174 198 0
177 199 0
175 198 0
174 197 0
174 197 0
174 197 0
174 197 0
176 198 0
175 198 0
174 198 0
173 197 0
176 199 0
172 197 0
175 198 0
175 198 0
174 198 0
175 198 0
174 198 0
174 197 0
175 198 0
175 198 0
173 197 0
172 197 0
175 198 0
173 197 0
173 197 0
176 199 0
175 198 0
174 197 0
174 198 0
176 198 0
175 198 0
175 198 0
174 198 0
174 198 0
176 198 0
175 198 0
174 197 0
174 198 0
174 197 0
174 198 0
175 198 0
175 198 0
176 198 0
176 198 0
175 198 0
174 198 0
173 197 0
175 198 0
176 198 0
175 198 0
175 198 0
175 198 0
175 198 0
175 198 0
175 198 0
174 197 0
174 198 0
175 198 0
175 198 0
175 198 0
175 198 0
174 197 0
175 198 0
174 198 0
175 198 0
174 198 0
179 201 67
184 205 108
195 213 144
193 212 142
206 222 191
214 228 214
216 230 220
222 235 238
228 239 254
228 240 255
228 240 255
228 240 255
228 239 255
228 239 255
228 239 255
228 239 255
228 239 255
228 239 255
228 239 255
228 239 255
228 239 255
228 239 255
228 239 255
228 239 255
228 239 255
228 239 255
228 239 255
228 239 255
228 239 255
228 239 255
228 239 255
228 239 255
228 239 255
228 239 255
228 239 255
228 239 255
228 239 255
228 239 255
228 239 255
228 239 255
227 239 255
227 239 255
227 239 255
227 239 255
227 239 255
227 239 255
227 239 255
227 239 255
227 239 255
227 239 255
227 239 255
227 239 255
227 239 255
227 239 255
227 239 255
227 239 255
227 239 255
227 239 255
227 239 255
227 239 255
227 239 255
227 239 255
227 239 255
227 239 255
227 239 255
227 239 255
227 239 255
227 239 255
227 239 255
227 239 255
227 239 255
227 239 255
227 239 255
227 239 255
227 239 255
227 239 255
227 239 255
227 239 255
227 239 255
227 239 255
227 239 255
227 239 255
226 239 255
226 239 255
226 238 255
226 238 255
226 238 255
226 238 255
226 238 255
226 238 255
226 238 255
226 238 255
226 238 255
226 238 255
226 238 255
226 238 255
226 238 255
226 238 255
226 238 255
226 238 255
226 238 255
226 238 255
226 238 255
226 238 255
226 238 255
226 238 255
226 238 255
226 238 255
226 238 255
226 238 255
226 238 255
226 238 255
226 238 255
226 238 255
226 238 255
226 238 255
226 238 255
226 238 255
226 238 255
226 238 255
226 238 255
226 238 255
226 238 255
226 238 255
226 238 255
226 238 255
226 238 255
226 238 255
226 238 255
226 238 255
226 238 255
226 238 255
226 238 255
226 238 255
226 238 255
226 238 255
226 238 255
225 238 255
225 238 255
225 238 255
225 238 255
225 238 255
225 238 255
225 238 255
226 238 255
226 238 255
226 238 255
226 238 255
226 238 255
226 238 255
226 238 255
226 238 255
226 238 255
226 238 255
226 238 255
226 238 255
226 238 255
226 238 255
226 238 255
226 238 255
226 238 255
226 238 255
226 238 255
226 238 255
226 238 255
226 238 255
226 238 255
226 238 255
226 238 255
226 238 255
226 238 255
226 238 255
226 238 255
226 238 255
226 238 255
226 238 255
226 238 255
226 238 255
226 238 255
226 238 255
226 238 255
226 238 255
226 238 255
226 238 255
226 238 255
226 238 255
226 238 255
226 238 255
226 238 255
226 238 255
226 238 255
226 238 255
226 238 255
226 238 255
226 238 255
226 238 255
226 239 255
226 239 255
227 239 255
227 239 255
227 239 255
227 239 255
227 239 255
227 239 255
227 239 255
227 239 255
227 239 255
227 239 255
227 239 255
227 239 255
227 239 255
227 239 255
227 239 255
227 239 255
227 239 255
227 239 255
227 239 255
227 239 255
227 239 255
227 239 255
227 239 255
227 239 255
227 239 255
227 239 255
227 239 255
227 239 255
227 239 255
227 239 255
227 239 255
227 239 255
227 239 255
227 239 255
227 239 255
227 239 255
227 239 255
227 239 255
227 239 255
227 239 255
227 239 255
227 239 255
228 239 255
228 239 255
228 239 255
228 239 255
228 239 255
228 239 255
228 239 255
228 239 255
228 239 255
228 239 255
228 239 255
228 239 255
228 239 255
228 239 255
228 239 255
228 239 255
228 239 255
228 239 255
228 239 255
228 239 255
228 239 255
228 239 255
228 239 255
228 239 255
228 239 255
228 239 255
228 239 255
228 239 255
228 240 255
228 240 255
228 240 255
228 240 255
217 231 224
215 229 220
206 221 189
201 218 173
195 213 149
193 212 137
184 205 99
176 199 25
174 198 0
175 198 0
173 197 0
175 198 0
176 198 0
174 198 0
175 198 0
175 198 0
175 198 0
174 198 0
175 198 0
176 199 0
175 198 0
174 197 0
174 198 0
175 198 0
176 199 0
174 198 0
176 199 0
176 198 0
176 199 0
176 199 0
174 198 0
175 198 0
174 198 0
175 198 0
175 198 0
173 197 0
172 197 0
174 197 0
175 198 0
174 198 0
175 198 0
173 197 0
175 198 0
173 197 0
175 198 0
174 198 0
175 198 0
174 198 0
175 198 0
173 197 0
175 198 0
173 197 0
174 198 0
173 197 0
174 198 0
173 197 0
175 198 0
175 198 0
174 198 0
174 198 0
174 198 0
175 198 0
175 198 0
175 198 0
173 197 0
172 196 0
174 198 0
174 197 0
174 197 0
174 198 0
173 197 0
175 198 0
176 198 0
176 199 0
175 198 0
174 198 0
174 198 0
174 198 0
174 197 0
174 198 0
175 198 0
175 198 0
173 197 0
174 198 0
175 198 0
175 198 0
175 198 0
174 197 0
173 197 0
175 198 0
174 198 0
175 198 0
174 198 0
174 198 0
173 197 0
176 199 0
174 198 0
176 199 0
175 198 0
174 198 0
174 198 0
174 197 0
174 198 0
175 198 0
175 198 0
175 198 0
176 199 0
174 198 0
174 198 0
173 197 0
175 198 0
175 198 0
175 198 0
173 197 0
176 199 0
174 198 0
175 198 0
174 197 0
173 197 0
174 197 0
174 198 0
173 197 0
175 198 0
174 197 0
175 198 0
176 199 0
175 198 0
176 199 0
174 198 0
175 198 0
175 198 0
175 198 0
174 198 0
175 198 0
176 199 0
174 198 0
177 200 36
183 204 92
187 207 108
197 215 157
202 219 177
208 223 193
210 225 201
222 234 238
227 238 252
228 240 255
228 240 255
228 240 255
228 239 255
228 239 255
228 239 255
228 239 255
228 239 255
228 239 255
228 239 255
228 239 255
228 239 255
228 239 255
228 239 255
228 239 255
228 239 255
228 239 255
228 239 255
228 239 255
228 239 255
228 239 255
228 239 255
228 239 255
228 239 255
228 239 255
228 239 255
228 239 255
228 239 255
228 239 255
228 239 255
228 239 255
227 239 255
227 239 255
227 239 255
227 239 255
227 239 255
227 239 255
227 239 255
227 239 255
227 239 255
227 239 255
227 239 255
227 239 255
227 239 255
227 239 255
227 239 255
227 239 255
227 239 255
227 239 255
227 239 255
227 239 255
227 239 255
227 239 255
227 239 255
227 239 255
227 239 255
227 239 255
227 239 255
227 239 255
227 239 255
227 239 255
227 239 255
227 239 255
227 239 255
227 239 255
227 239 255
227 239 255
227 239 255
227 239 255
227 239 255
227 239 255
227 239 255
227 239 255
226 239 255
226 239 255
226 238 255
226 238 255
226 238 255
226 238 255
226 238 255
226 238 255
226 238 255
226 238 255
226 238 255
226 238 255
226 238 255
226 238 255
226 238 255
226 238 255
226 238 255
226 238 255
226 238 255
226 238 255
226 238 255
226 238 255
226 238 255
226 238 255
226 238 255
226 238 255
226 238 255
226 238 255
226 238 255
226 238 255
226 238 255
226 238 255
226 238 255
226 238 255
226 238 255
226 238 255
226 238 255
226 238 255
226 238 255
226 238 255
226 238 255
226 238 255
226 238 255
226 238 255
226 238 255
226 238 255
226 238 255
226 238 255
226 238 255
226 238 255
226 238 255
226 238 255
226 238 255
226 238 255
226 238 255
226 238 255
226 238 255
226 238 255
226 238 255
226 238 255
226 238 255
226 238 255
226 238 255
226 238 255
226 238 255
226 238 255
226 238 255
226 238 255
226 238 255
226 238 255
226 238 255
226 238 255
226 238 255
226 238 255
226 238 255
226 238 255
226 238 255
226 238 255
226 238 255
226 238 255
226 238 255
226 238 255
226 238 255
226 238 255
226 238 255
226 238 255
226 238 255
226 238 255
226 238 255
226 238 255
226 238 255
226 238 255
226 238 255
226 238 255
226 238 255
226 238 255
226 238 255
226 238 255
226 239 255
226 239 255
227 239 255
227 239 255
227 239 255
227 239 255
227 239 255
227 239 255
227 239 255
227 239 255
227 239 255
227 239 255
227 239 255
227 239 255
227 239 255
227 239 255
227 239 255
227 239 255
227 239 255
227 239 255
227 239 255
227 239 255
227 239 255
227 239 255
227 239 255
227 239 255
227 239 255
227 239 255
227 239 255
227 239 255
227 239 255
227 239 255
227 239 255
227 239 255
227 239 255
227 239 255
227 239 255
227 239 255
227 239 255
227 239 255
227 239 255
227 239 255
227 239 255
227 239 255
227 239 255
228 239 255
228 239 255
228 239 255
228 239 255
228 239 255
228 239 255
228 239 255
228 239 255
228 239 255
228 239 255
228 239 255
228 239 255
228 239 255
228 239 255
228 239 255
228 239 255
228 239 255
228 239 255
228 239 255
228 239 255
228 239 255
228 239 255
228 239 255
228 239 255
228 239 255
228 239 255
228 239 255
228 240 255
228 240 255
228 240 255
228 240 255
224 236 245
217 231 224
213 227 209
201 218 171
204 220 182
190 209 133
183 204 92
175 198 25
175 198 0
175 198 0
175 198 0
174 198 0
175 198 0
174 198 0
173 197 0
173 197 0
173 197 0
174 197 0
174 198 0
176 198 0
174 198 0
174 198 0
174 197 0
176 199 0
176 199 0
173 197 0
175 198 0
174 198 0
172 197 0
174 198 0
174 198 0
175 198 0
174 198 0
175 198 0
174 198 0
177 199 0
174 198 0
175 198 0
175 198 0
174 197 0
175 198 0
176 199 0
172 197 0
176 199 0
174 198 0
175 198 0
174 198 0
174 198 0
173 197 0
176 198 0
175 198 0
175 198 0
176 199 0
174 198 0
175 198 0
175 198 0
174 198 0
176 199 0
176 198 0
174 197 0
175 198 0
176 199 0
173 197 0
174 198 0
174 198 0
174 198 0
173 197 0
175 198 0
174 198 0
174 198 0
173 197 0
175 198 0
175 198 0
174 198 0
174 198 0
174 198 0
175 198 0
172 197 0
176 198 0
174 197 0
174 197 0
174 198 0
174 197 0
175 198 0
174 198 0
174 197 0
174 198 0
176 199 0
175 198 0
176 199 0
174 197 0
177 199 0
175 198 0
173 197 0
175 198 0
175 198 0
175 198 0
175 198 0
175 198 0
173 197 0
175 198 0
175 198 0
174 197 0
174 198 0
176 199 0
175 198 0
173 197 0
174 197 0
173 196 0
175 198 0
174 198 0
175 198 0
175 198 0
175 198 0
174 197 0
174 198 0
173 197 0
174 198 0
175 198 0
175 198 0
174 198 0
173 197 0
175 198 0
174 198 0
174 198 0
175 198 0
176 199 0
175 198 0
176 198 0
175 197 0
172 197 0
175 198 0
174 198 0
175 198 0
175 198 0
177 199 0
174 198 0
175 198 0
175 198 0
176 199 0
174 198 0
174 198 0
175 198 0
174 198 0
174 198 0
175 198 0
175 198 0
176 199 0
175 198 0
175 198 0
175 198 0
175 198 0
176 199 25
181 202 67
191 211 137
197 215 161
201 218 171
211 226 207
219 232 230
226 238 249
228 240 255
228 240 255
228 240 255
228 240 255
228 239 255
228 239 255
228 239 255
228 239 255
228 239 255
228 239 255
228 239 255
228 239 255
228 239 255
228 239 255
228 239 255
228 239 255
228 239 255
228 239 255
228 239 255
228 239 255
228 239 255
228 239 255
228 239 255
228 239 255
228 239 255
228 239 255
228 239 255
228 239 255
228 239 255
228 239 255
228 239 255
227 239 255
227 239 255
227 239 255
227 239 255
227 239 255
227 239 255
227 239 255
227 239 255
227 239 255
227 239 255
227 239 255
227 239 255
227 239 255
227 239 255
227 239 255
227 239 255
227 239 255
227 239 255
227 239 255
227 239 255
227 239 255
227 239 255
227 239 255
227 239 255
227 239 255
227 239 255
227 239 255
227 239 255
227 239 255
227 239 255
227 239 255
227 239 255
227 239 255
227 239 255
227 239 255
227 239 255
227 239 255
227 239 255
227 239 255
227 239 255
227 239 255
227 239 255
227 239 255
226 239 255
226 239 255
226 238 255
226 238 255
226 238 255
226 238 255
226 238 255
226 238 255
226 238 255
226 238 255
226 238 255
226 238 255
226 238 255
226 238 255
226 238 255
226 238 255
226 238 255
226 238 255
226 238 255
226 238 255
226 238 255
226 238 255
226 238 255
226 238 255
226 238 255
226 238 255
226 238 255
226 238 255
226 238 255
226 238 255
226 238 255
226 238 255
226 238 255
226 238 255
226 238 255
226 238 255
226 238 255
226 238 255
226 238 255
226 238 255
226 238 255
226 238 255
226 238 255
226 238 255
226 238 255
226 238 255
226 238 255
226 238 255
226 238 255
226 238 255
226 238 255
226 238 255
226 238 255
226 238 255
226 238 255
226 238 255
226 238 255
226 238 255
226 238 255
226 238 255
226 238 255
226 238 255
226 238 255
226 238 255
226 238 255
226 238 255
226 238 255
226 238 255
226 238 255
226 238 255
226 238 255
226 238 255
226 238 255
226 238 255
226 238 255
226 238 255
226 238 255
226 238 255
226 238 255
226 238 255
226 238 255
226 238 255
226 238 255
226 238 255
226 239 255
227 239 255
227 239 255
227 239 255
227 239 255
227 239 255
227 239 255
227 239 255
227 239 255
227 239 255
227 239 255
227 239 255
227 239 255
227 239 255
227 239 255
227 239 255
227 239 255
227 239 255
227 239 255
227 239 255
227 239 255
227 239 255
227 239 255
227 239 255
227 239 255
227 239 255
227 239 255
227 239 255
227 239 255
227 239 255
227 239 255
227 239 255
227 239 255
227 239 255
227 239 255
227 239 255
227 239 255
227 239 255
227 239 255
227 239 255
227 239 255
227 239 255
227 239 255
227 239 255
228 239 255
228 239 255
228 239 255
228 239 255
228 239 255
228 239 255
228 239 255
228 239 255
228 239 255
228 239 255
228 239 255
228 239 255
228 239 255
228 239 255
228 239 255
228 239 255
228 239 255
228 239 255
228 239 255
228 239 255
228 239 255
228 239 255
228 239 255
228 239 255
228 239 255
228 239 255
228 240 255
228 240 255
228 240 255
228 240 255
228 240 255
227 238 252
222 234 237
211 226 204
200 217 169
193 212 140
185 206 108
178 201 67
176 199 0
175 198 0
175 198 0
174 197 0
174 197 0
175 198 0
175 197 0
176 198 0
174 198 0
175 198 0
173 197 0
174 197 0
175 198 0
175 198 0
176 198 0
175 198 0
176 199 0
175 198 0
174 198 0
173 197 0
175 198 0
174 198 0
175 198 0
174 197 0
173 197 0
174 198 0
175 198 0
175 198 0
176 199 0
174 198 0
176 199 0
175 198 0
174 198 0
174 197 0
173 197 0
175 198 0
173 197 0
175 198 0
174 197 0
174 197 0
174 198 0
177 199 0
175 198 0
175 198 0
173 197 0
175 198 0
176 198 0
173 197 0
174 198 0
172 197 0
175 198 0
174 197 0
176 198 0
175 198 0
176 199 0
174 197 0
174 198 0
176 199 0
175 198 0
175 198 0
174 197 0
175 198 0
176 199 0
176 199 0
175 198 0
174 197 0
175 198 0
175 198 0
175 198 0
176 198 0
174 197 0
173 197 0
174 198 0
174 197 0
175 198 0
175 198 0
175 198 0
174 198 0
173 197 0
173 197 0
173 197 0
175 198 0
175 198 0
175 198 0
174 198 0
175 198 0
173 197 0
175 198 0
175 198 0
173 197 0
173 197 0
175 198 0
176 199 0
174 197 0
174 198 0
175 198 0
174 197 0
174 197 0
173 197 0
175 198 0
174 198 0
173 197 0
172 197 0
174 198 0
175 198 0
173 197 0
174 198 0
173 197 0
175 198 0
175 198 0
175 198 0
174 198 0
173 197 0
175 198 0
175 198 0
175 198 0
175 198 0
175 198 0
175 198 0
173 197 0
174 198 0
174 198 0
173 197 0
175 198 0
174 198 0
175 198 0
175 198 0
175 198 0
175 198 0
174 197 0
173 197 0
174 198 0
175 198 0
174 197 0
175 198 0
175 198 0
176 198 0
174 198 0
176 198 0
174 198 0
176 199 0
174 198 0
175 198 0
174 198 0
175 198 0
175 198 0
175 198 0
175 198 0
175 198 0
174 198 0
175 198 0
174 197 0
173 197 0
174 197 0
174 198 0
175 198 0
176 198 0
174 198 0
174 198 0
176 199 0
179 201 67
186 206 105
194 213 149
200 218 171
212 227 211
220 233 231
227 238 252
228 240 255
228 240 255
228 240 255
228 240 255
228 239 255
228 239 255
228 239 255
228 239 255
228 239 255
228 239 255
228 239 255
228 239 255
228 239 255
228 239 255
228 239 255
228 239 255
228 239 255
228 239 255
228 239 255
228 239 255
228 239 255
228 239 255
228 239 255
228 239 255
228 239 255
228 239 255
228 239 255
228 239 255
228 239 255
228 239 255
228 239 255
227 239 255
227 239 255
227 239 255
227 239 255
227 239 255
227 239 255
227 239 255
227 239 255
227 239 255
227 239 255
227 239 255
227 239 255
227 239 255
227 239 255
227 239 255
227 239 255
227 239 255
227 239 255
227 239 255
227 239 255
227 239 255
227 239 255
227 239 255
227 239 255
227 239 255
227 239 255
227 239 255
227 239 255
227 239 255
227 239 255
227 239 255
227 239 255
227 239 255
227 239 255
227 239 255
227 239 255
227 239 255
227 239 255
227 239 255
227 239 255
227 239 255
227 239 255
227 239 255
226 239 255
226 239 255
226 238 255
226 238 255
226 238 255
226 238 255
226 238 255
226 238 255
226 238 255
226 238 255
226 238 255
226 238 255
226 238 255
226 238 255
226 238 255
226 238 255
226 238 255
226 238 255
226 238 255
226 238 255
226 238 255
226 238 255
226 238 255
226 238 255
226 238 255
226 238 255
226 238 255
226 238 255
226 238 255
226 238 255
226 238 255
226 238 255
226 238 255
226 238 255
226 238 255
226 238 255
226 238 255
226 238 255
226 238 255
226 238 255
226 238 255
226 238 255
226 238 255
226 238 255
226 238 255
226 238 255
226 238 255
226 238 255
226 238 255
226 238 255
226 238 255
226 238 255
226 238 255
226 238 255
226 238 255
226 238 255
226 238 255
226 238 255
226 238 255
226 238 255
226 238 255
226 238 255
226 238 255
226 238 255
226 238 255
226 238 255
226 238 255
226 238 255
226 238 255
226 239 255
226 239 255
227 239 255
227 239 255
227 239 255
227 239 255
227 239 255
227 239 255
227 239 255
227 239 255
227 239 255
227 239 255
227 239 255
227 239 255
227 239 255
227 239 255
227 239 255
227 239 255
227 239 255
227 239 255
227 239 255
227 239 255
227 239 255
227 239 255
227 239 255
227 239 255
227 239 255
227 239 255
227 239 255
227 239 255
227 239 255
227 239 255
227 239 255
227 239 255
227 239 255
227 239 255
227 239 255
227 239 255
227 239 255
227 239 255
227 239 255
227 239 255
227 239 255
227 239 255
227 239 255
228 239 255
228 239 255
228 239 255
228 239 255
228 239 255
228 239 255
228 239 255
228 239 255
228 239 255
228 239 255
228 239 255
228 239 255
228 239 255
228 239 255
228 239 255
228 239 255
228 239 255
228 239 255
228 239 255
228 239 255
228 239 255
228 239 255
228 239 255
228 239 255
228 239 255
228 239 255
228 240 255
228 240 255
228 240 255
228 240 255
228 240 255
228 240 255
225 237 245
218 231 224
205 221 188
195 213 144
183 205 102
182 204 95
176 198 0
173 197 0
174 197 0
173 197 0
175 198 0
174 198 0
175 197 0
176 199 0
175 198 0
172 197 0
175 198 0
174 198 0
175 198 0
176 198 0
174 198 0
174 198 0
176 199 0
175 198 0
174 198 0
174 197 0
175 198 0
175 198 0
175 198 0
174 198 0
173 197 0
175 198 0
174 197 0
174 198 0
175 198 0
175 198 0
173 197 0
174 198 0
175 198 0
176 199 0
172 197 0
175 198 0
174 197 0
175 198 0
176 198 0
174 198 0
174 198 0
172 197 0
175 198 0
174 197 0
174 198 0
175 198 0
172 197 0
175 198 0
173 197 0
174 198 0
173 197 0
173 197 0
176 198 0
175 198 0
175 198 0
174 198 0
174 198 0
174 198 0
172 196 0
175 198 0
174 198 0
174 198 0
174 197 0
175 197 0
174 197 0
174 198 0
174 198 0
175 198 0
173 197 0
175 198 0
175 198 0
173 197 0
176 198 0
174 198 0
175 198 0
175 198 0
175 198 0
174 198 0
175 198 0
174 198 0
174 198 0
175 198 0
174 198 0
174 198 0
173 197 0
176 199 0
174 198 0
176 199 0
174 197 0
174 198 0
173 197 0
175 198 0
173 197 0
174 198 0
174 198 0
176 199 0
175 198 0
173 197 0
174 198 0
174 198 0
176 198 0
174 198 0
176 198 0
176 198 0
176 198 0
174 197 0
175 198 0
174 198 0
174 197 0
174 198 0
176 199 0
176 198 0
174 198 0
174 198 0
174 198 0
176 198 0
176 199 0
175 198 0
173 197 0
174 198 0
175 198 0
176 199 0
174 198 0
173 197 0
173 197 0
173 197 0
174 197 0
175 198 0
176 198 0
174 198 0
174 198 0
175 198 0
174 197 0
174 197 0
174 198 0
174 198 0
174 198 0
173 197 0
175 198 0
174 198 0
176 199 0
175 198 0
174 198 0
175 198 0
174 197 0
174 198 0
174 198 0
174 198 0
175 198 0
174 198 0
174 198 0
176 199 0
175 198 0
174 197 0
175 198 0
174 198 0
175 198 0
175 198 0
173 197 0
173 197 0
175 198 0
175 198 0
174 198 0
175 198 0
173 197 0
175 198 0
173 197 0
174 197 0
175 198 0
177 199 0
174 197 0
174 197 0
175 198 0
175 198 0
184 205 99
190 209 125
194 212 153
205 221 184
220 233 231
223 235 241
227 239 253
228 240 255
228 240 255
228 240 255
228 240 255
228 240 255
228 239 255
228 239 255
228 239 255
228 239 255
228 239 255
228 239 255
228 239 255
228 239 255
228 239 255
228 239 255
228 239 255
228 239 255
228 239 255
228 239 255
228 239 255
228 239 255
228 239 255
228 239 255
228 239 255
228 239 255
228 239 255
228 239 255
228 239 255
228 239 255
228 239 255
228 239 255
227 239 255
227 239 255
227 239 255
227 239 255
227 239 255
227 239 255
227 239 255
227 239 255
227 239 255
227 239 255
227 239 255
227 239 255
227 239 255
227 239 255
227 239 255
227 239 255
227 239 255
227 239 255
227 239 255
227 239 255
227 239 255
227 239 255
227 239 255
227 239 255
227 239 255
227 239 255
227 239 255
227 239 255
227 239 255
227 239 255
227 239 255
227 239 255
227 239 255
227 239 255
227 239 255
227 239 255
227 239 255
227 239 255
227 239 255
227 239 255
227 239 255
227 239 255
227 239 255
226 239 255
226 239 255
226 238 255
226 238 255
226 238 255
226 238 255
226 238 255
226 238 255
226 238 255
226 238 255
226 238 255
226 238 255
226 238 255
226 238 255
226 238 255
226 238 255
226 238 255
226 238 255
226 238 255
226 238 255
226 238 255
226 238 255
226 238 255
226 238 255
226 238 255
226 238 255
226 238 255
226 238 255
226 238 255
226 238 255
226 238 255
226 238 255
226 238 255
226 238 255
226 238 255
226 238 255
226 238 255
226 238 255
226 238 255
226 238 255
226 238 255
226 238 255
226 238 255
226 238 255
226 238 255
226 238 255
226 238 255
226 238 255
226 238 255
226 238 255
226 238 255
226 238 255
226 238 255
226 238 255
226 238 255
226 239 255
226 239 255
227 239 255
227 239 255
227 239 255
227 239 255
227 239 255
227 239 255
227 239 255
227 239 255
227 239 255
227 239 255
227 239 255
227 239 255
227 239 255
227 239 255
227 239 255
227 239 255
227 239 255
227 239 255
227 239 255
227 239 255
227 239 255
227 239 255
227 239 255
227 239 255
227 239 255
227 239 255
227 239 255
227 239 255
227 239 255
227 239 255
227 239 255
227 239 255
227 239 255
227 239 255
227 239 255
227 239 255
227 239 255
227 239 255
227 239 255
227 239 255
227 239 255
227 239 255
227 239 255
228 239 255
228 239 255
228 239 255
228 239 255
228 239 255
228 239 255
228 239 255
228 239 255
228 239 255
228 239 255
228 239 255
228 239 255
228 239 255
228 239 255
228 239 255
228 239 255
228 239 255
228 239 255
228 239 255
228 239 255
228 239 255
228 239 255
228 239 255
228 239 255
228 239 255
228 239 255
228 240 255
228 240 255
228 240 255
228 240 255
228 240 255
228 240 255
226 238 250
220 233 230
213 228 214
206 222 186
191 211 137
190 210 125
177 199 36
174 198 0
173 197 0
174 198 0
175 198 0
175 198 0
174 198 0
175 198 0
175 198 0
175 198 0
175 198 0
173 197 0
173 197 0
175 198 0
175 198 0
175 198 0
174 198 0
174 197 0
173 197 0
174 197 0
173 197 0
174 198 0
175 198 0
176 198 0
173 197 0
174 197 0
174 198 0
174 197 0
175 198 0
173 197 0
175 198 0
174 198 0
174 198 0
176 199 0
175 198 0
175 198 0
174 198 0
173 197 0
174 198 0
174 198 0
174 197 0
175 198 0
175 198 0
175 198 0
175 198 0
173 197 0
176 199 0
174 198 0
175 198 0
175 198 0
176 199 0
176 199 0
174 197 0
176 199 0
175 198 0
173 197 0
172 197 0
174 198 0
174 197 0
173 197 0
174 198 0
176 199 0
175 198 0
175 198 0
174 197 0
175 198 0
174 197 0
174 198 0
173 197 0
174 198 0
175 198 0
174 197 0
174 198 0
174 198 0
175 198 0
174 198 0
174 198 0
175 198 0
175 198 0
174 198 0
175 198 0
174 198 0
175 198 0
173 197 0
174 197 0
173 197 0
175 198 0
175 198 0
175 198 0
174 197 0
174 197 0
176 198 0
174 197 0
175 198 0
175 198 0
175 198 0
175 198 0
173 197 0
175 198 0
174 197 0
173 197 0
173 197 0
176 199 0
175 198 0
174 197 0
174 197 0
173 197 0
174 198 0
177 199 0
174 198 0
174 198 0
173 197 0
175 198 0
176 199 0
174 198 0
176 198 0
174 197 0
175 198 0
174 198 0
175 198 0
176 199 0
174 197 0
175 198 0
173 197 0
174 197 0
175 198 0
175 198 0
176 199 0
174 198 0
174 198 0
175 198 0
174 198 0
175 198 0
174 198 0
176 198 0
173 197 0
174 197 0
173 197 0
173 197 0
175 198 0
175 198 0
175 198 0
175 198 0
173 197 0
174 198 0
174 198 0
175 198 0
175 198 0
173 197 0
174 198 0
176 198 0
176 199 0
174 198 0
174 198 0
176 199 0
174 198 0
175 198 0
174 197 0
174 198 0
174 198 0
174 197 0
173 197 0
175 198 0
175 198 0
174 197 0
173 197 0
175 198 0
175 198 0
174 198 0
175 198 0
175 198 0
175 198 0
174 198 0
174 197 0
175 198 0
174 197 0
173 197 0
174 198 0
176 199 0
174 198 0
174 198 0
175 198 0
175 198 0
175 198 0
173 197 0
175 198 0
176 199 0
177 200 62
188 207 111
195 214 155
207 223 193
208 224 196
219 232 230
228 239 254
228 240 255
228 240 255
228 240 255
228 240 255
228 240 255
228 240 255
228 239 255
228 239 255
228 239 255
228 239 255
228 239 255
228 239 255
228 239 255
228 239 255
228 239 255
228 239 255
228 239 255
228 239 255
228 239 255
228 239 255
228 239 255
228 239 255
228 239 255
228 239 255
228 239 255
228 239 255
228 239 255
228 239 255
228 239 255
228 239 255
228 239 255
228 239 255
227 239 255
227 239 255
227 239 255
227 239 255
227 239 255
227 239 255
227 239 255
227 239 255
227 239 255
227 239 255
227 239 255
227 239 255
227 239 255
227 239 255
227 239 255
227 239 255
227 239 255
227 239 255
227 239 255
227 239 255
227 239 255
227 239 255
227 239 255
227 239 255
227 239 255
227 239 255
227 239 255
227 239 255
227 239 255
227 239 255
227 239 255
227 239 255
227 239 255
227 239 255
227 239 255
227 239 255
227 239 255
227 239 255
227 239 255
227 239 255
227 239 255
227 239 255
227 239 255
226 239 255
226 239 255
226 238 255
226 238 255
226 238 255
226 238 255
226 238 255
226 238 255
226 238 255
226 238 255
226 238 255
226 238 255
226 238 255
226 238 255
226 238 255
226 238 255
226 238 255
226 238 255
226 238 255
226 238 255
226 238 255
226 238 255
226 238 255
226 238 255
226 238 255
226 238 255
226 238 255
226 238 255
226 238 255
226 238 255
226 238 255
226 238 255
226 238 255
226 238 255
226 238 255
226 238 255
226 238 255
226 238 255
226 238 255
226 238 255
226 238 255
226 239 255
226 239 255
227 239 255
227 239 255
227 239 255
227 239 255
227 239 255
227 239 255
227 239 255
227 239 255
227 239 255
227 239 255
227 239 255
227 239 255
227 239 255
227 239 255
227 239 255
227 239 255
227 239 255
227 239 255
227 239 255
227 239 255
227 239 255
227 239 255
227 239 255
227 239 255
227 239 255
227 239 255
227 239 255
227 239 255
227 239 255
227 239 255
227 239 255
227 239 255
227 239 255
227 239 255
227 239 255
227 239 255
227 239 255
227 239 255
227 239 255
227 239 255
227 239 255
227 239 255
227 239 255
227 239 255
228 239 255
228 239 255
228 239 255
228 239 255
228 239 255
228 239 255
228 239 255
228 239 255
228 239 255
228 239 255
228 239 255
228 239 255
228 239 255
228 239 255
228 239 255
228 239 255
228 239 255
228 239 255
228 239 255
228 239 255
228 239 255
228 239 255
228 239 255
228 239 255
228 239 255
228 240 255
228 240 255
228 240 255
228 240 255
228 240 255
228 240 255
228 240 255
228 239 253
219 232 230
212 227 209
203 219 175
193 212 147
184 205 102
174 198 25
174 198 0
174 198 0
175 198 0
175 198 0
177 199 0
175 198 0
174 198 0
175 198 0
174 198 0
174 198 0
175 198 0
173 197 0
174 198 0
175 198 0
175 197 0
174 197 0
173 197 0
175 198 0
172 197 0
174 197 0
175 198 0
174 198 0
174 198 0
175 198 0
175 198 0
175 198 0
174 198 0
174 197 0
174 197 0
175 198 0
174 198 0
175 198 0
174 197 0
176 198 0
174 198 0
173 197 0
174 198 0
174 198 0
175 198 0
175 198 0
174 198 0
174 197 0
175 198 0
175 198 0
173 197 0
176 199 0
174 198 0
175 198 0
175 198 0
174 198 0
175 198 0
176 198 0
174 198 0
175 198 0
175 198 0
174 198 0
174 197 0
175 198 0
173 197 0
176 199 0
175 198 0
174 198 0
174 198 0
173 197 0
173 197 0
176 199 0
174 197 0
176 198 0
175 198 0
175 198 0
174 198 0
174 197 0
173 197 0
176 199 0
175 198 0
175 198 0
175 198 0
176 199 0
175 198 0
174 198 0
173 197 0
176 199 0
175 198 0
175 198 0
174 198 0
174 198 0
174 197 0
173 197 0
175 198 0
174 198 0
176 198 0
173 197 0
175 198 0
174 198 0
174 198 0
174 198 0
176 199 0
175 198 0
174 198 0
174 198 0
173 197 0
173 197 0
174 198 0
174 198 0
174 197 0
175 198 0
174 198 0
174 198 0
174 198 0
175 198 0
174 198 0
174 197 0
174 198 0
177 199 0
175 198 0
175 198 0
175 198 0
174 197 0
174 198 0
173 197 0
173 197 0
174 198 0
175 198 0
175 198 0
174 198 0
173 197 0
174 198 0
174 197 0
175 198 0
175 198 0
174 197 0
176 199 0
173 197 0
174 198 0
173 197 0
174 198 0
175 198 0
175 198 0
175 198 0
173 197 0
175 198 0
175 198 0
173 197 0
174 198 0
176 199 0
176 198 0
175 198 0
173 197 0
173 197 0
175 198 0
175 198 0
175 198 0
175 198 0
175 198 0
174 197 0
174 198 0
175 198 0
176 198 0
176 199 0
175 198 0
174 198 0
175 198 0
173 197 0
175 198 0
174 198 0
175 198 0
176 198 0
174 198 0
175 198 0
175 198 0
173 197 0
174 197 0
174 198 0
174 198 0
174 198 0
174 198 0
174 198 0
173 197 0
174 198 0
174 197 0
174 197 0
175 198 0
174 198 0
175 198 0
174 197 0
174 198 0
175 198 0
174 198 0
174 198 0
176 198 0
175 198 0
176 199 0
175 198 0
175 198 0
176 199 0
175 198 0
175 198 0
175 198 0
176 199 25
181 203 95
195 213 149
204 220 181
213 227 214
219 232 228
228 239 254
228 240 255
228 240 255
228 240 255
228 240 255
228 240 255
228 240 255
228 240 255
228 239 255
228 239 255
228 239 255
228 239 255
228 239 255
228 239 255
228 239 255
228 239 255
228 239 255
228 239 255
228 239 255
228 239 255
228 239 255
228 239 255
228 239 255
228 239 255
228 239 255
228 239 255
228 239 255
228 239 255
228 239 255
228 239 255
228 239 255
228 239 255
228 239 255
228 239 255
227 239 255
227 239 255
227 239 255
227 239 255
227 239 255
227 239 255
227 239 255
227 239 255
227 239 255
227 239 255
227 239 255
227 239 255
227 239 255
227 239 255
227 239 255
227 239 255
227 239 255
227 239 255
227 239 255
227 239 255
227 239 255
227 239 255
227 239 255
227 239 255
227 239 255
227 239 255
227 239 255
227 239 255
227 239 255
227 239 255
227 239 255
227 239 255
227 239 255
227 239 255
227 239 255
227 239 255
227 239 255
227 239 255
227 239 255
227 239 255
227 239 255
227 239 255
227 239 255
226 239 255
226 239 255
226 238 255
226 238 255
226 238 255
226 238 255
226 238 255
226 238 255
226 238 255
226 238 255
226 238 255
226 238 255
226 238 255
226 238 255
226 238 255
226 238 255
226 238 255
226 238 255
226 238 255
226 238 255
226 238 255
226 238 255
226 238 255
226 238 255
226 238 255
226 238 255
226 238 255
226 239 255
226 239 255
227 239 255
227 239 255
227 239 255
227 239 255
227 239 255
227 239 255
227 239 255
227 239 255
227 239 255
227 239 255
227 239 255
227 239 255
227 239 255
227 239 255
227 239 255
227 239 255
227 239 255
227 239 255
227 239 255
227 239 255
227 239 255
227 239 255
227 239 255
227 239 255
227 239 255
227 239 255
227 239 255
227 239 255
227 239 255
227 239 255
227 239 255
227 239 255
227 239 255
227 239 255
227 239 255
227 239 255
227 239 255
227 239 255
227 239 255
227 239 255
227 239 255
227 239 255
227 239 255
227 239 255
228 239 255
228 239 255
228 239 255
228 239 255
228 239 255
228 239 255
228 239 255
228 239 255
228 239 255
228 239 255
228 239 255
228 239 255
228 239 255
228 239 255
228 239 255
228 239 255
228 239 255
228 239 255
228 239 255
228 239 255
228 239 255
228 239 255
228 239 255
228 239 255
228 239 255
228 239 255
228 240 255
228 240 255
228 240 255
228 240 255
228 240 255
228 240 255
228 240 255
228 240 255
222 234 236
211 226 206
203 220 181
196 214 149
183 204 92
175 198 0
175 198 0
174 198 0
175 198 0
175 198 0
175 198 0
175 198 0
174 198 0
176 199 0
175 198 0
174 198 0
175 198 0
175 198 0
174 198 0
174 198 0
176 198 0
174 197 0
174 198 0
174 198 0
174 198 0
175 198 0
173 197 0
175 198 0
175 198 0
175 198 0
175 198 0
173 197 0
174 198 0
174 197 0
175 198 0
174 197 0
174 198 0
173 197 0
175 198 0
173 197 0
177 199 0
174 198 0
174 198 0
175 198 0
175 198 0
174 197 0
174 198 0
174 197 0
173 197 0
176 199 0
174 198 0
173 197 0
174 198 0
176 198 0
173 197 0
176 198 0
174 197 0
175 198 0
175 198 0
173 197 0
174 198 0
175 198 0
175 198 0
175 198 0
175 198 0
174 197 0
175 198 0
174 197 0
173 197 0
174 198 0
175 198 0
175 198 0
175 198 0
174 198 0
173 197 0
175 198 0
174 197 0
176 198 0
174 197 0
174 198 0
175 197 0
172 196 0
172 197 0
176 199 0
174 198 0
174 198 0
174 197 0
174 198 0
174 198 0
174 198 0
174 197 0
175 198 0
174 198 0
174 198 0
175 198 0
172 196 0
173 197 0
174 197 0
174 197 0
174 197 0
174 197 0
176 199 0
173 196 0
173 197 0
176 199 0
175 198 0
173 197 0
174 198 0
175 198 0
175 198 0
174 197 0
174 198 0
174 197 0
176 198 0
175 198 0
178 199 0
174 198 0
175 198 0
173 197 0
175 198 0
174 198 0
172 195 0
173 197 0
174 198 0
175 198 0
175 198 0
174 198 0
173 197 0
174 198 0
175 198 0
175 198 0
174 197 0
173 197 0
176 199 0
173 197 0
174 198 0
173 197 0
175 198 0
174 198 0
173 197 0
175 198 0
175 198 0
175 198 0
176 198 0
174 197 0
175 198 0
174 198 0
175 198 0
175 198 0
175 198 0
174 197 0
174 198 0
175 198 0
174 198 0
175 198 0
174 198 0
174 198 0
176 199 0
174 198 0
174 198 0
176 198 0
176 198 0
176 199 0
175 198 0
174 198 0
175 198 0
176 199 0
174 197 0
174 198 0
175 198 0
176 198 0
174 198 0
175 198 0
176 199 0
176 198 0
173 197 0
174 198 0
175 198 0
175 198 0
174 197 0
176 199 0
175 198 0
174 197 0
174 198 0
176 198 0
174 198 0
175 198 0
174 197 0
176 199 0
173 197 0
173 197 0
176 199 0
175 198 0
173 197 0
174 198 0
173 197 0
173 197 0
173 197 0
175 198 0
173 197 0
174 197 0
175 198 0
176 199 0
175 198 0
174 198 0
175 198 0
175 198 0
174 197 0
176 199 0
173 197 0
175 198 0
174 197 0
173 197 0
175 198 0
176 198 0
173 196 0
177 200 51
187 207 111
196 214 149
204 220 181
215 229 218
224 236 242
228 240 255
228 240 255
228 240 255
228 240 255
228 240 255
228 240 255
228 240 255
228 240 255
228 239 255
228 239 255
228 239 255
228 239 255
228 239 255
228 239 255
228 239 255
228 239 255
228 239 255
228 239 255
228 239 255
228 239 255
228 239 255
228 239 255
228 239 255
228 239 255
228 239 255
228 239 255
228 239 255
228 239 255
228 239 255
228 239 255
228 239 255
228 239 255
228 239 255
228 239 255
227 239 255
227 239 255
227 239 255
227 239 255
227 239 255
227 239 255
227 239 255
227 239 255
227 239 255
227 239 255
227 239 255
227 239 255
227 239 255
227 239 255
227 239 255
227 239 255
227 239 255
227 239 255
227 239 255
227 239 255
227 239 255
227 239 255
227 239 255
227 239 255
227 239 255
227 239 255
227 239 255
227 239 255
227 239 255
227 239 255
227 239 255
227 239 255
227 239 255
227 239 255
227 239 255
227 239 255
227 239 255
227 239 255
227 239 255
227 239 255
227 239 255
227 239 255
227 239 255
227 239 255
226 239 255
226 239 255
226 238 255
226 238 255
226 238 255
226 238 255
226 238 255
226 238 255
226 238 255
226 238 255
226 238 255
226 238 255
226 238 255
226 239 255
226 239 255
227 239 255
227 239 255
227 239 255
227 239 255
227 239 255
227 239 255
227 239 255
227 239 255
227 239 255
227 239 255
227 239 255
227 239 255
227 239 255
227 239 255
227 239 255
227 239 255
227 239 255
227 239 255
227 239 255
227 239 255
227 239 255
227 239 255
227 239 255
227 239 255
227 239 255
227 239 255
227 239 255
227 239 255
227 239 255
227 239 255
227 239 255
227 239 255
227 239 255
227 239 255
227 239 255
227 239 255
227 239 255
227 239 255
227 239 255
227 239 255
227 239 255
227 239 255
227 239 255
227 239 255
228 239 255
228 239 255
228 239 255
228 239 255
228 239 255
228 239 255
228 239 255
228 239 255
228 239 255
228 239 255
228 239 255
228 239 255
228 239 255
228 239 255
228 239 255
228 239 255
228 239 255
228 239 255
228 239 255
228 239 255
228 239 255
228 239 255
228 239 255
228 239 255
228 239 255
228 239 255
228 239 255
228 240 255
228 240 255
228 240 255
228 240 255
228 240 255
228 240 255
228 240 255
228 240 255
226 238 250
219 232 228
209 224 199
199 216 165
188 208 120
178 201 67
174 198 0
173 197 0
175 198 0
173 197 0
175 198 0
174 197 0
176 199 0
174 198 0
175 198 0
174 198 0
174 198 0
175 198 0
174 198 0
174 198 0
175 198 0
174 198 0
175 198 0
175 198 0
174 198 0
175 197 0
176 198 0
174 198 0
175 198 0
175 197 0
176 199 0
175 198 0
174 198 0
175 198 0
174 198 0
173 196 0
174 198 0
173 196 0
175 198 0
172 197 0
174 197 0
174 198 0
176 199 0
175 198 0
174 197 0
175 198 0
175 198 0
173 197 0
173 197 0
174 197 0
175 198 0
174 198 0
175 198 0
174 198 0
173 197 0
174 197 0
177 199 0
173 197 0
173 196 0
173 197 0
175 198 0
175 198 0
173 197 0
174 198 0
173 197 0
175 198 0
175 198 0
173 197 0
174 198 0
175 198 0
174 197 0
175 198 0
176 199 0
174 197 0
176 199 0
175 198 0
175 198 0
176 199 0
175 198 0
174 197 0
175 198 0
176 199 0
174 198 0
173 197 0
175 198 0
176 199 0
173 197 0
175 198 0
176 198 0
174 197 0
173 197 0
175 198 0
175 198 0
175 198 0
174 198 0
173 197 0
174 198 0
174 198 0
174 197 0
175 198 0
175 198 0
175 198 0
174 198 0
173 197 0
174 197 0
173 197 0
175 198 0
174 198 0
174 198 0
175 198 0
174 198 0
176 199 0
173 196 0
173 197 0
173 197 0
175 198 0
173 197 0
173 197 0
174 196 0
173 197 0
173 197 0
176 199 0
174 198 0
177 199 0
176 199 0
174 198 0
176 199 0
174 197 0
174 197 0
175 198 0
174 198 0
172 196 0
175 198 0
173 197 0
174 197 0
175 198 0
175 198 0
173 197 0
175 198 0
175 198 0
174 198 0
174 198 0
174 198 0
175 198 0
176 199 0
175 198 0
172 196 0
173 197 0
176 199 0
175 198 0
174 198 0
174 198 0
174 198 0
173 197 0
174 197 0
174 198 0
174 197 0
174 198 0
176 198 0
174 197 0
173 197 0
175 198 0
174 198 0
174 197 0
176 198 0
175 198 0
175 198 0
173 197 0
174 198 0
175 197 0
175 198 0
176 198 0
175 198 0
175 198 0
174 197 0
174 197 0
174 198 0
175 198 0
175 198 0
175 198 0
174 197 0
174 197 0
174 198 0
177 199 0
172 197 0
174 198 0
175 198 0
174 197 0
175 198 0
175 198 0
174 197 0
174 197 0
174 198 0
174 198 0
175 198 0
174 198 0
175 198 0
173 197 0
175 198 0
174 198 0
175 197 0
175 198 0
175 198 0
176 199 0
174 198 0
174 198 0
173 197 0
174 198 0
174 198 0
174 198 0
175 198 0
174 198 0
175 198 0
174 197 0
175 198 0
172 196 0
175 198 0
172 197 0
174 198 0
174 198 0
174 198 0
174 198 0
175 198 0
173 197 0
174 198 0
173 197 0
174 198 0
174 198 0
180 202 62
188 208 117
199 217 167
210 225 204
215 229 221
226 238 249
228 240 255
228 240 255
228 240 255
228 240 255
228 240 255
228 240 255
228 240 255
228 240 255
228 239 255
228 239 255
228 239 255
228 239 255
228 239 255
228 239 255
228 239 255
228 239 255
228 239 255
228 239 255
228 239 255
228 239 255
228 239 255
228 239 255
228 239 255
228 239 255
228 239 255
228 239 255
228 239 255
228 239 255
228 239 255
228 239 255
228 239 255
228 239 255
228 239 255
228 239 255
227 239 255
227 239 255
227 239 255
227 239 255
227 239 255
227 239 255
227 239 255
227 239 255
227 239 255
227 239 255
227 239 255
227 239 255
227 239 255
227 239 255
227 239 255
227 239 255
227 239 255
227 239 255
227 239 255
227 239 255
227 239 255
227 239 255
227 239 255
227 239 255
227 239 255
227 239 255
227 239 255
227 239 255
227 239 255
227 239 255
227 239 255
227 239 255
227 239 255
227 239 255
227 239 255
227 239 255
227 239 255
227 239 255
227 239 255
227 239 255
227 239 255
227 239 255
227 239 255
227 239 255
227 239 255
226 239 255
226 239 255
226 238 255
226 238 255
227 239 255
227 239 255
227 239 255
227 239 255
227 239 255
227 239 255
227 239 255
227 239 255
227 239 255
227 239 255
227 239 255
227 239 255
227 239 255
227 239 255
227 239 255
227 239 255
227 239 255
227 239 255
227 239 255
227 239 255
227 239 255
227 239 255
227 239 255
227 239 255
227 239 255
227 239 255
227 239 255
227 239 255
227 239 255
227 239 255
227 239 255
227 239 255
227 239 255
227 239 255
227 239 255
227 239 255
227 239 255
227 239 255
227 239 255
227 239 255
227 239 255
227 239 255
228 239 255
228 239 255
228 239 255
228 239 255
228 239 255
228 239 255
228 239 255
228 239 255
228 239 255
228 239 255
228 239 255
228 239 255
228 239 255
228 239 255
228 239 255
228 239 255
228 239 255
228 239 255
228 239 255
228 239 255
228 239 255
228 239 255
228 239 255
228 239 255
228 239 255
228 239 255
228 239 255
228 240 255
228 240 255
228 240 255
228 240 255
228 240 255
228 240 255
228 240 255
228 240 255
228 240 255
223 235 240
213 227 211
206 222 191
192 211 140
180 202 84
174 198 0
177 199 0
175 198 0
174 197 0
174 198 0
174 198 0
175 198 0
175 198 0
176 199 0
175 198 0
174 198 0
175 198 0
174 197 0
174 198 0
174 197 0
174 198 0
175 198 0
175 198 0
175 198 0
174 197 0
175 198 0
174 197 0
172 196 0
176 199 0
174 198 0
176 198 0
174 197 0
175 198 0
174 198 0
174 197 0
174 198 0
175 198 0
174 197 0
173 196 0
174 197 0
174 198 0
174 198 0
174 198 0
176 199 0
173 197 0
175 198 0
174 198 0
174 198 0
173 197 0
175 198 0
174 198 0
174 197 0
174 198 0
174 197 0
175 198 0
174 198 0
174 197 0
175 198 0
174 197 0
173 197 0
176 198 0
175 198 0
175 198 0
175 198 0
173 197 0
174 198 0
174 198 0
176 199 0
175 198 0
174 197 0
173 197 0
174 198 0
175 198 0
175 198 0
175 198 0
174 197 0
175 198 0
175 198 0
175 198 0
175 198 0
175 198 0
176 199 0
175 198 0
173 197 0
175 198 0
177 199 0
174 198 0
174 197 0
175 198 0
176 199 0
176 198 0
175 198 0
176 198 0
173 197 0
174 197 0
175 198 0
175 198 0
173 197 0
174 198 0
174 198 0
176 199 0
175 198 0
174 198 0
174 198 0
173 197 0
174 198 0
175 198 0
175 198 0
176 199 0
173 196 0
173 197 0
175 198 0
173 197 0
175 198 0
174 198 0
175 198 0
174 198 0
175 198 0
174 198 0
175 198 0
175 198 0
173 197 0
173 197 0
173 197 0
175 198 0
175 197 0
175 198 0
173 197 0
174 197 0
175 198 0
173 197 0
175 198 0
174 198 0
173 197 0
174 198 0
174 197 0
174 198 0
175 198 0
175 198 0
174 198 0
174 198 0
175 198 0
173 197 0
172 197 0
175 198 0
173 197 0
175 198 0
174 198 0
173 197 0
173 197 0
174 198 0
172 196 0
175 198 0
175 198 0
176 198 0
175 198 0
174 198 0
175 198 0
174 198 0
175 198 0
174 198 0
175 198 0
172 197 0
176 198 0
175 198 0
174 198 0
174 197 0
175 198 0
176 198 0
174 198 0
174 198 0
174 197 0
174 198 0
175 198 0
175 198 0
174 197 0
174 198 0
174 198 0
175 198 0
174 198 0
174 198 0
175 198 0
174 198 0
175 198 0
174 198 0
174 197 0
174 197 0
175 198 0
175 198 0
174 197 0
175 198 0
176 198 0
174 197 0
173 197 0
174 198 0
175 198 0
176 199 0
175 198 0
175 198 0
176 199 0
176 198 0
174 198 0
174 197 0
174 197 0
173 197 0
173 197 0
175 198 0
175 198 0
175 198 0
176 199 0
175 198 0
176 199 0
174 197 0
175 198 0
176 199 0
174 197 0
174 197 0
175 198 0
175 198 0
174 198 0
175 198 0
174 198 0
174 197 0
174 198 0
176 198 0
175 198 0
174 198 0
173 197 0
176 198 0
174 198 0
176 199 0
175 198 0
175 198 0
174 197 0
174 198 0
173 197 0
174 198 0
175 198 0
175 198 25
183 204 92
194 213 147
202 219 177
209 225 201
224 236 244
227 239 253
228 240 255
228 240 255
228 240 255
228 240 255
228 240 255
228 240 255
228 240 255
228 240 255
228 239 255
228 239 255
228 239 255
228 239 255
228 239 255
228 239 255
228 239 255
228 239 255
228 239 255
228 239 255
228 239 255
228 239 255
228 239 255
228 239 255
228 239 255
228 239 255
228 239 255
228 239 255
228 239 255
228 239 255
228 239 255
228 239 255
228 239 255
228 239 255
228 239 255
228 239 255
228 239 255
227 239 255
227 239 255
227 239 255
227 239 255
227 239 255
227 239 255
227 239 255
227 239 255
227 239 255
227 239 255
227 239 255
227 239 255
227 239 255
227 239 255
227 239 255
227 239 255
227 239 255
227 239 255
227 239 255
227 239 255
227 239 255
227 239 255
227 239 255
227 239 255
227 239 255
227 239 255
227 239 255
227 239 255
227 239 255
227 239 255
227 239 255
227 239 255
227 239 255
227 239 255
227 239 255
227 239 255
227 239 255
227 239 255
227 239 255
227 239 255
227 239 255
227 239 255
227 239 255
227 239 255
227 239 255
227 239 255
227 239 255
227 239 255
227 239 255
227 239 255
227 239 255
227 239 255
227 239 255
227 239 255
227 239 255
227 239 255
227 239 255
227 239 255
227 239 255
227 239 255
227 239 255
227 239 255
227 239 255
227 239 255
227 239 255
227 239 255
227 239 255
227 239 255
227 239 255
227 239 255
227 239 255
227 239 255
227 239 255
227 239 255
227 239 255
227 239 255
227 239 255
227 239 255
228 239 255
228 239 255
228 239 255
228 239 255
228 239 255
228 239 255
228 239 255
228 239 255
228 239 255
228 239 255
228 239 255
228 239 255
228 239 255
228 239 255
228 239 255
228 239 255
228 239 255
228 239 255
228 239 255
228 239 255
228 239 255
228 239 255
228 239 255
228 239 255
228 239 255
228 239 255
228 239 255
228 240 255
228 240 255
228 240 255
228 240 255
228 240 255
228 240 255
228 240 255
228 240 255
228 240 255
227 239 253
220 233 231
212 226 207
202 219 175
186 206 108
181 203 80
175 198 0
174 198 0
176 199 0
174 198 0
174 197 0
173 197 0
175 198 0
174 197 0
176 199 0
175 198 0
176 198 0
175 198 0
175 198 0
174 197 0
174 198 0
175 198 0
174 197 0
175 198 0
175 198 0
175 198 0
175 198 0
175 198 0
174 198 0
175 198 0
175 198 0
175 198 0
174 197 0
174 198 0
174 198 0
175 198 0
176 198 0
176 199 0
175 198 0
174 198 0
173 197 0
176 199 0
173 197 0
174 198 0
173 197 0
175 198 0
175 198 0
175 198 0
175 198 0
173 197 0
173 197 0
174 198 0
175 198 0
176 199 0
174 198 0
175 198 0
174 197 0
177 199 0
175 198 0
174 197 0
177 199 0
175 198 0
174 198 0
175 198 0
175 198 0
174 197 0
174 198 0
173 196 0
174 198 0
174 198 0
174 198 0
174 198 0
173 197 0
173 197 0
174 198 0
175 198 0
175 198 0
175 198 0
173 197 0
175 198 0
174 198 0
173 197 0
175 198 0
174 198 0
175 198 0
173 197 0
174 197 0
173 197 0
174 197 0
174 198 0
175 198 0
173 197 0
176 198 0
173 197 0
174 197 0
175 198 0
174 198 0
175 198 0
175 198 0
174 198 0
173 197 0
173 197 0
173 197 0
173 197 0
177 199 0
175 198 0
174 198 0
175 198 0
174 198 0
175 198 0
173 197 0
173 197 0
174 197 0
174 198 0
173 197 0
175 198 0
177 199 0
172 196 0
175 198 0
174 197 0
175 198 0
174 197 0
175 198 0
174 198 0
175 198 0
172 197 0
175 198 0
173 197 0
174 198 0
174 198 0
174 197 0
174 198 0
176 198 0
174 197 0
174 198 0
176 199 0
175 198 0
174 197 0
174 198 0
174 197 0
173 197 0
174 197 0
174 198 0
174 198 0
175 198 0
173 197 0
176 199 0
173 197 0
175 198 0
175 198 0
175 198 0
175 198 0
175 198 0
174 198 0
175 198 0
174 198 0
173 197 0
174 197 0
173 197 0
174 197 0
174 197 0
174 198 0
174 198 0
175 198 0
175 198 0
174 198 0
175 198 0
174 198 0
175 198 0
175 198 0
175 198 0
174 198 0
175 198 0
174 197 0
175 198 0
174 197 0
174 198 0
175 198 0
173 197 0
174 198 0
176 198 0
174 198 0
175 198 0
174 198 0
175 198 0
176 199 0
175 198 0
175 198 0
173 197 0
174 197 0
176 199 0
175 198 0
174 198 0
175 198 0
175 198 0
174 198 0
174 198 0
172 196 0
173 197 0
174 198 0
176 199 0
175 198 0
173 197 0
175 198 0
174 198 0
174 198 0
175 198 0
173 197 0
176 199 0
175 198 0
175 198 0
173 197 0
175 198 0
174 198 0
175 198 0
175 198 0
175 198 0
173 197 0
175 198 0
174 197 0
175 198 0
174 198 0
175 198 0
174 198 0
175 198 0
175 198 0
175 198 0
176 198 0
175 198 0
176 199 0
176 199 0
173 197 0
175 198 0
174 198 0
174 198 0
175 198 0
175 198 0
174 198 0
174 197 0
172 196 0
175 198 0
175 198 0
175 198 0
174 198 0
175 198 0
175 198 0
174 198 0
175 198 0
174 197 0
175 198 0
180 202 67
190 209 130
197 215 157
212 227 211
222 235 238
228 239 253
228 240 255
228 240 255
228 240 255
228 240 255
228 240 255
228 240 255
228 240 255
228 240 255
228 240 255
228 239 255
228 239 255
228 239 255
228 239 255
228 239 255
228 239 255
228 239 255
228 239 255
228 239 255
228 239 255
228 239 255
228 239 255
228 239 255
228 239 255
228 239 255
228 239 255
228 239 255
228 239 255
228 239 255
228 239 255
228 239 255
228 239 255
228 239 255
228 239 255
228 239 255
228 239 255
228 239 255
227 239 255
227 239 255
227 239 255
227 239 255
227 239 255
227 239 255
227 239 255
227 239 255
227 239 255
227 239 255
227 239 255
227 239 255
227 239 255
227 239 255
227 239 255
227 239 255
227 239 255
227 239 255
227 239 255
227 239 255
227 239 255
227 239 255
227 239 255
227 239 255
227 239 255
227 239 255
227 239 255
227 239 255
227 239 255
227 239 255
227 239 255
227 239 255
227 239 255
227 239 255
227 239 255
227 239 255
227 239 255
227 239 255
227 239 255
227 239 255
227 239 255
227 239 255
227 239 255
227 239 255
227 239 255
227 239 255
227 239 255
227 239 255
227 239 255
227 239 255
227 239 255
227 239 255
227 239 255
227 239 255
227 239 255
227 239 255
227 239 255
227 239 255
227 239 255
227 239 255
227 239 255
227 239 255
227 239 255
227 239 255
227 239 255
227 239 255
228 239 255
228 239 255
228 239 255
228 239 255
228 239 255
228 239 255
228 239 255
228 239 255
228 239 255
228 239 255
228 239 255
228 239 255
228 239 255
228 239 255
228 239 255
228 239 255
228 239 255
228 239 255
228 239 255
228 239 255
228 239 255
228 239 255
228 239 255
228 239 255
228 239 255
228 239 255
228 239 255
228 240 255
228 240 255
228 240 255
228 240 255
228 240 255
228 240 255
228 240 255
228 240 255
228 240 255
228 240 255
226 238 249
221 233 233
207 223 194
199 216 161
188 208 122
177 200 57
175 198 0
175 198 0
175 198 0
174 197 0
175 198 0
176 199 0
175 198 0
177 199 0
174 198 0
175 198 0
176 199 0
174 198 0
174 198 0
175 198 0
174 197 0
174 198 0
174 198 0
173 197 0
174 198 0
175 198 0
175 198 0
173 197 0
175 198 0
174 197 0
175 198 0
173 197 0
174 198 0
176 199 0
175 198 0
176 198 0
173 197 0
176 199 0
175 198 0
174 197 0
174 198 0
174 198 0
174 197 0
174 198 0
173 197 0
176 199 0
174 198 0
175 198 0
174 197 0
174 198 0
176 199 0
175 198 0
175 198 0
176 198 0
174 198 0
174 198 0
173 197 0
172 197 0
176 199 0
174 198 0
175 198 0
175 198 0
174 198 0
174 197 0
173 197 0
176 198 0
175 198 0
175 198 0
174 197 0
173 196 0
175 198 0
174 197 0
175 198 0
174 198 0
175 198 0
174 198 0
175 198 0
174 197 0
174 198 0
175 198 0
175 198 0
174 197 0
175 198 0
177 199 0
174 198 0
172 196 0
175 198 0
173 197 0
174 197 0
175 198 0
175 198 0
176 198 0
175 198 0
175 198 0
174 198 0
174 198 0
176 199 0
175 198 0
176 198 0
175 198 0
175 198 0
175 198 0
176 199 0
174 197 0
174 197 0
175 198 0
175 197 0
175 198 0
175 198 0
173 197 0
175 198 0
175 198 0
174 198 0
175 198 0
175 198 0
175 198 0
174 198 0
174 198 0
175 198 0
175 198 0
174 198 0
174 197 0
173 196 0
175 198 0
175 198 0
174 197 0
174 198 0
173 197 0
174 198 0
174 197 0
174 197 0
174 198 0
173 197 0
174 198 0
174 197 0
174 198 0
175 198 0
175 198 0
173 197 0
175 198 0
175 198 0
174 197 0
176 198 0
174 198 0
174 197 0
174 198 0
175 198 0
176 199 0
174 198 0
174 198 0
174 197 0
174 198 0
172 196 0
175 198 0
174 197 0
176 199 0
175 198 0
174 198 0
176 199 0
175 198 0
175 198 0
174 198 0
174 198 0
175 198 0
175 198 0
175 198 0
175 198 0
175 198 0
174 197 0
173 197 0
174 198 0
175 198 0
174 198 0
174 198 0
174 198 0
175 198 0
173 197 0
173 197 0
174 198 0
173 197 0
175 198 0
174 198 0
175 198 0
173 197 0
174 197 0
174 197 0
175 198 0
175 198 0
174 198 0
174 198 0
175 198 0
175 198 0
174 197 0
174 197 0
176 198 0
175 198 0
173 197 0
175 198 0
174 198 0
176 199 0
174 198 0
174 198 0
174 198 0
175 198 0
174 198 0
175 198 0
175 198 0
174 198 0
175 198 0
174 197 0
174 198 0
174 198 0
172 197 0
176 199 0
176 198 0
176 199 0
174 198 0
174 198 0
175 198 0
173 197 0
176 198 0
175 198 0
177 199 0
175 198 0
175 198 0
175 198 0
174 198 0
175 198 0
176 199 0
174 198 0
177 199 0
172 197 0
175 198 0
174 198 0
175 198 0
175 198 0
174 198 0
175 198 0
175 198 0
174 198 0
175 198 0
175 198 0
176 198 0
174 198 0
173 197 0
174 198 0
174 198 0
175 198 0
174 198 0
175 198 0
174 198 0
174 198 0
174 198 0
174 198 0
175 198 0
174 198 0
176 199 0
176 199 0
175 198 0
174 198 0
176 199 44
186 206 99
199 216 163
212 226 209
215 229 218
226 237 248
229 240 255
228 240 255
228 240 255
228 240 255
228 240 255
228 240 255
228 240 255
228 240 255
228 240 255
228 240 255
228 239 255
228 239 255
228 239 255
228 239 255
228 239 255
228 239 255
228 239 255
228 239 255
228 239 255
228 239 255
228 239 255
228 239 255
228 239 255
228 239 255
228 239 255
228 239 255
228 239 255
228 239 255
228 239 255
228 239 255
228 239 255
228 239 255
228 239 255
228 239 255
228 239 255
228 239 255
228 239 255
227 239 255
227 239 255
227 239 255
227 239 255
227 239 255
227 239 255
227 239 255
227 239 255
227 239 255
227 239 255
227 239 255
227 239 255
227 239 255
227 239 255
227 239 255
227 239 255
227 239 255
227 239 255
227 239 255
227 239 255
227 239 255
227 239 255
227 239 255
227 239 255
227 239 255
227 239 255
227 239 255
227 239 255
227 239 255
227 239 255
227 239 255
227 239 255
227 239 255
227 239 255
227 239 255
227 239 255
227 239 255
227 239 255
227 239 255
227 239 255
227 239 255
227 239 255
227 239 255
227 239 255
227 239 255
227 239 255
227 239 255
227 239 255
227 239 255
227 239 255
227 239 255
227 239 255
227 239 255
227 239 255
228 239 255
228 239 255
228 239 255
228 239 255
228 239 255
228 239 255
228 239 255
228 239 255
228 239 255
228 239 255
228 239 255
228 239 255
228 239 255
228 239 255
228 239 255
228 239 255
228 239 255
228 239 255
228 239 255
228 239 255
228 239 255
228 239 255
228 239 255
228 239 255
228 239 255
228 239 255
228 239 255
228 240 255
228 240 255
228 240 255
228 240 255
228 240 255
228 240 255
228 240 255
228 240 255
228 240 255
228 240 255
229 240 255
228 239 253
218 231 226
206 222 189
200 217 169
183 204 95
176 199 25
175 198 0
173 197 0
175 198 0
175 198 0
173 197 0
175 198 0
174 198 0
175 198 0
175 198 0
174 198 0
173 197 0
173 196 0
176 198 0
176 198 0
175 198 0
175 198 0
175 198 0
173 197 0
175 198 0
175 198 0
173 197 0
175 198 0
177 199 0
174 198 0
175 198 0
175 198 0
174 198 0
175 198 0
174 198 0
176 199 0
174 197 0
174 198 0
174 198 0
173 197 0
175 198 0
174 198 0
173 197 0
175 198 0
174 197 0
175 198 0
175 198 0
173 197 0
174 198 0
174 198 0
174 198 0
175 198 0
174 197 0
174 197 0
174 198 0
175 198 0
175 198 0
174 198 0
174 197 0
176 199 0
174 198 0
175 198 0
175 198 0
173 197 0
173 197 0
175 198 0
176 199 0
174 198 0
174 198 0
173 197 0
175 198 0
176 199 0
175 198 0
174 198 0
174 198 0
174 197 0
175 198 0
174 198 0
174 198 0
173 197 0
175 198 0
173 197 0
175 198 0
176 198 0
175 198 0
174 198 0
175 198 0
175 198 0
174 198 0
174 198 0
174 198 0
174 197 0
175 198 0
175 198 0
175 198 0
174 198 0
175 198 0
174 197 0
173 197 0
175 198 0
174 197 0
174 197 0
174 198 0
174 197 0
174 197 0
174 198 0
176 198 0
173 197 0
174 198 0
172 195 0
174 198 0
175 198 0
174 198 0
175 198 0
176 199 0
174 198 0
175 198 0
174 198 0
175 198 0
173 196 0
172 196 0
174 198 0
173 197 0
175 198 0
174 197 0
174 197 0
175 198 0
176 199 0
174 198 0
172 196 0
173 197 0
175 198 0
173 197 0
174 198 0
174 198 0
176 199 0
175 198 0
175 198 0
175 198 0
174 198 0
172 196 0
174 198 0
174 198 0
174 198 0
175 198 0
174 197 0
174 197 0
173 197 0
174 197 0
175 197 0
174 197 0
174 198 0
174 198 0
175 198 0
175 198 0
175 198 0
175 198 0
174 198 0
173 197 0
174 197 0
173 197 0
174 198 0
175 198 0
175 198 0
176 198 0
173 196 0
175 198 0
173 197 0
175 198 0
173 197 0
172 197 0
174 198 0
175 198 0
173 196 0
174 197 0
176 199 0
174 198 0
175 198 0
174 197 0
174 198 0
174 197 0
176 199 0
174 198 0
173 197 0
174 197 0
174 198 0
173 197 0
175 198 0
175 198 0
176 198 0
173 197 0
174 198 0
175 198 0
175 198 0
173 197 0
174 198 0
174 197 0
173 197 0
175 198 0
174 198 0
174 198 0
174 198 0
175 198 0
173 197 0
174 198 0
174 198 0
174 198 0
174 198 0
175 198 0
175 198 0
175 198 0
174 198 0
175 198 0
175 198 0
174 198 0
175 198 0
175 198 0
175 198 0
175 198 0
175 198 0
174 197 0
175 198 0
174 198 0
175 198 0
175 198 0
173 197 0
176 199 0
175 198 0
175 198 0
172 197 0
173 197 0
174 197 0
175 198 0
175 198 0
175 198 0
173 197 0
174 198 0
175 198 0
175 198 0
175 198 0
176 199 0
174 198 0
173 197 0
175 198 0
175 198 0
174 198 0
175 198 0
175 198 0
176 198 0
175 198 0
173 197 0
175 198 0
173 197 0
177 199 0
173 197 0
177 199 0
175 198 0
174 198 0
177 199 0
175 198 0
174 197 0
174 198 0
174 198 0
174 197 0
173 197 0
176 199 0
175 198 0
174 198 0
175 198 0
174 197 0
176 199 25
183 204 105
203 219 181
207 222 193
217 231 224
226 238 249
229 240 255
228 240 255
228 240 255
228 240 255
228 240 255
228 240 255
228 240 255
228 240 255
228 240 255
228 240 255
228 240 255
228 239 255
228 239 255
228 239 255
228 239 255
228 239 255
228 239 255
228 239 255
228 239 255
228 239 255
228 239 255
228 239 255
228 239 255
228 239 255
228 239 255
228 239 255
228 239 255
228 239 255
228 239 255
228 239 255
228 239 255
228 239 255
228 239 255
228 239 255
228 239 255
228 239 255
228 239 255
228 239 255
227 239 255
227 239 255
227 239 255
227 239 255
227 239 255
227 239 255
227 239 255
227 239 255
227 239 255
227 239 255
227 239 255
227 239 255
227 239 255
227 239 255
227 239 255
227 239 255
227 239 255
227 239 255
227 239 255
227 239 255
227 239 255
227 239 255
227 239 255
227 239 255
227 239 255
227 239 255
227 239 255
227 239 255
227 239 255
227 239 255
227 239 255
227 239 255
227 239 255
227 239 255
227 239 255
227 239 255
227 239 255
227 239 255
227 239 255
227 239 255
227 239 255
227 239 255
228 239 255
228 239 255
228 239 255
228 239 255
228 239 255
228 239 255
228 239 255
228 239 255
228 239 255
228 239 255
228 239 255
228 239 255
228 239 255
228 239 255
228 239 255
228 239 255
228 239 255
228 239 255
228 239 255
228 239 255
228 239 255
228 239 255
228 239 255
228 239 255
228 239 255
228 239 255
228 239 255
228 239 255
228 240 255
228 240 255
228 240 255
228 240 255
228 240 255
228 240 255
228 240 255
228 240 255
228 240 255
228 240 255
229 240 255
226 237 248
219 232 228
214 228 212
193 212 147
184 204 102
176 199 36
174 197 0
175 198 0
175 198 0
175 198 0
174 197 0
175 198 0
173 197 0
175 198 0
172 197 0
175 198 0
173 197 0
175 198 0
174 198 0
176 199 0
175 198 0
175 198 0
175 198 0
175 198 0
175 198 0
175 198 0
175 198 0
173 197 0
174 197 0
175 198 0
174 198 0
174 198 0
176 198 0
174 198 0
175 198 0
173 197 0
175 198 0
175 198 0
173 197 0
176 199 0
175 198 0
175 198 0
174 198 0
175 198 0
174 197 0
174 197 0
175 198 0
175 198 0
173 196 0
174 198 0
176 199 0
175 198 0
175 198 0
173 197 0
174 198 0
175 198 0
176 199 0
173 197 0
175 198 0
174 197 0
175 198 0
175 198 0
174 197 0
174 198 0
173 197 0
175 198 0
176 198 0
174 198 0
175 198 0
175 198 0
174 197 0
173 197 0
175 198 0
174 197 0
174 198 0
173 197 0
176 198 0
174 198 0
176 199 0
176 199 0
175 198 0
175 198 0
174 197 0
175 198 0
174 198 0
175 198 0
174 197 0
176 198 0
175 198 0
174 198 0
174 198 0
172 197 0
174 198 0
174 198 0
174 198 0
175 198 0
175 198 0
173 197 0
174 197 0
175 198 0
174 197 0
175 198 0
173 197 0
173 197 0
175 198 0
174 197 0
174 197 0
174 197 0
174 198 0
175 198 0
172 196 0
174 198 0
175 198 0
173 197 0
175 198 0
174 197 0
174 198 0
175 198 0
173 197 0
173 197 0
173 197 0
174 198 0
174 198 0
175 198 0
173 197 0
175 198 0
174 198 0
173 197 0
173 197 0
174 197 0
174 197 0
175 198 0
174 197 0
175 198 0
174 198 0
174 198 0
173 196 0
175 198 0
176 199 0
174 198 0
174 197 0
176 198 0
174 198 0
175 198 0
173 197 0
173 197 0
174 198 0
175 198 0
174 198 0
174 198 0
174 198 0
173 197 0
175 198 0
176 199 0
174 197 0
175 198 0
173 197 0
174 198 0
175 198 0
173 196 0
173 197 0
175 198 0
175 198 0
174 198 0
175 198 0
173 197 0
176 198 0
175 198 0
173 197 0
174 198 0
175 198 0
173 197 0
174 198 0
174 197 0
174 197 0
174 197 0
174 197 0
175 198 0
176 199 0
175 198 0
174 198 0
175 198 0
173 197 0
174 197 0
173 197 0
174 198 0
174 198 0
174 198 0
174 198 0
174 198 0
175 198 0
175 198 0
172 196 0
173 196 0
175 198 0
175 198 0
174 197 0
175 198 0
175 198 0
175 198 0
174 198 0
175 198 0
174 198 0
176 199 0
174 197 0
175 198 0
174 198 0
175 198 0
175 198 0
173 197 0
174 197 0
176 198 0
175 198 0
174 198 0
173 197 0
173 197 0
174 198 0
174 198 0
174 197 0
175 198 0
174 197 0
173 197 0
175 198 0
177 199 0
175 198 0
174 198 0
175 198 0
175 198 0
173 197 0
174 198 0
175 198 0
175 198 0
174 198 0
174 198 0
175 198 0
173 197 0
176 198 0
174 198 0
174 197 0
173 197 0
175 198 0
174 198 0
174 198 0
177 199 0
175 198 0
175 198 0
174 198 0
174 197 0
174 198 0
174 198 0
174 198 0
175 198 0
175 198 0
175 198 0
175 198 0
174 198 0
175 198 0
174 197 0
175 198 0
175 198 0
174 198 0
174 197 0
173 197 0
174 197 0
173 197 0
174 198 0
175 198 0
173 197 0
174 198 0
176 199 0
174 198 0
173 197 0
177 199 0
174 198 0
174 198 0
175 198 0
174 198 0
175 198 0
176 198 0
175 198 0
176 199 25
185 206 105
198 216 161
207 223 194
218 232 228
228 239 253
229 240 255
228 240 255
228 240 255
228 240 255
228 240 255
228 240 255
228 240 255
228 240 255
228 240 255
228 240 255
228 240 255
228 240 255
228 239 255
228 239 255
228 239 255
228 239 255
228 239 255
228 239 255
228 239 255
228 239 255
228 239 255
228 239 255
228 239 255
228 239 255
228 239 255
228 239 255
228 239 255
228 239 255
228 239 255
228 239 255
228 239 255
228 239 255
228 239 255
228 239 255
228 239 255
228 239 255
228 239 255
228 239 255
227 239 255
227 239 255
227 239 255
227 239 255
227 239 255
227 239 255
227 239 255
227 239 255
227 239 255
227 239 255
227 239 255
227 239 255
227 239 255
227 239 255
227 239 255
227 239 255
227 239 255
227 239 255
227 239 255
227 239 255
227 239 255
227 239 255
227 239 255
227 239 255
227 239 255
227 239 255
227 239 255
227 239 255
227 239 255
227 239 255
227 239 255
227 239 255
228 239 255
228 239 255
228 239 255
228 239 255
228 239 255
228 239 255
228 239 255
228 239 255
228 239 255
228 239 255
228 239 255
228 239 255
228 239 255
228 239 255
228 239 255
228 239 255
228 239 255
228 239 255
228 239 255
228 239 255
228 239 255
228 239 255
228 239 255
228 239 255
228 239 255
228 239 255
228 239 255
228 240 255
228 240 255
228 240 255
228 240 255
228 240 255
228 240 255
228 240 255
228 240 255
228 240 255
228 240 255
229 240 255
229 240 255
228 239 253
216 230 220
209 224 198
198 216 161
182 204 95
177 200 44
173 197 0
175 198 0
174 198 0
176 199 0
174 198 0
175 198 0
174 198 0
175 198 0
175 198 0
174 198 0
174 197 0
174 198 0
172 196 0
176 198 0
175 198 0
174 197 0
174 198 0
174 197 0
174 198 0
175 198 0
175 198 0
173 197 0
175 198 0
174 198 0
174 197 0
174 198 0
174 198 0
176 198 0
173 197 0
175 198 0
175 198 0
174 197 0
176 198 0
174 198 0
174 197 0
175 198 0
173 197 0
174 197 0
174 198 0
176 199 0
174 197 0
176 199 0
175 198 0
173 197 0
174 197 0
174 198 0
175 198 0
175 198 0
174 197 0
174 197 0
173 197 0
174 198 0
174 198 0
175 198 0
173 197 0
174 198 0
175 198 0
173 197 0
175 198 0
174 197 0
174 197 0
175 198 0
174 198 0
174 197 0
175 198 0
174 198 0
174 198 0
172 196 0
173 197 0
174 198 0
175 198 0
174 197 0
174 197 0
176 199 0
175 198 0
174 198 0
175 198 0
174 197 0
176 199 0
175 198 0
173 197 0
175 198 0
174 198 0
176 199 0
174 198 0
174 198 0
176 198 0
173 197 0
174 198 0
173 196 0
173 197 0
175 198 0
175 198 0
174 197 0
174 198 0
174 198 0
172 196 0
174 198 0
172 197 0
174 197 0
172 197 0
173 197 0
174 198 0
174 197 0
174 198 0
175 198 0
174 198 0
175 198 0
175 198 0
174 198 0
174 197 0
174 197 0
174 197 0
174 198 0
174 198 0
174 197 0
173 197 0
175 198 0
174 197 0
175 198 0
174 197 0
173 197 0
173 197 0
174 197 0
174 197 0
175 198 0
174 197 0
173 197 0
175 198 0
174 198 0
175 198 0
174 197 0
174 198 0
171 196 0
175 198 0
175 198 0
174 197 0
172 196 0
174 197 0
175 198 0
176 198 0
176 198 0
176 199 0
175 198 0
172 196 0
175 198 0
175 198 0
173 197 0
172 196 0
174 198 0
174 197 0
174 198 0
174 197 0
173 197 0
172 196 0
173 197 0
174 197 0
175 198 0
173 197 0
173 197 0
177 199 0
174 198 0
173 196 0
174 197 0
175 198 0
172 196 0
173 196 0
173 196 0
176 199 0
174 197 0
174 198 0
174 197 0
175 198 0
174 198 0
175 198 0
175 198 0
175 198 0
176 198 0
175 198 0
173 197 0
174 198 0
174 198 0
173 197 0
173 197 0
174 198 0
174 197 0
173 196 0
174 198 0
173 197 0
173 197 0
175 198 0
175 198 0
175 198 0
175 198 0
174 197 0
175 198 0
175 198 0
175 198 0
174 198 0
176 199 0
175 198 0
174 198 0
175 198 0
174 197 0
175 198 0
175 198 0
175 198 0
173 197 0
173 197 0
174 198 0
175 198 0
174 198 0
174 198 0
176 199 0
175 198 0
174 198 0
173 197 0
176 198 0
174 198 0
173 197 0
176 199 0
176 199 0
175 198 0
174 197 0
174 198 0
173 197 0
175 198 0
175 198 0
176 199 0
173 197 0
174 197 0
175 198 0
174 198 0
175 198 0
176 199 0
175 198 0
174 198 0
174 198 0
175 198 0
173 197 0
176 199 0
173 197 0
174 198 0
173 197 0
175 198 0
175 198 0
175 198 0
176 199 0
175 198 0
175 198 0
174 198 0
173 196 0
175 198 0
175 198 0
175 198 0
174 198 0
173 197 0
175 198 0
175 198 0
175 198 0
174 198 0
175 198 0
174 198 0
174 198 0
175 198 0
175 198 0
175 198 0
174 197 0
176 199 0
174 198 0
176 199 0
174 198 0
173 197 0
176 198 0
176 199 0
174 198 0
175 198 0
173 197 0
174 198 0
174 198 0
176 199 0
175 198 0
174 198 0
175 198 0
176 199 51
183 204 99
200 217 169
210 225 201
219 232 230
229 240 255
229 240 255
229 240 255
228 240 255
228 240 255
228 240 255
228 240 255
228 240 255
228 240 255
228 240 255
228 240 255
228 240 255
228 240 255
228 239 255
228 239 255
228 239 255
228 239 255
228 239 255
228 239 255
228 239 255
228 239 255
228 239 255
228 239 255
228 239 255
228 239 255
228 239 255
228 239 255
228 239 255
228 239 255
228 239 255
228 239 255
228 239 255
228 239 255
228 239 255
228 239 255
228 239 255
228 239 255
228 239 255
228 239 255
228 239 255
227 239 255
227 239 255
227 239 255
227 239 255
227 239 255
227 239 255
227 239 255
227 239 255
227 239 255
227 239 255
227 239 255
227 239 255
227 239 255
227 239 255
227 239 255
227 239 255
227 239 255
227 239 255
227 239 255
227 239 255
228 239 255
228 239 255
228 239 255
228 239 255
228 239 255
228 239 255
228 239 255
228 239 255
228 239 255
228 239 255
228 239 255
228 239 255
228 239 255
228 239 255
228 239 255
228 239 255
228 239 255
228 239 255
228 239 255
228 239 255
228 239 255
228 239 255
228 239 255
228 239 255
228 239 255
228 239 255
228 239 255
228 239 255
228 240 255
228 240 255
228 240 255
228 240 255
228 240 255
228 240 255
228 240 255
228 240 255
228 240 255
228 240 255
229 240 255
229 240 255
229 240 255
224 236 242
211 226 206
198 215 165
186 206 111
177 200 57
175 198 0
174 198 0
175 198 0
175 198 0
176 199 0
174 197 0
175 198 0
175 198 0
173 197 0
176 199 0
174 198 0
175 198 0
176 198 0
173 197 0
174 197 0
175 198 0
174 198 0
174 198 0
175 198 0
175 198 0
174 198 0
175 198 0
175 198 0
173 197 0
174 198 0
174 198 0
175 198 0
175 198 0
174 198 0
175 198 0
175 198 0
175 198 0
174 197 0
174 198 0
175 198 0
176 198 0
175 198 0
174 198 0
175 198 0
176 198 0
173 197 0
175 198 0
175 198 0
173 197 0
174 198 0
173 197 0
174 198 0
174 197 0
173 197 0
175 198 0
172 197 0
173 197 0
176 198 0
174 198 0
174 197 0
174 197 0
175 198 0
175 198 0
174 198 0
174 198 0
173 197 0
175 198 0
175 198 0
173 197 0
175 198 0
175 198 0
175 198 0
173 197 0
174 198 0
174 198 0
174 198 0
174 198 0
175 198 0
174 198 0
173 197 0
173 197 0
174 198 0
176 198 0
175 198 0
174 198 0
173 197 0
174 198 0
175 198 0
174 197 0
174 198 0
174 198 0
174 197 0
176 198 0
175 198 0
174 198 0
174 197 0
174 198 0
174 198 0
176 199 0
175 198 0
174 197 0
173 197 0
172 196 0
173 197 0
175 198 0
175 198 0
175 198 0
175 198 0
173 197 0
176 199 0
174 198 0
173 197 0
174 197 0
177 199 0
176 199 0
174 198 0
173 197 0
174 198 0
174 198 0
174 197 0
176 199 0
175 198 0
175 198 0
174 198 0
174 197 0
173 196 0
172 195 0
175 197 0
175 198 0
176 199 0
174 198 0
173 197 0
173 197 0
174 197 0
174 198 0
172 197 0
174 197 0
175 198 0
174 197 0
175 198 0
176 199 0
174 198 0
175 198 0
176 199 0
172 196 0
173 197 0
173 196 0
173 197 0
173 197 0
172 196 0
174 198 0
173 197 0
174 198 0
172 196 0
174 197 0
174 197 0
174 198 0
174 197 0
175 198 0
174 198 0
174 198 0
176 199 0
174 197 0
176 199 0
173 197 0
173 197 0
175 198 0
174 197 0
174 198 0
174 198 0
175 198 0
174 197 0
175 198 0
173 197 0
174 198 0
173 197 0
175 198 0
175 198 0
174 198 0
174 197 0
175 198 0
174 198 0
174 198 0
174 198 0
176 199 0
175 198 0
175 198 0
175 198 0
175 197 0
174 197 0
175 198 0
174 197 0
175 198 0
175 198 0
173 196 0
174 197 0
175 198 0
175 198 0
174 198 0
172 196 0
176 198 0
174 198 0
174 197 0
174 198 0
173 197 0
173 197 0
174 198 0
174 198 0
174 198 0
175 198 0
175 198 0
176 199 0
174 198 0
174 197 0
173 197 0
177 199 0
177 199 0
175 198 0
174 197 0
175 198 0
174 198 0
174 198 0
174 197 0
177 199 0
175 198 0
174 198 0
175 198 0
174 197 0
175 198 0
175 198 0
176 198 0
176 199 0
175 198 0
175 198 0
175 198 0
173 197 0
174 197 0
174 197 0
175 198 0
173 197 0
175 198 0
174 198 0
175 198 0
174 198 0
174 198 0
175 198 0
175 198 0
174 198 0
174 198 0
173 197 0
175 198 0
173 197 0
174 198 0
174 198 0
175 198 0
175 198 0
174 198 0
176 198 0
174 198 0
174 198 0
174 198 0
175 198 0
174 198 0
174 198 0
174 198 0
174 198 0
175 198 0
174 198 0
174 198 0
173 197 0
174 198 0
175 198 0
174 198 0
175 198 0
175 198 0
173 197 0
176 198 0
176 199 0
176 199 0
175 198 0
176 199 0
174 198 0
175 198 0
175 198 0
174 197 0
174 198 0
175 198 0
176 199 0
174 198 0
174 198 0
175 198 0
175 198 0
174 197 0
174 198 0
174 198 0
174 198 0
176 199 0
175 198 0
176 199 0
179 201 57
190 210 130
204 221 184
213 228 212
221 234 236
229 240 255
229 240 255
229 240 255
228 240 255
228 240 255
228 240 255
228 240 255
228 240 255
228 240 255
228 240 255
228 240 255
228 240 255
228 240 255
228 239 255
228 239 255
228 239 255
228 239 255
228 239 255
228 239 255
228 239 255
228 239 255
228 239 255
228 239 255
228 239 255
228 239 255
228 239 255
228 239 255
228 239 255
228 239 255
228 239 255
228 239 255
228 239 255
228 239 255
228 239 255
228 239 255
228 239 255
228 239 255
228 239 255
228 239 255
228 239 255
228 239 255
227 239 255
227 239 255
227 239 255
227 239 255
227 239 255
227 239 255
227 239 255
227 239 255
228 239 255
228 239 255
228 239 255
228 239 255
228 239 255
228 239 255
228 239 255
228 239 255
228 239 255
228 239 255
228 239 255
228 239 255
228 239 255
228 239 255
228 239 255
228 239 255
228 239 255
228 239 255
228 239 255
228 239 255
228 239 255
228 239 255
228 239 255
228 239 255
228 239 255
228 239 255
228 239 255
228 239 255
228 240 255
228 240 255
228 240 255
228 240 255
228 240 255
228 240 255
228 240 255
228 240 255
228 240 255
228 240 255
228 240 255
229 240 255
229 240 255
229 240 255
223 235 240
216 230 221
200 217 167
189 209 127
176 199 44
176 198 0
176 199 0
176 199 0
175 198 0
173 197 0
176 199 0
174 198 0
174 198 0
175 198 0
176 199 0
176 199 0
176 198 0
175 198 0
174 198 0
175 198 0
175 198 0
174 198 0
176 198 0
174 197 0
174 198 0
174 197 0
176 199 0
175 198 0
175 198 0
174 198 0
176 198 0
174 198 0
176 199 0
174 197 0
174 197 0
175 198 0
173 197 0
173 197 0
173 197 0
175 198 0
174 198 0
175 198 0
176 199 0
173 196 0
175 198 0
174 198 0
173 197 0
174 198 0
175 198 0
176 199 0
174 198 0
174 197 0
174 198 0
174 197 0
175 198 0
173 197 0
174 197 0
175 198 0
173 197 0
174 198 0
173 197 0
174 198 0
174 198 0
175 198 0
174 198 0
175 198 0
175 198 0
175 198 0
174 198 0
172 197 0
174 197 0
173 196 0
176 198 0
174 197 0
176 198 0
175 198 0
175 198 0
175 198 0
174 198 0
176 199 0
176 198 0
173 197 0
174 197 0
174 197 0
173 197 0
176 199 0
175 198 0
176 198 0
174 198 0
176 198 0
173 197 0
173 197 0
176 199 0
174 198 0
174 197 0
174 197 0
173 197 0
175 198 0
174 197 0
176 199 0
174 198 0
174 197 0
174 198 0
175 198 0
173 197 0
175 198 0
173 197 0
173 196 0
173 197 0
173 197 0
173 197 0
174 197 0
174 198 0
175 198 0
174 197 0
175 198 0
173 197 0
173 197 0
173 197 0
174 198 0
174 198 0
174 198 0
174 197 0
174 198 0
175 198 0
174 197 0
174 197 0
174 198 0
175 198 0
174 198 0
174 197 0
175 198 0
175 198 0
176 198 0
174 197 0
175 198 0
171 195 0
175 198 0
175 198 0
174 198 0
174 197 0
175 198 0
174 198 0
175 198 0
174 197 0
175 198 0
174 198 0
175 198 0
173 197 0
175 198 0
176 199 0
175 198 0
174 198 0
176 199 0
174 198 0
173 197 0
172 196 0
176 198 0
174 197 0
174 197 0
175 198 0
174 198 0
174 198 0
175 198 0
174 197 0
173 197 0
174 198 0
174 198 0
174 197 0
175 198 0
174 198 0
175 198 0
176 199 0
175 198 0
174 198 0
173 197 0
174 198 0
174 198 0
174 198 0
174 197 0
175 198 0
173 197 0
176 198 0
174 197 0
175 198 0
176 198 0
174 198 0
175 198 0
174 198 0
177 199 0
174 198 0
174 198 0
174 198 0
173 197 0
175 198 0
175 198 0
174 197 0
175 198 0
176 198 0
174 198 0
175 198 0
174 197 0
174 198 0
173 197 0
173 196 0
174 197 0
175 198 0
174 198 0
174 198 0
176 199 0
173 196 0
174 198 0
175 198 0
175 198 0
176 199 0
175 198 0
174 198 0
174 198 0
174 198 0
175 198 0
174 198 0
174 198 0
175 198 0
174 197 0
173 197 0
177 199 0
172 197 0
174 197 0
174 198 0
175 198 0
175 198 0
175 198 0
174 198 0
175 198 0
175 198 0
174 197 0
174 197 0
174 198 0
174 198 0
175 198 0
174 198 0
176 199 0
174 198 0
172 196 0
174 198 0
173 197 0
174 197 0
175 198 0
174 197 0
174 198 0
173 197 0
174 197 0
176 198 0
174 198 0
174 198 0
176 199 0
174 198 0
174 198 0
175 198 0
175 198 0
174 198 0
175 198 0
175 198 0
173 197 0
175 198 0
174 197 0
174 198 0
175 198 0
174 197 0
174 198 0
173 197 0
174 197 0
175 198 0
176 198 0
174 198 0
174 197 0
174 198 0
174 197 0
175 198 0
175 198 0
175 198 0
176 198 0
174 198 0
175 198 0
175 198 0
174 198 0
174 197 0
175 198 0
174 197 0
176 199 0
174 198 0
174 198 0
175 198 0
174 197 0
175 198 0
174 197 0
175 198 0
175 198 0
173 197 0
175 198 0
175 198 0
177 199 0
175 198 0
174 197 0
174 197 0
174 198 0
175 198 0
176 198 0
175 198 0
176 199 51
192 211 137
204 220 181
213 227 211
223 236 241
229 240 255
229 240 255
229 240 255
228 240 255
228 240 255
228 240 255
228 240 255
228 240 255
228 240 255
228 240 255
228 240 255
228 240 255
228 240 255
228 240 255
228 239 255
228 239 255
228 239 255
228 239 255
228 239 255
228 239 255
228 239 255
228 239 255
228 239 255
228 239 255
228 239 255
228 239 255
228 239 255
228 239 255
228 239 255
228 239 255
228 239 255
228 239 255
228 239 255
228 239 255
228 239 255
228 239 255
228 239 255
228 239 255
228 239 255
228 239 255
228 239 255
228 239 255
227 239 255
228 239 255
228 239 255
228 239 255
228 239 255
228 239 255
228 239 255
228 239 255
228 239 255
228 239 255
228 239 255
228 239 255
228 239 255
228 239 255
228 239 255
228 239 255
228 239 255
228 239 255
228 239 255
228 239 255
228 239 255
228 239 255
228 239 255
228 239 255
228 239 255
228 240 255
228 240 255
228 240 255
228 240 255
228 240 255
228 240 255
228 240 255
228 240 255
228 240 255
228 240 255
229 240 255
229 240 255
229 240 255
229 240 255
227 238 250
219 232 228
207 223 193
193 212 137
179 202 76
175 198 0
175 198 0
173 197 0
174 198 0
174 197 0
174 198 0
175 198 0
176 199 0
175 198 0
175 198 0
173 197 0
176 199 0
173 197 0
175 198 0
175 198 0
174 197 0
176 198 0
173 197 0
175 198 0
174 197 0
174 197 0
173 197 0
175 198 0
174 198 0
175 198 0
175 198 0
177 199 0
173 197 0
175 198 0
174 197 0
175 198 0
175 198 0
174 198 0
174 198 0
176 199 0
174 197 0
174 198 0
175 198 0
175 198 0
174 197 0
174 197 0
172 197 0
174 197 0
176 198 0
175 198 0
176 199 0
175 198 0
175 198 0
175 198 0
174 197 0
173 196 0
175 198 0
176 198 0
174 197 0
173 197 0
174 198 0
172 196 0
175 198 0
174 197 0
174 198 0
174 198 0
176 199 0
176 198 0
176 199 0
176 199 0
175 198 0
175 198 0
174 198 0
175 198 0
174 197 0
174 198 0
175 198 0
175 198 0
175 198 0
174 198 0
174 198 0
174 197 0
174 197 0
173 197 0
173 197 0
175 198 0
174 198 0
173 197 0
175 198 0
175 198 0
174 198 0
174 198 0
175 198 0
174 198 0
174 198 0
175 198 0
176 199 0
176 198 0
175 198 0
175 198 0
174 197 0
173 197 0
177 199 0
174 198 0
174 198 0
174 197 0
176 199 0
174 197 0
172 196 0
174 198 0
173 197 0
174 198 0
174 198 0
174 197 0
173 197 0
173 197 0
175 198 0
175 198 0
175 198 0
175 198 0
173 197 0
174 198 0
174 198 0
174 197 0
173 197 0
173 197 0
175 198 0
174 197 0
174 198 0
174 197 0
176 199 0
174 198 0
174 197 0
173 196 0
175 198 0
173 197 0
175 198 0
175 198 0
174 198 0
174 197 0
174 197 0
174 198 0
174 197 0
175 198 0
174 198 0
174 197 0
175 198 0
173 197 0
175 198 0
176 199 0
174 198 0
174 197 0
175 198 0
174 197 0
173 197 0
174 197 0
173 197 0
173 197 0
175 198 0
174 198 0
172 196 0
175 198 0
173 197 0
172 197 0
175 198 0
174 197 0
175 198 0
175 198 0
174 197 0
173 197 0
174 197 0
174 198 0
176 198 0
175 198 0
173 197 0
174 197 0
174 197 0
175 198 0
174 197 0
174 197 0
171 195 0
174 198 0
173 196 0
173 196 0
174 197 0
175 197 0
175 198 0
174 198 0
174 197 0
175 198 0
174 198 0
173 197 0
173 197 0
174 198 0
174 197 0
173 197 0
173 195 0
174 198 0
175 198 0
175 198 0
172 196 0
175 198 0
173 197 0
174 198 0
175 198 0
173 197 0
175 198 0
176 198 0
176 198 0
174 197 0
175 197 0
175 198 0
176 199 0
175 198 0
174 197 0
173 197 0
174 198 0
175 198 0
174 198 0
175 198 0
174 198 0
175 198 0
176 198 0
175 198 0
175 198 0
174 197 0
173 197 0
174 198 0
174 197 0
175 198 0
175 198 0
177 199 0
174 197 0
174 198 0
174 198 0
174 198 0
174 198 0
175 198 0
173 197 0
175 198 0
173 197 0
174 197 0
174 197 0
174 198 0
176 199 0
175 198 0
175 198 0
174 198 0
172 197 0
174 198 0
174 197 0
176 198 0
175 198 0
176 199 0
175 198 0
175 198 0
175 198 0
176 198 0
176 199 0
176 199 0
175 198 0
175 198 0
175 198 0
175 198 0
177 199 0
175 198 0
174 198 0
174 198 0
175 198 0
174 198 0
174 197 0
175 198 0
174 197 0
173 197 0
174 197 0
174 197 0
175 198 0
174 198 0
177 199 0
174 198 0
176 199 0
177 199 0
174 198 0
174 198 0
174 198 0
174 198 0
175 198 0
174 198 0
175 198 0
174 198 0
174 198 0
175 198 0
175 198 0
174 197 0
175 198 0
173 197 0
173 197 0
175 198 0
174 198 0
176 199 0
174 198 0
174 198 0
175 198 0
174 198 0
174 198 0
175 198 0
173 197 0
174 198 0
174 197 0
175 198 0
175 198 0
173 197 0
175 198 0
174 197 0
175 198 0
175 198 0
174 198 0
175 197 0
175 198 0
184 205 92
195 213 149
206 222 189
217 230 220
227 239 252
229 240 255
229 240 255
229 240 255
229 240 255
228 240 255
228 240 255
228 240 255
228 240 255
228 240 255
228 240 255
228 240 255
228 240 255
228 240 255
228 240 255
228 239 255
228 239 255
228 239 255
228 239 255
228 239 255
228 239 255
228 239 255
228 239 255
228 239 255
228 239 255
228 239 255
228 239 255
228 239 255
228 239 255
228 239 255
228 239 255
228 239 255
228 239 255
228 239 255
228 239 255
228 239 255
228 239 255
228 239 255
228 239 255
228 239 255
228 239 255
228 239 255
228 239 255
228 239 255
228 239 255
228 239 255
228 239 255
228 239 255
228 239 255
228 239 255
228 239 255
228 239 255
228 239 255
228 239 255
228 239 255
228 239 255
228 239 255
228 239 255
228 240 255
228 240 255
228 240 255
228 240 255
228 240 255
228 240 255
228 240 255
228 240 255
228 240 255
228 240 255
229 240 255
229 240 255
229 240 255
229 240 255
229 240 255
222 235 238
208 223 194
197 215 155
190 209 125
178 200 51
176 199 0
175 198 0
175 198 0
175 198 0
175 198 0
176 199 0
174 198 0
174 197 0
175 198 0
175 198 0
175 198 0
173 197 0
176 199 0
173 197 0
174 197 0
173 197 0
175 198 0
177 199 0
174 198 0
176 198 0
174 198 0
173 197 0
175 198 0
174 198 0
175 198 0
174 198 0
173 197 0
175 198 0
174 197 0
174 197 0
174 198 0
175 198 0
174 198 0
175 198 0
175 198 0
175 198 0
174 198 0
175 198 0
175 198 0
175 198 0
174 197 0
175 198 0
175 198 0
174 197 0
175 198 0
176 199 0
175 198 0
174 198 0
177 199 0
173 197 0
174 198 0
174 198 0
176 199 0
175 198 0
174 198 0
175 198 0
175 198 0
174 198 0
175 198 0
174 197 0
174 197 0
174 198 0
173 196 0
174 198 0
175 198 0
174 198 0
176 198 0
174 198 0
174 198 0
174 197 0
176 199 0
174 198 0
175 198 0
171 196 0
175 198 0
175 198 0
176 198 0
176 199 0
175 198 0
174 198 0
174 197 0
175 198 0
174 198 0
174 197 0
175 198 0
176 199 0
174 198 0
174 198 0
176 199 0
173 197 0
175 198 0
174 197 0
175 198 0
172 196 0
174 197 0
174 197 0
173 197 0
175 198 0
175 198 0
173 197 0
174 198 0
176 198 0
174 198 0
175 198 0
174 197 0
173 197 0
175 198 0
174 198 0
175 198 0
174 197 0
175 198 0
174 198 0
175 198 0
175 198 0
175 198 0
173 197 0
174 198 0
173 197 0
176 199 0
174 197 0
173 197 0
177 199 0
174 198 0
173 197 0
174 198 0
174 197 0
174 198 0
174 198 0
175 198 0
173 197 0
174 198 0
173 197 0
173 196 0
174 197 0
174 198 0
173 197 0
173 197 0
174 198 0
174 198 0
174 197 0
173 197 0
174 198 0
174 197 0
173 197 0
175 198 0
173 197 0
173 197 0
174 198 0
173 197 0
174 197 0
176 199 0
175 198 0
174 198 0
174 198 0
173 197 0
175 198 0
174 198 0
173 197 0
173 196 0
174 197 0
174 197 0
175 198 0
171 196 0
173 197 0
175 198 0
174 197 0
175 198 0
175 198 0
175 198 0
176 199 0
174 197 0
172 197 0
174 197 0
176 198 0
173 197 0
175 198 0
174 197 0
175 198 0
173 196 0
173 196 0
173 197 0
174 197 0
175 198 0
175 198 0
174 198 0
176 198 0
175 198 0
174 198 0
174 198 0
175 198 0
174 197 0
173 197 0
174 197 0
173 196 0
174 197 0
173 196 0
176 199 0
174 198 0
175 198 0
173 197 0
175 198 0
173 197 0
174 197 0
175 198 0
176 198 0
175 198 0
174 197 0
174 197 0
175 198 0
175 198 0
175 198 0
172 196 0
175 198 0
174 197 0
173 197 0
175 198 0
173 197 0
174 197 0
174 198 0
174 197 0
174 198 0
176 198 0
175 198 0
174 198 0
174 197 0
174 197 0
174 198 0
176 199 0
174 198 0
174 198 0
174 197 0
174 198 0
175 198 0
174 198 0
173 197 0
175 198 0
176 198 0
174 197 0
174 197 0
175 198 0
174 198 0
174 198 0
174 198 0
176 199 0
173 197 0
174 197 0
174 197 0
176 199 0
174 198 0
175 198 0
174 198 0
175 198 0
174 198 0
175 198 0
174 198 0
172 197 0
173 197 0
176 199 0
175 198 0
174 197 0
175 198 0
174 198 0
174 198 0
174 198 0
177 199 0
174 198 0
173 197 0
175 198 0
175 198 0
174 197 0
174 197 0
173 197 0
174 197 0
175 198 0
174 198 0
174 198 0
176 199 0
175 198 0
176 199 0
175 198 0
175 198 0
175 198 0
173 197 0
174 198 0
175 198 0
176 199 0
175 198 0
174 198 0
176 198 0
175 198 0
174 198 0
176 199 0
175 198 0
173 197 0
175 198 0
174 198 0
174 197 0
173 197 0
174 198 0
174 198 0
174 198 0
174 198 0
176 198 0
174 198 0
175 198 0
175 198 0
174 198 0
173 197 0
175 198 0
177 199 0
174 198 0
175 198 0
176 199 0
175 198 0
175 198 0
174 198 0
175 198 0
176 199 0
174 198 0
174 197 0
174 198 0
173 197 0
176 199 36
188 208 122
199 217 165
215 229 218
221 233 234
228 239 254
229 240 255
229 240 255
229 240 255
229 240 255
228 240 255
228 240 255
228 240 255
228 240 255
228 240 255
228 240 255
228 240 255
228 240 255
228 240 255
228 240 255
228 239 255
228 239 255
228 239 255
228 239 255
228 239 255
228 239 255
228 239 255
228 239 255
228 239 255
228 239 255
228 239 255
228 239 255
228 239 255
228 239 255
228 239 255
228 239 255
228 239 255
228 239 255
228 239 255
228 239 255
228 239 255
228 239 255
228 239 255
228 239 255
228 239 255
228 239 255
228 239 255
228 239 255
228 239 255
228 239 255
228 239 255
228 239 255
228 239 255
228 240 255
228 240 255
228 240 255
228 240 255
228 240 255
228 240 255
228 240 255
228 240 255
228 240 255
228 240 255
229 240 255
229 240 255
229 240 255
229 240 255
229 240 255
227 239 252
215 229 217
203 219 179
194 212 144
181 202 72
174 198 0
174 198 0
174 198 0
175 198 0
175 198 0
174 198 0
176 198 0
174 198 0
174 198 0
176 199 0
174 198 0
173 197 0
175 198 0
175 198 0
175 198 0
173 197 0
174 198 0
177 199 0
175 198 0
175 198 0
177 199 0
175 198 0
174 197 0
175 198 0
175 198 0
176 199 0
173 197 0
175 198 0
174 197 0
175 198 0
176 199 0
175 198 0
176 199 0
175 198 0
175 198 0
173 197 0
175 198 0
175 198 0
173 197 0
174 198 0
174 198 0
174 197 0
174 198 0
174 198 0
175 198 0
173 197 0
174 197 0
175 198 0
175 198 0
175 198 0
175 198 0
175 198 0
176 199 0
173 197 0
176 199 0
174 197 0
175 198 0
174 198 0
172 196 0
174 198 0
173 197 0
174 197 0
173 197 0
175 198 0
176 199 0
174 198 0
176 199 0
175 198 0
175 198 0
174 198 0
173 197 0
175 198 0
174 198 0
174 197 0
174 198 0
174 198 0
174 198 0
173 197 0
176 199 0
172 197 0
174 198 0
173 197 0
176 199 0
174 198 0
174 198 0
174 197 0
174 197 0
173 197 0
173 197 0
174 198 0
174 198 0
172 196 0
175 198 0
172 196 0
174 198 0
175 198 0
176 199 0
173 197 0
175 197 0
174 198 0
177 199 0
176 198 0
174 198 0
176 198 0
175 198 0
173 197 0
174 198 0
174 198 0
176 199 0
175 198 0
175 198 0
175 198 0
175 198 0
174 197 0
173 197 0
174 198 0
174 198 0
173 196 0
176 198 0
174 197 0
173 197 0
174 198 0
175 198 0
174 197 0
174 197 0
176 198 0
174 198 0
173 197 0
173 197 0
173 197 0
175 198 0
172 196 0
175 198 0
173 197 0
176 199 0
174 198 0
175 198 0
175 198 0
173 197 0
175 198 0
172 197 0
173 197 0
175 198 0
172 196 0
174 197 0
174 198 0
174 198 0
176 199 0
174 197 0
175 198 0
175 198 0
175 198 0
174 197 0
174 198 0
173 197 0
175 198 0
175 198 0
174 198 0
174 197 0
174 197 0
173 197 0
174 197 0
175 198 0
174 197 0
173 197 0
174 197 0
172 196 0
176 198 0
174 197 0
174 197 0
174 197 0
173 197 0
175 198 0
174 197 0
175 198 0
174 198 0
174 197 0
175 198 0
174 198 0
173 197 0
174 197 0
174 197 0
172 196 0
174 197 0
174 198 0
173 197 0
172 197 0
174 197 0
173 197 0
175 198 0
174 197 0
174 198 0
176 198 0
175 198 0
173 197 0
172 196 0
174 198 0
176 198 0
172 196 0
175 198 0
174 197 0
173 197 0
175 198 0
174 197 0
174 198 0
175 198 0
174 198 0
174 198 0
175 198 0
173 197 0
173 197 0
174 198 0
174 197 0
173 196 0
174 198 0
174 198 0
175 198 0
174 196 0
175 198 0
174 198 0
173 197 0
173 196 0
174 198 0
174 198 0
174 198 0
175 198 0
175 198 0
176 199 0
173 197 0
174 197 0
173 197 0
175 198 0
174 197 0
174 197 0
174 198 0
174 198 0
174 198 0
175 198 0
174 197 0
175 198 0
174 197 0
175 198 0
175 198 0
176 199 0
174 198 0
172 197 0
176 198 0
175 198 0
172 197 0
175 198 0
175 198 0
175 198 0
175 198 0
176 199 0
174 198 0
175 198 0
176 198 0
173 197 0
174 198 0
174 198 0
175 198 0
174 198 0
175 198 0
174 198 0
175 198 0
174 198 0
175 198 0
176 198 0
174 197 0
174 197 0
175 198 0
175 198 0
175 198 0
175 198 0
176 199 0
175 198 0
175 198 0
174 198 0
174 198 0
176 198 0
174 198 0
175 198 0
174 198 0
173 196 0
174 198 0
173 197 0
175 198 0
174 198 0
175 198 0
175 198 0
175 198 0
174 197 0
175 198 0
174 198 0
174 198 0
175 198 0
175 198 0
175 198 0
174 198 0
174 197 0
174 198 0
174 198 0
174 198 0
173 197 0
173 197 0
175 198 0
175 198 0
175 198 0
175 198 0
174 198 0
175 198 0
175 198 0
174 198 0
175 198 0
175 197 0
175 198 0
174 197 0
173 197 0
176 199 0
174 198 0
175 198 0
175 198 0
175 198 0
174 198 0
175 198 0
175 198 0
174 198 0
175 198 0
175 198 0
175 198 0
174 198 0
175 198 0
179 202 76
191 210 135
206 222 188
221 234 236
226 238 249
229 240 255
229 240 255
229 240 255
229 240 255
229 240 255
228 240 255
228 240 255
228 240 255
228 240 255
228 240 255
228 240 255
228 240 255
228 240 255
228 240 255
228 240 255
228 239 255
228 239 255
228 239 255
228 239 255
228 239 255
228 239 255
228 239 255
228 239 255
228 239 255
228 239 255
228 239 255
228 239 255
228 239 255
228 239 255
228 239 255
228 239 255
228 239 255
228 239 255
228 239 255
228 239 255
228 239 255
228 239 255
228 239 255
228 240 255
228 240 255
228 240 255
228 240 255
228 240 255
228 240 255
228 240 255
228 240 255
228 240 255
228 240 255
229 240 255
229 240 255
229 240 255
229 240 255
229 240 255
229 240 255
219 232 228
213 227 211
197 215 155
184 205 105
174 198 0
174 198 0
174 198 0
174 198 0
175 198 0
174 198 0
174 198 0
174 198 0
176 199 0
174 198 0
175 198 0
173 197 0
175 198 0
174 198 0
174 198 0
174 198 0
177 199 0
175 198 0
172 196 0
174 198 0
174 198 0
175 198 0
176 199 0
175 198 0
174 198 0
175 198 0
175 198 0
174 198 0
175 198 0
174 198 0
174 198 0
174 198 0
175 198 0
175 198 0
176 199 0
175 198 0
174 197 0
174 198 0
175 198 0
174 198 0
174 197 0
174 198 0
173 197 0
175 198 0
175 198 0
176 199 0
176 199 0
174 197 0
175 198 0
174 198 0
175 198 0
174 197 0
175 198 0
172 197 0
175 198 0
177 199 0
175 198 0
175 198 0
175 198 0
174 197 0
176 198 0
174 198 0
176 199 0
175 198 0
175 198 0
175 198 0
173 197 0
174 198 0
175 198 0
174 198 0
174 198 0
175 198 0
174 198 0
174 198 0
174 198 0
174 198 0
174 198 0
175 198 0
174 197 0
177 199 0
175 198 0
174 198 0
175 198 0
174 198 0
175 198 0
175 198 0
174 198 0
175 198 0
174 198 0
174 198 0
175 198 0
173 197 0
176 199 0
175 198 0
174 197 0
175 198 0
173 197 0
175 198 0
174 198 0
175 198 0
175 198 0
174 197 0
175 198 0
176 199 0
173 197 0
174 198 0
174 197 0
174 198 0
173 197 0
174 197 0
174 198 0
174 197 0
175 198 0
174 198 0
174 198 0
175 198 0
174 198 0
173 197 0
173 197 0
175 198 0
174 198 0
173 197 0
173 197 0
176 198 0
174 198 0
174 198 0
175 198 0
174 197 0
175 198 0
174 198 0
175 198 0
174 198 0
175 198 0
175 198 0
174 197 0
174 198 0
174 197 0
174 197 0
173 197 0
174 197 0
175 197 0
176 199 0
177 199 0
174 197 0
174 197 0
173 197 0
175 198 0
173 197 0
174 197 0
174 197 0
174 197 0
173 197 0
172 196 0
174 198 0
174 197 0
174 198 0
173 197 0
176 199 0
174 197 0
175 198 0
173 197 0
175 198 0
174 198 0
175 198 0
173 197 0
174 197 0
174 198 0
174 197 0
171 194 0
173 197 0
175 198 0
175 198 0
174 197 0
174 198 0
176 199 0
175 198 0
173 197 0
174 197 0
173 197 0
173 196 0
175 197 0
173 197 0
174 197 0
172 196 0
174 197 0
174 198 0
174 197 0
175 198 0
174 197 0
174 197 0
175 198 0
174 198 0
173 197 0
174 197 0
171 195 0
174 197 0
174 197 0
174 198 0
174 197 0
174 197 0
175 198 0
174 198 0
175 198 0
173 197 0
175 198 0
175 198 0
173 197 0
174 197 0
175 198 0
175 198 0
174 198 0
174 197 0
175 198 0
173 196 0
174 197 0
173 197 0
174 198 0
174 198 0
175 198 0
174 198 0
173 197 0
174 197 0
175 198 0
174 197 0
173 197 0
175 198 0
175 198 0
175 198 0
174 198 0
174 198 0
175 198 0
175 198 0
173 197 0
173 197 0
175 198 0
175 198 0
175 198 0
175 198 0
175 198 0
174 197 0
173 197 0
175 198 0
175 198 0
175 198 0
175 198 0
173 197 0
174 198 0
175 198 0
173 197 0
175 198 0
174 198 0
175 198 0
173 197 0
175 198 0
174 198 0
175 198 0
173 197 0
175 198 0
174 198 0
174 197 0
174 198 0
175 198 0
173 197 0
174 197 0
176 199 0
174 198 0
175 198 0
174 198 0
174 197 0
173 197 0
175 198 0
173 197 0
175 198 0
174 198 0
175 198 0
174 197 0
174 198 0
174 198 0
176 198 0
176 198 0
174 198 0
175 198 0
172 196 0
174 198 0
174 198 0
174 198 0
175 198 0
173 197 0
173 197 0
174 197 0
175 198 0
174 198 0
174 197 0
176 199 0
174 198 0
175 198 0
175 198 0
175 198 0
174 198 0
173 197 0
175 198 0
175 198 0
173 197 0
175 198 0
175 198 0
175 198 0
175 198 0
176 199 0
173 197 0
176 199 0
176 199 0
174 197 0
174 198 0
174 198 0
174 198 0
175 198 0
174 198 0
174 198 0
176 199 0
173 197 0
176 199 0
175 198 0
175 198 0
175 198 0
177 199 0
174 198 0
174 197 0
174 198 0
175 198 0
175 198 0
175 198 0
174 198 0
174 197 0
176 199 0
175 198 0
174 197 0
174 198 0
175 198 0
176 198 0
175 198 0
175 198 0
176 199 36
185 206 102
192 211 137
209 224 196
217 231 226
228 239 253
229 240 255
229 240 255
229 240 255
229 240 255
229 240 255
228 240 255
228 240 255
228 240 255
228 240 255
228 240 255
228 240 255
228 240 255
228 240 255
228 240 255
228 240 255
228 239 255
228 239 255
228 239 255
228 239 255
228 239 255
228 239 255
228 239 255
228 239 255
228 239 255
228 239 255
228 239 255
228 239 255
228 240 255
228 240 255
228 240 255
228 240 255
228 240 255
228 240 255
228 240 255
228 240 255
228 240 255
228 240 255
228 240 255
229 240 255
229 240 255
229 240 255
229 240 255
229 240 255
229 240 255
224 236 245
214 228 215
208 224 198
191 210 133
178 200 57
175 198 0
174 198 0
175 198 0
175 198 0
173 197 0
174 197 0
176 199 0
174 197 0
175 198 0
176 199 0
173 197 0
174 198 0
173 197 0
174 198 0
173 197 0
174 197 0
175 198 0
174 198 0
174 198 0
173 197 0
173 197 0
177 199 0
174 197 0
175 198 0
175 198 0
173 197 0
173 197 0
175 198 0
174 198 0
174 198 0
177 199 0
176 199 0
172 197 0
174 197 0
176 199 0
173 197 0
174 197 0
175 198 0
175 198 0
173 197 0
175 198 0
173 197 0
174 198 0
175 198 0
176 199 0
175 198 0
174 197 0
176 198 0
174 198 0
176 199 0
174 198 0
174 198 0
174 197 0
175 198 0
175 198 0
175 198 0
173 197 0
174 198 0
174 198 0
176 199 0
175 198 0
175 198 0
173 197 0
175 198 0
175 198 0
173 197 0
175 198 0
175 198 0
174 198 0
174 198 0
175 198 0
174 198 0
173 197 0
175 198 0
175 198 0
175 198 0
175 198 0
174 197 0
174 198 0
173 197 0
174 198 0
175 198 0
174 198 0
175 198 0
174 198 0
174 198 0
175 198 0
173 197 0
174 197 0
176 198 0
174 198 0
175 198 0
174 198 0
175 198 0
173 197 0
174 198 0
174 197 0
173 197 0
174 198 0
173 197 0
174 197 0
173 197 0
176 199 0
175 198 0
176 198 0
175 198 0
174 197 0
174 197 0
175 198 0
174 197 0
174 197 0
176 199 0
174 198 0
175 198 0
175 198 0
174 198 0
174 198 0
175 198 0
174 197 0
175 198 0
174 198 0
175 198 0
175 198 0
174 197 0
173 197 0
173 197 0
174 197 0
175 198 0
172 196 0
173 197 0
174 197 0
174 198 0
174 198 0
173 197 0
174 198 0
175 198 0
174 198 0
175 198 0
176 198 0
174 197 0
175 198 0
174 198 0
173 197 0
174 197 0
174 197 0
172 197 0
176 199 0
175 198 0
174 198 0
175 198 0
175 198 0
174 197 0
172 196 0
173 197 0
173 197 0
173 197 0
173 197 0
175 198 0
173 197 0
173 197 0
172 196 0
174 197 0
174 197 0
173 197 0
174 198 0
174 197 0
174 198 0
174 197 0
173 197 0
174 197 0
176 198 0
174 198 0
175 198 0
174 198 0
172 196 0
173 197 0
176 199 0
174 197 0
174 197 0
174 198 0
175 198 0
174 197 0
173 196 0
175 198 0
173 197 0
174 197 0
172 197 0
173 197 0
174 198 0
174 198 0
172 195 0
172 195 16
163 178 44
155 169 49
157 167 60
165 173 69
158 171 49
166 182 47
168 186 36
174 197 0
174 197 0
174 198 0
174 197 0
172 196 0
174 197 0
175 198 0
174 198 0
172 196 0
175 198 0
174 197 0
174 198 0
175 198 0
174 197 0
173 197 0
175 198 0
173 197 0
176 198 0
174 198 0
174 198 0
175 198 0
172 196 0
171 195 0
173 197 0
174 198 0
174 198 0
174 197 0
174 197 0
174 198 0
173 197 0
174 198 0
175 198 0
175 198 0
174 198 0
175 198 0
174 197 0
177 199 0
172 197 0
174 197 0
174 197 0
174 198 0
176 199 0
174 197 0
174 197 0
173 197 0
174 198 0
174 198 0
173 197 0
175 198 0
174 198 0
174 198 0
174 198 0
174 197 0
176 199 0
174 197 0
174 198 0
174 197 0
176 199 0
174 198 0
174 197 0
175 198 0
177 199 0
175 198 0
174 198 0
174 197 0
175 198 0
175 198 0
173 197 0
174 198 0
174 198 0
175 198 0
174 198 0
175 198 0
175 198 0
175 198 0
175 198 0
174 197 0
176 199 0
173 197 0
173 197 0
176 198 0
174 198 0
174 197 0
175 198 0
175 198 0
175 198 0
174 198 0
176 199 0
175 198 0
176 198 0
175 198 0
174 198 0
175 198 0
174 198 0
172 197 0
176 199 0
174 198 0
175 198 0
176 198 0
176 199 0
174 198 0
174 198 0
176 199 0
175 198 0
174 198 0
173 197 0
172 196 0
173 197 0
175 198 0
175 198 0
173 197 0
175 198 0
173 197 0
175 198 0
175 198 0
175 198 0
175 198 0
175 198 0
176 199 0
175 198 0
175 198 0
174 198 0
175 198 0
175 198 0
173 197 0
176 198 0
174 198 0
175 198 0
174 198 0
174 198 0
174 198 0
175 198 0
174 198 0
173 196 0
174 198 0
174 198 0
176 199 0
175 198 0
175 198 0
177 199 0
174 197 0
174 197 0
175 198 0
174 197 0
176 199 0
176 199 0
174 198 0
175 198 0
173 197 0
175 198 0
176 199 0
178 200 57
192 211 135
204 220 182
215 229 218
226 238 249
229 240 255
229 240 255
229 240 255
229 240 255
229 240 255
229 240 255
228 240 255
228 240 255
228 240 255
228 240 255
228 240 255
228 240 255
228 240 255
228 240 255
228 240 255
228 240 255
228 239 255
228 239 255
228 239 255
228 239 255
228 240 255
228 240 255
228 240 255
228 240 255
228 240 255
228 240 255
228 240 255
228 240 255
228 240 255
229 240 255
229 240 255
229 240 255
229 240 255
229 240 255
229 240 255
229 240 255
221 234 234
209 224 198
202 218 173
187 207 120
175 198 25
174 198 0
175 198 0
175 198 0
173 197 0
174 198 0
175 198 0
176 199 0
174 198 0
174 198 0
175 198 0
174 198 0
175 198 0
175 198 0
175 198 0
175 198 0
176 199 0
174 198 0
175 198 0
175 198 0
174 198 0
173 197 0
174 198 0
175 198 0
174 198 0
174 197 0
174 198 0
175 198 0
173 197 0
176 198 0
176 199 0
175 198 0
173 197 0
175 198 0
174 198 0
172 197 0
174 198 0
175 198 0
173 197 0
175 198 0
175 198 0
174 198 0
174 198 0
176 199 0
174 197 0
174 198 0
174 198 0
175 198 0
175 198 0
176 199 0
174 198 0
175 198 0
175 198 0
174 198 0
173 197 0
175 198 0
175 198 0
174 198 0
173 197 0
174 198 0
174 198 0
175 198 0
174 198 0
175 198 0
175 198 0
176 198 0
176 198 0
174 197 0
174 198 0
174 198 0
175 198 0
175 198 0
175 198 0
174 198 0
174 197 0
175 198 0
174 198 0
174 198 0
177 199 0
175 198 0
175 198 0
175 198 0
175 198 0
174 198 0
174 198 0
174 198 0
174 197 0
174 198 0
175 198 0
175 198 0
173 196 0
174 198 0
174 198 0
174 197 0
174 198 0
173 197 0
175 198 0
173 197 0
174 198 0
175 198 0
176 199 0
173 197 0
173 197 0
173 197 0
173 197 0
175 198 0
173 197 0
173 197 0
175 198 0
172 196 0
176 199 0
174 198 0
176 199 0
176 199 0
173 197 0
175 198 0
174 198 0
173 197 0
176 198 0
175 198 0
174 198 0
173 196 0
173 197 0
174 198 0
174 198 0
174 198 0
174 197 0
176 198 0
173 197 0
174 198 0
174 198 0
174 198 0
174 198 0
175 198 0
175 198 0
176 199 0
173 197 0
173 197 0
173 197 0
173 197 0
175 198 0
174 198 0
172 196 0
174 198 0
173 196 0
173 197 0
173 197 0
173 197 0
175 198 0
173 197 0
174 197 0
174 198 0
173 197 0
172 196 0
174 198 0
172 196 0
176 199 0
174 198 0
173 197 0
173 197 0
174 197 0
175 198 0
175 198 0
173 197 0
171 195 0
176 198 0
173 197 0
174 197 0
174 197 0
174 197 0
173 196 0
172 196 0
172 196 0
173 197 0
172 194 0
174 197 0
175 198 0
172 196 0
174 197 0
175 198 0
173 197 0
173 197 0
174 197 0
172 196 0
175 198 0
173 197 0
172 196 0
175 198 0
173 196 0
174 197 0
173 196 0
174 198 0
174 197 0
172 193 16
163 175 56
151 154 72
144 137 87
147 141 91
149 144 94
151 145 94
144 139 91
146 140 92
149 143 93
152 145 93
147 145 79
150 163 44
172 193 25
171 195 0
174 198 0
175 198 0
175 198 0
174 197 0
173 196 0
174 197 0
175 198 0
175 198 0
172 196 0
173 197 0
173 197 0
176 198 0
174 197 0
174 198 0
175 198 0
175 198 0
174 197 0
175 198 0
172 196 0
175 198 0
174 198 0
175 198 0
174 198 0
174 197 0
177 199 0
176 198 0
175 198 0
175 198 0
175 198 0
173 197 0
173 197 0
173 196 0
176 199 0
175 198 0
174 198 0
175 198 0
175 198 0
174 198 0
175 198 0
173 197 0
175 198 0
174 197 0
176 198 0
174 197 0
174 198 0
175 198 0
175 198 0
174 198 0
173 197 0
173 197 0
174 197 0
174 198 0
175 198 0
175 198 0
176 199 0
173 197 0
174 198 0
175 198 0
176 199 0
175 198 0
173 197 0
174 198 0
176 199 0
174 197 0
176 198 0
173 197 0
174 198 0
175 198 0
173 197 0
174 198 0
173 197 0
175 198 0
174 198 0
176 198 0
174 198 0
174 198 0
175 198 0
175 198 0
174 198 0
174 198 0
174 198 0
174 198 0
174 198 0
175 198 0
173 197 0
175 198 0
175 198 0
174 198 0
175 198 0
174 198 0
174 198 0
175 198 0
175 198 0
175 198 0
175 198 0
176 199 0
175 198 0
175 198 0
176 199 0
175 198 0
174 197 0
175 198 0
175 198 0
174 198 0
174 197 0
175 198 0
175 198 0
176 198 0
175 198 0
174 198 0
175 198 0
175 198 0
176 198 0
175 198 0
174 198 0
176 199 0
173 197 0
175 198 0
174 198 0
176 199 0
174 198 0
176 198 0
176 198 0
176 198 0
175 198 0
174 198 0
175 198 0
174 198 0
174 198 0
175 198 0
174 197 0
175 198 0
176 199 0
174 198 0
174 198 0
175 198 0
174 198 0
176 199 0
175 198 0
175 198 0
175 198 0
175 198 0
174 198 0
174 198 0
173 197 0
174 198 0
174 197 0
175 198 0
173 197 0
174 198 0
176 199 0
176 199 25
185 206 105
197 215 157
214 228 214
219 232 228
229 240 255
229 240 255
229 240 255
229 240 255
229 240 255
229 240 255
229 240 255
228 240 255
228 240 255
228 240 255
228 240 255
228 240 255
228 240 255
228 240 255
228 240 255
228 240 255
228 240 255
228 240 255
228 240 255
228 240 255
228 240 255
229 240 255
229 240 255
229 240 255
229 240 255
229 240 255
229 240 255
227 238 250
221 234 234
207 222 189
191 210 135
185 206 102
175 198 0
176 198 0
175 198 0
175 198 0
173 197 0
174 198 0
176 199 0
175 198 0
176 199 0
174 198 0
175 198 0
173 197 0
176 199 0
174 198 0
175 198 0
174 198 0
175 198 0
174 198 0
176 199 0
174 198 0
174 197 0
173 197 0
175 198 0
174 198 0
174 198 0
174 198 0
175 198 0
175 198 0
175 198 0
173 197 0
174 197 0
174 197 0
174 198 0
174 198 0
174 198 0
175 198 0
174 198 0
176 199 0
175 198 0
176 199 0
175 198 0
175 198 0
175 198 0
175 198 0
175 198 0
173 197 0
174 198 0
175 198 0
174 198 0
174 197 0
174 198 0
175 198 0
174 198 0
173 197 0
175 198 0
174 197 0
174 198 0
173 197 0
174 198 0
175 198 0
175 198 0
177 199 0
175 198 0
174 198 0
174 198 0
173 197 0
173 197 0
173 197 0
174 198 0
176 199 0
174 198 0
175 198 0
173 197 0
173 197 0
174 198 0
175 198 0
174 198 0
175 198 0
174 198 0
175 198 0
172 196 0
174 198 0
173 197 0
175 198 0
175 198 0
176 198 0
173 197 0
173 197 0
173 197 0
175 197 0
175 198 0
174 197 0
173 197 0
175 198 0
173 197 0
174 197 0
176 198 0
175 198 0
175 198 0
174 198 0
173 197 0
174 198 0
175 198 0
173 197 0
174 198 0
174 198 0
174 198 0
174 197 0
174 198 0
174 198 0
172 196 0
174 198 0
175 198 0
175 198 0
173 197 0
172 196 0
173 196 0
174 197 0
174 197 0
173 197 0
175 198 0
174 198 0
174 198 0
175 198 0
175 198 0
173 197 0
174 198 0
174 198 0
172 197 0
173 197 0
176 198 0
174 197 0
174 197 0
174 198 0
173 197 0
173 197 0
173 197 0
174 198 0
174 197 0
175 198 0
175 198 0
174 197 0
174 198 0
175 198 0
174 198 0
175 198 0
174 197 0
173 197 0
174 197 0
173 197 0
175 198 0
174 198 0
174 197 0
174 197 0
173 197 0
173 197 0
173 197 0
174 198 0
175 198 0
174 197 0
177 199 0
176 199 0
176 199 0
173 196 0
174 198 0
175 198 0
174 197 0
174 197 0
175 198 0
174 197 0
174 197 0
173 196 0
174 196 0
176 198 0
172 196 0
173 196 0
174 198 0
173 197 0
174 197 0
173 197 0
172 196 0
176 199 0
174 197 0
174 197 0
175 198 0
174 198 0
174 197 0
176 198 0
174 197 0
173 197 0
172 196 0
175 198 0
173 197 0
175 198 0
174 197 0
174 198 0
166 184 32
133 131 71
148 142 87
147 142 89
145 141 92
149 144 95
153 149 99
153 149 98
155 150 99
147 143 94
149 146 97
151 146 96
148 144 95
142 137 89
155 150 91
161 171 61
174 196 22
175 198 0
173 197 0
174 198 0
174 197 0
175 198 0
175 198 0
174 197 0
174 197 0
173 197 0
173 197 0
174 197 0
174 197 0
174 197 0
174 198 0
173 197 0
173 197 0
174 197 0
175 198 0
175 198 0
174 198 0
175 198 0
174 197 0
175 198 0
175 198 0
172 196 0
173 197 0
173 197 0
175 197 0
175 198 0
175 198 0
174 198 0
175 198 0
174 198 0
173 197 0
174 197 0
174 198 0
174 198 0
174 198 0
174 198 0
175 198 0
173 197 0
175 198 0
176 199 0
175 198 0
173 197 0
174 198 0
175 198 0
176 198 0
175 198 0
175 198 0
175 198 0
174 198 0
175 198 0
174 197 0
175 198 0
176 199 0
173 197 0
174 197 0
175 198 0
173 197 0
174 198 0
175 198 0
175 198 0
174 198 0
175 198 0
174 198 0
174 197 0
175 198 0
175 198 0
175 198 0
174 198 0
174 197 0
175 198 0
174 198 0
173 197 0
175 198 0
175 198 0
175 198 0
174 198 0
173 197 0
174 198 0
174 197 0
173 197 0
176 198 0
174 198 0
173 197 0
174 198 0
174 198 0
172 196 0
172 196 0
174 197 0
175 198 0
174 198 0
176 198 0
174 197 0
175 198 0
175 198 0
175 198 0
175 198 0
174 198 0
176 199 0
177 199 0
175 198 0
177 199 0
176 198 0
174 197 0
176 199 0
174 198 0
174 198 0
174 198 0
174 198 0
175 198 0
175 198 0
175 198 0
172 196 0
175 198 0
175 198 0
173 197 0
174 198 0
174 198 0
175 198 0
174 198 0
175 198 0
173 197 0
175 198 0
175 198 0
176 199 0
175 198 0
174 197 0
174 198 0
174 198 0
175 198 0
173 197 0
173 197 0
175 198 0
173 197 0
174 197 0
175 198 0
174 198 0
176 199 0
175 198 0
175 198 0
176 198 0
175 198 0
174 198 0
175 198 0
174 198 0
176 198 0
174 198 0
176 199 0
176 199 0
174 198 0
175 198 0
176 199 0
174 197 0
177 199 57
193 212 144
204 221 186
215 229 218
229 240 255
229 240 255
229 240 255
229 240 255
229 240 255
229 240 255
229 240 255
228 240 255
228 240 255
228 240 255
228 240 255
228 240 255
229 240 255
229 240 255
229 240 255
229 240 255
229 240 255
229 240 255
229 240 255
225 236 244
215 229 217
198 216 161
188 208 122
178 200 51
175 198 0
174 198 0
176 199 0
175 198 0
174 198 0
174 198 0
175 198 0
174 198 0
174 197 0
174 198 0
174 198 0
175 198 0
173 197 0
176 199 0
174 198 0
174 198 0
174 198 0
173 197 0
175 198 0
174 197 0
174 198 0
175 198 0
175 198 0
177 199 0
175 198 0
174 198 0
175 198 0
175 198 0
173 197 0
173 197 0
173 197 0
174 198 0
175 198 0
175 198 0
175 198 0
176 199 0
173 197 0
175 198 0
175 198 0
174 198 0
174 198 0
175 198 0
174 198 0
174 197 0
174 198 0
173 197 0
174 198 0
173 197 0
173 197 0
175 198 0
175 198 0
175 198 0
175 198 0
174 198 0
175 198 0
173 197 0
174 198 0
174 198 0
175 198 0
175 198 0
175 198 0
175 198 0
174 198 0
174 197 0
173 197 0
175 198 0
174 198 0
176 198 0
175 198 0
172 197 0
174 198 0
174 198 0
175 198 0
175 198 0
174 198 0
175 198 0
174 198 0
175 198 0
174 198 0
176 199 0
174 197 0
176 199 0
176 198 0
174 197 0
174 198 0
174 198 0
174 198 0
175 198 0
176 199 0
175 198 0
174 197 0
173 196 0
177 199 0
175 198 0
175 198 0
176 198 0
175 198 0
174 197 0
175 198 0
174 198 0
175 198 0
174 198 0
175 198 0
175 198 0
173 197 0
174 197 0
173 196 0
176 199 0
175 198 0
174 197 0
175 198 0
176 199 0
173 197 0
173 197 0
173 197 0
176 198 0
175 198 0
175 198 0
174 198 0
174 198 0
175 198 0
175 198 0
173 197 0
174 198 0
175 198 0
175 198 0
176 198 0
172 196 0
174 197 0
173 197 0
176 199 0
174 198 0
174 198 0
172 196 0
174 197 0
174 197 0
174 198 0
173 197 0
175 198 0
174 197 0
175 198 0
174 198 0
174 197 0
174 198 0
173 197 0
172 196 0
174 197 0
174 197 0
173 196 0
175 198 0
173 197 0
174 198 0
174 198 0
175 198 0
173 197 0
173 197 0
173 197 0
172 196 0
176 198 0
174 197 0
172 195 0
173 197 0
173 197 0
174 197 0
173 197 0
174 197 0
174 197 0
172 196 0
174 197 0
174 197 0
174 197 0
174 197 0
174 197 0
176 199 0
172 195 0
173 196 0
175 198 0
175 197 0
174 197 0
175 197 0
174 198 0
172 196 0
173 197 0
173 197 0
174 198 0
172 195 0
175 198 0
173 197 0
174 198 0
175 197 0
173 197 0
174 198 0
173 197 0
174 197 0
175 198 0
174 197 0
173 196 0
174 197 0
171 194 0
143 153 53
150 144 91
155 150 93
159 154 99
155 151 97
151 147 97
153 149 99
156 153 101
156 153 102
154 152 101
155 152 101
156 153 102
153 149 99
151 147 97
147 142 93
158 152 99
146 139 89
151 151 75
174 195 25
175 198 0
174 198 0
174 197 0
175 198 0
175 198 0
175 198 0
173 197 0
174 197 0
175 198 0
175 198 0
175 198 0
174 198 0
173 197 0
176 198 0
173 197 0
173 197 0
174 197 0
174 197 0
175 198 0
172 196 0
173 197 0
174 198 0
174 197 0
174 197 0
174 198 0
173 197 0
174 197 0
174 198 0
175 198 0
175 198 0
173 197 0
176 199 0
174 197 0
173 197 0
173 197 0
175 198 0
174 198 0
175 198 0
174 198 0
175 198 0
175 198 0
175 198 0
175 198 0
174 197 0
174 198 0
175 198 0
173 196 0
174 198 0
175 198 0
175 198 0
174 198 0
175 198 0
174 198 0
175 198 0
176 199 0
174 198 0
173 197 0
175 198 0
175 198 0
175 198 0
176 199 0
174 198 0
176 198 0
175 198 0
174 198 0
174 198 0
175 198 0
173 197 0
174 197 0
175 198 0
173 197 0
173 197 0
176 199 0
175 198 0
176 199 0
175 198 0
176 199 0
172 197 0
174 198 0
175 198 0
173 197 0
175 198 0
176 199 0
174 198 0
175 198 0
174 198 0
173 197 0
175 198 0
174 197 0
173 197 0
173 197 0
173 197 0
174 197 0
175 198 0
177 199 0
175 198 0
174 197 0
175 198 0
175 198 0
174 198 0
173 196 0
175 198 0
173 197 0
176 199 0
175 198 0
173 197 0
176 199 0
174 197 0
173 197 0
175 198 0
175 198 0
175 198 0
174 198 0
173 197 0
175 198 0
174 197 0
176 198 0
174 198 0
174 198 0
174 198 0
176 199 0
173 197 0
175 198 0
174 198 0
174 197 0
174 198 0
175 198 0
173 197 0
173 197 0
175 198 0
176 198 0
173 197 0
174 197 0
174 198 0
176 198 0
174 198 0
175 198 0
173 196 0
174 198 0
174 197 0
176 199 0
175 198 0
174 198 0
174 197 0
175 198 0
175 198 0
175 198 0
176 199 0
176 199 0
175 198 0
174 198 0
175 198 0
175 198 0
177 199 0
176 198 0
174 198 0
176 199 0
175 198 0
174 198 25
188 208 125
202 219 175
214 228 212
225 237 245
229 240 255
229 240 255
229 240 255
229 240 255
229 240 255
229 240 255
229 240 255
229 240 255
229 240 255
229 240 255
219 232 230
215 229 217
194 212 147
183 204 92
174 198 0
175 198 0
175 198 0
176 198 0
175 198 0
175 198 0
176 199 0
175 198 0
174 198 0
174 198 0
175 198 0
173 197 0
176 199 0
174 198 0
175 198 0
173 197 0
175 198 0
174 198 0
176 198 0
174 197 0
174 198 0
174 198 0
175 198 0
176 198 0
174 198 0
174 198 0
175 198 0
175 198 0
173 197 0
173 197 0
176 199 0
174 198 0
174 198 0
174 197 0
174 198 0
177 199 0
174 198 0
174 198 0
175 198 0
174 198 0
174 197 0
175 198 0
173 197 0
175 198 0
174 198 0
174 198 0
174 198 0
175 198 0
174 198 0
175 198 0
175 198 0
173 197 0
175 198 0
174 198 0
174 198 0
175 198 0
175 198 0
175 198 0
174 198 0
172 196 0
175 198 0
175 198 0
176 199 0
173 197 0
174 198 0
175 198 0
173 197 0
174 198 0
173 197 0
174 198 0
174 198 0
176 199 0
173 197 0
174 198 0
174 197 0
175 198 0
176 198 0
175 198 0
176 198 0
174 198 0
176 199 0
174 197 0
174 197 0
174 197 0
174 198 0
175 198 0
173 197 0
175 198 0
177 199 0
174 197 0
175 198 0
175 198 0
175 198 0
174 198 0
173 197 0
174 198 0
177 199 0
175 198 0
174 198 0
174 198 0
175 198 0
174 198 0
174 197 0
175 198 0
173 197 0
174 198 0
175 198 0
175 198 0
174 198 0
176 198 0
174 197 0
173 197 0
175 198 0
175 198 0
175 198 0
173 197 0
175 198 0
174 198 0
175 198 0
173 197 0
173 197 0
174 197 0
175 198 0
176 199 0
176 199 0
174 198 0
173 196 0
174 198 0
176 199 0
173 197 0
174 197 0
172 196 0
175 198 0
174 198 0
175 198 0
175 198 0
173 197 0
174 198 0
172 197 0
175 198 0
173 197 0
175 198 0
173 197 0
172 196 0
174 197 0
175 198 0
175 198 0
175 198 0
172 196 0
172 196 0
174 197 0
174 198 0
173 197 0
173 197 0
174 197 0
173 196 0
175 198 0
173 197 0
173 196 0
174 197 0
172 196 0
174 197 0
175 197 0
173 196 0
175 198 0
175 198 0
174 197 0
175 198 0
174 198 0
173 196 0
173 197 0
174 197 0
175 198 0
175 198 0
173 197 0
173 197 0
174 198 0
173 196 0
175 198 0
173 197 0
176 198 0
173 197 0
174 198 0
172 196 0
173 197 0
172 196 0
172 196 0
175 198 0
174 197 0
174 197 0
173 196 0
174 197 0
175 198 0
174 197 0
173 197 0
174 197 0
174 197 0
173 197 0
173 197 0
174 197 0
174 197 0
172 195 0
172 193 25
140 142 65
149 142 87
149 144 91
163 157 101
152 147 95
155 151 99
164 160 105
153 151 101
159 158 106
163 161 108
160 157 104
167 165 110
164 161 108
155 152 101
155 152 101
160 156 104
161 156 102
151 146 93
149 142 90
145 142 81
169 189 28
174 197 0
173 197 0
173 196 0
173 196 0
174 197 0
174 197 0
171 196 0
173 197 0
174 197 0
173 197 0
173 196 0
175 197 0
173 197 0
174 198 0
173 197 0
174 197 0
177 199 0
175 198 0
173 197 0
174 198 0
173 196 0
174 197 0
176 199 0
173 196 0
175 198 0
175 198 0
174 197 0
174 197 0
173 197 0
175 198 0
173 197 0
175 198 0
176 199 0
173 196 0
173 197 0
174 198 0
175 198 0
174 198 0
173 197 0
175 198 0
173 197 0
175 198 0
174 197 0
174 197 0
174 198 0
174 197 0
175 198 0
172 197 0
174 197 0
174 198 0
175 198 0
174 198 0
175 198 0
175 198 0
175 198 0
173 197 0
174 198 0
172 197 0
174 198 0
173 197 0
173 197 0
174 198 0
176 199 0
175 198 0
174 198 0
174 197 0
173 197 0
175 198 0
173 197 0
177 199 0
174 197 0
174 198 0
173 197 0
174 198 0
175 198 0
174 198 0
177 199 0
175 198 0
175 198 0
173 197 0
177 199 0
173 197 0
174 197 0
176 198 0
175 198 0
175 198 0
174 197 0
176 198 0
176 198 0
175 198 0
175 198 0
173 197 0
174 197 0
175 198 0
175 198 0
174 198 0
175 198 0
174 198 0
176 199 0
176 199 0
174 198 0
175 198 0
173 197 0
175 198 0
174 198 0
175 198 0
176 198 0
174 197 0
173 197 0
176 199 0
174 198 0
174 197 0
174 198 0
174 198 0
175 198 0
175 198 0
174 198 0
174 197 0
174 197 0
174 198 0
175 198 0
174 198 0
173 197 0
176 199 0
174 197 0
175 198 0
174 198 0
173 197 0
174 198 0
175 198 0
174 197 0
175 198 0
176 199 0
175 198 0
174 197 0
174 198 0
175 198 0
176 199 0
173 197 0
175 198 0
175 197 0
173 197 0
174 197 0
174 197 0
174 198 0
176 198 0
174 198 0
175 198 0
174 197 0
176 199 0
174 198 0
174 198 0
176 199 0
175 198 0
174 198 0
175 198 0
177 199 0
176 198 0
173 197 0
175 198 0
175 198 0
175 198 0
186 206 105
195 213 151
207 223 193
221 234 234
229 240 255
229 240 255
229 240 255
203 219 179
194 212 137
177 200 57
173 197 0
175 198 0
175 198 0
174 198 0
174 197 0
174 198 0
173 197 0
172 197 0
174 198 0
174 198 0
174 198 0
175 198 0
173 197 0
176 198 0
175 198 0
173 197 0
175 198 0
175 198 0
173 197 0
176 199 0
175 198 0
173 197 0
176 199 0
175 198 0
175 198 0
174 198 0
174 198 0
174 198 0
173 197 0
173 197 0
176 199 0
174 198 0
174 197 0
175 198 0
174 198 0
174 197 0
175 198 0
174 198 0
175 198 0
175 198 0
175 198 0
174 198 0
174 198 0
175 198 0
175 198 0
174 198 0
175 198 0
174 198 0
175 198 0
174 197 0
173 197 0
175 198 0
172 196 0
172 197 0
173 197 0
175 198 0
175 198 0
177 199 0
174 198 0
175 198 0
175 198 0
173 197 0
176 199 0
173 197 0
174 198 0
174 197 0
175 198 0
174 198 0
175 198 0
175 198 0
173 197 0
174 198 0
173 197 0
174 198 0
176 199 0
173 197 0
172 197 0
175 198 0
174 197 0
174 198 0
174 197 0
173 197 0
176 198 0
174 197 0
175 198 0
175 198 0
174 198 0
174 198 0
174 197 0
175 198 0
175 198 0
173 197 0
176 199 0
174 198 0
176 198 0
173 197 0
173 197 0
174 197 0
175 198 0
172 196 0
175 198 0
172 197 0
175 198 0
174 198 0
174 197 0
174 198 0
175 198 0
173 197 0
175 198 0
174 197 0
175 198 0
173 197 0
176 198 0
174 198 0
172 196 0
174 198 0
174 197 0
174 198 0
174 198 0
174 197 0
174 198 0
174 198 0
174 197 0
174 198 0
174 197 0
174 197 0
176 199 0
173 197 0
174 197 0
174 197 0
173 196 0
175 198 0
174 197 0
174 197 0
175 198 0
173 197 0
176 199 0
175 198 0
175 198 0
175 198 0
175 198 0
174 198 0
175 198 0
173 196 0
176 199 0
173 197 0
173 197 0
173 196 0
173 196 0
174 198 0
174 198 0
171 195 0
174 198 0
174 197 0
173 197 0
174 197 0
173 197 0
173 196 0
173 197 0
174 197 0
173 196 0
174 198 0
172 197 0
175 197 0
172 196 0
174 197 0
174 198 0
173 196 0
172 196 0
173 197 0
172 196 0
174 197 0
173 196 0
176 198 0
174 198 0
176 199 0
175 198 0
174 197 0
174 198 0
174 198 0
175 198 0
176 198 0
172 196 0
173 197 0
173 196 0
173 196 0
171 195 0
175 198 0
173 197 0
173 196 0
172 196 0
171 194 0
171 195 0
173 197 0
173 197 0
174 197 0
172 196 0
172 195 0
174 197 0
172 196 0
171 194 0
174 197 0
173 196 0
173 196 0
174 197 0
173 195 16
143 147 60
149 143 88
152 147 93
155 151 96
162 159 104
160 156 103
164 160 106
165 161 107
157 154 103
160 158 106
167 165 110
160 158 106
163 161 108
158 155 104
161 159 105
161 158 105
159 156 104
161 157 103
155 150 97
151 146 91
154 148 92
139 139 68
173 194 30
172 195 0
176 199 0
175 198 0
174 197 0
175 198 0
173 196 0
174 197 0
174 198 0
173 197 0
174 197 0
175 198 0
174 198 0
175 198 0
174 198 0
174 197 0
174 197 0
175 198 0
175 198 0
174 197 0
174 198 0
174 198 0
174 197 0
172 197 0
174 197 0
175 198 0
176 198 0
175 198 0
175 198 0
173 197 0
174 198 0
173 197 0
174 198 0
174 198 0
176 199 0
175 198 0
174 198 0
173 197 0
176 198 0
174 197 0
174 198 0
175 198 0
174 197 0
175 198 0
172 196 0
176 199 0
175 198 0
174 197 0
174 197 0
173 197 0
174 198 0
174 197 0
174 198 0
177 199 0
173 197 0
175 198 0
175 198 0
175 198 0
174 198 0
174 198 0
174 198 0
174 198 0
173 197 0
175 198 0
175 198 0
173 197 0
173 197 0
174 197 0
174 197 0
174 197 0
173 196 0
175 198 0
174 197 0
173 196 0
174 197 0
174 198 0
174 197 0
174 197 0
176 198 0
174 198 0
175 198 0
174 198 0
173 197 0
176 199 0
175 198 0
174 198 0
175 198 0
175 198 0
176 199 0
174 198 0
174 198 0
174 197 0
175 198 0
175 198 0
174 198 0
174 198 0
174 198 0
174 198 0
174 198 0
174 197 0
175 198 0
173 197 0
172 197 0
175 198 0
175 198 0
174 198 0
176 199 0
174 197 0
175 198 0
175 198 0
175 198 0
174 198 0
176 198 0
173 197 0
174 198 0
175 198 0
175 198 0
174 197 0
175 198 0
174 197 0
174 197 0
175 198 0
176 199 0
173 197 0
175 198 0
173 197 0
175 198 0
176 198 0
174 198 0
175 198 0
177 199 0
173 197 0
174 198 0
174 197 0
174 198 0
175 198 0
176 198 0
174 197 0
174 198 0
173 197 0
176 199 0
175 198 0
174 198 0
174 198 0
174 198 0
175 198 0
175 198 0
173 197 0
175 198 0
175 198 0
174 197 0
173 197 0
174 198 0
175 198 0
174 198 0
174 197 0
173 197 0
172 197 0
175 198 0
174 198 0
176 199 0
174 198 0
176 198 0
174 197 0
175 198 0
173 197 0
176 199 57
194 213 149
209 224 199
175 198 0
174 198 0
174 198 0
174 197 0
174 197 0
175 198 0
175 198 0
174 198 0
173 197 0
174 198 0
175 198 0
176 199 0
175 198 0
173 197 0
172 197 0
176 198 0
174 198 0
174 198 0
176 199 0
175 198 0
176 199 0
175 198 0
173 197 0
173 197 0
175 198 0
174 197 0
173 197 0
175 198 0
174 198 0
173 197 0
175 198 0
175 198 0
174 198 0
174 198 0
174 198 0
173 197 0
174 198 0
175 198 0
175 198 0
175 198 0
175 197 0
174 198 0
174 198 0
175 198 0
175 198 0
175 198 0
175 198 0
174 198 0
175 198 0
174 198 0
173 197 0
174 198 0
174 197 0
174 198 0
175 198 0
175 198 0
175 198 0
175 197 0
175 198 0
174 197 0
174 198 0
174 198 0
176 198 0
174 198 0
174 197 0
174 198 0
175 198 0
174 198 0
176 199 0
172 196 0
174 198 0
174 198 0
175 198 0
175 198 0
175 198 0
175 198 0
176 198 0
174 198 0
175 198 0
174 198 0
173 197 0
175 198 0
175 198 0
174 198 0
173 197 0
174 198 0
173 197 0
174 198 0
175 198 0
175 198 0
174 198 0
175 198 0
174 198 0
174 198 0
176 199 0
175 198 0
175 198 0
174 198 0
174 198 0
173 197 0
173 197 0
175 198 0
174 197 0
174 197 0
176 199 0
175 198 0
174 198 0
175 198 0
177 199 0
174 198 0
175 198 0
175 198 0
174 198 0
175 198 0
174 197 0
174 197 0
174 197 0
175 198 0
174 197 0
174 197 0
174 198 0
174 197 0
175 198 0
175 198 0
174 198 0
174 197 0
175 198 0
174 198 0
175 198 0
173 197 0
174 197 0
174 197 0
175 198 0
173 197 0
175 198 0
175 198 0
174 198 0
174 197 0
173 197 0
174 198 0
173 197 0
175 197 0
174 198 0
173 196 0
174 197 0
174 198 0
176 199 0
174 197 0
174 198 0
175 198 0
174 198 0
175 198 0
173 196 0
174 197 0
174 197 0
174 198 0
171 195 0
174 197 0
173 197 0
176 198 0
173 197 0
174 198 0
174 197 0
176 198 0
173 196 0
173 197 0
173 197 0
174 197 0
175 198 0
174 197 0
173 196 0
175 198 0
173 197 0
174 197 0
174 196 0
173 197 0
175 198 0
174 198 0
174 197 0
173 196 0
176 198 0
175 197 0
173 197 0
175 198 0
174 197 0
173 196 0
174 197 0
172 196 0
173 196 0
172 196 0
173 196 0
172 196 0
172 195 0
172 196 0
172 196 0
173 196 0
173 196 0
171 195 0
174 197 0
174 196 0
174 196 0
171 194 0
172 196 0
173 197 0
175 198 0
175 198 0
175 198 0
170 193 0
156 164 59
147 141 83
147 140 84
155 150 93
153 149 96
155 151 100
157 153 102
165 162 108
163 160 105
168 165 110
165 162 108
163 160 106
166 164 109
160 159 106
164 162 109
166 164 109
169 165 109
168 164 109
157 154 100
162 158 103
147 143 93
157 151 94
140 134 80
147 151 62
173 197 0
173 197 0
174 196 0
174 197 0
175 198 0
173 197 0
174 197 0
174 197 0
173 196 0
172 196 0
174 198 0
175 197 0
173 197 0
173 197 0
172 196 0
173 197 0
174 198 0
175 198 0
174 198 0
173 195 0
172 197 0
173 197 0
173 196 0
176 199 0
174 197 0
174 198 0
174 197 0
174 197 0
175 198 0
174 198 0
173 197 0
173 197 0
174 198 0
173 197 0
173 197 0
175 198 0
174 198 0
176 199 0
173 197 0
173 197 0
175 198 0
175 198 0
174 198 0
174 198 0
173 197 0
175 197 0
175 198 0
172 196 0
172 197 0
173 197 0
174 198 0
174 197 0
173 197 0
174 198 0
173 197 0
175 198 0
174 197 0
175 198 0
173 197 0
174 198 0
174 198 0
174 197 0
176 199 0
175 198 0
174 198 0
176 199 0
174 198 0
175 198 0
173 197 0
176 198 0
175 198 0
175 198 0
175 198 0
174 198 0
174 197 0
173 197 0
174 198 0
174 197 0
176 199 0
173 197 0
173 197 0
174 198 0
174 197 0
174 198 0
175 198 0
173 197 0
174 198 0
173 197 0
175 198 0
175 198 0
175 198 0
174 198 0
174 198 0
174 198 0
175 198 0
173 197 0
176 199 0
174 197 0
175 198 0
176 199 0
176 199 0
174 197 0
174 197 0
174 197 0
175 198 0
174 198 0
174 198 0
175 198 0
175 198 0
174 197 0
175 198 0
175 198 0
174 198 0
174 198 0
176 198 0
176 199 0
175 198 0
174 198 0
174 198 0
175 198 0
175 198 0
174 198 0
173 197 0
175 198 0
175 198 0
174 198 0
175 198 0
174 198 0
176 199 0
175 198 0
173 197 0
175 198 0
173 197 0
175 198 0
175 198 0
176 198 0
174 198 0
174 197 0
173 197 0
174 198 0
174 198 0
175 198 0
174 198 0
174 197 0
175 198 0
175 198 0
174 198 0
176 198 0
174 198 0
175 198 0
176 199 0
175 198 0
175 198 0
174 197 0
175 198 0
174 198 0
174 198 0
173 197 0
175 198 0
175 198 0
174 198 0
175 198 0
177 199 0
174 198 0
174 198 0
176 199 0
174 198 0
174 198 0
175 198 0
173 197 0
174 197 0
174 198 0
174 198 0
174 198 0
174 197 0
174 198 0
174 198 0
174 198 0
174 197 0
176 198 0
175 198 0
176 199 0
174 198 0
175 198 0
172 197 0
174 198 0
174 197 0
175 198 0
174 197 0
175 198 0
175 198 0
174 198 0
175 198 0
174 198 0
175 198 0
175 198 0
176 198 0
175 198 0
176 199 0
174 198 0
174 198 0
173 197 0
173 197 0
174 198 0
174 198 0
175 198 0
176 199 0
174 198 0
174 198 0
175 198 0
175 198 0
173 197 0
174 198 0
175 198 0
175 198 0
173 197 0
174 198 0
174 198 0
174 198 0
175 198 0
175 198 0
176 198 0
175 198 0
176 198 0
176 198 0
176 199 0
173 197 0
174 197 0
174 197 0
174 198 0
174 198 0
174 198 0
176 199 0
175 198 0
175 198 0
175 198 0
173 196 0
173 197 0
174 198 0
174 198 0
174 198 0
174 198 0
174 198 0
175 198 0
176 199 0
175 198 0
176 198 0
175 198 0
176 199 0
174 198 0
173 197 0
174 197 0
175 198 0
174 198 0
175 198 0
175 198 0
175 198 0
175 198 0
173 197 0
175 198 0
174 197 0
174 197 0
174 197 0
173 197 0
175 198 0
174 197 0
173 197 0
174 198 0
174 198 0
174 198 0
175 198 0
173 197 0
174 198 0
174 198 0
175 198 0
175 198 0
173 196 0
174 198 0
173 197 0
174 198 0
175 198 0
176 199 0
174 198 0
175 198 0
174 197 0
175 198 0
174 197 0
173 197 0
175 198 0
173 197 0
174 197 0
175 198 0
175 198 0
174 198 0
174 198 0
172 196 0
173 197 0
174 198 0
174 198 0
174 198 0
171 196 0
175 198 0
174 198 0
171 195 0
173 197 0
175 198 0
175 198 0
174 198 0
174 198 0
175 198 0
173 197 0
175 198 0
172 196 0
175 198 0
175 198 0
173 197 0
172 195 0
172 196 0
175 198 0
172 197 0
173 196 0
170 195 0
174 197 0
173 197 0
175 198 0
175 197 0
172 196 0
174 197 0
174 198 0
173 196 0
176 198 0
173 196 0
173 197 0
173 197 0
174 197 0
175 198 0
175 198 0
173 196 0
173 197 0
171 195 0
173 197 0
173 196 0
173 197 0
173 196 0
173 195 0
176 199 0
173 196 0
173 197 0
173 197 0
174 197 0
171 195 0
173 197 0
175 198 0
172 196 0
174 197 0
173 197 0
174 197 0
171 194 0
171 194 0
170 194 0
164 188 60
152 176 86
146 170 103
145 169 105
142 167 110
153 177 83
161 185 60
173 197 0
172 194 0
173 196 0
172 194 0
173 196 0
173 196 0
171 195 0
170 193 0
162 179 34
144 138 77
148 143 85
153 147 92
150 146 95
157 153 99
160 156 103
161 157 104
162 160 107
166 163 108
166 164 110
169 166 111
165 163 109
171 168 112
169 166 111
166 163 108
167 164 109
164 161 108
158 156 104
163 159 104
168 163 107
159 154 99
155 150 93
147 142 86
140 134 74
157 172 37
172 195 0
174 197 0
173 197 0
174 198 0
173 197 0
175 198 0
174 197 0
175 198 0
175 198 0
174 197 0
176 198 0
175 198 0
175 198 0
173 197 0
174 197 0
174 198 0
170 193 0
173 196 0
174 197 0
174 198 0
174 198 0
174 198 0
174 198 0
176 199 0
175 198 0
174 197 0
174 197 0
175 198 0
173 197 0
173 197 0
174 198 0
174 198 0
174 197 0
174 197 0
174 198 0
174 198 0
174 198 0
176 198 0
173 197 0
174 197 0
174 198 0
174 198 0
173 197 0
174 198 0
174 198 0
175 198 0
176 199 0
174 198 0
175 198 0
175 198 0
171 196 0
172 196 0
174 198 0
174 198 0
174 197 0
175 198 0
174 198 0
174 197 0
174 198 0
176 198 0
175 198 0
174 198 0
175 198 0
174 198 0
173 197 0
174 198 0
173 197 0
176 198 0
175 198 0
174 198 0
176 198 0
175 198 0
175 198 0
174 197 0
174 198 0
174 197 0
172 197 0
174 197 0
174 197 0
173 197 0
176 199 0
176 199 0
173 197 0
173 197 0
174 198 0
173 197 0
173 197 0
175 198 0
175 198 0
174 198 0
173 197 0
175 198 0
174 197 0
172 197 0
173 196 0
174 198 0
173 197 0
174 198 0
174 198 0
175 198 0
176 199 0
176 198 0
173 197 0
176 199 0
175 198 0
173 197 0
174 198 0
173 197 0
175 198 0
175 198 0
174 198 0
175 198 0
174 198 0
174 198 0
174 197 0
173 197 0
175 198 0
174 198 0
175 198 0
174 197 0
173 197 0
174 197 0
174 198 0
174 198 0
174 198 0
175 198 0
176 198 0
175 198 0
174 198 0
175 198 0
173 197 0
175 198 0
175 198 0
174 198 0
175 198 0
174 197 0
174 198 0
175 198 0
174 198 0
174 198 0
175 198 0
175 198 0
175 198 0
174 198 0
174 198 0
172 197 0
176 199 0
175 198 0
175 198 0
173 197 0
175 198 0
175 198 0
174 198 0
175 198 0
174 197 0
174 198 0
176 199 0
174 198 0
175 198 0
175 198 0
175 198 0
173 197 0
175 198 0
176 199 0
175 198 0
175 198 0
174 197 0
175 198 0
174 198 0
175 198 0
174 198 0
175 198 0
175 198 0
174 198 0
175 198 0
174 198 0
174 197 0
174 197 0
174 198 0
174 197 0
175 198 0
175 198 0
174 198 0
173 197 0
174 198 0
174 198 0
173 197 0
172 197 0
174 197 0
173 197 0
174 198 0
176 199 0
175 198 0
173 197 0
174 197 0
174 197 0
174 197 0
175 197 0
175 198 0
174 197 0
175 198 0
175 198 0
174 198 0
173 197 0
174 197 0
173 197 0
176 199 0
173 197 0
174 198 0
175 198 0
174 197 0
174 197 0
173 197 0
175 198 0
173 197 0
174 198 0
176 198 0
174 197 0
174 197 0
174 198 0
175 198 0
174 198 0
175 198 0
175 198 0
175 198 0
174 197 0
175 198 0
175 198 0
175 198 0
174 198 0
174 197 0
175 198 0
175 198 0
175 198 0
174 198 0
176 199 0
173 197 0
173 197 0
175 198 0
175 198 0
173 197 0
176 199 0
173 196 0
176 199 0
175 198 0
176 198 0
174 198 0
173 197 0
174 197 0
176 199 0
174 198 0
175 198 0
175 198 0
173 197 0
174 197 0
176 199 0
175 198 0
173 197 0
173 197 0
175 198 0
175 198 0
174 198 0
173 196 0
174 197 0
173 197 0
174 198 0
175 198 0
176 199 0
174 198 0
176 199 0
175 198 0
174 198 0
173 197 0
176 199 0
175 198 0
174 197 0
174 198 0
174 198 0
175 198 0
174 198 0
176 198 0
174 198 0
174 198 0
173 197 0
174 198 0
175 198 0
176 199 0
176 199 0
174 197 0
173 197 0
174 197 0
175 198 0
172 196 0
174 198 0
174 198 0
175 198 0
174 198 0
175 198 0
172 196 0
175 198 0
176 198 0
172 196 0
173 197 0
173 197 0
175 198 0
173 197 0
175 198 0
175 198 0
173 197 0
175 198 0
174 198 0
174 198 0
174 197 0
174 198 0
175 198 0
176 199 0
175 198 0
175 198 0
173 197 0
173 196 0
174 198 0
174 198 0
173 197 0
175 197 0
175 198 0
174 197 0
173 196 0
174 197 0
172 196 0
173 196 0
172 195 0
173 197 0
175 198 0
174 198 0
173 196 0
173 196 0
173 196 0
173 196 0
173 197 0
174 198 0
172 196 0
172 195 0
172 195 0
173 197 0
172 196 0
174 197 0
173 197 0
173 196 0
174 197 0
171 194 0
175 198 0
172 196 0
173 196 0
172 195 0
172 195 0
174 196 0
149 174 95
102 131 152
83 115 169
62 99 181
61 99 181
61 98 181
61 99 181
61 99 181
62 99 181
61 98 180
77 110 171
121 148 133
157 180 74
172 196 0
173 196 0
174 197 0
171 193 0
172 195 0
138 141 59
146 141 82
146 141 87
147 143 88
148 145 94
149 146 96
157 155 102
161 158 106
159 157 105
165 163 109
170 167 111
168 165 110
169 165 110
170 168 112
169 166 110
170 167 111
170 167 111
167 163 107
166 163 108
164 160 103
159 155 98
163 157 99
158 153 92
162 156 93
139 134 81
148 149 66
175 197 0
173 197 0
175 198 0
173 196 0
175 198 0
176 199 0
175 198 0
173 196 0
174 197 0
174 198 0
175 198 0
174 197 0
174 197 0
176 198 0
174 197 0
174 198 0
174 197 0
175 198 0
175 198 0
175 198 0
174 197 0
175 198 0
174 196 0
174 196 0
175 198 0
174 198 0
175 198 0
175 198 0
175 198 0
174 198 0
174 197 0
175 198 0
175 198 0
174 197 0
174 197 0
173 197 0
174 198 0
174 198 0
174 198 0
173 196 0
174 197 0
174 198 0
173 197 0
174 198 0
174 198 0
174 198 0
173 197 0
174 198 0
173 197 0
175 197 0
173 197 0
174 198 0
174 198 0
174 198 0
174 197 0
175 198 0
173 197 0
173 197 0
174 197 0
175 198 0
174 198 0
174 198 0
174 197 0
174 198 0
174 197 0
174 198 0
173 197 0
174 198 0
175 198 0
175 198 0
175 198 0
174 198 0
173 197 0
176 199 0
176 198 0
174 198 0
175 198 0
176 199 0
174 197 0
176 198 0
175 198 0
175 198 0
176 199 0
174 198 0
174 198 0
175 198 0
176 199 0
175 198 0
172 197 0
174 198 0
176 198 0
174 198 0
172 197 0
174 198 0
174 198 0
173 197 0
174 198 0
176 198 0
174 198 0
173 197 0
176 199 0
176 198 0
176 198 0
175 198 0
173 197 0
173 197 0
176 199 0
176 198 0
174 197 0
175 198 0
175 198 0
173 197 0
174 198 0
174 198 0
173 197 0
174 197 0
175 198 0
173 197 0
175 198 0
174 198 0
176 198 0
175 198 0
174 197 0
175 198 0
174 198 0
175 198 0
176 198 0
172 196 0
173 197 0
175 198 0
173 197 0
175 198 0
176 199 0
175 198 0
175 198 0
173 197 0
175 198 0
175 198 0
174 198 0
175 198 0
174 198 0
175 198 0
175 198 0
174 198 0
175 198 0
175 198 0
174 198 0
174 198 0
174 197 0
174 197 0
174 197 0
174 198 0
174 198 0
174 197 0
173 197 0
176 198 0
173 197 0
175 198 0
174 198 0
175 198 0
175 198 0
175 198 0
174 197 0
175 198 0
174 197 0
175 198 0
175 198 0
175 198 0
175 198 0
173 197 0
174 198 0
176 199 0
174 198 0
175 198 0
174 198 0
175 198 0
174 198 0
176 198 0
175 198 0
174 198 0
175 198 0
175 198 0
174 197 0
175 198 0
174 198 0
175 198 0
177 199 0
176 198 0
174 197 0
174 198 0
175 198 0
174 198 0
175 198 0
175 198 0
174 198 0
174 198 0
174 198 0
174 198 0
176 199 0
175 198 0
173 197 0
175 198 0
175 198 0
173 197 0
174 198 0
174 197 0
175 198 0
175 198 0
175 198 0
174 197 0
174 198 0
176 198 0
171 196 0
176 198 0
176 198 0
172 197 0
175 198 0
174 198 0
173 196 0
172 197 0
175 198 0
174 197 0
172 196 0
175 198 0
176 199 0
175 198 0
174 197 0
173 197 0
174 197 0
176 199 0
175 198 0
173 197 0
174 198 0
175 198 0
175 198 0
175 198 0
175 198 0
174 198 0
174 198 0
172 197 0
175 198 0
175 198 0
174 198 0
174 198 0
172 196 0
174 198 0
174 197 0
175 198 0
176 199 0
176 199 0
177 199 0
172 196 0
176 199 0
175 198 0
173 197 0
174 197 0
176 199 0
175 198 0
174 198 0
175 198 0
175 198 0
175 198 0
176 198 0
174 198 0
175 198 0
174 197 0
174 198 0
175 198 0
173 197 0
174 198 0
175 198 0
174 198 0
174 197 0
176 198 0
173 197 0
175 198 0
173 197 0
174 197 0
172 197 0
175 198 0
173 197 0
173 197 0
174 197 0
175 198 0
176 198 0
175 198 0
173 197 0
174 198 0
174 197 0
173 197 0
175 198 0
176 199 0
174 198 0
175 198 0
175 198 0
175 198 0
173 197 0
176 199 0
172 196 0
174 197 0
174 198 0
176 198 0
174 198 0
172 196 0
176 199 0
172 196 0
174 198 0
175 198 0
172 197 0
175 198 0
173 196 0
175 198 0
175 198 0
173 197 0
173 197 0
174 197 0
173 196 0
175 198 0
173 197 0
173 197 0
174 198 0
175 198 0
173 196 0
174 197 0
173 197 0
175 197 0
173 196 0
175 198 0
174 197 0
171 195 0
174 197 0
174 197 0
173 196 0
172 196 0
174 197 0
172 196 0
175 198 0
173 197 0
172 196 0
174 197 0
172 195 0
172 195 0
172 196 0
173 196 0
172 196 0
174 197 0
172 196 0
174 197 0
173 197 0
174 197 0
172 195 0
172 195 0
174 197 0
171 194 0
145 169 99
101 131 155
61 98 176
61 99 181
62 99 180
61 99 181
62 99 181
62 99 181
62 99 181
61 99 181
61 99 181
62 99 181
61 99 180
62 99 180
61 99 181
104 131 151
149 173 94
170 194 0
172 196 0
155 173 28
138 132 71
144 139 81
139 135 87
147 144 93
141 138 92
152 150 99
149 147 100
156 155 105
164 161 107
165 162 109
169 166 109
164 161 107
172 168 111
171 167 110
172 168 111
171 167 109
173 169 111
173 168 110
166 162 106
167 163 104
166 162 103
165 159 98
163 157 97
164 158 96
149 143 84
143 137 77
162 180 37
173 195 0
173 197 0
171 195 0
173 196 0
174 197 0
174 198 0
173 196 0
174 197 0
175 198 0
173 196 0
174 197 0
175 198 0
173 196 0
175 198 0
174 197 0
175 198 0
173 196 0
173 197 0
175 198 0
175 197 0
175 198 0
174 197 0
175 198 0
173 197 0
174 198 0
174 197 0
175 198 0
174 197 0
173 196 0
175 198 0
175 198 0
173 196 0
175 198 0
174 198 0
173 197 0
175 198 0
172 196 0
175 198 0
175 198 0
174 198 0
173 197 0
176 198 0
175 198 0
173 197 0
174 198 0
174 198 0
174 197 0
174 197 0
173 197 0
174 198 0
174 198 0
175 198 0
175 198 0
173 197 0
173 197 0
175 198 0
175 198 0
174 198 0
174 198 0
174 198 0
173 197 0
176 198 0
175 198 0
176 198 0
174 197 0
174 198 0
173 196 0
174 198 0
175 198 0
174 198 0
175 198 0
173 197 0
175 198 0
174 198 0
173 197 0
175 198 0
174 198 0
176 199 0
174 198 0
175 198 0
173 197 0
175 198 0
175 198 0
175 198 0
174 197 0
174 197 0
175 198 0
174 197 0
176 198 0
175 198 0
175 198 0
175 198 0
173 197 0
175 198 0
175 198 0
174 198 0
174 197 0
173 197 0
176 198 0
174 197 0
174 197 0
174 198 0
175 198 0
175 198 0
174 198 0
175 198 0
173 197 0
176 199 0
173 197 0
177 199 0
175 198 0
175 198 0
176 198 0
175 198 0
175 198 0
174 198 0
172 197 0
176 199 0
175 198 0
176 198 0
174 198 0
175 198 0
177 199 0
175 198 0
176 199 0
175 198 0
174 197 0
175 198 0
174 198 0
175 198 0
175 198 0
176 199 0
173 197 0
174 198 0
175 198 0
174 197 0
174 198 0
174 198 0
175 198 0
174 198 0
174 198 0
174 198 0
174 198 0
175 198 0
175 198 0
173 197 0
173 197 0
174 198 0
175 198 0
176 198 0
174 197 0
174 198 0
175 198 0
176 199 0
175 198 0
174 198 0
176 199 0
174 198 0
174 198 0
176 199 0
173 197 0
175 198 0
174 197 0
176 198 0
175 198 0
174 197 0
174 198 0
174 198 0
177 199 0
176 198 0
175 198 0
175 198 0
173 197 0
173 197 0
173 197 0
174 198 0
174 197 0
176 199 0
175 198 0
174 198 0
176 199 0
174 198 0
173 197 0
174 198 0
174 197 0
175 198 0
175 198 0
173 197 0
175 198 0
176 199 0
175 198 0
174 197 0
175 198 0
174 197 0
175 198 0
173 197 0
175 198 0
174 198 0
174 197 0
175 198 0
175 198 0
175 198 0
176 199 0
174 198 0
175 198 0
175 198 0
174 197 0
174 198 0
174 198 0
175 198 0
175 198 0
176 199 0
172 196 0
175 198 0
176 198 0
175 198 0
174 198 0
173 197 0
176 199 0
174 198 0
174 197 0
174 197 0
175 198 0
175 198 0
174 197 0
175 198 0
173 196 0
175 198 0
175 198 0
175 198 0
174 198 0
175 198 0
174 198 0
174 198 0
175 198 0
174 197 0
173 197 0
176 199 0
175 198 0
175 198 0
173 197 0
174 198 0
173 197 0
173 197 0
175 198 0
174 198 0
174 197 0
174 197 0
174 198 0
175 198 0
173 197 0
175 198 0
174 198 0
174 197 0
174 198 0
174 198 0
175 198 0
176 199 0
176 198 0
176 198 0
173 197 0
176 199 0
173 197 0
174 198 0
173 197 0
175 198 0
173 197 0
175 198 0
176 198 0
171 196 0
173 197 0
176 199 0
175 198 0
175 198 0
174 198 0
174 197 0
175 198 0
174 198 0
175 198 0
172 196 0
174 197 0
173 197 0
175 197 0
174 197 0
172 197 0
173 197 0
174 197 0
174 198 0
174 197 0
174 198 0
174 198 0
175 198 0
174 197 0
173 197 0
174 197 0
173 196 0
176 199 0
174 198 0
174 197 0
174 198 0
172 197 0
174 197 0
172 196 0
174 198 0
173 197 0
176 198 0
174 197 0
173 196 0
175 198 0
174 197 0
175 197 0
174 198 0
172 196 0
175 198 0
173 197 0
175 198 0
175 198 0
174 197 0
173 197 0
174 197 0
173 197 0
174 197 0
174 198 0
172 196 0
173 197 0
176 199 0
173 197 0
173 197 0
173 197 0
172 196 0
172 196 0
173 197 0
173 197 0
173 196 0
173 196 0
173 197 0
173 197 0
173 196 0
172 195 0
173 197 0
174 197 0
172 196 0
173 196 0
171 195 0
171 195 0
172 196 0
175 198 0
173 197 0
173 196 0
171 196 0
172 196 0
166 189 44
114 141 144
64 100 177
62 99 181
62 99 181
62 99 179
62 99 181
61 99 181
61 99 180
61 99 181
61 98 181
61 99 181
61 99 181
61 99 181
61 99 180
62 99 180
62 99 179
62 99 181
63 99 175
118 144 137
168 192 37
145 154 40
138 135 64
135 132 79
146 143 89
148 144 94
136 135 93
147 145 97
152 149 101
154 152 103
164 160 106
164 162 109
167 164 109
166 163 107
170 167 110
174 170 112
172 168 107
173 169 110
173 168 108
173 169 109
176 170 109
168 163 105
163 158 102
163 159 102
165 158 97
156 151 90
148 142 82
140 134 72
153 163 45
173 197 0
173 196 0
174 196 0
174 197 0
173 196 0
174 197 0
174 196 0
173 196 0
173 196 0
173 196 0
172 195 0
174 196 0
175 198 0
175 198 0
174 197 0
175 198 0
173 196 0
174 198 0
174 197 0
175 198 0
175 197 0
173 197 0
174 198 0
173 197 0
173 197 0
173 197 0
175 198 0
176 198 0
174 197 0
175 198 0
174 197 0
174 197 0
173 197 0
174 197 0
177 199 0
174 197 0
175 198 0
174 198 0
174 198 0
175 198 0
173 197 0
176 198 0
175 198 0
173 197 0
173 197 0
175 198 0
174 198 0
173 197 0
174 197 0
175 198 0
175 198 0
175 198 0
175 198 0
173 197 0
175 198 0
174 197 0
175 198 0
175 198 0
174 198 0
174 198 0
175 198 0
173 197 0
174 198 0
176 198 0
174 198 0
175 198 0
174 198 0
174 198 0
173 197 0
174 198 0
176 199 0
174 197 0
174 197 0
174 198 0
175 198 0
174 198 0
173 197 0
174 198 0
173 197 0
174 198 0
175 198 0
174 198 0
175 198 0
175 198 0
176 198 0
175 198 0
174 198 0
174 198 0
174 197 0
172 196 0
175 198 0
174 198 0
175 198 0
175 198 0
176 199 0
174 197 0
174 197 0
174 198 0
175 198 0
174 198 0
174 198 0
175 198 0
172 197 0
176 199 0
174 198 0
175 198 0
174 198 0
177 199 0
177 199 0
175 198 0
175 198 0
175 198 0
174 198 0
174 198 0
175 198 0
173 197 0
173 197 0
174 198 0
173 197 0
173 197 0
173 197 0
175 198 0
176 199 0
175 198 0
175 198 0
174 197 0
175 198 0
175 198 0
174 198 0
175 198 0
177 199 0
175 198 0
174 198 0
174 197 0
174 198 0
176 198 0
175 198 0
174 198 0
174 198 0
175 198 0
173 196 0
174 197 0
175 198 0
176 199 0
176 199 0
175 198 0
175 198 0
176 199 0
174 198 0
175 198 0
175 198 0
176 198 0
175 198 0
173 197 0
173 197 0
174 198 0
174 197 0
175 198 0
173 197 0
174 198 0
175 198 0
175 198 0
175 198 0
175 198 0
174 197 0
175 198 0
174 198 0
173 197 0
174 198 0
175 198 0
174 198 0
174 197 0
174 198 0
175 198 0
175 198 0
174 198 0
174 197 0
173 197 0
174 197 0
173 197 0
175 198 0
174 198 0
175 198 0
175 198 0
173 197 0
174 198 0
174 198 0
173 197 0
174 198 0
175 198 0
173 197 0
173 197 0
173 197 0
176 199 0
176 198 0
175 198 0
175 198 0
174 198 0
174 197 0
175 198 0
173 197 0
176 198 0
173 197 0
174 198 0
173 197 0
174 198 0
176 198 0
176 198 0
174 198 0
173 197 0
175 198 0
174 198 0
175 198 0
176 198 0
173 197 0
174 198 0
175 198 0
172 196 0
174 198 0
175 198 0
175 198 0
176 199 0
174 198 0
176 198 0
173 197 0
174 198 0
176 198 0
175 198 0
173 197 0
175 198 0
174 198 0
173 197 0
175 197 0
175 198 0
174 197 0
175 198 0
174 198 0
174 197 0
175 198 0
174 197 0
175 198 0
176 198 0
173 197 0
175 198 0
173 197 0
172 196 0
174 198 0
174 198 0
173 197 0
174 198 0
176 199 0
175 198 0
174 198 0
176 199 0
173 196 0
175 198 0
175 198 0
175 198 0
174 198 0
174 198 0
175 198 0
173 197 0
175 198 0
174 198 0
173 197 0
174 197 0
174 198 0
174 198 0
175 198 0
175 198 0
174 197 0
177 199 0
175 198 0
174 197 0
174 197 0
175 198 0
174 197 0
175 198 0
175 198 0
176 199 0
173 197 0
174 197 0
173 197 0
175 198 0
174 198 0
174 198 0
175 198 0
175 197 0
175 198 0
175 198 0
174 197 0
173 196 0
174 197 0
172 196 0
173 197 0
175 198 0
174 197 0
174 198 0
174 198 0
174 198 0
175 198 0
173 197 0
175 198 0
176 198 0
173 196 0
174 197 0
173 197 0
175 198 0
174 198 0
173 197 0
173 196 0
173 196 0
174 198 0
175 198 0
175 197 0
171 195 0
174 197 0
173 197 0
174 197 0
175 197 0
175 198 0
173 196 0
171 195 0
176 198 0
173 197 0
174 198 0
176 198 0
171 195 0
174 197 0
174 197 0
173 197 0
173 196 0
171 194 0
173 196 0
171 194 0
172 196 0
175 198 0
173 197 0
172 196 0
171 196 0
173 197 0
175 197 0
173 196 0
172 196 0
173 196 0
172 196 0
171 195 0
171 196 0
171 193 0
173 195 0
165 189 51
86 117 163
62 99 181
62 99 179
62 99 180
62 99 180
62 99 180
62 99 181
62 99 181
61 99 181
61 99 181
61 99 181
62 99 181
61 98 181
62 99 181
61 99 179
62 99 179
62 99 180
62 99 179
62 99 180
60 97 172
95 124 152
121 123 85
133 130 71
137 133 86
141 137 87
133 132 88
140 138 92
139 138 93
152 150 100
151 149 100
154 151 101
161 159 106
168 164 108
171 167 110
169 166 108
173 168 109
176 171 113
173 168 108
173 168 108
171 167 106
165 162 103
170 166 107
172 166 104
170 163 100
165 158 96
162 157 95
152 146 83
151 144 80
145 146 60
173 195 0
173 196 0
175 198 0
173 196 0
174 198 0
173 196 0
174 197 0
174 196 0
172 195 0
174 196 0
173 197 0
174 197 0
173 196 0
172 195 0
174 197 0
173 196 0
174 197 0
173 197 0
173 197 0
175 198 0
173 197 0
174 197 0
177 199 0
174 197 0
175 197 0
174 197 0
173 196 0
174 197 0
174 197 0
175 198 0
174 198 0
173 197 0
173 197 0
174 198 0
173 197 0
173 196 0
174 198 0
174 197 0
174 197 0
174 198 0
174 198 0
173 197 0
176 199 0
175 198 0
173 197 0
174 198 0
173 197 0
175 198 0
176 199 0
174 198 0
174 197 0
174 198 0
173 197 0
174 197 0
176 199 0
174 198 0
174 198 0
173 197 0
175 198 0
176 199 0
175 198 0
175 198 0
175 198 0
175 198 0
173 197 0
175 198 0
176 198 0
175 198 0
174 198 0
175 198 0
174 198 0
174 197 0
174 197 0
173 197 0
173 197 0
174 198 0
175 198 0
174 198 0
174 198 0
173 197 0
175 198 0
174 197 0
175 198 0
172 196 0
175 198 0
175 198 0
175 198 0
174 197 0
173 197 0
175 198 0
174 198 0
174 197 0
175 198 0
175 198 0
175 198 0
173 197 0
174 198 0
175 198 0
175 198 0
175 198 0
175 198 0
173 197 0
174 198 0
174 197 0
174 198 0
175 198 0
175 198 0
174 198 0
175 198 0
175 198 0
175 198 0
174 198 0
175 198 0
174 198 0
177 199 0
174 197 0
174 198 0
174 198 0
175 198 0
176 199 0
174 198 0
175 198 0
176 199 0
175 198 0
175 198 0
174 198 0
176 198 0
174 198 0
174 197 0
174 198 0
174 198 0
174 197 0
174 197 0
175 198 0
175 198 0
174 198 0
174 198 0
174 198 0
175 197 0
175 198 0
176 199 0
176 198 0
175 198 0
175 198 0
173 196 0
175 198 0
176 199 0
176 199 0
174 198 0
175 198 0
173 197 0
175 198 0
174 198 0
173 197 0
174 197 0
174 198 0
174 198 0
174 198 0
173 197 0
173 197 0
175 198 0
174 198 0
173 197 0
174 198 0
175 198 0
174 198 0
174 197 0
176 199 0
174 198 0
176 198 0
175 198 0
176 199 0
174 197 0
175 198 0
176 198 0
174 198 0
175 198 0
173 197 0
175 198 0
175 198 0
176 199 0
174 198 0
174 198 0
174 198 0
173 197 0
174 198 0
174 197 0
175 198 0
176 198 0
173 197 0
174 198 0
175 198 0
173 197 0
174 198 0
175 198 0
174 198 0
174 198 0
175 198 0
173 197 0
175 198 0
174 197 0
176 199 0
175 198 0
174 198 0
174 198 0
174 198 0
174 198 0
175 198 0
174 198 0
175 198 0
174 198 0
175 198 0
174 198 0
174 197 0
176 199 0
173 197 0
174 198 0
175 198 0
174 198 0
173 197 0
175 198 0
176 199 0
176 199 0
174 198 0
175 198 0
175 198 0
176 199 0
175 198 0
174 197 0
173 197 0
174 198 0
173 197 0
175 198 0
173 197 0
174 198 0
174 198 0
173 197 0
175 198 0
174 198 0
173 197 0
176 198 0
175 198 0
175 198 0
173 197 0
175 198 0
176 199 0
175 198 0
174 198 0
175 198 0
174 198 0
174 198 0
174 198 0
173 197 0
174 198 0
176 199 0
176 199 0
176 199 0
174 198 0
174 197 0
174 197 0
174 198 0
175 198 0
174 198 0
174 197 0
175 198 0
176 199 0
174 197 0
175 198 0
173 197 0
175 198 0
173 197 0
175 198 0
175 198 0
173 196 0
175 198 0
173 197 0
174 198 0
173 197 0
172 196 0
175 198 0
173 196 0
174 197 0
174 198 0
173 197 0
175 198 0
174 198 0
175 198 0
176 198 0
175 198 0
172 196 0
176 199 0
175 198 0
175 198 0
173 197 0
174 198 0
175 198 0
173 197 0
175 198 0
176 199 0
176 199 0
174 198 0
174 197 0
173 197 0
175 198 0
175 198 0
173 197 0
173 197 0
174 198 0
175 198 0
174 197 0
175 198 0
174 198 0
175 198 0
175 198 0
173 196 0
172 196 0
172 196 0
174 198 0
173 196 0
174 198 0
173 197 0
172 196 0
171 195 0
175 198 0
174 198 0
173 197 0
174 197 0
173 196 0
173 196 0
170 193 0
175 198 0
173 197 0
172 195 0
173 197 0
173 197 0
171 194 0
172 196 0
174 197 0
173 197 0
173 196 0
174 198 0
173 197 0
171 194 0
174 196 0
171 193 0
173 197 0
173 196 0
172 195 0
174 197 0
165 188 57
77 110 165
61 98 176
62 99 179
62 99 180
62 99 179
62 99 181
62 99 181
61 99 180
61 99 181
61 98 180
62 99 181
62 99 181
62 99 181
62 99 181
61 99 180
61 98 179
62 99 179
62 99 177
62 98 178
62 99 174
62 99 181
62 99 176
76 101 155
126 124 83
117 116 73
123 122 81
122 122 84
131 131 91
133 133 91
142 141 96
146 145 99
151 149 99
150 149 100
161 158 102
168 165 106
171 167 106
174 170 106
171 167 105
172 168 104
175 171 110
173 168 108
168 165 102
174 169 107
162 158 91
165 160 97
163 157 94
163 157 94
145 139 83
140 134 72
144 139 74
174 197 0
173 196 0
173 196 0
173 196 0
172 196 0
173 197 0
173 196 0
174 197 0
174 196 0
173 196 0
174 197 0
173 197 0
174 197 0
174 197 0
174 197 0
174 197 0
173 196 0
173 196 0
173 196 0
172 196 0
174 197 0
171 196 0
176 198 0
176 199 0
173 197 0
173 196 0
175 198 0
175 198 0
173 197 0
175 198 0
174 197 0
174 197 0
175 198 0
173 197 0
174 198 0
174 197 0
174 197 0
174 198 0
174 198 0
173 197 0
173 197 0
173 197 0
174 197 0
175 198 0
174 197 0
174 197 0
173 197 0
173 197 0
174 197 0
175 198 0
173 197 0
173 197 0
175 198 0
174 198 0
175 198 0
173 197 0
175 198 0
175 198 0
175 198 0
176 199 0
175 198 0
175 198 0
175 198 0
173 197 0
174 198 0
175 198 0
174 198 0
174 198 0
175 198 0
176 199 0
175 198 0
175 198 0
174 198 0
176 199 0
176 198 0
175 198 0
174 197 0
175 198 0
175 198 0
175 198 0
175 198 0
174 198 0
176 198 0
174 198 0
175 198 0
175 198 0
174 198 0
175 198 0
174 198 0
173 197 0
174 198 0
173 197 0
177 199 0
174 197 0
174 198 0
175 198 0
174 198 0
175 198 0
173 197 0
173 197 0
172 197 0
175 198 0
175 198 0
173 196 0
175 198 0
173 197 0
175 198 0
174 198 0
175 198 0
176 198 0
175 198 0
175 198 0
173 197 0
176 198 0
173 197 0
176 199 0
174 198 0
175 198 0
174 198 0
176 199 0
174 197 0
174 198 0
175 198 0
174 198 0
173 197 0
173 197 0
174 198 0
174 198 0
172 196 0
173 197 0
175 198 0
174 197 0
174 198 0
175 198 0
174 198 0
175 198 0
174 198 0
174 197 0
175 198 0
175 198 0
176 199 0
174 197 0
173 197 0
172 197 0
174 198 0
175 198 0
173 197 0
175 198 0
172 196 0
174 197 0
174 198 0
174 198 0
173 197 0
176 199 0
173 197 0
175 198 0
176 198 0
175 198 0
174 198 0
174 197 0
175 198 0
174 197 0
176 199 0
173 197 0
176 198 0
174 198 0
175 198 0
175 198 0
174 198 0
173 197 0
175 198 0
175 198 0
175 198 0
175 198 0
176 199 0
176 198 0
174 198 0
174 198 0
173 197 0
175 198 0
175 198 0
174 198 0
173 197 0
174 197 0
175 198 0
173 197 0
175 198 0
174 198 0
174 197 0
175 198 0
176 199 0
175 198 0
176 199 0
173 197 0
176 198 0
175 198 0
175 198 0
174 197 0
175 198 0
174 197 0
175 198 0
175 198 0
173 197 0
175 198 0
174 198 0
175 198 0
174 198 0
174 198 0
174 198 0
174 197 0
175 198 0
173 197 0
174 198 0
174 198 0
172 196 0
173 197 0
174 198 0
174 197 0
174 197 0
174 197 0
172 197 0
174 197 0
176 199 0
174 198 0
175 198 0
174 198 0
174 197 0
175 198 0
175 198 0
175 198 0
175 198 0
174 198 0
175 198 0
175 198 0
174 198 0
174 198 0
174 198 0
175 197 0
174 198 0
174 198 0
174 198 0
175 197 0
176 199 0
175 198 0
173 197 0
173 197 0
173 197 0
173 197 0
175 198 0
175 198 0
174 198 0
175 198 0
174 198 0
174 198 0
174 198 0
173 197 0
177 199 0
175 198 0
173 197 0
174 198 0
176 199 0
175 198 0
174 198 0
174 198 0
173 197 0
174 197 0
175 198 0
173 197 0
174 197 0
174 197 0
174 197 0
175 198 0
176 199 0
174 198 0
175 198 0
174 198 0
173 197 0
173 197 0
172 197 0
175 198 0
174 197 0
174 197 0
174 198 0
173 197 0
175 198 0
175 198 0
174 198 0
175 197 0
174 198 0
174 197 0
174 198 0
174 198 0
175 198 0
173 197 0
174 197 0
174 198 0
174 198 0
173 197 0
174 197 0
173 197 0
173 197 0
175 198 0
173 197 0
173 197 0
173 196 0
173 196 0
173 197 0
174 198 0
174 197 0
174 197 0
174 198 0
174 197 0
174 197 0
174 197 0
173 196 0
176 198 0
173 197 0
174 197 0
174 197 0
173 197 0
174 197 0
174 197 0
176 198 0
175 198 0
174 197 0
173 197 0
171 195 0
172 196 0
173 197 0
173 196 0
175 198 0
173 197 0
173 196 0
172 196 0
174 197 0
175 197 0
172 196 0
173 196 0
172 195 0
169 193 0
169 192 0
168 191 0
172 195 0
173 197 0
172 195 0
170 194 0
170 193 0
171 194 0
168 192 31
90 120 156
62 99 174
63 99 179
62 99 178
62 99 180
61 99 180
61 99 181
61 99 180
62 99 181
62 99 181
62 99 181
62 99 178
61 98 181
62 99 180
62 99 179
62 99 180
61 98 175
62 99 180
62 99 180
62 98 173
61 98 173
62 98 172
61 98 177
61 98 172
78 100 143
103 103 72
100 103 71
112 113 77
128 128 90
124 124 87
144 142 94
139 137 92
154 151 101
155 151 99
160 157 102
169 166 108
165 162 101
172 168 106
172 167 105
177 171 105
174 168 103
176 170 102
170 163 99
173 168 103
167 161 97
168 163 97
166 159 93
162 157 87
149 144 80
145 139 74
132 126 64
170 191 0
172 195 0
173 196 0
175 198 0
174 195 0
173 196 0
173 196 0
173 196 0
174 196 0
174 197 0
173 197 0
173 196 0
173 196 0
173 196 0
174 197 0
174 197 0
172 196 0
174 196 0
173 197 0
173 197 0
173 196 0
174 198 0
175 198 0
174 197 0
175 198 0
173 197 0
174 198 0
174 197 0
175 198 0
173 197 0
175 198 0
174 197 0
172 196 0
174 197 0
174 198 0
174 197 0
173 197 0
176 198 0
173 197 0
175 198 0
172 196 0
174 198 0
174 197 0
174 198 0
175 198 0
174 198 0
175 198 0
175 198 0
173 197 0
175 198 0
174 198 0
174 197 0
174 198 0
174 197 0
174 198 0
171 196 0
175 198 0
176 198 0
176 198 0
175 198 0
175 198 0
174 198 0
174 198 0
174 197 0
174 198 0
172 197 0
174 197 0
174 198 0
174 198 0
175 198 0
175 198 0
174 198 0
173 197 0
174 198 0
172 196 0
175 198 0
176 198 0
175 198 0
175 198 0
174 198 0
175 198 0
174 198 0
175 198 0
174 197 0
175 198 0
173 197 0
175 198 0
174 198 0
174 198 0
174 198 0
175 198 0
173 197 0
174 198 0
174 198 0
174 197 0
176 199 0
173 197 0
173 197 0
174 198 0
175 198 0
175 198 0
175 198 0
176 199 0
174 198 0
176 198 0
175 198 0
175 198 0
174 197 0
177 199 0
174 198 0
174 198 0
174 197 0
173 197 0
174 197 0
173 197 0
174 197 0
175 198 0
174 198 0
174 197 0
176 199 0
175 198 0
175 198 0
173 197 0
173 197 0
175 198 0
175 198 0
173 197 0
174 198 0
175 198 0
173 197 0
175 198 0
175 198 0
175 198 0
176 199 0
175 198 0
174 198 0
175 198 0
172 196 0
173 197 0
174 197 0
175 198 0
175 198 0
173 197 0
174 198 0
176 198 0
175 198 0
174 197 0
177 199 0
175 198 0
175 198 0
175 198 0
173 197 0
175 198 0
174 197 0
174 197 0
175 198 0
174 198 0
175 198 0
175 198 0
174 198 0
174 197 0
175 198 0
173 196 0
175 198 0
175 198 0
176 198 0
176 199 0
174 198 0
174 198 0
174 198 0
176 199 0
176 198 0
174 197 0
173 197 0
173 197 0
174 198 0
174 198 0
175 198 0
176 199 0
174 198 0
174 198 0
174 198 0
176 198 0
175 198 0
172 197 0
174 197 0
173 197 0
173 197 0
172 196 0
174 198 0
176 199 0
174 198 0
174 198 0
174 198 0
176 199 0
175 198 0
174 198 0
175 198 0
174 198 0
175 198 0
176 198 0
174 197 0
175 198 0
174 198 0
175 198 0
175 198 0
174 198 0
174 198 0
174 198 0
173 197 0
174 198 0
174 197 0
177 199 0
175 198 0
174 198 0
175 198 0
172 197 0
175 198 0
172 196 0
175 198 0
173 197 0
173 197 0
174 198 0
174 198 0
175 198 0
175 198 0
174 198 0
175 198 0
175 198 0
174 198 0
175 198 0
175 198 0
175 198 0
176 198 0
174 198 0
175 198 0
174 198 0
175 198 0
174 197 0
175 198 0
173 197 0
175 198 0
175 198 0
174 198 0
176 199 0
175 198 0
174 197 0
174 198 0
174 198 0
175 198 0
174 198 0
174 197 0
175 198 0
174 197 0
173 197 0
175 198 0
174 198 0
173 197 0
174 198 0
177 199 0
174 197 0
174 198 0
174 198 0
175 198 0
175 198 0
174 198 0
175 198 0
173 197 0
174 197 0
174 198 0
173 197 0
176 198 0
173 197 0
175 198 0
174 197 0
174 197 0
172 195 0
175 198 0
174 198 0
173 197 0
174 197 0
175 198 0
174 197 0
175 198 0
173 197 0
175 198 0
174 198 0
175 198 0
172 195 0
174 197 0
175 198 0
175 198 0
173 197 0
174 197 0
174 197 0
174 198 0
175 198 0
173 197 0
172 196 0
174 197 0
174 198 0
175 198 0
173 197 0
175 198 0
175 198 0
173 196 0
174 198 0
174 198 0
173 197 0
173 197 0
174 197 0
173 196 0
174 198 0
174 197 0
174 197 0
174 198 0
174 197 0
172 195 0
176 199 0
175 198 0
172 196 0
173 195 0
174 197 0
170 195 0
173 197 0
172 196 0
172 195 0
172 196 0
172 196 0
173 196 0
174 197 0
173 197 0
174 198 0
175 197 0
172 195 0
173 196 0
173 197 0
173 195 0
174 196 0
173 195 0
171 195 0
174 198 0
172 195 0
172 195 0
174 197 0
169 192 0
171 194 0
169 193 0
116 142 133
62 98 170
62 99 176
62 99 178
62 99 177
62 99 178
62 99 179
62 99 178
62 99 179
62 99 179
61 99 181
62 99 177
62 99 180
62 99 179
62 99 179
62 99 175
62 99 180
62 99 178
62 99 179
62 99 178
63 100 179
62 99 176
61 98 175
62 98 177
63 100 178
62 97 169
90 105 132
102 104 72
95 97 70
112 114 81
113 114 79
125 126 87
142 140 89
138 137 88
158 154 95
155 152 99
160 157 99
170 166 100
174 168 104
174 168 104
172 167 101
174 168 99
175 169 104
172 167 103
168 162 99
169 162 95
170 163 95
163 157 90
161 154 86
147 141 75
150 144 72
131 126 60
168 189 11
172 195 0
175 197 0
171 193 0
174 196 0
172 195 0
173 195 0
174 196 0
174 197 0
172 195 0
173 196 0
173 197 0
174 197 0
173 195 0
174 198 0
173 196 0
174 196 0
173 197 0
173 197 0
173 196 0
173 196 0
173 195 0
174 197 0
174 197 0
173 197 0
173 197 0
174 197 0
173 197 0
173 197 0
176 198 0
174 198 0
174 197 0
173 197 0
174 198 0
174 197 0
174 198 0
175 198 0
174 197 0
172 196 0
174 198 0
176 198 0
173 197 0
174 197 0
174 198 0
175 198 0
176 199 0
174 198 0
175 198 0
174 198 0
173 197 0
175 198 0
174 197 0
173 197 0
176 198 0
173 197 0
174 198 0
174 197 0
173 197 0
174 198 0
175 198 0
174 198 0
174 198 0
174 197 0
175 198 0
175 198 0
175 198 0
173 196 0
172 196 0
176 199 0
174 197 0
175 198 0
172 197 0
176 199 0
173 197 0
174 198 0
175 198 0
175 198 0
175 198 0
175 198 0
176 199 0
173 197 0
173 197 0
176 199 0
174 198 0
175 198 0
174 198 0
174 198 0
174 198 0
174 198 0
174 197 0
174 198 0
174 198 0
176 199 0
173 197 0
174 197 0
173 197 0
175 198 0
174 198 0
176 199 0
174 198 0
172 196 0
174 197 0
174 198 0
174 198 0
175 198 0
174 198 0
175 198 0
175 198 0
173 197 0
173 196 0
174 198 0
175 198 0
173 197 0
174 198 0
174 198 0
174 197 0
173 197 0
172 197 0
175 198 0
176 198 0
175 198 0
173 197 0
175 198 0
173 197 0
173 197 0
175 198 0
173 197 0
174 198 0
174 197 0
175 198 0
173 196 0
174 198 0
176 198 0
175 198 0
175 198 0
174 198 0
175 198 0
176 198 0
172 197 0
173 197 0
175 198 0
176 198 0
174 198 0
175 198 0
174 198 0
175 198 0
174 197 0
174 197 0
175 198 0
174 198 0
175 198 0
175 198 0
175 198 0
174 197 0
175 198 0
176 198 0
173 197 0
175 198 0
175 198 0
175 198 0
173 197 0
175 198 0
175 198 0
174 198 0
174 198 0
174 198 0
175 198 0
175 198 0
176 199 0
174 197 0
175 198 0
175 198 0
174 198 0
174 197 0
175 198 0
174 197 0
175 198 0
174 198 0
175 198 0
174 198 0
172 197 0
173 197 0
176 199 0
174 198 0
174 198 0
174 197 0
174 198 0
176 199 0
174 198 0
175 198 0
175 198 0
173 197 0
175 198 0
174 197 0
176 198 0
173 197 0
175 198 0
174 198 0
173 196 0
173 197 0
175 198 0
175 198 0
174 198 0
175 198 0
175 198 0
174 198 0
176 199 0
174 198 0
175 198 0
175 198 0
174 197 0
176 199 0
175 198 0
175 198 0
175 198 0
174 198 0
174 198 0
175 198 0
174 198 0
174 198 0
173 197 0
175 198 0
174 198 0
173 197 0
175 198 0
173 197 0
175 198 0
173 196 0
174 197 0
174 197 0
174 197 0
176 199 0
176 198 0
173 197 0
175 198 0
174 198 0
176 199 0
173 197 0
174 198 0
174 198 0
173 197 0
175 197 0
174 198 0
175 198 0
172 196 0
175 198 0
175 198 0
174 198 0
175 198 0
174 198 0
175 198 0
173 197 0
173 197 0
176 199 0
174 198 0
175 198 0
175 198 0
174 197 0
175 198 0
175 198 0
174 198 0
174 198 0
173 196 0
175 198 0
175 198 0
174 198 0
174 197 0
176 199 0
175 198 0
175 198 0
174 198 0
175 198 0
172 196 0
175 197 0
174 198 0
174 198 0
174 197 0
174 197 0
175 198 0
175 198 0
174 197 0
173 197 0
174 197 0
175 198 0
174 197 0
174 197 0
174 198 0
174 198 0
177 199 0
173 197 0
175 198 0
176 198 0
173 197 0
173 197 0
172 195 0
172 197 0
175 198 0
174 197 0
174 197 0
175 198 0
173 197 0
174 198 0
172 196 0
175 198 0
174 198 0
173 197 0
174 198 0
174 197 0
173 197 0
172 195 0
173 197 0
173 197 0
173 196 0
173 197 0
173 197 0
173 196 0
175 198 0
174 197 0
173 196 0
174 197 0
174 197 0
171 195 0
174 197 0
173 196 0
173 196 0
171 194 0
174 197 0
174 197 0
170 194 0
170 194 0
174 198 0
173 197 0
172 195 0
170 194 0
169 193 0
172 196 0
172 196 0
169 193 0
170 195 0
169 193 0
169 193 0
174 197 0
173 196 0
173 195 0
171 194 0
171 194 0
170 192 0
152 175 76
62 98 163
63 100 176
62 99 176
62 99 175
62 99 178
61 98 176
62 99 181
62 99 173
62 99 174
61 98 179
62 99 178
62 99 179
61 99 178
62 99 180
62 99 180
62 99 181
62 99 178
63 100 180
62 99 178
62 99 179
62 99 177
62 99 178
61 98 174
62 98 169
62 98 172
60 96 169
66 98 166
73 82 87
80 84 60
104 106 75
107 108 72
127 127 84
135 135 84
141 140 90
146 145 92
146 145 89
166 161 96
164 160 98
171 165 100
173 167 102
174 169 102
174 168 98
172 166 98
173 166 97
172 166 95
171 165 90
165 159 85
160 154 84
155 148 78
153 147 76
143 138 72
143 136 65
170 191 11
172 195 0
172 195 0
172 194 0
171 194 0
173 196 0
174 197 0
175 196 0
172 196 0
173 196 0
172 194 0
173 197 0
174 197 0
172 195 0
175 198 0
175 198 0
172 196 0
171 194 0
174 197 0
174 197 0
173 196 0
174 197 0
172 195 0
175 198 0
173 197 0
174 197 0
172 196 0
174 197 0
174 197 0
174 197 0
176 199 0
175 198 0
171 195 0
173 197 0
174 197 0
172 195 0
174 198 0
174 197 0
175 198 0
174 198 0
174 198 0
174 197 0
175 198 0
174 198 0
172 195 0
174 197 0
174 197 0
175 198 0
175 198 0
174 197 0
176 198 0
174 198 0
176 199 0
174 198 0
173 197 0
174 198 0
175 198 0
174 197 0
174 198 0
174 198 0
175 198 0
175 198 0
175 198 0
174 197 0
174 198 0
175 198 0
174 197 0
175 198 0
175 198 0
173 197 0
175 198 0
176 199 0
174 198 0
174 198 0
174 197 0
175 198 0
174 197 0
174 198 0
174 197 0
174 197 0
174 198 0
174 198 0
174 198 0
173 197 0
175 198 0
174 198 0
173 196 0
176 198 0
173 197 0
176 198 0
175 198 0
174 198 0
175 198 0
174 198 0
174 198 0
175 198 0
174 198 0
177 199 0
173 197 0
174 197 0
175 198 0
172 196 0
174 198 0
174 198 0
173 197 0
174 198 0
175 198 0
175 198 0
174 197 0
174 197 0
174 197 0
175 198 0
175 198 0
176 199 0
175 198 0
175 198 0
175 198 0
176 199 0
176 199 0
175 198 0
175 198 0
173 197 0
175 198 0
174 197 0
175 198 0
175 198 0
175 198 0
175 198 0
175 198 0
174 198 0
175 198 0
175 198 0
174 197 0
174 198 0
175 198 0
173 197 0
175 198 0
174 198 0
174 198 0
174 197 0
175 198 0
175 198 0
176 198 0
174 197 0
173 197 0
173 197 0
173 197 0
174 198 0
174 198 0
175 198 0
173 197 0
176 199 0
176 199 0
174 198 0
176 198 0
175 198 0
174 197 0
174 197 0
175 198 0
175 198 0
175 198 0
175 198 0
175 198 0
174 197 0
173 197 0
174 198 0
174 198 0
175 198 0
175 198 0
173 197 0
174 198 0
174 198 0
173 197 0
176 198 0
176 199 0
175 198 0
175 198 0
175 198 0
175 198 0
175 198 0
175 198 0
174 198 0
173 197 0
175 198 0
175 198 0
172 197 0
174 198 0
173 197 0
175 198 0
174 197 0
176 198 0
175 198 0
175 198 0
175 198 0
174 197 0
174 198 0
175 198 0
174 198 0
175 198 0
174 198 0
173 197 0
174 198 0
174 198 0
174 197 0
174 198 0
174 198 0
174 197 0
174 198 0
173 197 0
174 198 0
174 198 0
175 198 0
176 198 0
175 198 0
176 199 0
175 198 0
175 198 0
174 197 0
174 197 0
173 197 0
174 197 0
175 198 0
173 197 0
175 198 0
174 198 0
175 198 0
175 198 0
174 198 0
176 198 0
175 198 0
175 198 0
175 198 0
174 198 0
173 197 0
174 197 0
176 199 0
174 197 0
174 198 0
175 198 0
175 198 0
173 197 0
175 198 0
175 198 0
174 197 0
174 198 0
174 198 0
174 198 0
175 198 0
174 197 0
174 197 0
174 198 0
173 197 0
174 197 0
174 198 0
173 197 0
172 196 0
173 197 0
174 198 0
174 198 0
174 198 0
173 197 0
176 199 0
174 197 0
172 196 0
175 198 0
175 198 0
173 197 0
174 198 0
174 198 0
174 197 0
174 198 0
174 198 0
175 198 0
174 197 0
175 198 0
175 198 0
173 197 0
174 197 0
175 198 0
174 197 0
175 198 0
174 198 0
176 199 0
174 198 0
175 198 0
174 197 0
174 198 0
173 197 0
175 198 0
173 196 0
175 198 0
174 197 0
174 198 0
175 198 0
173 197 0
175 198 0
174 198 0
173 197 0
173 197 0
173 197 0
172 196 0
174 197 0
175 198 0
173 196 0
174 197 0
173 196 0
175 198 0
175 198 0
174 197 0
175 198 0
172 196 0
174 197 0
172 195 0
174 198 0
175 198 0
174 197 0
175 198 0
171 195 0
174 197 0
174 197 0
174 197 0
172 196 0
170 193 0
174 197 0
176 199 0
174 197 0
171 195 0
174 197 0
174 196 0
173 196 0
174 197 0
173 197 0
174 197 0
170 193 0
170 194 0
170 194 0
173 196 0
173 197 0
171 195 0
168 192 0
171 193 0
172 196 0
173 197 0
172 195 0
173 195 0
173 196 0
168 190 0
104 132 140
61 97 165
61 98 174
62 99 174
62 99 175
62 99 173
62 99 176
62 99 178
62 99 178
62 99 180
62 99 177
62 99 178
62 99 176
62 99 179
62 99 179
62 99 180
62 99 180
62 99 176
61 98 172
62 99 176
62 99 174
62 98 173
62 99 176
62 99 170
62 98 170
62 98 169
62 98 170
61 96 161
60 85 128
68 73 50
73 78 55
101 102 66
113 115 80
128 128 83
131 130 84
143 142 89
150 147 89
157 153 90
160 156 94
165 161 98
168 163 95
171 164 97
171 166 92
170 165 90
173 167 95
168 162 89
167 160 86
164 158 84
161 155 82
161 154 86
148 142 66
140 135 66
141 140 51
169 190 0
174 197 0
172 194 0
172 194 0
174 196 0
172 196 0
174 197 0
173 195 0
175 198 0
173 196 0
174 197 0
174 197 0
175 198 0
173 197 0
173 196 0
174 197 0
173 196 0
174 197 0
173 196 0
174 196 0
174 197 0
174 197 0
172 195 0
174 197 0
175 198 0
172 196 0
175 197 0
176 199 0
174 197 0
175 198 0
174 197 0
175 198 0
174 197 0
173 196 0
174 198 0
174 197 0
176 199 0
174 198 0
174 197 0
175 198 0
173 197 0
176 199 0
176 198 0
175 198 0
176 198 0
173 197 0
175 198 0
175 198 0
175 198 0
174 197 0
175 198 0
175 198 0
175 198 0
175 198 0
175 197 0
175 198 0
174 197 0
174 198 0
174 197 0
173 197 0
175 198 0
173 196 0
174 198 0
173 197 0
173 197 0
174 198 0
176 198 0
176 198 0
172 197 0
174 198 0
175 198 0
174 198 0
174 197 0
175 198 0
176 199 0
172 196 0
173 196 0
175 198 0
174 197 0
174 198 0
173 197 0
174 198 0
175 198 0
175 198 0
173 197 0
176 198 0
174 198 0
174 198 0
174 198 0
175 198 0
175 198 0
174 198 0
174 197 0
174 197 0
174 197 0
174 198 0
175 198 0
175 198 0
174 198 0
175 198 0
173 197 0
174 197 0
173 197 0
174 197 0
172 197 0
174 198 0
175 198 0
173 197 0
175 198 0
173 197 0
173 197 0
175 198 0
174 198 0
175 198 0
175 198 0
176 198 0
175 198 0
173 197 0
174 198 0
174 198 0
174 197 0
173 197 0
174 197 0
174 198 0
174 198 0
173 197 0
175 198 0
174 197 0
173 197 0
176 198 0
176 199 0
173 197 0
174 197 0
175 198 0
174 198 0
173 196 0
174 197 0
175 198 0
175 198 0
174 198 0
176 199 0
175 198 0
174 197 0
175 198 0
174 198 0
174 198 0
175 198 0
174 198 0
176 198 0
174 198 0
174 197 0
174 198 0
173 197 0
175 198 0
175 198 0
175 198 0
174 197 0
175 198 0
174 198 0
173 197 0
173 197 0
174 198 0
174 198 0
174 198 0
175 198 0
174 198 0
174 198 0
176 198 0
174 198 0
175 198 0
174 197 0
175 198 0
174 198 0
176 199 0
175 198 0
174 198 0
173 197 0
174 198 0
174 198 0
174 198 0
174 198 0
174 197 0
174 197 0
175 198 0
174 198 0
174 198 0
174 198 0
175 198 0
173 197 0
174 198 0
176 198 0
175 198 0
176 198 0
174 198 0
173 197 0
175 198 0
174 198 0
174 198 0
176 198 0
175 198 0
175 198 0
175 198 0
174 198 0
171 196 0
175 198 0
173 197 0
176 198 0
174 198 0
174 197 0
174 197 0
175 198 0
176 198 0
176 199 0
175 198 0
174 197 0
175 198 0
174 197 0
173 197 0
174 198 0
174 198 0
173 197 0
173 197 0
175 198 0
175 198 0
173 197 0
173 197 0
175 198 0
175 198 0
174 198 0
175 198 0
175 198 0
174 198 0
175 198 0
174 197 0
175 198 0
174 197 0
176 198 0
172 197 0
173 197 0
175 198 0
176 199 0
175 198 0
174 198 0
174 197 0
173 197 0
174 198 0
173 197 0
173 197 0
173 197 0
172 196 0
175 198 0
173 197 0
175 198 0
175 198 0
174 198 0
175 198 0
176 199 0
175 198 0
172 196 0
175 198 0
173 197 0
173 197 0
175 198 0
173 197 0
173 197 0
174 198 0
174 198 0
175 198 0
174 198 0
173 197 0
175 198 0
174 198 0
173 197 0
174 197 0
174 197 0
175 198 0
174 198 0
175 198 0
175 197 0
175 198 0
175 198 0
172 196 0
173 197 0
174 198 0
172 196 0
172 196 0
175 198 0
175 198 0
174 198 0
173 197 0
176 199 0
176 199 0
175 198 0
174 198 0
173 197 0
173 197 0
171 195 0
172 197 0
174 198 0
174 197 0
175 198 0
173 197 0
173 196 0
172 196 0
174 197 0
175 198 0
174 198 0
174 197 0
175 198 0
173 196 0
173 197 0
175 198 0
172 196 0
174 197 0
173 197 0
172 195 0
172 196 0
173 196 0
175 198 0
174 197 0
171 195 0
171 195 0
174 198 0
172 195 0
174 197 0
173 196 0
173 197 0
172 195 0
172 195 0
175 198 0
171 195 0
172 195 0
173 196 0
173 196 0
174 197 0
174 197 0
171 194 0
169 192 0
170 193 0
171 194 0
166 189 0
170 194 0
171 195 0
169 193 0
170 194 0
166 190 0
156 179 70
62 98 165
62 99 171
62 99 173
63 99 175
62 99 170
62 98 170
62 99 175
62 99 174
62 98 174
62 99 177
62 99 178
63 100 178
62 99 178
61 99 179
62 99 178
62 99 177
63 99 174
62 99 174
62 99 174
62 99 173
62 99 174
61 97 167
62 98 172
62 99 173
63 99 175
62 98 169
62 98 173
62 98 169
61 94 151
51 64 75
68 73 51
86 91 63
101 102 68
114 114 70
130 127 77
131 130 74
148 145 82
163 158 93
166 160 93
167 161 92
169 163 93
165 159 80
173 167 91
171 164 90
163 158 83
171 163 92
164 157 87
161 155 77
159 152 76
149 143 75
152 145 73
148 143 65
139 142 49
173 195 0
172 193 0
174 197 0
172 194 0
173 196 0
173 196 0
174 196 0
175 196 0
174 197 0
173 196 0
173 196 0
174 197 0
172 195 0
176 198 0
174 196 0
174 197 0
172 195 0
173 196 0
174 197 0
173 196 0
173 196 0
173 197 0
175 198 0
173 196 0
174 198 0
176 198 0
172 196 0
174 197 0
174 197 0
175 198 0
174 197 0
174 197 0
171 196 0
175 198 0
175 197 0
174 197 0
174 197 0
176 199 0
174 197 0
173 197 0
173 197 0
174 198 0
175 197 0
173 196 0
174 197 0
174 197 0
175 198 0
174 198 0
175 198 0
174 197 0
175 198 0
175 198 0
172 197 0
175 198 0
173 197 0
174 198 0
175 198 0
175 198 0
175 198 0
173 197 0
175 198 0
175 198 0
175 198 0
175 198 0
173 196 0
176 198 0
173 197 0
175 197 0
174 197 0
173 197 0
173 197 0
175 198 0
175 198 0
174 198 0
174 198 0
173 197 0
174 198 0
175 198 0
174 197 0
175 198 0
175 198 0
172 196 0
175 198 0
174 198 0
174 198 0
174 197 0
175 198 0
175 198 0
174 198 0
174 197 0
174 198 0
174 197 0
175 198 0
174 198 0
177 199 0
175 198 0
176 199 0
175 198 0
175 198 0
176 198 0
173 197 0
174 198 0
173 197 0
174 198 0
174 198 0
176 198 0
176 199 0
174 198 0
174 198 0
174 197 0
173 197 0
173 197 0
173 197 0
175 198 0
173 197 0
175 198 0
174 198 0
173 197 0
174 197 0
174 198 0
173 197 0
175 198 0
174 197 0
174 197 0
174 198 0
173 197 0
174 198 0
174 197 0
173 197 0
173 197 0
175 198 0
175 198 0
174 198 0
175 198 0
175 198 0
173 197 0
173 197 0
175 198 0
174 198 0
176 199 0
174 198 0
174 198 0
174 197 0
174 198 0
175 198 0
176 198 0
174 198 0
175 198 0
174 198 0
175 198 0
175 198 0
174 197 0
174 198 0
175 198 0
174 197 0
173 197 0
174 198 0
174 197 0
174 197 0
177 199 0
175 198 0
175 198 0
173 197 0
174 198 0
174 198 0
175 198 0
175 198 0
175 198 0
174 198 0
174 198 0
175 198 0
175 198 0
175 198 0
174 197 0
176 199 0
173 197 0
176 199 0
174 198 0
174 197 0
174 198 0
175 198 0
175 198 0
173 197 0
175 197 0
176 199 0
174 198 0
173 196 0
173 197 0
176 199 0
173 197 0
174 198 0
173 197 0
176 198 0
172 197 0
173 197 0
175 198 0
174 197 0
176 199 0
174 198 0
175 198 0
174 198 0
174 197 0
175 198 0
174 197 0
177 199 0
174 198 0
175 198 0
174 197 0
175 198 0
174 197 0
174 198 0
174 198 0
174 198 0
175 198 0
174 197 0
175 198 0
175 198 0
174 198 0
175 198 0
175 198 0
174 197 0
176 199 0
175 198 0
173 197 0
175 198 0
174 197 0
176 199 0
174 198 0
176 199 0
173 197 0
175 198 0
174 197 0
175 198 0
176 198 0
175 198 0
175 198 0
175 198 0
176 198 0
175 198 0
174 197 0
174 198 0
173 197 0
174 198 0
175 198 0
174 198 0
174 198 0
173 197 0
174 197 0
174 198 0
175 198 0
173 197 0
174 198 0
174 197 0
174 197 0
174 198 0
174 198 0
175 198 0
174 198 0
174 198 0
177 199 0
174 197 0
175 198 0
174 197 0
175 198 0
174 198 0
177 199 0
175 198 0
174 197 0
174 198 0
174 198 0
173 197 0
173 197 0
173 197 0
174 198 0
173 197 0
174 197 0
175 198 0
175 198 0
172 197 0
175 198 0
175 198 0
174 197 0
174 197 0
174 197 0
174 197 0
176 199 0
175 198 0
175 198 0
173 197 0
175 198 0
173 197 0
174 197 0
174 198 0
175 198 0
173 197 0
174 197 0
175 198 0
175 198 0
173 197 0
174 197 0
173 196 0
174 197 0
174 198 0
174 198 0
174 197 0
176 199 0
174 198 0
174 197 0
172 196 0
173 197 0
173 197 0
173 197 0
173 197 0
173 197 0
175 198 0
176 199 0
170 194 0
172 195 0
175 198 0
172 196 0
173 197 0
173 196 0
173 196 0
173 196 0
175 198 0
170 193 0
172 196 0
171 196 0
175 197 0
170 194 0
173 196 0
172 195 0
172 196 0
172 195 0
173 196 0
168 193 0
173 196 0
171 194 0
172 195 0
174 197 0
170 193 0
170 193 0
173 195 0
169 193 0
168 191 0
168 191 0
119 145 120
62 98 164
62 98 167
61 97 163
61 98 165
62 99 173
63 99 173
62 99 174
62 99 175
62 99 177
62 99 175
62 99 172
62 99 176
62 99 178
62 99 176
63 99 175
62 99 175
62 99 173
62 99 172
62 99 173
63 99 173
63 99 171
62 99 171
62 99 174
62 98 170
62 98 169
61 98 168
62 98 168
61 97 160
62 96 157
54 75 109
56 63 44
70 76 42
93 94 58
109 110 62
118 117 67
137 134 72
143 139 78
152 148 85
158 154 79
165 160 89
167 161 89
168 161 85
170 163 85
168 161 80
158 153 77
164 158 81
165 159 83
158 152 74
157 150 75
154 147 70
141 135 66
131 125 56
152 164 32
170 190 0
171 193 0
170 193 0
172 193 0
173 195 0
171 194 0
172 194 0
171 194 0
172 195 0
173 196 0
174 196 0
173 195 0
174 197 0
173 195 0
173 195 0
175 197 0
173 197 0
175 198 0
174 197 0
172 195 0
173 197 0
172 196 0
173 196 0
173 196 0
172 196 0
173 196 0
173 196 0
173 197 0
174 196 0
175 198 0
174 197 0
174 197 0
174 196 0
174 197 0
174 198 0
174 198 0
175 198 0
173 197 0
174 198 0
172 196 0
174 198 0
175 198 0
173 197 0
176 199 0
175 198 0
174 197 0
175 198 0
174 197 0
173 197 0
174 198 0
175 198 0
177 199 0
174 198 0
175 198 0
175 198 0
174 198 0
174 198 0
175 198 0
174 198 0
173 196 0
175 198 0
175 198 0
176 198 0
175 198 0
173 197 0
173 196 0
175 198 0
174 198 0
175 198 0
174 197 0
176 199 0
173 197 0
173 197 0
174 198 0
174 198 0
175 198 0
174 198 0
176 198 0
175 198 0
175 198 0
174 197 0
175 198 0
176 199 0
175 198 0
175 198 0
174 198 0
175 198 0
174 198 0
174 197 0
173 197 0
175 198 0
173 197 0
174 197 0
174 198 0
177 199 0
174 198 0
175 198 0
176 198 0
176 198 0
173 197 0
175 198 0
174 198 0
173 197 0
174 198 0
174 198 0
175 198 0
174 198 0
174 198 0
173 197 0
175 198 0
176 198 0
175 198 0
175 198 0
174 198 0
175 198 0
175 198 0
174 198 0
174 198 0
175 198 0
174 197 0
176 199 0
173 197 0
174 198 0
174 198 0
176 199 0
176 199 0
174 198 0
174 198 0
176 199 0
175 198 0
174 197 0
174 197 0
175 198 0
175 198 0
174 198 0
173 197 0
174 198 0
173 197 0
173 197 0
175 198 0
173 197 0
177 199 0
175 198 0
174 198 0
175 198 0
174 198 0
173 197 0
175 198 0
174 198 0
174 197 0
175 198 0
174 198 0
175 198 0
174 198 0
174 198 0
176 198 0
175 198 0
174 198 0
175 198 0
174 197 0
175 198 0
172 196 0
174 198 0
173 197 0
175 198 0
173 197 0
176 198 0
173 197 0
175 198 0
174 197 0
176 199 0
176 198 0
174 198 0
175 198 0
174 198 0
175 198 0
174 198 0
175 197 0
175 198 0
174 198 0
175 198 0
174 198 0
175 198 0
174 198 0
175 198 0
174 198 0
176 199 0
174 197 0
175 198 0
174 197 0
175 198 0
175 198 0
172 196 0
175 198 0
175 198 0
173 197 0
174 198 0
174 198 0
174 197 0
176 198 0
172 196 0
174 198 0
173 197 0
174 198 0
174 198 0
174 198 0
175 198 0
174 198 0
174 198 0
174 198 0
174 198 0
175 198 0
176 198 0
175 198 0
174 198 0
176 198 0
176 199 0
173 197 0
174 197 0
175 198 0
174 198 0
173 197 0
174 197 0
175 198 0
175 198 0
175 198 0
174 198 0
174 198 0
175 198 0
175 198 0
174 198 0
176 199 0
175 198 0
175 198 0
174 198 0
173 197 0
174 198 0
176 199 0
176 198 0
175 198 0
174 197 0
174 198 0
175 198 0
175 198 0
175 198 0
175 198 0
173 197 0
174 197 0
173 197 0
173 197 0
175 198 0
174 198 0
174 198 0
172 197 0
172 197 0
173 197 0
176 199 0
174 197 0
174 197 0
175 198 0
175 198 0
175 198 0
172 196 0
173 197 0
175 198 0
174 198 0
174 197 0
174 198 0
175 198 0
174 198 0
173 197 0
175 198 0
175 198 0
174 198 0
174 198 0
173 196 0
172 197 0
175 198 0
176 198 0
174 197 0
172 197 0
174 198 0
176 198 0
173 197 0
175 198 0
173 197 0
175 198 0
171 195 0
174 198 0
172 196 0
174 197 0
173 197 0
174 197 0
172 196 0
175 198 0
174 197 0
174 198 0
173 197 0
175 198 0
173 197 0
172 197 0
174 197 0
173 197 0
174 197 0
173 197 0
173 197 0
175 198 0
174 198 0
173 196 0
172 196 0
173 197 0
174 198 0
173 197 0
172 195 0
173 196 0
173 196 0
174 197 0
172 195 0
172 196 0
173 197 0
172 196 0
172 195 0
170 194 0
173 197 0
173 197 0
174 197 0
174 197 0
171 195 0
174 197 0
173 196 0
172 196 0
175 198 0
172 196 0
172 196 0
172 196 0
170 193 0
169 193 0
172 195 0
172 196 0
173 197 0
166 189 0
169 193 0
167 191 0
168 193 0
168 192 0
172 195 0
83 114 147
61 98 166
62 98 169
62 99 173
61 98 170
62 99 173
62 98 172
62 99 173
62 98 170
62 99 175
62 99 176
62 99 178
62 99 174
62 99 173
62 98 172
62 98 167
62 98 173
62 98 173
62 99 172
62 98 170
62 99 173
62 99 172
62 99 172
63 99 169
62 98 167
63 98 166
63 99 170
61 97 169
62 97 162
61 96 159
54 84 133
51 57 31
77 80 35
91 94 52
102 103 57
126 124 68
132 130 72
138 135 69
144 141 71
157 152 79
162 157 88
160 155 75
163 156 80
166 159 78
166 160 80
164 158 77
164 157 77
159 154 73
153 147 71
150 143 64
142 137 61
139 133 60
127 121 54
168 187 11
171 192 0
167 188 0
171 192 0
166 188 0
173 196 0
173 196 0
173 195 0
171 195 0
173 194 0
174 197 0
173 196 0
172 194 0
172 195 0
174 196 0
175 197 0
172 195 0
171 193 0
172 196 0
174 197 0
173 196 0
175 198 0
172 197 0
174 198 0
174 198 0
174 197 0
171 194 0
173 196 0
173 197 0
171 195 0
176 198 0
174 197 0
173 196 0
173 197 0
175 198 0
173 197 0
175 198 0
175 198 0
176 199 0
174 198 0
175 198 0
175 198 0
175 198 0
173 197 0
174 198 0
175 198 0
174 198 0
172 196 0
176 199 0
175 198 0
174 197 0
174 198 0
174 197 0
175 198 0
175 198 0
175 198 0
173 196 0
175 198 0
175 198 0
174 198 0
173 197 0
173 197 0
175 198 0
174 198 0
174 198 0
174 198 0
174 197 0
174 198 0
175 198 0
174 198 0
174 198 0
173 197 0
175 198 0
173 197 0
174 198 0
175 198 0
175 198 0
175 198 0
175 198 0
175 198 0
175 198 0
173 197 0
174 198 0
175 198 0
174 197 0
174 198 0
174 198 0
175 198 0
175 198 0
174 197 0
173 197 0
175 198 0
174 197 0
174 197 0
174 198 0
174 198 0
174 198 0
176 198 0
174 197 0
174 197 0
175 198 0
175 198 0
176 199 0
174 197 0
174 198 0
174 198 0
175 198 0
175 198 0
173 197 0
174 197 0
174 197 0
173 197 0
174 198 0
175 198 0
175 198 0
174 198 0
174 197 0
174 198 0
174 197 0
175 198 0
174 198 0
175 198 0
175 198 0
173 197 0
175 198 0
174 198 0
174 197 0
173 197 0
175 198 0
174 198 0
174 197 0
173 197 0
173 197 0
175 198 0
176 199 0
175 198 0
173 197 0
174 198 0
175 198 0
174 198 0
174 198 0
174 198 0
175 198 0
175 198 0
174 198 0
173 197 0
175 198 0
175 198 0
173 197 0
176 199 0
175 198 0
174 198 0
173 197 0
174 197 0
174 198 0
177 199 0
176 199 0
175 198 0
175 198 0
176 199 0
176 199 0
174 198 0
174 198 0
173 197 0
174 198 0
176 199 0
175 198 0
174 198 0
174 198 0
175 198 0
174 198 0
175 198 0
173 197 0
174 197 0
174 198 0
172 196 0
175 198 0
176 198 0
175 198 0
174 198 0
174 198 0
174 198 0
175 198 0
177 199 0
174 197 0
174 198 0
173 197 0
174 197 0
175 198 0
176 199 0
174 197 0
173 197 0
174 198 0
175 198 0
175 198 0
173 197 0
173 197 0
177 199 0
173 197 0
173 197 0
174 197 0
174 198 0
174 197 0
175 198 0
174 197 0
174 197 0
175 198 0
176 198 0
174 198 0
174 198 0
175 198 0
175 198 0
173 197 0
175 198 0
174 198 0
173 197 0
175 198 0
173 197 0
174 198 0
174 197 0
173 197 0
175 198 0
176 199 0
173 197 0
175 198 0
175 198 0
175 198 0
174 198 0
175 198 0
174 197 0
175 198 0
175 198 0
174 198 0
175 198 0
174 197 0
175 198 0
175 198 0
175 198 0
176 199 0
176 198 0
174 198 0
175 198 0
173 197 0
174 198 0
174 198 0
174 198 0
174 197 0
174 198 0
176 199 0
173 197 0
176 199 0
175 198 0
174 197 0
175 198 0
175 198 0
174 198 0
173 197 0
175 198 0
174 198 0
173 196 0
176 198 0
174 198 0
174 197 0
175 198 0
175 198 0
174 197 0
173 197 0
175 198 0
173 197 0
175 198 0
174 198 0
174 198 0
176 199 0
174 197 0
176 198 0
173 197 0
174 198 0
175 198 0
173 197 0
175 198 0
175 198 0
174 197 0
175 198 0
175 198 0
174 198 0
175 198 0
175 198 0
175 198 0
171 195 0
173 197 0
174 198 0
174 197 0
173 197 0
173 197 0
175 198 0
174 197 0
174 198 0
172 196 0
173 197 0
172 196 0
173 197 0
173 197 0
176 198 0
174 198 0
174 197 0
172 196 0
175 197 0
174 197 0
173 197 0
173 197 0
174 197 0
175 198 0
172 196 0
175 198 0
172 196 0
175 198 0
175 198 0
174 197 0
174 197 0
171 196 0
172 196 0
174 196 0
174 197 0
174 197 0
173 196 0
173 197 0
176 198 0
172 196 0
173 196 0
172 195 0
173 197 0
171 195 0
172 196 0
173 196 0
173 197 0
171 194 0
172 196 0
175 197 0
173 196 0
172 196 0
170 193 0
167 192 0
170 193 0
170 194 0
170 193 0
167 189 0
152 175 40
61 97 159
61 97 158
63 99 173
62 98 166
62 99 173
63 99 174
62 99 172
61 98 172
62 98 171
62 99 171
62 99 173
62 98 170
63 99 174
62 99 171
62 99 173
62 99 172
62 98 170
62 98 170
62 98 168
62 99 173
63 99 175
62 98 168
62 99 170
63 99 168
62 98 161
62 98 169
61 97 161
61 98 161
61 96 160
61 96 151
59 93 151
64 70 39
73 75 32
80 84 30
102 102 50
128 127 63
137 133 66
144 141 65
156 150 79
145 141 72
162 154 81
160 154 76
161 155 77
157 152 65
163 157 77
163 156 73
159 153 65
155 148 69
143 138 58
143 138 49
142 136 53
144 138 58
149 156 32
167 188 0
171 193 0
172 192 0
167 188 0
169 191 0
170 192 0
173 195 0
170 192 0
173 194 0
172 195 0
174 197 0
171 194 0
170 192 0
173 196 0
171 193 0
171 194 0
173 196 0
174 197 0
174 196 0
171 195 0
171 194 0
172 196 0
172 196 0
174 196 0
176 198 0
175 198 0
175 198 0
173 196 0
176 198 0
175 198 0
174 198 0
173 196 0
173 197 0
172 196 0
174 197 0
174 197 0
174 197 0
173 197 0
173 197 0
174 198 0
176 198 0
174 197 0
173 197 0
175 198 0
174 197 0
173 197 0
174 197 0
172 196 0
175 198 0
174 197 0
174 197 0
176 198 0
176 198 0
173 197 0
174 198 0
174 197 0
175 198 0
176 198 0
174 198 0
173 197 0
173 197 0
175 198 0
174 198 0
176 198 0
176 199 0
175 198 0
176 198 0
175 198 0
174 198 0
175 198 0
175 198 0
174 197 0
174 197 0
174 197 0
174 197 0
174 198 0
175 198 0
174 197 0
174 197 0
176 198 0
174 197 0
174 198 0
174 198 0
174 197 0
172 197 0
176 199 0
176 198 0
176 199 0
175 198 0
173 196 0
173 197 0
173 197 0
173 197 0
174 197 0
173 197 0
175 198 0
174 198 0
174 198 0
177 199 0
174 198 0
175 198 0
175 198 0
176 198 0
176 199 0
175 198 0
175 198 0
175 198 0
175 198 0
174 198 0
174 198 0
174 198 0
173 197 0
174 197 0
175 198 0
173 197 0
174 198 0
174 198 0
174 198 0
175 198 0
173 196 0
174 198 0
175 198 0
175 198 0
174 198 0
174 198 0
175 198 0
174 198 0
175 198 0
176 199 0
175 198 0
174 198 0
175 198 0
177 199 0
174 198 0
175 198 0
174 197 0
175 198 0
174 198 0
175 198 0
176 199 0
173 197 0
175 198 0
173 197 0
174 198 0
175 198 0
174 198 0
174 198 0
174 198 0
175 198 0
174 197 0
175 198 0
176 199 0
175 198 0
173 197 0
174 197 0
176 199 0
174 198 0
176 199 0
176 199 0
174 197 0
175 198 0
175 198 0
174 198 0
174 197 0
175 198 0
175 198 0
173 197 0
175 198 0
175 198 0
173 197 0
174 198 0
176 198 0
174 197 0
174 198 0
175 198 0
175 198 0
174 197 0
175 198 0
174 197 0
173 197 0
174 197 0
174 198 0
174 198 0
175 198 0
175 198 0
173 197 0
174 198 0
174 197 0
174 198 0
172 196 0
174 197 0
174 198 0
174 198 0
174 197 0
174 198 0
176 199 0
175 198 0
174 198 0
175 198 0
175 198 0
174 197 0
174 198 0
174 198 0
174 198 0
174 197 0
174 198 0
175 198 0
175 198 0
171 195 0
175 198 0
175 198 0
174 197 0
174 198 0
175 198 0
173 197 0
175 198 0
174 198 0
174 198 0
176 199 0
175 198 0
174 197 0
173 197 0
176 198 0
175 198 0
174 198 0
175 198 0
174 198 0
174 197 0
174 198 0
174 198 0
174 198 0
172 197 0
174 198 0
175 198 0
173 197 0
176 199 0
173 197 0
174 198 0
174 197 0
175 198 0
175 198 0
175 198 0
174 198 0
176 199 0
174 198 0
174 198 0
175 198 0
175 198 0
174 198 0
176 199 0
175 198 0
173 197 0
174 198 0
175 198 0
174 198 0
173 197 0
174 198 0
173 197 0
174 198 0
175 198 0
175 198 0
175 198 0
174 197 0
174 197 0
176 198 0
174 197 0
171 196 0
175 198 0
174 198 0
175 198 0
173 197 0
175 198 0
174 198 0
173 197 0
173 197 0
173 197 0
174 197 0
176 199 0
174 198 0
174 198 0
173 197 0
174 198 0
173 197 0
175 198 0
174 198 0
171 196 0
172 196 0
173 197 0
174 197 0
175 198 0
175 197 0
174 197 0
173 197 0
174 197 0
176 198 0
173 196 0
173 197 0
173 197 0
174 198 0
173 196 0
173 197 0
173 197 0
175 198 0
176 198 0
171 195 0
173 196 0
174 198 0
175 197 0
175 198 0
172 196 0
173 197 0
173 197 0
175 198 0
173 197 0
173 196 0
173 197 0
173 197 0
172 196 0
172 195 0
175 198 0
174 197 0
171 194 0
174 197 0
173 196 0
171 195 0
173 196 0
170 195 0
173 197 0
173 196 0
173 196 0
172 195 0
170 193 0
168 191 0
167 191 0
169 192 0
169 193 0
170 193 0
170 193 0
167 190 0
173 196 0
169 191 0
172 195 0
168 191 0
165 187 0
173 196 0
163 185 0
155 180 74
61 97 156
63 99 169
61 97 162
61 98 164
62 98 162
62 98 165
62 98 164
62 99 172
62 99 172
61 98 166
63 99 170
61 98 168
62 99 171
62 99 173
62 98 170
62 98 171
62 99 174
63 99 173
62 99 170
62 98 167
62 99 173
61 98 168
62 99 168
63 99 171
62 98 160
63 99 164
62 98 163
62 98 163
62 98 166
61 96 154
58 92 138
68 76 74
75 78 27
97 98 40
108 108 50
119 118 56
123 121 56
140 136 61
141 137 66
146 140 74
144 139 58
154 149 62
156 151 69
155 149 65
155 148 65
158 151 64
155 148 61
159 152 61
150 143 62
134 129 47
126 122 42
127 123 30
166 183 16
171 191 0
170 191 0
170 191 0
164 183 0
168 189 0
172 194 0
167 188 0
170 192 0
171 194 0
174 197 0
171 192 0
169 191 0
174 196 0
171 194 0
173 196 0
173 195 0
173 195 0
172 196 0
174 197 0
173 196 0
172 196 0
173 196 0
173 195 0
173 197 0
172 194 0
173 196 0
175 197 0
174 197 0
174 197 0
174 198 0
172 196 0
173 197 0
175 198 0
174 197 0
173 197 0
173 196 0
174 196 0
175 198 0
174 197 0
175 198 0
174 197 0
175 198 0
174 197 0
173 197 0
174 198 0
173 197 0
176 199 0
173 196 0
174 198 0
174 198 0
174 197 0
173 197 0
173 197 0
174 197 0
175 198 0
174 197 0
175 198 0
173 197 0
174 198 0
174 197 0
173 197 0
175 198 0
175 198 0
174 197 0
173 197 0
175 198 0
171 195 0
174 198 0
175 198 0
173 196 0
175 198 0
176 198 0
173 197 0
175 198 0
174 198 0
175 198 0
174 197 0
174 197 0
174 197 0
174 197 0
174 197 0
174 198 0
173 197 0
175 198 0
175 198 0
174 197 0
173 197 0
174 198 0
175 198 0
176 199 0
175 198 0
175 198 0
174 198 0
172 196 0
174 197 0
175 198 0
174 198 0
175 198 0
174 198 0
174 198 0
172 197 0
173 197 0
174 198 0
173 197 0
175 198 0
174 198 0
175 198 0
173 197 0
175 198 0
174 198 0
175 198 0
174 198 0
174 198 0
174 198 0
174 197 0
175 198 0
176 199 0
174 198 0
176 199 0
174 198 0
174 198 0
175 198 0
175 198 0
175 198 0
175 198 0
174 197 0
174 197 0
174 198 0
173 197 0
174 198 0
172 196 0
175 198 0
174 197 0
175 198 0
174 198 0
175 198 0
174 198 0
175 198 0
176 199 0
174 198 0
173 197 0
174 197 0
173 197 0
173 197 0
175 198 0
174 197 0
174 198 0
175 198 0
174 197 0
175 198 0
175 198 0
173 197 0
175 198 0
174 198 0
176 198 0
173 197 0
175 198 0
174 198 0
175 198 0
175 198 0
174 197 0
176 199 0
174 198 0
174 198 0
174 198 0
175 198 0
176 199 0
174 198 0
174 198 0
175 198 0
175 198 0
175 198 0
175 198 0
175 198 0
173 197 0
177 199 0
175 198 0
175 198 0
174 197 0
174 198 0
173 197 0
175 198 0
173 197 0
174 198 0
174 198 0
174 198 0
175 198 0
172 197 0
175 198 0
174 198 0
176 198 0
175 198 0
175 198 0
174 197 0
176 199 0
176 198 0
175 198 0
174 198 0
174 198 0
173 197 0
174 198 0
172 197 0
173 197 0
174 197 0
173 197 0
174 198 0
174 197 0
174 197 0
174 197 0
174 197 0
173 197 0
174 197 0
175 198 0
173 197 0
175 198 0
173 197 0
174 197 0
175 198 0
176 199 0
174 198 0
175 198 0
175 198 0
176 199 0
173 197 0
174 197 0
174 197 0
173 197 0
175 198 0
175 198 0
175 198 0
174 198 0
176 199 0
175 198 0
174 198 0
176 199 0
175 198 0
172 196 0
175 198 0
173 197 0
173 197 0
176 198 0
174 198 0
174 197 0
171 196 0
175 198 0
174 198 0
176 199 0
172 196 0
174 198 0
175 198 0
176 198 0
174 197 0
174 198 0
173 197 0
174 198 0
174 197 0
175 198 0
174 198 0
174 198 0
173 197 0
174 198 0
175 198 0
174 198 0
174 197 0
174 198 0
175 198 0
174 197 0
174 197 0
173 197 0
174 197 0
172 196 0
173 197 0
174 198 0
174 197 0
175 198 0
172 196 0
176 199 0
176 198 0
174 198 0
174 198 0
175 198 0
175 198 0
174 197 0
173 197 0
173 196 0
174 198 0
174 197 0
173 196 0
172 196 0
174 198 0
175 198 0
175 198 0
172 196 0
174 198 0
175 198 0
175 198 0
175 198 0
172 196 0
175 197 0
174 198 0
173 196 0
174 197 0
175 197 0
170 194 0
175 198 0
173 196 0
175 198 0
172 196 0
173 197 0
173 196 0
174 197 0
173 197 0
175 197 0
173 197 0
174 197 0
173 196 0
173 196 0
172 196 0
174 197 0
174 197 0
172 195 0
171 195 0
171 194 0
171 194 0
173 196 0
174 197 0
171 195 0
173 196 0
172 196 0
169 193 0
173 196 0
170 194 0
172 196 0
174 197 0
169 192 0
166 190 0
172 195 0
172 195 25
168 192 36
169 192 0
174 195 36
167 190 0
166 190 0
168 191 0
167 189 0
167 189 0
137 161 88
61 96 152
61 97 158
62 98 162
62 98 164
62 98 167
60 96 156
62 98 167
62 98 163
62 98 169
62 98 163
62 99 170
62 98 168
62 98 169
62 98 169
63 100 175
62 98 164
62 99 171
62 98 169
62 98 166
62 99 171
61 98 166
61 97 159
62 98 161
62 98 158
63 100 174
62 98 160
61 97 160
62 98 164
62 98 159
60 95 156
61 95 154
71 79 69
78 80 20
80 81 22
103 103 42
111 110 41
124 123 46
134 131 57
138 134 57
142 138 50
148 143 61
148 143 56
157 151 68
153 147 60
149 144 59
152 146 61
152 145 64
140 134 51
145 140 41
134 129 49
133 128 39
149 159 25
170 190 0
167 186 0
168 188 0
170 190 0
168 187 0
169 188 0
171 194 0
171 192 0
169 192 0
170 192 0
170 191 0
173 195 0
173 195 0
171 194 0
172 195 0
173 196 0
173 196 0
171 193 0
173 195 0
172 195 0
173 196 0
174 198 0
174 197 0
172 195 0
172 195 0
173 197 0
173 197 0
171 195 0
174 197 0
172 196 0
170 194 0
174 197 0
173 196 0
174 198 0
174 198 0
174 197 0
173 197 0
174 197 0
175 198 0
174 197 0
174 198 0
174 197 0
174 198 0
173 197 0
174 197 0
173 197 0
176 198 0
174 197 0
173 197 0
175 198 0
175 198 0
174 198 0
174 197 0
172 197 0
175 197 0
174 197 0
176 198 0
173 197 0
175 198 0
174 197 0
173 197 0
174 198 0
174 198 0
173 197 0
174 198 0
175 198 0
175 198 0
173 197 0
176 198 0
174 197 0
175 198 0
174 197 0
173 197 0
176 199 0
173 197 0
174 198 0
176 198 0
175 198 0
174 197 0
174 198 0
173 197 0
175 198 0
175 198 0
175 198 0
176 199 0
175 198 0
174 198 0
174 198 0
174 197 0
173 197 0
176 198 0
175 198 0
174 197 0
175 198 0
175 198 0
174 198 0
173 197 0
175 198 0
176 198 0
174 198 0
174 197 0
172 196 0
174 198 0
173 197 0
175 198 0
174 197 0
173 197 0
177 199 0
174 198 0
175 198 0
174 197 0
175 198 0
174 197 0
173 197 0
175 198 0
175 198 0
174 198 0
175 198 0
174 198 0
175 198 0
176 199 0
174 197 0
174 197 0
174 198 0
174 198 0
174 198 0
177 199 0
175 198 0
173 197 0
175 198 0
173 197 0
174 198 0
175 198 0
173 197 0
174 198 0
174 198 0
174 198 0
175 198 0
175 198 0
173 197 0
175 198 0
176 198 0
175 198 0
174 197 0
174 198 0
174 198 0
174 198 0
175 198 0
175 198 0
174 198 0
175 198 0
175 198 0
177 199 0
174 198 0
175 198 0
174 198 0
174 198 0
175 198 0
175 198 0
173 197 0
176 198 0
174 198 0
173 197 0
173 197 0
174 198 0
174 198 0
175 198 0
175 198 0
175 198 0
175 198 0
175 198 0
173 197 0
176 199 0
176 199 0
175 198 0
175 198 0
173 197 0
174 198 0
175 198 0
174 197 0
174 197 0
175 198 0
174 197 0
174 197 0
174 198 0
175 198 0
174 198 0
174 198 0
173 197 0
173 197 0
174 198 0
174 198 0
175 198 0
176 199 0
176 199 0
175 198 0
174 198 0
174 198 0
173 197 0
175 198 0
174 197 0
174 198 0
174 198 0
173 197 0
174 198 0
176 199 0
176 199 0
174 198 0
174 198 0
174 198 0
174 198 0
173 197 0
175 198 0
174 198 0
174 198 0
173 197 0
173 197 0
174 198 0
175 198 0
174 198 0
172 196 0
174 198 0
174 198 0
174 198 0
176 198 0
174 198 0
173 197 0
173 197 0
175 198 0
175 198 0
174 198 0
175 197 0
175 198 0
174 197 0
174 198 0
174 197 0
175 198 0
174 198 0
175 198 0
175 198 0
178 199 0
177 199 0
175 198 0
173 196 0
175 198 0
174 198 0
175 198 0
173 196 0
175 198 0
175 198 0
173 197 0
175 198 0
174 197 0
174 198 0
175 198 0
174 198 0
174 198 0
174 198 0
174 197 0
175 198 0
175 198 0
174 198 0
176 199 0
173 197 0
175 198 0
174 198 0
173 197 0
174 197 0
174 198 0
175 198 0
175 198 0
175 198 0
175 198 0
174 198 0
173 197 0
175 198 0
173 197 0
175 198 0
173 197 0
175 198 0
173 197 0
174 198 0
174 198 0
173 197 0
174 198 0
176 198 0
175 197 0
176 198 0
173 197 0
175 198 0
176 198 0
174 198 0
173 197 0
174 198 0
174 198 0
175 198 0
174 197 0
171 195 0
174 198 0
174 198 0
172 195 0
172 196 0
172 196 0
174 197 0
172 196 0
175 198 0
174 198 0
173 197 0
173 197 0
174 197 0
173 197 0
174 197 0
174 197 0
175 198 0
173 197 0
173 197 0
173 196 0
170 195 0
174 196 0
170 194 0
171 195 0
174 196 0
172 196 0
171 194 0
172 195 0
172 195 0
174 198 0
171 195 0
169 193 0
173 196 0
170 194 0
172 195 0
171 194 0
170 193 0
174 196 76
174 197 62
182 204 105
180 202 99
182 204 125
183 205 111
180 202 108
180 201 102
184 205 114
177 199 92
176 197 99
172 194 67
163 186 40
131 155 97
60 96 155
62 98 160
62 97 155
62 98 162
61 97 162
61 97 168
62 98 165
62 98 165
62 98 168
62 98 169
61 97 163
63 99 173
62 98 168
62 98 166
63 99 173
63 99 171
62 98 167
61 97 161
62 98 160
61 98 166
62 98 166
62 99 171
62 98 163
62 99 167
63 99 168
63 99 166
62 98 156
62 97 156
61 96 148
62 97 158
60 93 142
76 82 65
76 77 16
92 92 23
99 100 34
118 116 38
103 103 38
128 124 46
129 125 45
139 134 51
133 130 45
155 149 61
144 139 48
142 137 49
149 143 53
147 141 53
143 137 49
136 132 34
139 133 49
130 125 32
141 144 37
168 186 0
165 183 0
165 183 0
164 183 0
169 190 0
166 185 0
171 191 0
171 193 0
171 189 0
170 193 0
171 193 0
171 193 0
170 192 0
170 191 0
172 194 0
174 197 0
173 197 0
171 194 0
172 194 0
171 194 0
173 196 0
174 197 0
174 197 0
172 194 0
172 195 0
173 195 0
172 195 0
173 197 0
176 198 0
175 198 0
173 195 0
173 197 0
173 196 0
174 197 0
176 198 0
174 197 0
174 197 0
173 196 0
172 197 0
174 197 0
173 197 0
173 195 0
175 198 0
175 198 0
176 198 0
174 197 0
173 197 0
174 196 0
174 197 0
175 198 0
174 197 0
173 196 0
174 197 0
174 197 0
173 197 0
174 198 0
175 198 0
174 198 0
174 197 0
176 199 0
173 197 0
175 198 0
176 198 0
174 198 0
173 197 0
176 199 0
173 197 0
175 198 0
174 198 0
174 197 0
174 198 0
175 198 0
174 198 0
172 196 0
176 199 0
176 199 0
174 197 0
175 198 0
175 198 0
174 197 0
175 198 0
175 198 0
174 197 0
172 196 0
174 198 0
174 197 0
174 197 0
174 197 0
174 198 0
174 197 0
174 198 0
173 197 0
176 199 0
175 198 0
173 197 0
175 198 0
175 198 0
174 198 0
175 198 0
174 198 0
174 198 0
174 198 0
174 197 0
176 199 0
174 197 0
175 198 0
175 198 0
174 198 0
174 198 0
175 198 0
176 199 0
174 197 0
175 198 0
175 198 0
174 197 0
175 198 0
174 197 0
173 197 0
174 198 0
173 197 0
174 198 0
173 197 0
173 197 0
175 198 0
175 198 0
175 198 0
174 198 0
175 198 0
174 198 0
175 198 0
174 198 0
174 197 0
174 198 0
174 198 0
174 198 0
174 197 0
175 198 0
175 198 0
173 197 0
174 197 0
175 198 0
176 198 0
174 197 0
173 197 0
175 198 0
175 198 0
175 198 0
174 198 0
174 198 0
175 198 0
175 198 0
174 197 0
176 199 0
174 197 0
174 198 0
174 198 0
173 197 0
176 199 0
176 198 0
175 198 0
174 197 0
175 198 0
173 197 0
173 197 0
174 198 0
173 197 0
176 198 0
175 198 0
174 198 0
174 198 0
175 198 0
175 198 0
176 199 0
176 199 0
175 198 0
174 198 0
174 197 0
175 198 0
176 198 0
174 198 0
175 198 0
174 198 0
175 198 0
174 198 0
174 197 0
175 198 0
173 197 0
172 197 0
174 198 0
174 198 0
174 198 0
174 198 0
175 198 0
173 196 0
176 199 0
174 198 0
176 199 0
175 198 0
174 198 0
175 198 0
173 197 0
173 197 0
174 198 0
175 198 0
174 197 0
173 197 0
174 198 0
173 197 0
173 196 0
174 197 0
173 197 0
174 197 0
173 197 0
174 197 0
173 196 0
172 196 0
175 198 0
175 198 0
176 199 0
173 197 0
174 198 0
174 198 0
173 197 0
173 197 0
174 197 0
174 198 0
172 197 0
175 198 0
175 198 0
174 198 0
175 198 0
175 198 0
177 199 0
175 198 0
174 197 0
175 198 0
174 197 0
172 196 0
175 198 0
174 197 0
175 198 0
173 197 0
175 198 0
175 198 0
174 198 0
174 197 0
173 197 0
174 198 0
173 197 0
174 198 0
174 198 0
174 197 0
175 198 0
174 197 0
174 197 0
174 197 0
175 198 0
175 198 0
174 197 0
174 198 0
175 198 0
174 197 0
174 197 0
174 197 0
175 198 0
174 197 0
174 197 0
175 198 0
175 198 0
174 197 0
175 198 0
175 198 0
172 196 0
174 198 0
175 198 0
175 198 0
175 197 0
174 198 0
174 198 0
172 196 0
174 198 0
174 197 0
173 197 0
174 197 0
174 198 0
173 197 0
174 197 0
174 198 0
172 197 0
174 197 0
174 197 0
174 198 0
174 197 0
175 198 0
174 198 0
172 196 0
175 198 0
172 196 0
175 198 0
174 197 0
174 198 0
171 196 0
174 198 0
172 196 0
174 198 0
173 197 0
173 197 0
173 197 0
174 197 0
172 196 0
173 197 0
174 198 0
173 197 0
174 197 0
174 197 0
173 195 0
172 195 0
171 196 0
172 195 0
174 197 0
172 196 0
174 197 0
173 196 0
172 195 0
171 195 0
174 198 0
172 195 0
171 195 0
173 197 0
171 195 0
173 197 0
169 193 0
173 196 57
174 197 76
181 202 108
184 206 111
186 207 130
195 214 169
203 221 196
208 224 212
211 227 226
211 227 224
204 221 204
205 223 204
200 218 182
191 211 142
178 200 84
146 168 143
113 138 134
97 125 139
79 110 141
66 100 156
60 95 145
60 96 157
61 97 157
61 97 163
62 98 162
62 98 158
62 98 162
61 98 168
63 99 170
62 98 167
62 98 166
62 98 159
62 98 168
62 98 165
62 98 161
62 98 160
62 98 161
62 98 159
62 98 159
61 97 158
61 97 149
61 98 161
62 98 161
61 96 153
62 97 154
61 97 149
62 97 153
60 95 139
71 78 63
95 93 12
106 103 14
104 103 23
102 99 19
105 103 23
118 116 33
126 122 32
136 131 41
133 129 28
134 129 41
134 130 37
135 130 39
137 131 45
142 136 44
132 125 39
138 133 36
121 116 28
135 135 28
162 178 0
162 181 0
167 185 0
166 183 0
165 184 0
168 187 0
169 188 0
171 192 0
171 193 0
174 196 0
166 185 0
172 193 0
172 194 0
170 192 0
173 194 0
170 193 0
173 196 0
172 194 0
171 194 0
171 195 0
171 194 0
170 193 0
173 196 0
173 196 0
173 196 0
173 196 0
173 196 0
172 195 0
175 198 0
172 195 0
174 197 0
172 196 0
173 197 0
175 197 0
173 195 0
174 197 0
173 196 0
174 196 0
175 198 0
174 197 0
174 197 0
176 199 0
174 197 0
174 197 0
172 196 0
175 198 0
173 196 0
173 197 0
174 198 0
175 197 0
174 196 0
176 199 0
172 195 0
173 197 0
173 197 0
174 198 0
174 198 0
175 198 0
175 198 0
175 197 0
175 198 0
172 196 0
175 198 0
174 197 0
174 197 0
175 198 0
174 197 0
175 198 0
174 198 0
175 198 0
175 198 0
175 198 0
172 195 0
174 197 0
175 198 0
175 198 0
175 198 0
173 197 0
174 197 0
174 198 0
174 198 0
174 198 0
175 198 0
174 197 0
174 197 0
175 198 0
175 198 0
173 197 0
174 197 0
174 198 0
173 197 0
175 198 0
174 198 0
174 198 0
173 197 0
175 198 0
174 198 0
174 198 0
175 198 0
174 198 0
175 198 0
174 197 0
175 198 0
175 198 0
176 199 0
174 198 0
174 198 0
174 198 0
175 198 0
174 197 0
174 198 0
174 197 0
175 198 0
175 198 0
174 198 0
174 198 0
173 197 0
175 198 0
174 197 0
174 198 0
174 197 0
175 198 0
175 198 0
174 198 0
176 199 0
175 198 0
174 198 0
174 198 0
174 197 0
174 198 0
175 198 0
171 196 0
173 197 0
174 198 0
175 198 0
174 198 0
176 198 0
173 197 0
175 198 0
174 198 0
173 197 0
175 198 0
175 198 0
174 198 0
174 197 0
174 198 0
174 198 0
176 198 0
176 199 0
174 197 0
173 197 0
174 198 0
175 198 0
174 198 0
175 198 0
174 198 0
173 197 0
174 198 0
174 198 0
174 197 0
173 197 0
174 197 0
175 198 0
173 197 0
174 198 0
176 198 0
174 198 0
174 198 0
175 198 0
173 197 0
175 198 0
174 197 0
174 197 0
175 198 0
175 198 0
176 199 0
176 199 0
173 197 0
175 198 0
173 197 0
173 197 0
173 197 0
174 198 0
175 198 0
174 198 0
174 197 0
176 199 0
175 198 0
174 197 0
173 196 0
176 199 0
175 198 0
174 197 0
174 197 0
175 198 0
175 198 0
174 198 0
174 198 0
175 198 0
174 198 0
173 197 0
173 197 0
176 199 0
172 196 0
173 197 0
176 199 0
174 198 0
175 198 0
174 198 0
175 198 0
174 198 0
172 196 0
172 197 0
174 198 0
175 198 0
176 199 0
174 197 0
176 198 0
174 197 0
173 197 0
173 197 0
173 197 0
173 197 0
175 198 0
174 198 0
176 199 0
174 198 0
173 197 0
173 196 0
173 197 0
175 198 0
176 199 0
174 198 0
175 198 0
173 197 0
173 197 0
175 198 0
175 198 0
175 198 0
173 197 0
173 197 0
176 199 0
176 199 0
173 197 0
174 197 0
176 198 0
175 198 0
174 198 0
174 198 0
174 198 0
175 198 0
173 197 0
175 198 0
175 198 0
175 198 0
175 198 0
174 198 0
174 198 0
174 198 0
175 198 0
176 199 0
174 197 0
175 198 0
172 196 0
175 198 0
174 197 0
175 198 0
173 197 0
176 199 0
175 198 0
174 197 0
173 197 0
172 196 0
175 198 0
174 198 0
175 198 0
174 198 0
175 198 0
172 195 0
172 197 0
173 197 0
174 198 0
172 196 0
175 198 0
171 195 0
174 198 0
174 198 0
173 196 0
175 198 0
173 197 0
173 197 0
176 199 0
174 198 0
174 197 0
174 198 0
176 198 0
176 199 0
172 196 0
173 196 0
174 197 0
172 196 0
173 197 0
174 196 0
173 197 0
171 195 0
173 197 0
174 198 0
173 196 0
173 197 0
172 196 0
174 198 0
173 197 0
175 198 0
172 196 0
174 197 0
172 195 0
172 196 0
173 197 0
172 196 0
174 197 0
174 197 0
174 198 0
172 195 0
175 198 0
173 196 0
173 196 0
174 197 0
170 194 0
171 194 0
173 197 0
171 195 0
172 196 0
179 201 84
185 206 125
182 204 105
195 214 165
215 231 237
218 233 252
216 232 250
215 231 249
212 230 249
213 231 253
213 231 254
213 230 249
214 231 249
216 232 252
218 233 250
213 229 228
168 187 194
94 122 173
101 127 173
68 103 163
70 103 149
66 100 153
61 97 152
61 97 162
62 98 164
61 97 160
62 98 169
61 97 160
61 97 164
63 99 166
62 98 167
62 98 162
62 98 161
62 99 165
62 98 164
62 98 164
62 97 162
62 98 165
62 98 164
61 98 164
62 98 161
60 96 153
62 98 157
62 97 158
62 98 154
62 97 154
61 96 146
62 97 152
61 96 146
80 81 34
86 83 14
79 78 8
98 95 10
102 100 0
102 100 22
119 116 26
116 114 11
128 125 26
128 123 25
128 124 30
124 120 22
134 130 28
128 123 34
131 125 30
119 113 30
129 123 34
142 148 22
165 179 0
165 181 0
166 182 0
164 180 0
166 185 0
167 184 0
170 189 0
167 186 0
167 186 0
165 185 0
168 187 0
174 195 0
169 189 0
171 193 0
172 195 0
171 192 0
169 192 0
170 192 0
172 195 0
173 196 0
171 193 0
169 191 0
173 195 0
172 194 0
175 198 0
173 195 0
172 195 0
173 196 0
173 196 0
175 197 0
169 192 0
172 196 0
174 197 0
173 196 0
173 196 0
173 196 0
174 196 0
174 197 0
174 197 0
175 197 0
173 197 0
171 194 0
174 197 0
172 196 0
173 196 0
174 197 0
173 196 0
174 197 0
174 198 0
173 197 0
174 197 0
176 198 0
175 198 0
174 197 0
175 198 0
174 197 0
175 198 0
175 198 0
174 198 0
175 198 0
173 197 0
174 198 0
175 198 0
175 198 0
174 198 0
176 198 0
175 198 0
174 197 0
174 197 0
174 197 0
174 197 0
176 199 0
173 197 0
175 198 0
176 199 0
173 197 0
175 197 0
175 198 0
173 197 0
174 197 0
175 198 0
174 197 0
175 198 0
174 198 0
174 197 0
174 197 0
174 198 0
174 197 0
174 197 0
174 198 0
173 197 0
174 197 0
175 198 0
174 197 0
175 198 0
173 197 0
175 198 0
175 198 0
175 198 0
173 197 0
173 196 0
173 197 0
177 199 0
175 198 0
175 198 0
175 198 0
176 199 0
172 197 0
174 198 0
175 198 0
174 197 0
176 199 0
175 198 0
174 198 0
173 197 0
175 198 0
177 199 0
174 197 0
175 198 0
175 198 0
174 198 0
175 198 0
175 198 0
174 198 0
175 198 0
173 197 0
175 198 0
174 197 0
175 198 0
174 198 0
175 198 0
175 198 0
174 198 0
173 197 0
175 198 0
174 198 0
175 198 0
173 197 0
175 198 0
174 197 0
175 198 0
174 197 0
175 198 0
175 198 0
174 198 0
175 198 0
174 198 0
174 198 0
174 197 0
174 198 0
173 197 0
176 199 0
174 198 0
174 197 0
173 197 0
174 197 0
175 198 0
175 198 0
173 197 0
175 198 0
174 198 0
174 198 0
173 197 0
174 197 0
174 198 0
174 198 0
176 199 0
175 198 0
173 196 0
173 197 0
174 198 0
175 198 0
173 197 0
175 198 0
174 197 0
175 198 0
175 198 0
176 198 0
173 197 0
175 198 0
176 198 0
174 198 0
174 198 0
175 198 0
174 198 0
173 197 0
175 198 0
176 199 0
176 198 0
175 198 0
175 198 0
174 198 0
175 198 0
175 198 0
176 199 0
173 197 0
173 197 0
174 198 0
174 198 0
175 198 0
173 197 0
177 199 0
174 198 0
174 198 0
175 198 0
172 197 0
174 197 0
173 197 0
174 197 0
173 196 0
175 198 0
174 197 0
174 198 0
174 197 0
175 198 0
175 198 0
177 199 0
174 198 0
175 197 0
173 197 0
174 198 0
175 198 0
176 199 0
173 197 0
174 198 0
174 197 0
173 197 0
173 197 0
174 198 0
176 199 0
176 199 0
175 198 0
174 198 0
174 197 0
174 197 0
174 198 0
174 197 0
176 199 0
174 198 0
173 197 0
174 198 0
174 198 0
174 197 0
175 198 0
174 198 0
173 197 0
175 198 0
174 197 0
174 197 0
175 198 0
174 198 0
174 197 0
173 197 0
174 197 0
176 198 0
176 199 0
173 197 0
175 198 0
173 197 0
174 197 0
174 198 0
173 196 0
174 197 0
172 196 0
174 198 0
174 198 0
174 197 0
175 198 0
174 198 0
173 197 0
175 197 0
175 198 0
174 197 0
172 196 0
175 198 0
175 198 0
174 198 0
174 198 0
174 197 0
172 197 0
175 198 0
172 196 0
174 198 0
175 198 0
176 199 0
176 198 0
173 197 0
175 198 0
175 198 0
175 198 0
175 197 0
173 197 0
172 197 0
173 197 0
172 196 0
174 197 0
176 199 0
171 194 0
173 197 0
173 197 0
173 197 0
174 197 0
174 197 0
175 198 0
172 196 0
174 198 0
174 198 0
175 198 0
173 197 0
174 197 0
175 198 0
171 195 0
174 197 0
175 198 0
174 197 0
174 197 0
173 197 0
173 197 0
175 198 0
174 197 0
173 196 0
170 193 0
173 196 0
172 195 0
172 195 0
172 196 0
173 197 0
174 196 0
167 191 0
171 195 0
171 193 0
176 199 76
183 204 120
181 203 105
199 218 181
218 234 250
216 232 250
213 231 252
212 230 255
209 228 248
207 226 241
206 225 231
208 226 233
205 223 214
203 221 223
205 223 227
209 227 237
209 227 244
213 230 251
211 227 251
134 156 202
90 119 181
84 114 174
66 101 166
66 100 154
62 97 156
60 95 150
60 96 154
62 98 163
62 99 170
60 96 158
60 96 159
62 98 164
62 98 164
61 97 161
62 98 165
62 98 161
62 98 162
62 97 162
61 97 154
62 98 162
62 98 159
60 95 154
61 96 151
62 97 157
61 96 147
61 96 149
61 97 150
61 96 137
61 96 142
59 94 137
57 90 126
112 115 8
90 88 16
77 74 0
88 83 8
82 80 8
105 101 0
105 100 12
116 113 11
120 117 16
115 111 18
118 113 11
125 119 25
120 116 30
110 106 11
113 107 22
119 116 22
150 156 16
153 163 0
157 171 0
159 173 0
160 175 0
164 180 0
166 183 0
165 181 0
165 183 0
167 184 0
166 186 0
170 190 0
168 190 0
171 192 0
169 192 0
168 190 0
171 193 0
170 191 0
172 193 0
171 193 0
173 195 0
171 194 0
173 194 0
169 193 0
173 195 0
170 193 0
172 195 0
172 195 0
175 198 0
173 196 0
175 197 0
171 194 0
174 197 0
171 194 0
174 197 0
173 197 0
176 198 0
173 196 0
173 197 0
175 197 0
170 194 0
175 198 0
174 197 0
174 198 0
175 198 0
173 197 0
171 195 0
173 197 0
172 196 0
174 197 0
172 196 0
176 198 0
174 197 0
175 197 0
176 198 0
172 197 0
175 198 0
175 198 0
173 196 0
174 197 0
175 198 0
174 197 0
174 198 0
173 197 0
174 197 0
174 198 0
173 197 0
174 197 0
174 197 0
173 197 0
175 198 0
177 199 0
175 198 0
174 197 0
173 197 0
173 196 0
174 197 0
174 197 0
175 198 0
172 197 0
176 198 0
175 198 0
174 197 0
174 197 0
173 197 0
174 197 0
176 199 0
175 198 0
174 197 0
175 198 0
173 197 0
171 196 0
175 198 0
177 199 0
174 197 0
176 198 0
174 198 0
174 197 0
176 199 0
173 197 0
176 198 0
175 198 0
175 198 0
177 199 0
174 198 0
174 198 0
173 197 0
174 198 0
173 197 0
175 198 0
175 198 0
172 196 0
172 197 0
173 197 0
176 198 0
173 196 0
174 198 0
174 198 0
175 198 0
175 198 0
174 198 0
175 198 0
174 197 0
175 198 0
176 198 0
175 198 0
174 198 0
174 198 0
175 198 0
174 197 0
175 198 0
175 198 0
174 198 0
176 199 0
175 198 0
174 198 0
175 198 0
176 198 0
176 198 0
174 197 0
175 198 0
174 198 0
176 199 0
174 197 0
175 198 0
173 197 0
175 198 0
176 199 0
173 197 0
175 198 0
174 198 0
175 197 0
173 197 0
176 199 0
172 197 0
175 198 0
173 197 0
175 198 0
174 198 0
175 198 0
174 197 0
175 198 0
175 198 0
175 198 0
174 198 0
175 198 0
174 198 0
174 198 0
174 197 0
176 199 0
175 198 0
174 198 0
174 198 0
175 198 0
176 199 0
175 198 0
174 198 0
175 198 0
174 198 0
174 198 0
175 198 0
175 198 0
174 198 0
174 198 0
176 199 0
174 197 0
175 198 0
175 198 0
176 199 0
175 198 0
175 198 0
175 198 0
175 198 0
173 197 0
173 197 0
174 198 0
173 197 0
175 198 0
174 198 0
175 198 0
174 198 0
174 197 0
175 198 0
175 198 0
173 197 0
175 198 0
175 198 0
175 198 0
175 198 0
175 198 0
174 198 0
175 198 0
174 197 0
172 196 0
175 198 0
175 198 0
176 198 0
174 198 0
174 197 0
174 197 0
174 198 0
173 197 0
175 198 0
173 197 0
173 197 0
176 199 0
174 197 0
174 197 0
175 198 0
175 198 0
173 197 0
174 197 0
175 198 0
176 198 0
174 198 0
173 197 0
175 198 0
176 199 0
176 199 0
174 197 0
174 198 0
174 197 0
174 198 0
174 198 0
174 198 0
175 198 0
173 197 0
174 198 0
174 198 0
175 198 0
175 198 0
176 199 0
175 198 0
175 198 0
174 198 0
175 198 0
174 198 0
175 198 0
176 199 0
174 197 0
175 198 0
174 197 0
175 198 0
174 198 0
175 198 0
175 198 0
173 197 0
175 198 0
173 197 0
175 198 0
172 196 0
174 198 0
174 197 0
175 198 0
173 196 0
173 197 0
173 197 0
172 196 0
175 198 0
173 197 0
175 198 0
175 198 0
174 198 0
174 198 0
175 197 0
171 196 0
173 197 0
176 198 0
173 197 0
171 195 0
173 197 0
174 197 0
175 198 0
174 197 0
174 198 0
175 198 0
174 197 0
174 197 0
172 195 0
173 197 0
173 197 0
174 198 0
174 197 0
173 197 0
174 198 0
172 196 0
174 198 0
173 197 0
173 196 0
176 199 0
174 198 0
173 196 0
173 197 0
173 197 0
173 197 0
174 197 0
173 197 0
172 196 0
173 197 0
171 195 0
171 195 0
174 197 0
174 197 0
174 196 0
174 197 0
172 195 0
174 197 0
175 198 0
171 195 0
171 193 0
174 197 0
172 195 0
173 197 57
181 202 99
186 207 125
213 229 230
218 233 253
214 231 253
211 230 252
205 224 227
198 217 196
198 217 181
184 205 133
183 205 120
175 198 99
175 199 80
172 196 72
175 199 92
181 203 120
191 211 159
176 195 187
162 182 203
185 204 235
116 141 195
87 116 181
82 112 171
59 95 152
62 97 154
62 97 148
62 98 163
60 95 151
61 97 163
61 97 162
59 95 157
62 98 160
61 97 159
62 98 161
62 98 159
60 95 151
61 97 153
61 97 152
62 98 161
61 97 163
62 97 155
62 98 154
62 98 161
61 96 148
62 97 154
62 97 154
60 95 143
61 96 144
60 94 141
59 92 129
80 104 102
125 128 0
116 121 0
93 93 0
99 97 0
89 82 0
99 92 0
90 88 0
103 96 0
109 104 11
106 101 0
101 96 11
106 100 16
117 111 16
120 119 11
128 130 0
149 154 0
148 155 0
153 162 0
155 165 0
159 175 0
162 178 0
159 174 0
166 184 0
163 181 0
168 187 0
162 182 0
166 185 0
167 188 0
168 188 0
167 187 0
169 190 0
169 190 0
170 192 0
174 195 0
169 190 0
170 192 0
173 195 0
173 195 0
170 192 0
173 194 0
172 194 0
171 194 0
175 198 0
173 196 0
174 195 0
173 194 0
175 198 0
171 193 0
173 196 0
175 197 0
174 197 0
173 196 0
174 196 0
173 197 0
172 196 0
173 197 0
173 195 0
173 197 0
175 198 0
172 196 0
173 197 0
174 198 0
173 197 0
175 198 0
174 197 0
174 198 0
174 197 0
173 195 0
173 197 0
174 197 0
174 197 0
174 197 0
173 197 0
174 198 0
174 198 0
174 197 0
175 198 0
174 197 0
173 197 0
172 196 0
175 198 0
173 197 0
173 197 0
175 198 0
175 198 0
173 197 0
175 198 0
174 197 0
175 198 0
177 199 0
173 197 0
175 198 0
176 199 0
173 197 0
174 197 0
175 198 0
174 197 0
175 198 0
176 198 0
175 198 0
175 198 0
175 198 0
174 198 0
174 197 0
174 198 0
176 199 0
174 198 0
174 198 0
175 198 0
174 198 0
173 197 0
174 197 0
175 198 0
176 198 0
175 198 0
175 198 0
174 198 0
175 198 0
174 197 0
176 198 0
174 198 0
173 197 0
174 198 0
174 198 0
173 197 0
174 197 0
176 199 0
174 198 0
175 198 0
172 197 0
176 199 0
174 198 0
174 198 0
174 198 0
172 196 0
171 195 0
174 197 0
176 198 0
175 198 0
174 198 0
175 198 0
174 197 0
175 198 0
175 198 0
173 197 0
174 198 0
175 198 0
174 197 0
175 198 0
175 198 0
173 197 0
175 198 0
177 199 0
173 197 0
175 198 0
173 197 0
172 196 0
174 198 0
175 198 0
177 199 0
175 198 0
174 197 0
175 198 0
173 197 0
173 197 0
174 198 0
175 198 0
175 198 0
175 198 0
175 198 0
174 197 0
174 198 0
175 198 0
175 198 0
174 198 0
175 198 0
173 197 0
176 198 0
174 197 0
173 197 0
175 198 0
174 197 0
176 199 0
175 198 0
174 198 0
175 198 0
173 197 0
175 198 0
176 199 0
175 198 0
174 198 0
173 197 0
173 197 0
174 198 0
175 198 0
175 198 0
174 198 0
176 199 0
174 198 0
175 198 0
174 198 0
174 198 0
173 197 0
175 198 0
175 198 0
175 198 0
175 198 0
176 199 0
176 198 0
175 198 0
174 198 0
173 197 0
175 198 0
175 198 0
174 198 0
175 198 0
173 197 0
175 198 0
173 197 0
174 198 0
175 198 0
174 198 0
175 198 0
174 198 0
173 197 0
174 198 0
173 197 0
174 198 0
173 197 0
174 198 0
176 199 0
175 198 0
176 198 0
175 198 0
173 197 0
173 197 0
175 198 0
174 198 0
175 198 0
174 198 0
173 197 0
174 198 0
174 198 0
174 198 0
175 198 0
174 198 0
174 198 0
173 197 0
174 198 0
174 197 0
175 198 0
173 197 0
175 198 0
172 197 0
175 198 0
174 198 0
174 197 0
175 198 0
175 198 0
173 197 0
174 198 0
174 198 0
175 198 0
174 198 0
174 198 0
175 198 0
173 197 0
173 197 0
174 197 0
174 197 0
173 197 0
173 197 0
172 196 0
173 197 0
175 198 0
174 198 0
175 198 0
176 198 0
176 198 0
175 198 0
175 198 0
174 197 0
174 198 0
173 197 0
175 198 0
175 198 0
174 198 0
175 198 0
175 198 0
174 198 0
174 197 0
174 198 0
176 199 0
173 197 0
174 197 0
176 199 0
174 198 0
175 198 0
175 198 0
173 197 0
174 198 0
174 198 0
174 197 0
174 198 0
173 197 0
174 198 0
175 198 0
174 197 0
173 197 0
174 197 0
174 198 0
172 197 0
174 197 0
173 196 0
174 197 0
173 197 0
173 197 0
174 197 0
174 197 0
174 197 0
175 198 0
174 198 0
174 197 0
175 198 0
172 196 0
172 196 0
172 196 0
172 195 0
173 197 0
175 198 0
172 195 0
174 197 0
174 197 0
174 197 0
172 196 0
172 196 0
169 193 0
173 197 0
173 196 0
171 195 0
172 196 0
169 193 0
171 195 0
168 191 0
172 196 0
172 196 0
172 196 0
177 200 62
182 204 105
193 213 157
218 233 244
216 232 253
212 230 253
202 221 218
190 210 159
191 210 151
176 199 76
174 197 76
174 198 62
174 198 72
170 194 57
171 194 67
173 197 67
171 194 51
175 199 67
173 196 67
123 149 135
111 138 160
100 127 170
142 164 196
86 117 183
91 120 184
75 108 174
62 98 161
60 96 162
62 95 145
60 96 153
60 96 153
60 95 145
63 99 163
61 96 151
61 97 157
62 98 159
61 97 156
61 97 152
61 97 149
61 96 154
61 96 149
61 96 151
61 97 155
61 97 151
61 96 155
61 96 145
61 96 142
62 97 151
61 96 147
60 95 134
61 95 138
60 95 140
91 106 90
116 122 0
116 120 0
105 106 0
101 101 0
106 105 0
98 97 0
79 76 0
103 96 0
96 92 0
93 88 0
104 102 0
125 125 0
121 121 0
142 145 0
147 151 0
148 155 0
158 166 0
154 167 0
154 167 0
159 174 0
162 177 0
165 182 0
157 171 0
166 182 0
165 184 0
168 188 0
168 187 0
168 187 0
168 186 0
166 186 0
168 189 0
173 195 0
169 190 0
171 192 0
171 193 0
172 193 0
170 192 0
170 193 0
174 196 0
171 194 0
170 193 0
169 192 0
174 197 0
172 195 0
173 195 0
173 196 0
173 196 0
173 195 0
171 195 0
173 197 0
174 197 0
174 197 0
171 194 0
174 197 0
173 195 0
174 198 0
173 196 0
174 196 0
173 197 0
172 196 0
174 197 0
175 198 0
171 194 0
174 197 0
174 197 0
175 198 0
173 197 0
174 197 0
175 198 0
173 197 0
172 196 0
174 197 0
173 197 0
172 196 0
173 197 0
174 197 0
173 196 0
175 198 0
173 197 0
173 197 0
173 196 0
174 198 0
176 198 0
173 197 0
174 197 0
175 198 0
173 197 0
173 197 0
175 198 0
174 198 0
172 197 0
176 198 0
173 197 0
174 198 0
175 198 0
175 198 0
175 198 0
176 199 0
174 197 0
174 197 0
174 197 0
173 197 0
173 197 0
175 198 0
171 196 0
174 198 0
173 197 0
174 198 0
173 197 0
174 198 0
174 198 0
174 197 0
174 197 0
176 199 0
174 197 0
175 198 0
175 198 0
172 196 0
174 198 0
174 198 0
173 197 0
174 197 0
175 198 0
176 199 0
174 198 0
176 199 0
173 197 0
175 198 0
174 198 0
173 197 0
175 198 0
175 198 0
174 198 0
174 197 0
175 198 0
175 198 0
174 198 0
173 197 0
176 199 0
174 198 0
173 197 0
176 199 0
174 197 0
176 198 0
174 197 0
176 199 0
173 197 0
175 198 0
173 197 0
174 198 0
172 196 0
175 198 0
177 199 0
175 198 0
174 198 0
174 198 0
174 197 0
175 198 0
175 198 0
174 198 0
174 198 0
175 198 0
174 198 0
175 198 0
175 198 0
173 197 0
175 198 0
174 198 0
176 198 0
174 198 0
175 198 0
174 198 0
174 198 0
175 198 0
173 197 0
176 198 0
174 198 0
173 197 0
174 198 0
175 198 0
174 197 0
174 197 0
173 197 0
175 198 0
176 198 0
174 197 0
176 198 0
172 197 0
175 198 0
176 199 0
174 198 0
175 198 0
176 199 0
175 198 0
175 198 0
175 198 0
174 198 0
175 198 0
175 198 0
175 198 0
174 198 0
175 198 0
173 197 0
174 198 0
175 198 0
174 198 0
175 198 0
173 197 0
174 198 0
174 197 0
174 198 0
175 198 0
174 198 0
173 197 0
176 199 0
175 198 0
173 197 0
174 197 0
174 197 0
176 199 0
175 198 0
174 198 0
173 197 0
174 198 0
173 197 0
175 198 0
174 198 0
176 199 0
174 198 0
176 199 0
175 198 0
174 198 0
174 197 0
174 197 0
174 198 0
174 198 0
175 198 0
174 198 0
175 198 0
174 198 0
174 198 0
173 197 0
175 198 0
173 197 0
173 197 0
175 198 0
175 198 0
175 198 0
173 197 0
173 197 0
176 199 0
175 198 0
175 198 0
174 197 0
174 197 0
174 197 0
174 197 0
174 197 0
176 198 0
174 198 0
175 198 0
174 197 0
173 197 0
175 198 0
173 197 0
173 197 0
173 197 0
174 197 0
173 197 0
175 198 0
174 197 0
173 197 0
174 198 0
175 198 0
174 198 0
174 197 0
174 198 0
173 197 0
173 197 0
176 199 0
173 197 0
173 197 0
175 198 0
174 197 0
175 198 0
173 197 0
174 197 0
175 198 0
173 197 0
172 196 0
173 197 0
174 197 0
173 197 0
174 198 0
174 198 0
175 197 0
174 198 0
174 197 0
175 198 0
173 197 0
174 197 0
174 197 0
171 196 0
175 198 0
173 197 0
174 198 0
170 194 0
173 196 0
173 196 0
173 196 0
173 196 0
173 196 0
176 198 0
175 198 0
174 198 0
174 197 0
175 198 0
174 198 0
173 197 0
173 197 0
175 198 0
175 197 0
174 198 0
175 198 0
174 197 0
172 196 0
174 197 0
172 195 0
174 197 0
173 196 0
173 197 0
171 194 0
173 197 0
172 196 0
171 196 0
171 194 0
174 196 0
172 196 0
173 196 0
170 194 0
169 193 0
174 197 0
171 195 0
169 193 0
174 197 0
171 195 0
173 196 57
177 200 80
190 210 137
220 235 254
214 231 248
208 226 233
194 213 181
182 203 117
174 198 62
174 197 72
172 196 72
174 198 72
170 194 44
174 197 57
175 199 80
168 193 76
172 195 67
170 193 57
174 198 88
171 195 57
140 165 120
90 119 152
105 133 160
108 134 163
103 130 171
84 115 169
82 113 179
80 111 170
61 97 158
64 98 145
60 95 145
61 96 150
62 97 153
60 96 150
61 96 151
61 96 157
60 96 150
62 97 154
62 98 159
61 97 155
60 96 147
61 96 145
61 97 156
61 96 143
60 95 145
60 95 140
62 97 147
62 97 151
62 97 142
60 94 141
59 93 135
59 93 133
58 90 116
110 119 45
116 124 0
123 129 0
119 122 0
119 122 0
119 123 0
115 117 0
112 115 0
116 117 0
114 113 0
116 113 0
131 132 0
130 133 0
142 142 0
143 146 0
152 160 0
147 158 0
147 156 0
159 172 0
156 167 0
160 174 0
158 173 0
166 182 0
164 181 0
166 184 0
169 186 0
167 186 0
163 183 0
169 190 0
169 189 0
168 189 0
166 187 0
170 191 0
170 193 0
167 189 0
170 191 0
172 192 0
169 191 0
174 197 0
171 193 0
172 194 0
170 192 0
167 189 0
174 196 0
174 198 0
170 193 0
172 194 0
170 193 0
174 197 0
173 197 0
172 195 0
174 196 0
173 196 0
173 195 0
172 195 0
169 193 0
174 197 0
173 196 0
173 197 0
173 197 0
175 197 0
174 198 0
172 196 0
173 197 0
174 197 0
174 197 0
173 197 0
174 198 0
173 197 0
174 197 0
175 198 0
175 198 0
173 197 0
174 198 0
174 198 0
174 198 0
174 197 0
176 198 0
174 197 0
174 198 0
175 198 0
174 198 0
175 198 0
173 196 0
175 198 0
175 198 0
174 197 0
174 197 0
175 198 0
172 197 0
172 195 0
172 197 0
175 198 0
174 198 0
175 198 0
176 199 0
174 198 0
174 197 0
175 198 0
175 198 0
174 198 0
176 199 0
174 197 0
174 197 0
174 197 0
173 197 0
175 198 0
175 198 0
174 198 0
174 198 0
174 198 0
175 198 0
173 197 0
174 198 0
173 197 0
175 198 0
174 198 0
174 198 0
174 197 0
175 198 0
174 198 0
175 198 0
173 197 0
175 198 0
175 198 0
174 197 0
175 198 0
173 197 0
172 197 0
173 197 0
174 198 0
175 198 0
174 198 0
174 198 0
176 199 0
173 197 0
175 198 0
174 198 0
174 198 0
175 198 0
175 198 0
174 197 0
175 198 0
175 198 0
174 198 0
174 198 0
175 198 0
174 198 0
174 196 0
176 199 0
175 198 0
174 198 0
174 197 0
175 198 0
173 197 0
173 197 0
175 198 0
174 198 0
174 198 0
175 198 0
174 198 0
173 197 0
174 197 0
175 198 0
172 197 0
175 198 0
175 198 0
175 198 0
174 198 0
175 198 0
174 197 0
173 197 0
176 198 0
174 198 0
174 197 0
176 199 0
173 197 0
177 199 0
175 198 0
174 198 0
175 198 0
175 198 0
174 198 0
174 198 0
174 198 0
173 197 0
173 197 0
173 197 0
175 198 0
175 198 0
174 198 0
175 198 0
173 197 0
175 198 0
175 198 0
176 198 0
173 197 0
175 198 0
174 198 0
175 198 0
172 197 0
176 199 0
175 198 0
174 197 0
174 198 0
174 198 0
175 198 0
174 198 0
173 196 0
175 198 0
175 198 0
174 198 0
174 198 0
175 198 0
175 198 0
175 198 0
173 197 0
174 197 0
174 197 0
175 198 0
172 196 0
174 198 0
174 197 0
176 199 0
173 197 0
174 198 0
174 198 0
175 198 0
175 198 0
175 198 0
175 198 0
174 197 0
173 197 0
173 197 0
174 197 0
176 198 0
175 198 0
174 197 0
175 198 0
173 197 0
175 198 0
175 198 0
176 199 0
176 198 0
175 198 0
174 198 0
174 198 0
173 197 0
175 198 0
175 198 0
176 199 0
174 197 0
174 197 0
176 198 0
175 198 0
173 197 0
173 197 0
176 199 0
174 198 0
174 197 0
174 198 0
174 197 0
173 197 0
175 198 0
173 197 0
174 198 0
175 198 0
175 198 0
174 198 0
175 198 0
175 198 0
174 197 0
176 199 0
174 198 0
174 198 0
175 198 0
175 198 0
175 198 0
174 198 0
172 196 0
175 198 0
174 197 0
174 197 0
176 199 0
174 198 0
174 198 0
174 198 0
174 197 0
173 197 0
174 198 0
173 197 0
173 197 0
174 197 0
174 197 0
173 197 0
174 198 0
175 198 0
173 197 0
173 197 0
171 196 0
175 197 0
174 198 0
174 198 0
174 198 0
175 198 0
174 197 0
174 197 0
174 197 0
174 198 0
173 197 0
173 197 0
175 198 0
175 198 0
172 196 0
173 197 0
173 197 0
175 198 0
174 197 0
175 198 0
174 197 0
175 198 0
172 196 0
172 196 0
173 197 0
172 196 0
174 197 0
173 196 0
174 198 0
172 196 0
173 196 0
174 197 0
174 198 0
171 194 0
172 195 0
172 196 0
173 197 0
172 195 0
172 196 0
171 195 0
175 197 0
172 196 0
172 195 0
170 193 0
171 195 0
169 193 0
172 196 0
173 196 57
180 202 99
185 206 111
218 233 244
214 231 249
203 222 215
187 206 151
175 198 84
175 198 67
173 197 76
175 199 80
169 192 57
172 196 57
173 196 57
171 194 57
169 193 62
171 194 76
172 196 80
171 196 80
170 194 80
168 192 76
161 184 80
108 135 148
88 118 146
113 138 154
97 125 162
93 120 144
80 112 165
78 110 176
72 104 164
60 96 157
59 94 150
60 95 145
60 95 145
59 94 142
60 96 153
61 97 154
59 95 143
61 96 148
62 97 148
61 97 148
61 96 150
60 96 151
61 96 144
62 98 151
61 96 139
60 95 139
60 95 134
59 93 135
60 94 133
60 95 136
59 93 127
58 91 125
83 105 90
115 125 0
118 128 0
111 118 0
117 125 0
116 122 0
124 129 0
116 122 0
118 124 0
123 126 0
118 119 0
137 145 0
142 148 0
138 144 0
145 153 0
143 150 0
149 157 0
147 157 0
158 169 0
154 167 0
156 169 0
163 177 0
166 183 0
164 180 0
163 180 0
167 185 0
162 180 0
169 189 0
167 185 0
166 186 0
164 183 0
174 195 0
170 191 0
170 193 0
168 189 0
170 191 0
171 191 0
170 193 0
171 193 0
171 194 0
173 195 0
172 195 0
172 194 0
171 194 0
172 195 0
173 196 0
172 195 0
174 197 0
171 194 0
172 195 0
172 195 0
173 197 0
173 197 0
175 197 0
173 197 0
173 196 0
174 196 0
172 195 0
173 196 0
173 195 0
175 198 0
172 195 0
175 198 0
172 196 0
175 198 0
174 198 0
172 196 0
174 197 0
175 198 0
174 197 0
173 196 0
175 198 0
174 197 0
174 197 0
173 197 0
173 197 0
173 196 0
174 198 0
173 196 0
173 197 0
173 197 0
173 196 0
173 196 0
172 196 0
173 197 0
174 198 0
175 198 0
175 198 0
173 197 0
175 198 0
174 198 0
175 198 0
173 197 0
174 198 0
173 197 0
174 198 0
175 198 0
174 197 0
175 198 0
174 198 0
174 198 0
174 197 0
173 197 0
176 198 0
174 198 0
175 198 0
173 197 0
175 198 0
174 198 0
173 197 0
173 197 0
175 198 0
175 198 0
173 197 0
175 198 0
172 197 0
174 197 0
174 197 0
174 198 0
175 198 0
173 197 0
176 199 0
174 197 0
174 198 0
176 198 0
176 198 0
175 198 0
175 198 0
176 198 0
174 198 0
173 197 0
174 197 0
172 197 0
175 198 0
174 198 0
174 198 0
175 198 0
173 197 0
175 198 0
172 196 0
174 198 0
176 198 0
174 197 0
174 198 0
175 198 0
174 197 0
175 198 0
175 198 0
174 198 0
174 198 0
175 198 0
175 198 0
173 197 0
174 198 0
174 197 0
174 197 0
173 197 0
173 197 0
175 198 0
175 198 0
175 198 0
173 197 0
173 197 0
173 197 0
174 197 0
176 199 0
172 197 0
177 199 0
174 197 0
174 198 0
174 198 0
173 197 0
174 197 0
175 198 0
175 198 0
173 197 0
174 198 0
174 198 0
173 197 0
175 198 0
176 199 0
175 198 0
174 198 0
175 198 0
174 198 0
174 198 0
172 197 0
176 199 0
173 197 0
175 198 0
175 198 0
174 198 0
174 197 0
174 197 0
174 197 0
175 198 0
174 198 0
174 197 0
174 197 0
174 198 0
173 197 0
174 197 0
174 197 0
173 197 0
174 198 0
173 197 0
176 198 0
174 198 0
175 198 0
174 197 0
174 198 0
172 196 0
173 197 0
175 198 0
175 198 0
175 198 0
175 198 0
173 197 0
174 198 0
175 198 0
174 197 0
173 197 0
174 198 0
174 198 0
174 197 0
176 199 0
176 198 0
175 198 0
173 197 0
174 198 0
176 198 0
175 198 0
174 198 0
174 197 0
174 197 0
175 198 0
173 197 0
174 197 0
174 198 0
175 198 0
175 198 0
176 199 0
174 198 0
172 196 0
174 198 0
173 197 0
175 198 0
176 199 0
174 197 0
175 198 0
172 197 0
174 198 0
174 198 0
175 198 0
174 198 0
173 197 0
174 197 0
172 196 0
174 198 0
174 198 0
174 198 0
176 198 0
173 197 0
174 198 0
173 197 0
175 198 0
173 197 0
175 198 0
174 197 0
174 198 0
174 198 0
176 198 0
173 197 0
175 198 0
175 198 0
175 198 0
174 198 0
174 198 0
175 198 0
175 198 0
174 197 0
174 197 0
172 196 0
174 198 0
175 198 0
174 198 0
174 198 0
174 197 0
174 197 0
174 197 0
175 198 0
174 197 0
173 197 0
175 198 0
173 197 0
174 197 0
174 197 0
175 198 0
174 198 0
175 198 0
174 198 0
175 198 0
175 198 0
173 197 0
174 197 0
174 198 0
174 198 0
175 197 0
174 197 0
174 198 0
173 197 0
175 198 0
172 196 0
173 197 0
172 196 0
173 197 0
173 197 0
173 196 0
173 197 0
172 196 0
171 194 0
174 197 0
175 198 0
172 196 0
173 196 0
174 197 0
171 195 0
172 195 0
174 197 0
174 197 0
174 197 0
174 197 0
172 196 0
173 197 0
171 195 0
169 192 0
173 197 0
171 195 0
167 191 0
171 194 0
174 197 0
173 197 0
172 196 0
171 194 0
171 194 0
170 194 0
173 197 25
178 201 88
179 201 84
215 230 236
216 232 250
208 226 227
181 203 111
176 198 72
176 199 88
170 195 84
174 197 72
170 194 44
170 195 57
170 194 67
171 194 57
170 194 80
170 194 80
166 190 80
168 193 80
170 194 62
162 186 67
164 188 67
163 186 92
141 164 105
93 121 140
105 132 170
111 137 152
101 127 142
88 117 148
81 111 166
72 104 169
63 98 161
60 94 148
69 100 131
60 95 136
60 94 145
60 94 145
61 96 147
60 95 143
59 93 134
61 95 150
60 95 145
60 95 133
61 96 142
61 96 146
59 94 136
60 95 140
61 96 145
61 96 143
61 96 135
60 94 134
61 96 135
57 90 107
65 95 120
111 122 40
132 145 0
127 141 0
119 131 0
127 136 0
120 129 0
124 131 0
123 132 0
128 136 0
133 141 0
140 151 0
148 158 0
132 141 0
141 150 0
137 148 0
151 157 0
148 159 0
150 163 0
157 169 0
156 170 0
154 170 0
159 175 0
157 172 0
159 176 0
162 179 0
163 181 0
165 184 0
165 184 0
162 183 0
164 184 0
165 185 0
166 186 0
168 187 0
171 192 0
170 192 0
172 193 0
171 192 0
170 191 0
170 192 0
171 195 0
173 197 0
172 196 0
169 191 0
172 194 0
171 194 0
172 195 0
172 196 0
172 196 0
173 197 0
171 194 0
172 195 0
172 195 0
174 197 0
173 196 0
173 197 0
175 198 0
174 196 0
172 195 0
172 196 0
173 196 0
173 196 0
173 196 0
174 197 0
174 197 0
173 196 0
173 195 0
173 197 0
171 194 0
173 197 0
175 198 0
175 198 0
175 198 0
173 197 0
174 196 0
172 196 0
174 197 0
174 197 0
175 198 0
174 198 0
172 196 0
172 196 0
173 196 0
173 196 0
173 196 0
174 198 0
176 198 0
173 196 0
174 197 0
173 197 0
176 198 0
174 197 0
173 197 0
177 199 0
174 198 0
175 198 0
173 197 0
174 198 0
173 197 0
175 198 0
176 199 0
175 198 0
177 199 0
174 198 0
174 197 0
174 198 0
174 198 0
173 197 0
174 198 0
174 198 0
174 198 0
175 198 0
175 198 0
175 198 0
174 198 0
173 197 0
174 197 0
174 197 0
172 196 0
176 199 0
175 198 0
174 198 0
172 195 0
174 197 0
173 197 0
174 198 0
175 198 0
174 197 0
174 198 0
175 198 0
175 198 0
174 198 0
174 198 0
176 199 0
175 198 0
175 198 0
174 198 0
174 197 0
174 197 0
175 198 0
174 198 0
174 198 0
174 198 0
175 198 0
175 198 0
174 197 0
174 198 0
175 198 0
173 197 0
175 198 0
175 198 0
173 197 0
174 198 0
175 198 0
174 198 0
173 197 0
173 197 0
174 198 0
175 198 0
175 198 0
175 198 0
175 197 0
174 198 0
175 198 0
176 199 0
175 198 0
175 198 0
173 197 0
174 198 0
176 198 0
175 198 0
175 198 0
174 197 0
176 198 0
176 199 0
173 197 0
175 198 0
175 198 0
175 198 0
174 198 0
175 198 0
175 198 0
174 197 0
174 197 0
176 199 0
176 199 0
174 198 0
176 199 0
174 197 0
176 199 0
176 199 0
173 197 0
174 198 0
175 198 0
174 198 0
175 198 0
173 197 0
176 198 0
176 199 0
176 199 0
175 198 0
176 199 0
171 196 0
175 198 0
175 198 0
175 198 0
176 199 0
175 198 0
174 198 0
175 198 0
175 198 0
175 198 0
175 198 0
175 198 0
174 198 0
176 198 0
174 198 0
174 197 0
174 198 0
175 198 0
175 198 0
173 197 0
176 198 0
174 197 0
176 199 0
173 197 0
173 197 0
174 198 0
175 198 0
174 198 0
175 198 0
175 198 0
174 198 0
173 197 0
175 198 0
175 198 0
174 197 0
176 199 0
175 198 0
173 197 0
175 198 0
175 198 0
175 198 0
174 197 0
175 198 0
173 197 0
174 198 0
174 198 0
174 198 0
175 198 0
173 197 0
173 197 0
173 197 0
173 197 0
174 197 0
174 197 0
174 198 0
175 198 0
174 198 0
173 197 0
174 198 0
174 198 0
174 198 0
175 198 0
174 198 0
174 198 0
175 198 0
174 198 0
173 197 0
173 197 0
175 198 0
173 197 0
174 197 0
176 199 0
174 197 0
175 198 0
175 198 0
176 198 0
173 196 0
174 198 0
174 197 0
173 196 0
175 198 0
175 198 0
175 198 0
173 197 0
177 199 0
173 197 0
175 198 0
174 197 0
175 198 0
174 197 0
174 198 0
174 198 0
173 197 0
175 198 0
171 195 0
175 198 0
174 197 0
173 197 0
173 197 0
174 197 0
171 196 0
174 198 0
174 198 0
175 198 0
172 196 0
174 198 0
176 198 0
173 197 0
174 198 0
173 197 0
174 198 0
173 197 0
174 198 0
174 197 0
174 198 0
171 194 0
174 198 0
173 197 0
174 198 0
172 196 0
173 196 0
172 196 0
172 195 0
174 197 0
174 197 0
174 197 0
173 196 0
172 196 0
177 199 0
172 195 0
175 198 0
173 196 0
171 194 0
173 197 0
175 198 0
173 197 0
172 195 0
171 195 0
174 197 0
174 197 0
173 196 0
171 194 0
169 193 0
172 195 0
174 197 0
175 198 57
177 200 72
203 220 191
217 233 248
203 221 220
181 203 108
173 196 62
174 198 72
172 195 67
172 196 51
175 199 80
171 194 67
171 196 95
169 194 62
174 198 80
166 191 72
168 192 57
165 189 62
166 190 62
161 185 76
157 182 76
166 190 62
160 184 88
155 177 82
117 143 154
96 123 151
97 124 149
101 126 143
109 134 145
81 109 146
78 109 160
69 102 154
64 98 154
60 93 133
60 93 125
59 94 139
60 94 139
59 93 133
58 93 132
61 96 141
60 95 134
60 95 132
60 94 136
59 94 130
60 95 143
59 93 129
61 95 143
60 95 141
59 93 126
59 94 124
59 93 125
59 93 134
58 91 110
108 127 74
129 141 0
119 131 0
121 134 0
119 133 0
123 136 0
132 145 0
130 141 0
132 142 0
143 152 0
129 137 0
139 149 0
138 150 0
137 148 0
148 160 0
155 169 0
149 160 0
151 161 0
157 171 0
150 163 0
155 170 0
155 170 0
159 174 0
159 175 0
165 183 0
162 180 0
166 184 0
164 183 0
166 187 0
165 183 0
169 187 0
164 184 0
168 189 0
172 192 0
167 188 0
167 189 0
167 190 0
170 192 0
170 191 0
168 190 0
169 191 0
168 191 0
168 189 0
171 194 0
169 192 0
172 195 0
171 194 0
171 194 0
171 194 0
173 196 0
174 196 0
173 197 0
172 195 0
174 197 0
176 199 0
171 195 0
172 194 0
172 195 0
173 195 0
171 194 0
172 195 0
174 197 0
174 197 0
174 197 0
173 196 0
175 197 0
174 198 0
173 197 0
174 197 0
173 197 0
175 198 0
173 197 0
174 197 0
173 197 0
175 198 0
173 197 0
174 198 0
174 197 0
174 197 0
175 198 0
175 198 0
174 197 0
173 197 0
175 198 0
173 196 0
174 197 0
172 195 0
174 198 0
176 198 0
176 199 0
175 197 0
174 197 0
175 198 0
175 198 0
174 198 0
176 199 0
175 198 0
175 198 0
173 197 0
174 198 0
177 199 0
175 198 0
174 198 0
173 197 0
174 197 0
175 198 0
175 198 0
174 198 0
175 198 0
174 197 0
174 197 0
176 199 0
173 197 0
174 198 0
175 198 0
174 197 0
174 197 0
175 198 0
174 197 0
172 196 0
174 198 0
175 198 0
175 198 0
174 198 0
175 198 0
176 199 0
175 198 0
175 198 0
173 197 0
176 199 0
175 198 0
175 198 0
173 197 0
174 198 0
173 197 0
175 198 0
174 198 0
172 196 0
173 197 0
174 198 0
175 198 0
174 198 0
174 198 0
174 198 0
175 198 0
175 198 0
175 197 0
174 197 0
175 198 0
174 198 0
174 198 0
174 197 0
174 198 0
174 198 0
175 198 0
175 198 0
174 197 0
174 197 0
175 198 0
174 198 0
176 199 0
174 198 0
173 197 0
174 198 0
175 198 0
174 198 0
174 197 0
175 198 0
174 198 0
174 197 0
174 197 0
174 198 0
173 197 0
174 198 0
174 198 0
174 198 0
174 197 0
175 198 0
173 197 0
174 197 0
174 197 0
174 198 0
174 197 0
172 196 0
174 197 0
174 197 0
174 198 0
175 198 0
175 198 0
176 198 0
174 198 0
175 198 0
175 198 0
174 198 0
174 198 0
175 198 0
175 198 0
174 197 0
174 198 0
174 197 0
174 197 0
174 198 0
174 198 0
175 198 0
175 198 0
174 198 0
174 197 0
175 198 0
174 197 0
175 198 0
175 198 0
175 198 0
175 198 0
174 198 0
174 198 0
174 197 0
175 198 0
174 198 0
173 197 0
173 197 0
174 198 0
172 196 0
173 197 0
174 198 0
174 197 0
175 198 0
173 197 0
172 197 0
175 198 0
174 198 0
176 199 0
173 197 0
176 199 0
174 198 0
175 198 0
174 197 0
174 197 0
172 197 0
175 198 0
174 198 0
175 198 0
175 198 0
173 197 0
175 198 0
175 198 0
174 198 0
174 198 0
176 198 0
174 197 0
174 198 0
173 197 0
175 198 0
174 197 0
174 198 0
173 197 0
174 197 0
174 198 0
173 196 0
176 198 0
175 198 0
174 198 0
174 198 0
174 198 0
174 197 0
173 197 0
174 198 0
175 198 0
173 197 0
171 196 0
174 198 0
175 198 0
175 198 0
176 198 0
174 198 0
174 197 0
175 198 0
173 197 0
174 198 0
172 196 0
176 198 0
174 198 0
174 198 0
175 198 0
176 198 0
175 198 0
172 196 0
174 197 0
175 198 0
173 197 0
174 197 0
175 198 0
175 198 0
173 197 0
174 198 0
174 197 0
174 198 0
175 198 0
175 198 0
172 197 0
176 199 0
174 198 0
175 198 0
173 197 0
175 198 0
174 197 0
174 197 0
173 196 0
172 196 0
173 197 0
173 197 0
173 197 0
175 198 0
173 197 0
173 197 0
173 197 0
173 197 0
174 197 0
174 197 0
175 198 0
174 197 0
173 196 0
172 195 0
175 198 0
174 197 0
176 199 0
172 196 0
173 197 0
173 195 0
174 197 0
173 196 0
174 197 0
171 195 0
170 194 0
173 197 0
170 195 0
172 195 0
171 195 0
172 195 0
173 196 0
173 196 0
173 196 0
172 195 0
173 196 0
167 191 0
168 192 0
169 193 0
172 195 0
182 203 92
177 200 72
221 235 249
212 229 236
179 201 102
175 198 92
173 196 57
174 198 80
174 198 80
172 195 67
169 194 72
172 195 67
168 191 62
172 195 76
165 189 76
172 196 67
169 191 57
170 194 62
167 191 76
162 186 57
162 186 72
161 185 80
155 179 62
153 177 92
153 176 103
83 113 136
95 121 133
79 108 138
98 124 151
101 127 149
86 115 158
73 105 156
61 97 148
61 95 140
61 95 130
62 96 131
58 92 122
58 92 126
58 92 132
57 91 121
59 93 126
60 95 136
58 92 124
61 96 141
59 93 126
61 95 143
59 94 139
59 94 126
59 93 122
60 94 126
59 93 117
57 90 103
84 109 90
124 139 0
116 132 0
127 140 0
133 147 0
123 136 0
122 135 0
137 152 0
132 145 0
127 136 0
140 154 0
136 152 0
141 154 0
143 156 0
141 154 0
142 157 0
144 155 0
146 161 0
155 170 0
155 171 0
155 170 0
149 165 0
154 169 0
158 173 0
156 174 0
161 179 0
167 187 0
163 181 0
163 181 0
167 188 0
170 192 0
168 190 0
167 188 0
169 190 0
170 190 0
166 187 0
170 192 0
167 189 0
167 189 0
172 194 0
175 197 0
169 192 0
171 193 0
170 193 0
168 191 0
173 195 0
172 196 0
172 195 0
172 194 0
173 196 0
171 193 0
170 193 0
170 193 0
173 195 0
172 195 0
174 196 0
175 197 0
173 196 0
174 197 0
172 195 0
173 196 0
171 195 0
173 196 0
174 197 0
170 194 0
173 196 0
174 198 0
175 198 0
175 198 0
172 196 0
174 197 0
176 198 0
175 198 0
172 196 0
173 196 0
175 198 0
174 197 0
172 196 0
175 198 0
173 196 0
173 197 0
174 197 0
173 197 0
174 197 0
173 197 0
175 198 0
174 198 0
174 198 0
174 197 0
173 197 0
174 197 0
175 198 0
174 198 0
176 199 0
174 198 0
175 198 0
174 198 0
173 197 0
174 198 0
175 198 0
174 198 0
173 197 0
173 197 0
172 196 0
172 196 0
174 197 0
175 198 0
174 197 0
174 197 0
174 197 0
174 198 0
174 198 0
175 198 0
176 199 0
174 197 0
174 198 0
177 199 0
174 198 0
174 197 0
175 198 0
175 198 0
174 197 0
172 197 0
174 198 0
177 199 0
176 199 0
175 198 0
175 198 0
173 197 0
175 198 0
175 198 0
174 198 0
176 199 0
173 197 0
175 198 0
175 198 0
174 198 0
175 198 0
172 196 0
175 198 0
175 198 0
174 198 0
173 197 0
174 198 0
174 197 0
174 198 0
172 197 0
175 198 0
174 197 0
174 198 0
174 198 0
175 198 0
174 198 0
175 198 0
174 198 0
173 197 0
175 198 0
175 198 0
175 198 0
176 199 0
177 199 0
175 198 0
173 197 0
174 197 0
173 196 0
174 198 0
175 198 0
175 198 0
174 198 0
174 197 0
174 198 0
176 198 0
173 197 0
175 198 0
175 198 0
173 197 0
175 198 0
175 198 0
175 198 0
173 197 0
175 198 0
175 198 0
174 198 0
174 198 0
175 198 0
174 198 0
175 198 0
175 198 0
175 198 0
175 198 0
176 199 0
176 199 0
175 198 0
173 197 0
175 198 0
175 198 0
173 197 0
175 198 0
175 198 0
175 198 0
174 197 0
175 198 0
176 199 0
173 197 0
174 197 0
174 198 0
174 198 0
174 198 0
176 199 0
175 198 0
174 197 0
174 198 0
173 197 0
176 199 0
175 198 0
174 198 0
174 198 0
173 197 0
176 198 0
174 197 0
174 198 0
175 198 0
176 199 0
174 198 0
174 198 0
174 198 0
175 198 0
174 197 0
175 198 0
176 199 0
173 197 0
174 198 0
172 196 0
175 198 0
176 199 0
175 198 0
174 198 0
174 198 0
176 199 0
175 198 0
174 198 0
175 198 0
174 198 0
176 199 0
174 198 0
173 197 0
175 198 0
174 198 0
174 198 0
174 197 0
173 197 0
173 197 0
174 197 0
175 198 0
175 198 0
174 197 0
177 199 0
174 198 0
173 197 0
174 197 0
174 197 0
172 196 0
174 197 0
175 198 0
173 197 0
174 198 0
173 197 0
174 198 0
174 198 0
172 197 0
174 197 0
174 197 0
173 197 0
176 198 0
174 198 0
173 197 0
174 197 0
175 198 0
173 196 0
174 197 0
174 197 0
175 198 0
174 197 0
175 198 0
173 197 0
175 198 0
175 198 0
173 197 0
174 197 0
175 198 0
174 198 0
174 197 0
173 197 0
175 198 0
174 198 0
175 198 0
174 197 0
171 195 0
174 197 0
174 197 0
173 197 0
176 199 0
173 197 0
174 197 0
173 197 0
176 199 0
174 198 0
174 197 0
175 197 0
174 197 0
175 198 0
173 197 0
174 198 0
173 197 0
174 197 0
173 196 0
173 197 0
174 198 0
176 198 0
174 197 0
174 198 0
173 196 0
174 196 0
175 198 0
174 197 0
174 197 0
173 196 0
174 198 0
171 195 0
172 196 0
173 196 0
175 198 0
173 196 0
172 196 0
173 196 0
174 197 0
171 195 0
172 196 0
173 197 0
175 198 0
173 197 0
172 195 0
169 192 0
173 197 0
171 195 0
173 196 0
171 194 0
177 199 62
182 204 105
196 215 167
217 232 245
194 214 171
175 197 44
173 196 80
174 199 99
173 197 84
169 191 57
170 194 62
169 194 57
173 196 67
171 196 80
167 191 67
169 192 62
162 186 67
164 189 84
167 190 76
162 187 76
162 186 67
167 191 72
165 188 57
153 176 57
158 180 67
159 182 76
126 149 113
85 113 125
101 126 144
102 127 150
102 128 144
94 121 142
81 111 157
72 101 149
68 100 149
59 94 135
64 97 129
58 93 122
59 93 133
59 94 122
58 92 126
59 93 131
58 93 125
60 94 130
59 94 122
59 94 130
58 93 125
58 91 118
58 91 114
58 92 125
58 91 121
58 91 115
84 107 94
124 139 18
124 138 0
121 134 0
132 148 0
114 129 0
135 151 0
135 151 0
131 148 0
136 150 0
138 151 0
137 149 0
144 161 0
136 148 0
144 159 0
141 154 0
153 169 0
154 169 0
152 167 0
157 174 0
158 175 0
158 172 0
157 175 0
157 172 0
163 180 0
162 180 0
167 186 0
166 186 0
165 184 0
166 186 0
162 181 0
167 187 0
168 189 0
168 190 0
170 192 0
171 193 0
170 193 0
164 185 0
164 184 0
168 190 0
169 191 0
170 193 0
169 192 0
172 194 0
170 191 0
172 195 0
170 193 0
172 195 0
172 195 0
174 198 0
174 197 0
173 196 0
175 197 0
171 194 0
173 196 0
169 192 0
174 198 0
174 197 0
171 195 0
173 196 0
170 193 0
172 196 0
171 195 0
175 197 0
172 195 0
174 196 0
175 198 0
174 197 0
174 198 0
172 195 0
174 197 0
174 198 0
172 196 0
173 196 0
173 197 0
176 198 0
175 198 0
174 197 0
174 197 0
174 198 0
171 195 0
174 197 0
171 195 0
174 197 0
175 197 0
174 198 0
175 197 0
174 197 0
174 198 0
174 197 0
174 197 0
173 196 0
174 198 0
174 197 0
172 196 0
173 197 0
175 198 0
174 197 0
172 196 0
176 198 0
175 198 0
175 198 0
174 198 0
176 198 0
173 197 0
175 198 0
174 197 0
174 198 0
174 197 0
172 197 0
173 197 0
176 198 0
176 198 0
174 197 0
175 198 0
175 198 0
174 198 0
173 196 0
174 197 0
174 198 0
175 198 0
174 197 0
176 198 0
174 197 0
175 198 0
173 197 0
174 198 0
175 198 0
175 198 0
174 197 0
173 197 0
173 197 0
172 197 0
173 197 0
175 198 0
175 198 0
176 198 0
174 198 0
175 198 0
173 197 0
173 197 0
174 198 0
174 197 0
176 198 0
174 197 0
173 197 0
173 197 0
172 196 0
174 198 0
174 198 0
175 198 0
174 198 0
173 197 0
176 198 0
173 197 0
173 197 0
174 198 0
175 198 0
175 198 0
176 198 0
173 197 0
175 198 0
174 198 0
175 198 0
175 198 0
174 197 0
174 198 0
176 199 0
175 198 0
174 198 0
174 197 0
176 199 0
174 198 0
175 198 0
175 198 0
174 198 0
174 198 0
175 198 0
175 198 0
176 199 0
173 196 0
173 197 0
175 198 0
173 197 0
174 197 0
173 197 0
173 197 0
174 198 0
173 196 0
175 198 0
175 198 0
174 197 0
175 198 0
174 198 0
175 198 0
175 198 0
173 197 0
175 198 0
175 198 0
174 198 0
174 198 0
173 197 0
174 197 0
174 198 0
174 198 0
175 197 0
174 197 0
176 198 0
175 198 0
173 197 0
175 198 0
176 199 0
174 198 0
175 198 0
175 198 0
177 199 0
175 198 0
175 198 0
175 198 0
174 198 0
172 197 0
173 197 0
174 197 0
176 199 0
174 198 0
174 197 0
173 197 0
174 198 0
174 198 0
173 197 0
175 198 0
174 198 0
174 198 0
175 198 0
176 198 0
174 198 0
174 198 0
174 197 0
175 198 0
173 197 0
176 199 0
176 199 0
174 198 0
174 198 0
175 198 0
173 197 0
174 197 0
174 197 0
174 198 0
175 198 0
174 198 0
174 197 0
174 198 0
174 198 0
175 198 0
173 197 0
175 198 0
175 198 0
175 198 0
175 198 0
173 197 0
174 197 0
176 198 0
175 198 0
174 198 0
175 197 0
175 198 0
174 198 0
173 197 0
174 197 0
176 198 0
173 197 0
175 198 0
174 198 0
175 198 0
173 197 0
175 198 0
176 199 0
174 198 0
175 198 0
176 199 0
175 198 0
175 197 0
173 197 0
174 197 0
174 197 0
174 198 0
176 198 0
175 198 0
175 198 0
174 198 0
174 198 0
175 198 0
173 196 0
176 199 0
173 197 0
173 197 0
175 198 0
173 197 0
175 198 0
175 198 0
174 197 0
173 197 0
173 197 0
173 197 0
173 197 0
173 197 0
175 198 0
173 197 0
174 197 0
174 198 0
174 197 0
172 196 0
172 196 0
173 197 0
173 197 0
174 198 0
175 198 0
172 196 0
174 197 0
173 196 0
173 197 0
175 198 0
176 198 0
173 196 0
174 198 0
172 196 0
173 197 0
172 195 0
171 194 0
173 197 0
175 197 0
174 197 0
175 198 0
171 195 0
172 195 0
174 197 0
172 195 0
174 197 0
171 194 0
174 197 0
173 196 0
173 196 0
170 193 0
170 194 0
171 195 0
172 196 0
168 192 0
181 203 95
179 201 80
214 229 227
206 223 211
179 201 114
170 193 67
174 198 80
174 197 57
172 196 72
172 196 72
168 192 62
164 188 67
172 196 80
167 191 57
167 192 76
166 191 76
164 188 67
169 192 72
165 189 111
164 187 72
164 187 62
166 189 84
163 186 88
161 184 84
152 175 67
149 171 88
147 169 100
102 126 113
95 121 127
86 112 121
93 119 131
97 123 132
100 125 134
74 105 154
69 98 137
62 95 128
66 97 115
57 92 120
58 93 122
58 92 118
59 94 122
59 93 122
58 93 130
58 92 129
58 92 118
57 91 117
58 92 131
57 91 117
57 90 122
57 91 107
56 88 103
68 93 70
119 135 0
118 132 0
123 138 0
117 133 0
122 140 0
126 141 0
126 141 0
132 146 0
131 146 0
138 152 0
145 161 0
141 155 0
151 168 0
146 161 0
146 165 0
143 158 0
151 167 0
156 173 0
160 180 0
158 176 0
160 178 0
155 173 0
165 182 0
160 177 0
154 171 0
166 185 0
159 178 0
163 183 0
159 178 0
167 189 0
166 188 0
164 185 0
167 188 0
165 186 0
169 191 0
168 190 0
167 188 0
166 187 0
171 193 0
171 193 0
170 190 0
168 191 0
171 193 0
171 193 0
170 193 0
174 196 0
169 191 0
173 194 0
171 193 0
170 192 0
173 194 0
174 197 0
170 193 0
172 196 0
174 196 0
174 197 0
173 197 0
174 196 0
174 197 0
173 197 0
173 196 0
170 193 0
172 195 0
171 195 0
174 197 0
173 196 0
172 195 0
175 198 0
172 195 0
173 196 0
172 196 0
173 197 0
174 197 0
174 197 0
173 197 0
173 197 0
173 197 0
175 198 0
174 197 0
174 197 0
175 197 0
174 198 0
174 197 0
172 196 0
175 198 0
174 197 0
174 198 0
174 197 0
173 197 0
175 198 0
174 198 0
173 196 0
172 196 0
175 198 0
175 198 0
174 197 0
174 197 0
176 198 0
174 197 0
174 198 0
172 196 0
173 196 0
177 199 0
171 196 0
174 197 0
174 197 0
174 198 0
174 197 0
172 197 0
175 198 0
175 198 0
174 198 0
176 198 0
175 198 0
173 197 0
173 197 0
174 198 0
176 199 0
172 196 0
175 198 0
175 198 0
175 198 0
174 197 0
175 198 0
173 197 0
174 198 0
174 198 0
174 196 0
175 198 0
174 198 0
175 198 0
173 197 0
175 198 0
175 197 0
175 198 0
175 198 0
175 198 0
175 198 0
173 197 0
175 198 0
175 198 0
173 197 0
175 198 0
174 197 0
174 197 0
176 198 0
172 196 0
175 198 0
176 199 0
174 198 0
175 198 0
176 199 0
174 198 0
174 198 0
173 197 0
174 198 0
174 198 0
175 198 0
176 199 0
176 198 0
173 197 0
173 197 0
173 197 0
173 197 0
174 197 0
175 198 0
174 198 0
173 197 0
175 198 0
176 199 0
172 196 0
174 198 0
175 198 0
175 198 0
173 197 0
175 198 0
176 198 0
173 197 0
175 198 0
174 198 0
173 197 0
173 197 0
173 196 0
175 198 0
174 198 0
175 198 0
174 197 0
175 198 0
173 197 0
174 198 0
174 197 0
175 198 0
175 198 0
174 197 0
174 197 0
175 198 0
174 198 0
173 197 0
175 198 0
173 197 0
174 198 0
173 197 0
174 197 0
174 197 0
174 198 0
174 198 0
173 197 0
172 196 0
175 198 0
175 198 0
172 197 0
175 198 0
174 197 0
175 198 0
174 198 0
175 198 0
175 198 0
172 197 0
175 198 0
175 198 0
173 197 0
175 198 0
174 197 0
174 198 0
173 197 0
175 198 0
175 198 0
174 198 0
175 198 0
174 197 0
174 197 0
175 198 0
174 197 0
174 198 0
174 198 0
175 198 0
174 198 0
175 198 0
175 198 0
175 198 0
175 198 0
174 198 0
175 198 0
176 199 0
177 199 0
174 197 0
176 199 0
174 197 0
175 198 0
175 198 0
174 197 0
175 198 0
174 198 0
172 196 0
175 198 0
174 198 0
174 197 0
174 198 0
174 197 0
173 197 0
175 198 0
175 198 0
175 198 0
174 198 0
174 198 0
174 198 0
175 198 0
174 198 0
173 197 0
174 198 0
175 198 0
174 198 0
173 197 0
175 198 0
174 198 0
175 198 0
175 198 0
174 198 0
174 198 0
175 198 0
174 197 0
173 196 0
174 197 0
174 198 0
174 198 0
174 198 0
174 198 0
174 198 0
174 198 0
173 196 0
174 198 0
175 198 0
175 198 0
174 198 0
173 197 0
174 198 0
174 198 0
174 197 0
175 198 0
173 196 0
174 197 0
174 198 0
173 196 0
173 196 0
174 198 0
172 196 0
173 197 0
173 197 0
174 198 0
174 198 0
175 198 0
176 199 0
174 198 0
172 196 0
173 197 0
175 198 0
173 197 0
173 197 0
172 195 0
173 197 0
174 197 0
174 197 0
173 197 0
172 196 0
173 197 0
173 197 0
173 197 0
175 198 0
171 194 0
173 197 0
170 195 0
173 196 0
174 197 0
171 195 0
171 195 0
173 196 0
175 198 0
172 196 0
173 197 0
171 195 0
171 195 0
171 195 0
171 194 0
173 197 0
174 197 0
173 197 0
170 194 0
169 194 0
177 200 67
179 201 80
220 234 248
189 209 149
174 197 84
173 197 72
171 195 67
170 193 76
172 196 72
167 191 80
171 194 67
171 194 51
171 195 72
167 191 44
168 192 51
164 188 72
168 191 92
166 189 76
171 195 102
170 192 95
168 191 95
161 185 114
163 186 99
154 177 76
159 182 102
151 173 72
151 172 76
137 157 80
101 125 110
103 127 129
102 126 124
84 112 120
105 127 126
94 115 121
75 104 124
69 98 121
56 89 114
68 98 107
57 91 115
58 91 110
57 90 114
58 91 113
58 91 110
58 92 124
59 93 120
57 91 120
56 90 107
57 90 113
57 90 110
54 86 105
90 110 67
115 132 0
124 139 0
123 138 0
125 140 0
129 147 0
125 142 0
131 148 0
140 159 0
140 159 0
135 151 0
142 159 0
139 157 0
145 162 0
145 162 0
142 159 0
156 173 0
158 177 0
161 178 0
156 172 0
155 172 0
158 177 0
159 176 0
154 172 0
162 181 0
162 183 0
159 176 0
165 187 0
164 185 0
166 187 0
163 184 0
167 186 0
167 188 0
166 186 0
168 190 0
165 186 0
162 183 0
169 190 0
168 189 0
167 189 0
168 189 0
164 186 0
169 191 0
168 190 0
173 195 0
172 195 0
173 195 0
172 195 0
172 195 0
171 193 0
172 195 0
172 195 0
171 194 0
170 192 0
169 192 0
172 194 0
172 195 0
173 197 0
174 197 0
173 196 0
173 196 0
170 193 0
172 194 0
172 195 0
173 196 0
172 195 0
173 197 0
174 198 0
173 197 0
175 197 0
174 197 0
174 197 0
173 197 0
174 197 0
174 198 0
173 196 0
174 197 0
175 197 0
173 196 0
172 196 0
173 196 0
172 196 0
173 197 0
174 197 0
174 197 0
173 197 0
173 197 0
175 198 0
174 197 0
172 196 0
173 197 0
173 197 0
175 198 0
176 199 0
173 197 0
174 198 0
174 197 0
174 198 0
175 198 0
175 198 0
174 197 0
173 197 0
174 197 0
174 198 0
176 199 0
175 198 0
174 198 0
174 197 0
174 198 0
175 198 0
174 198 0
173 196 0
173 197 0
175 198 0
174 197 0
174 198 0
175 198 0
173 197 0
175 198 0
173 197 0
175 198 0
173 197 0
176 198 0
174 196 0
174 198 0
174 198 0
173 197 0
174 198 0
174 198 0
174 197 0
174 198 0
175 198 0
174 198 0
173 197 0
173 197 0
173 197 0
175 198 0
175 198 0
175 198 0
175 198 0
174 197 0
173 197 0
174 197 0
174 198 0
174 197 0
174 197 0
174 198 0
173 197 0
177 199 0
174 198 0
174 197 0
174 197 0
176 198 0
174 197 0
174 198 0
174 197 0
175 198 0
175 198 0
175 198 0
176 199 0
175 198 0
174 198 0
174 197 0
174 198 0
175 198 0
173 197 0
175 198 0
175 198 0
176 199 0
176 198 0
175 198 0
176 199 0
172 197 0
175 198 0
175 198 0
176 199 0
174 198 0
175 198 0
175 198 0
176 199 0
175 198 0
175 198 0
174 197 0
176 199 0
174 197 0
172 197 0
174 198 0
174 197 0
174 198 0
174 197 0
175 198 0
174 198 0
173 197 0
175 198 0
174 197 0
174 197 0
176 198 0
175 198 0
174 198 0
176 198 0
173 197 0
173 197 0
174 198 0
174 197 0
175 198 0
174 198 0
173 197 0
171 196 0
174 197 0
174 198 0
176 198 0
175 198 0
175 198 0
174 197 0
174 198 0
175 197 0
173 197 0
174 198 0
175 198 0
172 197 0
175 198 0
175 198 0
174 197 0
174 198 0
176 199 0
174 198 0
174 198 0
174 197 0
175 198 0
173 197 0
175 198 0
175 198 0
174 197 0
176 198 0
174 198 0
175 198 0
174 198 0
175 198 0
173 197 0
173 197 0
176 198 0
174 198 0
175 198 0
175 198 0
174 198 0
173 197 0
174 197 0
174 198 0
175 198 0
175 198 0
174 198 0
174 198 0
175 198 0
175 198 0
175 198 0
173 197 0
173 197 0
175 198 0
174 198 0
176 199 0
173 197 0
174 198 0
173 197 0
174 198 0
174 198 0
174 198 0
174 198 0
173 197 0
174 197 0
174 197 0
174 198 0
176 199 0
174 198 0
173 197 0
174 198 0
174 198 0
173 197 0
174 198 0
174 197 0
174 198 0
176 198 0
175 198 0
176 199 0
175 198 0
175 198 0
175 198 0
175 198 0
173 197 0
173 197 0
174 198 0
175 198 0
174 197 0
173 197 0
175 198 0
174 197 0
174 198 0
174 197 0
175 198 0
174 198 0
173 197 0
174 197 0
176 199 0
173 197 0
173 197 0
173 197 0
174 198 0
176 199 0
172 197 0
174 198 0
172 196 0
175 198 0
176 198 0
174 198 0
172 196 0
175 198 0
174 197 0
173 196 0
174 197 0
170 195 0
174 197 0
173 197 0
174 198 0
172 196 0
175 198 0
173 197 0
175 198 0
175 197 0
172 196 0
171 195 0
175 198 0
174 197 0
170 193 0
174 198 0
174 197 0
171 194 0
173 196 0
170 195 0
171 195 0
171 195 0
171 195 0
172 196 0
172 195 0
170 193 0
169 193 0
172 195 0
170 194 0
172 196 0
171 194 0
169 192 0
173 196 0
177 199 72
185 206 111
211 227 220
176 199 76
175 199 76
176 199 88
176 199 80
173 196 80
171 195 67
172 196 67
169 193 62
166 190 84
172 197 80
167 191 84
169 193 88
171 193 102
169 192 108
162 186 76
162 185 84
163 187 92
166 190 111
164 186 95
148 171 88
159 182 92
155 177 108
154 174 92
150 171 88
141 160 99
131 150 62
88 112 75
99 123 126
91 116 116
92 118 115
111 127 110
86 111 107
73 104 126
66 97 107
81 109 102
56 88 107
56 89 100
55 87 103
58 91 113
58 91 118
56 89 100
56 89 102
54 87 92
56 89 107
56 87 99
65 89 72
101 115 25
107 122 0
113 127 0
124 141 0
131 148 0
125 144 0
139 157 0
135 152 0
143 161 0
139 158 0
141 159 0
135 153 0
153 171 0
144 162 0
142 162 0
146 165 0
151 171 0
150 165 0
157 176 0
153 171 0
155 175 0
152 169 0
154 173 0
156 174 0
158 177 0
155 172 0
161 181 0
161 182 0
161 180 0
166 188 0
162 182 0
164 184 0
170 192 0
163 184 0
169 190 0
164 185 0
166 188 0
169 190 0
166 189 0
169 191 0
167 189 0
168 189 0
170 192 0
169 191 0
172 195 0
170 192 0
167 191 0
175 197 0
170 193 0
171 194 0
172 194 0
172 195 0
172 194 0
172 194 0
171 194 0
173 195 0
173 196 0
169 191 0
172 194 0
170 194 0
170 194 0
172 196 0
172 195 0
173 196 0
172 196 0
174 197 0
174 196 0
173 196 0
173 196 0
171 194 0
173 197 0
176 198 0
174 197 0
175 198 0
174 197 0
172 195 0
173 197 0
174 198 0
174 198 0
174 198 0
173 197 0
174 198 0
175 198 0
173 197 0
175 197 0
174 197 0
173 196 0
174 198 0
175 198 0
173 197 0
174 197 0
173 196 0
173 197 0
174 197 0
173 197 0
174 198 0
174 197 0
174 197 0
173 196 0
175 198 0
173 197 0
174 197 0
173 197 0
174 198 0
174 197 0
174 198 0
174 197 0
171 196 0
173 197 0
174 198 0
174 198 0
174 198 0
173 197 0
175 198 0
174 197 0
174 197 0
174 197 0
174 198 0
176 198 0
176 199 0
176 199 0
174 197 0
175 198 0
174 197 0
173 197 0
174 198 0
176 199 0
175 198 0
173 196 0
175 198 0
172 197 0
175 198 0
175 198 0
175 198 0
173 197 0
174 197 0
175 198 0
174 197 0
173 197 0
173 197 0
175 198 0
176 198 0
175 198 0
177 199 0
176 199 0
174 198 0
175 198 0
175 198 0
175 198 0
176 198 0
175 198 0
174 198 0
174 198 0
175 198 0
175 198 0
174 198 0
174 198 0
174 198 0
176 199 0
175 198 0
173 197 0
174 198 0
175 198 0
176 198 0
174 197 0
174 197 0
173 197 0
174 197 0
175 198 0
173 197 0
173 197 0
173 197 0
174 198 0
175 198 0
174 198 0
175 198 0
175 197 0
174 198 0
177 199 0
173 197 0
175 198 0
173 197 0
173 197 0
174 197 0
174 197 0
174 198 0
173 197 0
174 198 0
175 198 0
175 198 0
173 197 0
174 198 0
174 198 0
174 198 0
174 197 0
174 198 0
175 198 0
174 198 0
175 198 0
174 198 0
174 198 0
176 198 0
175 198 0
176 198 0
174 198 0
174 197 0
174 198 0
174 198 0
174 198 0
173 197 0
173 197 0
175 198 0
174 197 0
173 196 0
173 197 0
176 199 0
175 198 0
173 197 0
175 198 0
174 198 0
174 198 0
175 198 0
173 197 0
175 198 0
174 198 0
176 199 0
174 198 0
176 199 0
174 198 0
175 198 0
174 198 0
175 198 0
174 197 0
176 198 0
174 198 0
174 197 0
174 197 0
176 199 0
175 198 0
175 198 0
175 198 0
174 198 0
174 197 0
173 197 0
174 198 0
173 197 0
175 198 0
174 198 0
175 198 0
176 198 0
174 197 0
175 198 0
173 197 0
174 197 0
174 198 0
173 197 0
172 197 0
174 198 0
174 198 0
175 198 0
175 198 0
174 197 0
174 198 0
175 198 0
172 196 0
175 198 0
173 196 0
174 198 0
174 198 0
174 197 0
174 197 0
173 197 0
173 196 0
173 196 0
174 198 0
171 195 0
175 198 0
175 198 0
176 198 0
171 195 0
174 198 0
173 197 0
174 197 0
174 197 0
174 198 0
174 198 0
174 198 0
174 198 0
174 198 0
173 197 0
175 198 0
173 197 0
175 198 0
173 197 0
172 196 0
173 196 0
174 197 0
173 197 0
171 195 0
175 198 0
172 196 0
175 198 0
175 198 0
173 197 0
174 198 0
174 198 0
172 196 0
172 196 0
172 196 0
173 197 0
175 198 0
175 198 0
175 198 0
175 198 0
173 197 0
172 196 0
175 197 0
174 198 0
173 197 0
174 197 0
175 198 0
173 196 0
172 196 0
173 196 0
174 197 0
172 196 0
175 198 0
172 196 0
174 197 0
172 196 0
173 196 0
173 197 0
173 197 0
173 197 0
173 197 0
173 197 0
172 196 0
172 196 0
172 195 0
172 196 0
172 195 0
171 194 0
171 195 0
171 194 0
174 197 0
169 193 0
173 197 0
170 193 0
171 194 0
172 196 0
174 197 44
178 200 62
188 208 127
196 214 171
177 199 95
172 196 72
171 194 62
169 192 51
169 193 84
171 195 57
168 192 67
172 195 84
176 199 72
173 196 117
174 197 102
169 192 92
167 189 108
175 198 117
164 188 92
166 189 88
170 193 114
161 184 88
161 184 105
153 176 115
159 181 111
156 177 95
152 173 95
147 169 92
147 167 88
134 152 88
123 141 80
106 126 99
107 129 120
95 119 97
119 140 117
140 154 40
88 114 102
85 110 97
93 116 78
57 85 70
50 81 70
51 82 72
53 84 90
52 83 88
50 81 74
59 89 92
65 90 76
79 97 47
89 104 0
98 113 0
108 124 0
121 137 0
104 121 0
119 138 0
123 141 0
136 154 0
137 155 0
130 149 0
140 159 0
140 159 0
130 150 0
150 171 0
143 161 0
146 164 0
150 171 0
153 172 0
149 167 0
153 172 0
148 168 0
150 169 0
154 173 0
157 178 0
160 178 0
162 181 0
159 179 0
168 189 0
158 179 0
160 180 0
163 183 0
160 178 0
165 186 0
168 188 0
167 188 0
164 184 0
167 189 0
164 186 0
165 187 0
167 189 0
169 190 0
164 183 0
168 189 0
168 190 0
170 193 0
170 192 0
169 191 0
171 194 0
167 189 0
171 193 0
172 194 0
170 192 0
169 192 0
170 193 0
174 197 0
172 195 0
172 194 0
174 196 0
169 191 0
172 195 0
173 196 0
172 195 0
173 195 0
172 196 0
172 196 0
174 197 0
174 197 0
173 196 0
175 197 0
172 195 0
172 195 0
175 198 0
173 197 0
174 197 0
173 197 0
172 196 0
171 195 0
174 198 0
175 198 0
173 196 0
174 197 0
174 197 0
171 195 0
173 197 0
173 196 0
172 196 0
173 197 0
177 199 0
175 198 0
173 197 0
172 196 0
173 197 0
173 197 0
173 197 0
174 197 0
173 197 0
174 198 0
173 197 0
174 197 0
174 197 0
174 197 0
174 198 0
173 197 0
176 199 0
174 198 0
174 197 0
175 197 0
173 197 0
176 199 0
173 197 0
176 198 0
174 198 0
175 198 0
173 197 0
175 198 0
171 195 0
174 197 0
172 196 0
171 196 0
174 198 0
175 198 0
174 197 0
175 198 0
173 197 0
174 197 0
173 197 0
175 198 0
176 198 0
174 197 0
173 197 0
175 198 0
176 198 0
173 197 0
174 197 0
174 198 0
174 198 0
174 198 0
175 198 0
177 199 0
174 198 0
174 198 0
176 198 0
173 197 0
174 198 0
176 199 0
174 198 0
174 197 0
174 197 0
174 198 0
174 198 0
173 197 0
175 198 0
176 199 0
176 198 0
172 197 0
174 198 0
173 197 0
174 198 0
173 197 0
173 197 0
173 197 0
174 198 0
175 198 0
176 198 0
174 198 0
174 198 0
174 197 0
175 198 0
174 198 0
175 197 0
174 198 0
175 198 0
174 198 0
174 197 0
175 198 0
175 198 0
175 198 0
174 198 0
175 197 0
176 199 0
175 198 0
173 197 0
176 198 0
175 198 0
175 198 0
174 198 0
174 198 0
175 198 0
174 198 0
175 198 0
174 198 0
174 197 0
175 198 0
175 198 0
175 198 0
176 199 0
175 198 0
174 198 0
173 197 0
175 198 0
174 198 0
173 197 0
175 198 0
176 199 0
175 198 0
175 198 0
175 198 0
175 198 0
174 198 0
175 198 0
175 198 0
173 197 0
175 198 0
175 198 0
174 198 0
174 198 0
176 199 0
174 198 0
174 198 0
173 197 0
173 197 0
173 197 0
173 197 0
174 197 0
175 198 0
174 198 0
175 198 0
174 198 0
173 197 0
172 197 0
174 198 0
177 199 0
176 199 0
174 198 0
175 198 0
173 197 0
175 198 0
174 197 0
174 198 0
174 197 0
176 199 0
175 198 0
174 197 0
175 198 0
173 197 0
173 196 0
175 198 0
174 198 0
176 199 0
175 198 0
175 198 0
175 198 0
173 197 0
174 198 0
177 199 0
174 198 0
175 198 0
173 197 0
173 197 0
173 197 0
175 198 0
175 198 0
173 197 0
175 198 0
172 196 0
174 198 0
175 198 0
173 197 0
173 197 0
173 197 0
175 198 0
174 198 0
174 198 0
175 198 0
175 198 0
174 197 0
175 198 0
173 197 0
174 197 0
174 197 0
174 198 0
175 198 0
174 197 0
174 198 0
175 198 0
173 197 0
176 199 0
174 197 0
174 198 0
174 198 0
176 198 0
175 198 0
173 197 0
175 198 0
174 197 0
174 197 0
174 197 0
174 197 0
174 198 0
173 197 0
175 197 0
175 198 0
173 196 0
173 197 0
174 197 0
173 197 0
174 197 0
175 198 0
176 199 0
173 197 0
174 197 0
174 198 0
172 196 0
175 197 0
174 197 0
173 197 0
174 197 0
173 196 0
174 197 0
173 197 0
175 198 0
173 197 0
174 198 0
173 197 0
173 197 0
174 198 0
174 196 0
176 198 0
172 196 0
172 196 0
173 196 0
173 197 0
173 197 0
172 196 0
173 196 0
172 196 0
172 195 0
170 194 0
172 196 0
173 196 0
173 196 0
172 195 0
175 198 0
171 194 0
172 196 0
170 194 0
174 197 0
173 197 0
173 196 0
170 194 0
172 196 0
174 197 0
172 196 25
177 200 62
186 207 122
187 207 125
178 200 102
176 199 76
174 197 67
169 193 57
167 191 76
173 197 62
173 197 72
171 194 76
174 197 99
176 199 102
172 195 105
173 195 117
166 190 72
167 191 95
166 189 105
165 188 67
162 185 95
159 183 94
158 182 86
162 184 117
157 179 105
158 180 84
156 178 108
145 165 88
150 170 95
144 164 80
136 154 84
117 133 72
103 121 94
89 113 74
100 121 94
143 160 25
106 125 47
82 105 47
100 118 36
92 107 0
101 117 18
83 99 25
83 98 18
104 119 18
88 103 36
92 106 0
104 120 0
103 118 0
94 110 0
100 118 0
116 132 0
112 129 0
119 137 0
120 138 0
122 142 0
126 144 0
132 151 0
130 148 0
138 157 0
138 157 0
142 163 0
144 163 0
144 163 0
156 176 0
156 177 0
152 172 0
156 178 0
157 177 0
156 176 0
154 174 0
155 175 0
160 179 0
159 180 0
156 177 0
159 179 0
159 181 0
160 179 0
165 186 0
160 181 0
164 186 0
167 189 0
160 181 0
163 184 0
167 189 0
171 192 0
169 189 0
168 190 0
165 186 0
169 191 0
169 190 0
168 190 0
169 192 0
170 192 0
169 192 0
171 193 0
172 194 0
170 192 0
170 193 0
169 192 0
168 191 0
169 192 0
170 193 0
169 193 0
170 193 0
173 195 0
172 195 0
172 195 0
172 195 0
171 195 0
174 196 0
173 197 0
171 193 0
172 195 0
174 196 0
174 197 0
173 197 0
174 196 0
174 197 0
173 197 0
173 197 0
172 195 0
174 197 0
174 196 0
173 197 0
175 198 0
174 197 0
173 196 0
176 199 0
174 197 0
174 197 0
176 198 0
176 199 0
172 196 0
174 197 0
173 197 0
173 197 0
174 198 0
173 197 0
174 197 0
175 198 0
174 198 0
173 197 0
175 198 0
176 199 0
172 196 0
175 198 0
174 198 0
175 198 0
174 197 0
174 197 0
174 197 0
175 198 0
174 197 0
172 196 0
173 197 0
174 197 0
174 198 0
174 198 0
175 198 0
173 197 0
174 198 0
175 198 0
175 198 0
171 196 0
175 198 0
175 198 0
174 198 0
175 198 0
176 199 0
174 197 0
173 197 0
174 197 0
173 197 0
175 198 0
175 198 0
174 197 0
174 198 0
173 197 0
173 197 0
174 198 0
176 198 0
173 197 0
175 198 0
174 197 0
175 198 0
175 198 0
174 198 0
175 198 0
175 198 0
175 198 0
174 198 0
174 198 0
174 198 0
173 197 0
174 197 0
175 198 0
175 198 0
175 198 0
174 198 0
174 198 0
174 197 0
176 199 0
174 198 0
176 198 0
176 198 0
172 196 0
175 198 0
175 198 0
173 196 0
173 197 0
175 198 0
173 197 0
175 198 0
174 197 0
175 198 0
171 196 0
177 199 0
174 198 0
174 197 0
176 198 0
174 198 0
175 198 0
173 197 0
175 198 0
173 197 0
174 197 0
174 198 0
173 196 0
176 198 0
174 198 0
174 197 0
173 197 0
175 198 0
174 198 0
173 197 0
174 198 0
174 197 0
174 198 0
176 199 0
175 198 0
174 198 0
174 197 0
175 198 0
174 198 0
173 197 0
174 198 0
174 197 0
173 197 0
175 198 0
175 198 0
173 197 0
175 198 0
175 198 0
175 198 0
174 197 0
174 197 0
172 197 0
175 198 0
175 198 0
174 198 0
175 198 0
175 198 0
174 198 0
175 198 0
174 197 0
175 198 0
174 197 0
173 197 0
175 198 0
173 197 0
175 198 0
175 198 0
174 198 0
174 197 0
173 197 0
176 198 0
173 197 0
172 196 0
173 197 0
174 197 0
175 198 0
175 198 0
175 198 0
174 197 0
174 197 0
173 197 0
173 197 0
174 198 0
175 198 0
176 198 0
174 198 0
174 198 0
174 198 0
175 198 0
172 197 0
174 198 0
175 198 0
174 198 0
175 198 0
175 198 0
174 198 0
173 197 0
175 198 0
175 198 0
174 198 0
174 198 0
175 198 0
174 198 0
175 198 0
176 199 0
175 198 0
176 199 0
173 197 0
174 197 0
175 198 0
174 197 0
175 198 0
174 198 0
174 198 0
173 197 0
175 198 0
173 197 0
175 198 0
174 198 0
175 198 0
175 198 0
175 198 0
174 198 0
176 199 0
173 196 0
173 197 0
173 196 0
173 197 0
173 197 0
175 198 0
174 197 0
174 197 0
174 197 0
175 198 0
174 197 0
174 198 0
173 197 0
173 197 0
174 197 0
174 198 0
173 197 0
174 198 0
174 198 0
172 196 0
174 197 0
174 197 0
173 197 0
175 198 0
172 196 0
172 196 0
174 197 0
174 197 0
174 197 0
174 198 0
173 197 0
174 197 0
172 197 0
175 198 0
172 196 0
171 195 0
173 196 0
173 197 0
172 196 0
173 197 0
173 197 0
171 195 0
175 198 0
174 197 0
175 197 0
172 195 0
173 196 0
174 197 0
173 197 0
174 197 0
173 197 0
175 198 0
176 199 0
173 197 0
174 197 0
173 196 0
174 197 0
171 195 0
172 196 0
169 193 0
173 197 0
172 196 0
173 196 0
170 194 0
171 194 0
169 193 0
169 193 0
171 195 0
172 195 0
171 195 0
172 195 0
171 195 0
179 201 62
182 204 102
179 202 99
172 195 62
172 195 67
176 199 76
169 192 62
173 197 88
173 196 80
171 194 57
174 197 95
170 193 108
173 196 84
169 192 95
172 195 102
171 194 102
169 193 114
165 189 80
166 190 108
162 185 84
166 189 76
163 186 105
164 187 111
160 182 80
161 183 114
149 171 92
148 169 88
149 169 92
150 169 92
148 166 111
134 152 62
130 148 76
120 136 60
121 139 25
145 163 0
139 158 0
104 121 0
118 136 0
105 123 0
99 116 0
94 111 0
104 121 0
99 115 0
100 116 0
113 130 0
103 121 0
115 133 0
104 122 0
124 143 0
113 130 0
126 145 0
136 156 0
125 144 0
128 146 0
133 151 0
137 155 0
143 160 0
146 167 0
140 161 0
143 165 0
149 169 0
141 161 0
151 172 0
160 181 0
150 168 0
143 163 0
155 175 0
160 180 0
160 181 0
161 182 0
161 180 0
164 187 0
162 184 0
161 183 0
165 186 0
164 187 0
162 181 0
167 188 0
162 183 0
170 191 0
168 190 0
166 188 0
166 186 0
165 186 0
164 184 0
167 189 0
169 190 0
168 191 0
170 192 0
171 193 0
168 190 0
167 189 0
168 190 0
169 190 0
169 190 0
169 192 0
171 192 0
170 194 0
171 194 0
172 195 0
170 193 0
173 194 0
173 195 0
171 194 0
173 195 0
170 192 0
174 197 0
174 197 0
170 194 0
172 195 0
172 195 0
173 196 0
172 195 0
173 196 0
174 197 0
173 197 0
171 195 0
173 196 0
172 196 0
172 195 0
174 196 0
175 198 0
174 198 0
173 196 0
173 197 0
175 198 0
175 198 0
175 198 0
174 197 0
174 197 0
172 195 0
173 197 0
174 197 0
173 197 0
171 196 0
173 197 0
175 198 0
176 198 0
173 196 0
174 197 0
175 198 0
174 198 0
174 197 0
174 198 0
176 199 0
175 198 0
174 198 0
175 198 0
174 197 0
174 197 0
175 198 0
174 197 0
174 198 0
174 198 0
173 197 0
174 197 0
173 197 0
175 198 0
173 196 0
174 197 0
175 198 0
173 197 0
174 197 0
173 197 0
173 196 0
172 196 0
175 197 0
176 198 0
175 198 0
175 198 0
175 198 0
175 198 0
174 197 0
173 196 0
174 198 0
173 197 0
174 198 0
174 198 0
172 196 0
175 198 0
176 198 0
175 198 0
175 198 0
174 197 0
174 197 0
173 197 0
173 197 0
176 198 0
175 198 0
175 198 0
174 198 0
174 198 0
175 197 0
173 197 0
174 198 0
175 198 0
174 198 0
175 198 0
174 198 0
176 199 0
172 197 0
174 198 0
176 199 0
174 198 0
176 199 0
173 197 0
176 198 0
173 197 0
175 198 0
173 197 0
174 198 0
175 198 0
173 197 0
177 199 0
173 197 0
173 197 0
173 197 0
172 196 0
174 197 0
176 199 0
174 198 0
173 197 0
174 198 0
174 198 0
173 197 0
175 198 0
175 198 0
173 197 0
175 198 0
175 198 0
175 198 0
174 198 0
174 198 0
173 197 0
175 198 0
174 198 0
175 198 0
174 198 0
176 199 0
175 198 0
174 198 0
175 198 0
174 198 0
175 198 0
176 199 0
175 198 0
174 198 0
173 197 0
174 198 0
174 198 0
174 197 0
174 197 0
174 198 0
174 197 0
176 198 0
175 198 0
173 197 0
175 198 0
174 198 0
174 198 0
175 198 0
175 198 0
174 198 0
175 198 0
174 197 0
175 198 0
176 199 0
173 197 0
174 198 0
175 198 0
176 198 0
175 198 0
175 198 0
173 197 0
175 198 0
174 198 0
172 197 0
174 198 0
173 197 0
174 197 0
175 198 0
174 197 0
174 198 0
174 198 0
174 197 0
174 197 0
175 198 0
174 198 0
175 198 0
176 199 0
173 197 0
175 198 0
174 197 0
172 196 0
174 198 0
174 198 0
173 197 0
174 198 0
174 197 0
174 198 0
173 197 0
176 199 0
175 198 0
172 197 0
173 196 0
174 197 0
174 197 0
174 198 0
175 198 0
175 198 0
177 199 0
174 197 0
174 198 0
175 198 0
173 197 0
175 198 0
175 198 0
175 198 0
175 198 0
173 197 0
174 197 0
174 197 0
174 197 0
174 197 0
172 196 0
173 197 0
172 197 0
174 198 0
175 198 0
173 197 0
174 197 0
174 197 0
173 197 0
174 198 0
174 197 0
174 197 0
173 197 0
173 197 0
173 197 0
174 198 0
174 197 0
173 197 0
174 198 0
173 197 0
176 198 0
174 198 0
174 197 0
173 197 0
174 198 0
172 196 0
175 198 0
174 197 0
174 198 0
175 198 0
172 197 0
173 196 0
174 198 0
172 196 0
175 198 0
173 197 0
174 198 0
173 197 0
174 197 0
175 198 0
175 198 0
173 197 0
174 197 0
173 196 0
173 197 0
175 198 0
174 198 0
172 196 0
174 198 0
172 196 0
172 196 0
173 197 0
172 195 0
172 196 0
172 196 0
172 196 0
171 195 0
172 196 0
173 197 0
173 197 0
175 197 0
174 197 0
171 194 0
172 195 0
173 197 0
170 194 0
172 196 0
172 196 0
172 195 0
167 190 0
173 196 0
173 196 0
172 195 0
172 195 0
172 196 0
174 197 0
177 199 62
175 198 51
178 201 84
173 195 67
173 196 84
176 199 84
171 195 88
168 191 67
174 197 72
174 197 72
176 199 111
171 195 92
172 195 92
176 199 105
167 191 88
166 189 95
167 190 102
168 192 127
167 191 108
162 185 80
161 184 99
166 189 95
162 184 105
160 183 105
159 182 84
162 183 88
153 175 102
159 179 105
156 176 105
141 160 105
141 160 80
124 142 57
134 151 80
129 147 25
162 184 25
138 158 0
121 140 0
113 131 0
113 131 0
115 134 0
120 138 0
113 130 0
114 132 0
115 133 0
124 143 0
118 136 0
110 127 0
124 143 0
125 143 0
121 142 0
126 146 0
127 146 0
137 157 0
139 159 0
130 149 0
138 158 0
150 172 0
150 172 0
151 171 0
148 167 0
147 168 0
150 170 0
159 179 0
157 176 0
160 181 0
152 174 0
164 186 0
158 179 0
156 178 0
153 176 0
157 178 0
158 178 0
163 183 0
165 187 0
161 182 0
163 184 0
166 189 0
163 185 0
169 190 0
165 187 0
162 183 0
165 187 0
166 187 0
165 187 0
168 190 0
169 191 0
169 192 0
166 188 0
167 191 0
171 193 0
171 194 0
171 192 0
168 190 0
172 195 0
173 196 0
171 193 0
173 196 0
171 193 0
170 193 0
170 194 0
171 195 0
172 195 0
170 194 0
173 196 0
174 197 0
172 195 0
173 196 0
172 194 0
172 195 0
172 196 0
172 194 0
172 194 0
173 196 0
171 195 0
171 195 0
175 198 0
176 199 0
174 197 0
173 196 0
172 196 0
173 196 0
174 198 0
174 197 0
175 198 0
173 197 0
174 197 0
176 199 0
175 197 0
173 197 0
174 197 0
175 198 0
172 196 0
175 198 0
173 196 0
173 197 0
175 198 0
173 197 0
175 198 0
173 197 0
174 197 0
174 197 0
175 197 0
174 197 0
175 198 0
174 198 0
174 197 0
175 198 0
174 198 0
174 197 0
174 197 0
174 197 0
174 197 0
174 198 0
173 196 0
173 197 0
173 197 0
175 198 0
174 197 0
173 197 0
175 198 0
174 198 0
175 198 0
175 198 0
174 197 0
174 197 0
172 196 0
175 198 0
175 198 0
175 198 0
175 198 0
175 198 0
172 197 0
174 197 0
175 198 0
175 198 0
175 198 0
175 198 0
175 198 0
177 199 0
174 198 0
175 198 0
175 197 0
175 198 0
173 197 0
175 198 0
173 197 0
173 197 0
174 198 0
174 198 0
173 197 0
173 197 0
174 198 0
172 197 0
174 198 0
175 198 0
175 198 0
173 197 0
173 197 0
175 198 0
174 198 0
173 197 0
174 198 0
173 197 0
175 198 0
176 198 0
175 198 0
176 199 0
174 198 0
174 198 0
174 197 0
173 197 0
175 198 0
173 197 0
177 199 0
175 198 0
174 198 0
174 197 0
173 196 0
174 198 0
173 197 0
175 198 0
173 197 0
174 197 0
174 197 0
174 198 0
175 198 0
176 198 0
175 198 0
175 198 0
173 197 0
175 198 0
174 197 0
174 198 0
173 197 0
174 198 0
175 198 0
176 199 0
175 198 0
176 199 0
174 197 0
174 198 0
175 198 0
174 197 0
175 198 0
176 199 0
174 198 0
177 199 0
176 199 0
174 197 0
173 197 0
176 199 0
174 198 0
174 198 0
175 198 0
175 198 0
174 197 0
174 197 0
173 197 0
174 198 0
174 197 0
173 197 0
173 197 0
175 198 0
173 197 0
176 198 0
174 197 0
174 198 0
174 198 0
175 198 0
174 198 0
173 197 0
174 198 0
174 198 0
174 197 0
175 198 0
174 198 0
174 197 0
175 198 0
175 198 0
175 198 0
176 198 0
173 197 0
174 197 0
171 196 0
175 198 0
174 198 0
175 198 0
174 197 0
174 197 0
174 198 0
174 198 0
174 198 0
173 196 0
175 198 0
174 198 0
174 198 0
174 198 0
173 197 0
173 197 0
172 196 0
175 198 0
174 197 0
174 198 0
175 198 0
174 198 0
175 198 0
173 197 0
177 199 0
173 196 0
173 197 0
174 197 0
175 198 0
175 198 0
174 197 0
174 198 0
172 196 0
175 198 0
174 197 0
175 198 0
174 197 0
176 198 0
174 197 0
175 198 0
174 197 0
175 198 0
174 197 0
175 198 0
176 198 0
174 197 0
175 198 0
174 198 0
174 198 0
174 197 0
174 198 0
174 198 0
174 197 0
176 198 0
173 197 0
174 197 0
174 198 0
174 197 0
176 198 0
174 197 0
175 198 0
174 198 0
175 198 0
172 196 0
174 198 0
173 197 0
175 198 0
175 198 0
172 195 0
172 196 0
173 196 0
173 196 0
175 198 0
176 198 0
175 198 0
173 197 0
174 198 0
174 198 0
175 198 0
172 196 0
175 197 0
173 196 0
174 198 0
174 197 0
173 196 0
175 197 0
173 196 0
174 197 0
173 197 0
173 197 0
170 194 0
173 196 0
172 195 0
172 196 0
171 195 0
171 194 0
175 198 0
172 196 0
174 197 0
172 196 0
172 197 0
174 197 0
170 194 0
171 195 0
175 198 0
170 194 0
173 196 0
173 196 0
172 196 0
173 196 0
169 193 0
173 197 0
170 194 0
171 195 0
173 196 0
173 196 0
171 195 0
177 199 57
174 198 25
177 199 80
174 197 57
172 195 88
172 195 84
171 194 44
171 195 57
174 196 67
175 198 102
174 197 114
173 196 92
170 193 99
170 193 127
172 196 84
170 193 80
167 191 99
165 188 92
170 193 95
168 192 95
161 184 99
154 177 76
159 182 95
165 187 122
160 182 88
159 181 99
153 174 88
154 174 99
154 172 114
153 172 111
150 169 76
144 163 57
130 149 51
136 155 44
145 165 0
150 171 0
139 158 0
128 147 0
123 142 0
121 140 0
122 142 0
131 150 0
115 134 0
133 152 0
120 138 0
121 139 0
116 136 0
122 142 0
133 152 0
142 162 0
134 154 0
128 150 0
140 160 0
129 150 0
136 157 0
147 167 0
139 160 0
137 158 0
145 167 0
147 168 0
154 175 0
155 177 0
147 168 0
158 180 0
158 179 0
158 180 0
160 181 0
157 179 0
158 180 0
158 180 0
159 181 0
163 184 0
166 187 0
164 187 0
167 189 0
162 184 0
165 187 0
165 189 0
168 189 0
163 186 0
164 184 0
169 191 0
163 185 0
168 190 0
165 188 0
168 191 0
169 191 0
171 193 0
169 191 0
170 190 0
171 194 0
171 194 0
170 194 0
172 196 0
172 194 0
172 195 0
172 195 0
171 194 0
168 191 0
172 194 0
170 192 0
169 193 0
171 194 0
171 194 0
173 196 0
174 197 0
174 196 0
174 197 0
171 194 0
174 197 0
173 196 0
174 197 0
173 197 0
171 194 0
173 197 0
173 196 0
172 196 0
171 194 0
174 197 0
172 195 0
174 198 0
176 198 0
172 196 0
173 196 0
173 197 0
173 196 0
175 198 0
175 198 0
174 198 0
172 196 0
175 197 0
174 197 0
172 196 0
175 197 0
172 196 0
174 198 0
175 198 0
174 197 0
174 197 0
172 196 0
173 196 0
174 198 0
173 196 0
173 196 0
175 198 0
173 197 0
174 197 0
173 197 0
175 198 0
174 197 0
173 196 0
175 198 0
173 197 0
173 197 0
176 199 0
173 196 0
174 198 0
175 198 0
173 197 0
176 199 0
173 196 0
174 198 0
174 198 0
174 197 0
174 197 0
175 198 0
175 198 0
173 197 0
174 197 0
173 197 0
173 197 0
173 197 0
172 196 0
174 198 0
175 198 0
172 196 0
175 198 0
174 198 0
174 198 0
173 197 0
174 197 0
175 198 0
174 197 0
176 199 0
174 197 0
173 197 0
176 198 0
174 198 0
174 197 0
176 199 0
176 199 0
175 198 0
174 198 0
174 197 0
174 198 0
174 197 0
174 198 0
173 197 0
174 198 0
173 196 0
174 198 0
174 198 0
172 196 0
174 198 0
174 198 0
175 198 0
175 198 0
175 198 0
177 199 0
174 197 0
174 198 0
174 198 0
174 197 0
176 199 0
175 198 0
176 199 0
174 198 0
174 198 0
173 197 0
175 198 0
174 197 0
173 197 0
174 198 0
174 198 0
175 198 0
174 198 0
175 198 0
174 197 0
174 197 0
174 198 0
173 197 0
175 198 0
174 198 0
173 197 0
174 198 0
174 197 0
175 198 0
173 197 0
175 198 0
176 199 0
174 198 0
176 198 0
175 198 0
174 198 0
174 198 0
174 198 0
175 198 0
175 198 0
175 198 0
175 198 0
175 198 0
174 198 0
176 199 0
175 198 0
174 197 0
176 198 0
174 197 0
174 198 0
173 197 0
174 198 0
174 198 0
174 198 0
172 197 0
174 198 0
174 197 0
175 198 0
174 198 0
174 198 0
175 198 0
176 199 0
174 198 0
175 198 0
174 198 0
175 198 0
175 198 0
174 198 0
175 198 0
174 197 0
176 198 0
174 197 0
173 197 0
174 197 0
174 198 0
174 198 0
173 197 0
173 197 0
175 198 0
174 197 0
174 198 0
174 198 0
174 198 0
176 199 0
175 198 0
174 197 0
173 197 0
175 198 0
175 198 0
174 197 0
176 198 0
174 198 0
174 197 0
174 198 0
175 198 0
174 198 0
175 198 0
173 197 0
176 199 0
175 198 0
174 198 0
174 197 0
175 198 0
175 198 0
173 197 0
173 197 0
173 197 0
173 196 0
172 196 0
173 197 0
176 199 0
172 197 0
175 198 0
176 198 0
175 198 0
174 198 0
174 198 0
174 198 0
173 197 0
175 198 0
175 198 0
173 197 0
174 197 0
174 197 0
174 197 0
175 198 0
173 197 0
174 198 0
176 199 0
175 198 0
174 198 0
174 198 0
175 198 0
174 197 0
171 195 0
174 198 0
173 197 0
174 198 0
173 197 0
174 197 0
174 197 0
172 196 0
174 198 0
173 197 0
175 198 0
175 198 0
174 197 0
174 198 0
173 197 0
173 197 0
173 197 0
174 197 0
173 197 0
174 198 0
172 195 0
173 196 0
174 197 0
175 198 0
173 197 0
174 196 0
174 196 0
172 196 0
170 193 0
173 196 0
173 197 0
174 197 0
171 195 0
173 197 0
173 196 0
173 197 0
174 197 0
170 194 0
170 194 0
171 195 0
171 194 0
173 196 0
171 195 0
170 194 0
171 195 0
173 196 0
173 196 0
174 197 0
175 198 0
172 195 0
171 195 0
170 193 0
170 193 0
170 193 0
171 195 0
172 195 0
170 195 0
173 197 0
177 199 62
176 198 67
176 199 62
176 198 72
174 197 76
171 193 88
173 195 95
168 191 67
177 199 95
174 196 102
172 194 111
171 194 102
164 186 72
172 196 105
166 189 105
170 193 99
163 185 88
166 190 80
159 182 62
165 188 95
164 187 105
169 191 99
160 183 105
163 186 95
162 183 105
160 181 88
156 177 88
159 180 92
166 186 111
153 172 102
149 169 62
141 161 44
145 166 0
136 157 0
149 170 0
153 175 0
132 152 0
140 161 0
133 153 0
125 145 0
119 138 0
126 146 0
133 153 0
129 149 0
118 138 0
137 157 0
132 152 0
120 140 0
139 160 0
145 166 0
140 160 0
143 164 0
134 155 0
151 173 0
145 166 0
148 169 0
152 174 0
154 175 0
156 176 0
157 178 0
151 173 0
151 171 0
154 175 0
155 177 0
156 178 0
159 180 0
159 180 0
156 179 0
153 173 0
157 178 0
166 188 0
163 184 0
162 183 0
157 179 0
166 189 0
164 185 0
165 186 0
166 188 0
163 184 0
162 184 0
172 194 0
166 187 0
167 189 0
167 190 0
169 192 0
170 192 0
172 195 0
168 191 0
168 190 0
170 194 0
162 183 0
171 194 0
170 191 0
171 193 0
168 192 0
171 195 0
172 193 0
168 190 0
171 193 0
169 191 0
172 194 0
167 189 0
173 196 0
172 195 0
172 195 0
176 198 0
171 194 0
169 191 0
172 196 0
172 196 0
173 196 0
171 193 0
174 196 0
175 198 0
175 198 0
174 197 0
172 195 0
173 197 0
172 195 0
173 196 0
172 196 0
172 196 0
172 195 0
175 198 0
175 198 0
172 195 0
175 197 0
173 196 0
173 196 0
173 197 0
174 197 0
174 197 0
175 198 0
174 197 0
173 196 0
174 197 0
174 197 0
174 198 0
172 196 0
174 196 0
175 198 0
175 198 0
175 198 0
174 197 0
174 198 0
173 197 0
174 197 0
175 198 0
174 198 0
175 198 0
174 198 0
174 197 0
173 197 0
173 197 0
173 197 0
173 197 0
173 196 0
176 198 0
173 196 0
174 198 0
173 197 0
173 197 0
176 198 0
174 198 0
174 197 0
176 198 0
175 198 0
174 197 0
174 198 0
172 196 0
175 198 0
176 199 0
173 197 0
174 197 0
176 199 0
172 196 0
175 198 0
174 197 0
175 198 0
172 197 0
174 197 0
175 198 0
173 197 0
174 197 0
174 198 0
174 198 0
174 197 0
176 199 0
174 197 0
175 198 0
174 198 0
175 198 0
173 197 0
173 197 0
174 197 0
174 197 0
177 199 0
174 197 0
173 197 0
174 197 0
174 198 0
174 198 0
175 198 0
174 198 0
175 198 0
175 198 0
175 198 0
173 197 0
174 198 0
174 198 0
174 198 0
174 197 0
174 198 0
175 198 0
174 197 0
174 198 0
174 197 0
174 198 0
175 198 0
174 197 0
173 197 0
174 197 0
176 199 0
176 198 0
173 197 0
175 198 0
175 198 0
175 198 0
173 196 0
174 197 0
174 198 0
173 197 0
175 198 0
174 198 0
174 197 0
174 198 0
172 196 0
174 198 0
175 198 0
174 198 0
173 197 0
173 197 0
175 198 0
175 198 0
174 197 0
175 198 0
173 197 0
174 198 0
174 197 0
175 198 0
174 198 0
174 198 0
174 197 0
174 197 0
175 198 0
174 198 0
174 198 0
173 197 0
174 198 0
175 198 0
171 195 0
173 197 0
174 198 0
173 197 0
173 197 0
175 198 0
172 196 0
173 197 0
174 198 0
175 198 0
172 197 0
175 198 0
175 198 0
173 197 0
173 197 0
173 197 0
176 198 0
173 197 0
175 198 0
174 197 0
174 197 0
175 198 0
176 199 0
174 198 0
173 197 0
173 197 0
175 198 0
176 198 0
174 198 0
174 197 0
176 199 0
174 198 0
176 199 0
175 198 0
175 198 0
174 197 0
175 198 0
174 197 0
175 198 0
176 199 0
173 197 0
173 197 0
175 198 0
175 198 0
175 198 0
173 197 0
175 198 0
173 197 0
176 199 0
174 197 0
174 197 0
173 197 0
174 197 0
175 198 0
175 198 0
174 198 0
176 198 0
174 198 0
177 199 0
176 199 0
174 197 0
171 196 0
174 198 0
175 198 0
174 198 0
172 196 0
175 198 0
173 197 0
173 196 0
174 197 0
175 198 0
174 198 0
174 198 0
175 198 0
174 198 0
174 198 0
173 197 0
172 195 0
176 198 0
174 197 0
175 198 0
175 198 0
172 196 0
174 198 0
174 197 0
176 198 0
174 197 0
173 196 0
174 197 0
174 197 0
172 195 0
175 198 0
172 196 0
173 196 0
175 198 0
175 198 0
173 197 0
173 197 0
174 198 0
173 197 0
175 198 0
174 198 0
175 198 0
174 197 0
173 196 0
173 196 0
175 198 0
173 197 0
173 196 0
175 198 0
174 197 0
171 195 0
173 197 0
173 196 0
172 196 0
175 198 0
173 197 0
171 195 0
175 198 0
175 198 0
173 196 0
173 197 0
173 197 0
173 197 0
174 197 0
173 196 0
175 198 0
171 195 0
172 196 0
174 197 0
173 197 0
175 198 0
174 197 0
174 197 0
170 193 0
169 193 0
168 192 0
173 197 0
170 194 0
172 196 0
173 196 0
174 197 51
174 197 51
174 197 70
174 197 76
174 196 72
168 191 76
170 193 78
174 197 94
170 193 92
173 195 95
178 200 99
172 195 84
165 187 95
164 187 92
170 192 88
168 191 95
158 181 80
164 187 95
165 188 80
170 193 127
159 181 105
165 188 105
161 183 92
164 185 102
158 179 88
163 183 92
155 175 92
148 168 95
157 177 102
148 169 67
145 167 44
149 172 0
145 165 0
160 183 0
149 172 0
140 161 0
146 167 0
131 151 0
134 154 0
140 160 0
138 159 0
127 149 0
142 162 0
141 161 0
136 156 0
134 154 0
137 158 0
144 165 0
139 160 0
140 161 0
143 164 0
148 170 0
142 164 0
148 169 0
148 170 0
154 176 0
139 161 0
158 178 0
159 181 0
153 175 0
153 175 0
153 175 0
157 179 0
156 178 0
156 178 0
159 178 0
164 187 0
164 186 0
160 180 0
163 186 0
164 186 0
167 188 0
165 186 0
165 187 0
168 190 0
164 186 0
167 188 0
169 191 0
167 187 0
172 194 0
170 192 0
165 188 0
169 192 0
167 189 0
169 191 0
171 193 0
167 189 0
167 189 0
169 192 0
171 194 0
173 195 0
166 189 0
170 193 0
168 191 0
168 192 0
171 193 0
172 195 0
169 192 0
170 194 0
173 196 0
174 197 0
170 194 0
173 195 0
171 193 0
173 197 0
172 194 0
170 193 0
171 194 0
174 198 0
172 196 0
171 195 0
173 196 0
172 195 0
169 193 0
174 197 0
171 195 0
173 196 0
172 195 0
175 197 0
174 197 0
171 195 0
173 197 0
171 194 0
173 197 0
174 197 0
173 197 0
175 197 0
172 196 0
174 197 0
172 195 0
175 198 0
173 196 0
174 197 0
172 196 0
173 197 0
174 197 0
173 196 0
172 196 0
175 198 0
173 196 0
173 196 0
173 197 0
174 197 0
173 197 0
174 197 0
173 196 0
175 198 0
174 198 0
173 197 0
173 196 0
173 197 0
173 197 0
174 197 0
176 199 0
174 198 0
171 196 0
174 197 0
173 197 0
174 197 0
174 198 0
174 198 0
173 196 0
173 196 0
174 198 0
173 197 0
174 197 0
173 196 0
175 198 0
172 196 0
173 197 0
175 198 0
174 198 0
173 197 0
173 197 0
174 198 0
176 198 0
175 198 0
176 199 0
175 198 0
173 197 0
173 197 0
174 197 0
175 198 0
174 198 0
175 198 0
175 198 0
175 198 0
174 198 0
174 198 0
174 198 0
173 197 0
174 198 0
175 198 0
174 198 0
173 197 0
176 199 0
175 198 0
174 198 0
177 199 0
174 197 0
174 197 0
175 198 0
172 197 0
174 198 0
174 198 0
174 197 0
175 198 0
176 199 0
173 197 0
174 197 0
175 198 0
174 198 0
174 197 0
174 198 0
175 198 0
176 199 0
173 197 0
176 199 0
174 198 0
173 197 0
175 198 0
175 198 0
175 198 0
175 198 0
173 197 0
176 199 0
174 197 0
174 198 0
174 198 0
175 198 0
174 197 0
174 197 0
173 197 0
174 198 0
174 198 0
174 198 0
175 198 0
175 198 0
175 198 0
175 198 0
174 197 0
175 198 0
176 198 0
174 197 0
175 198 0
175 198 0
174 198 0
173 197 0
176 199 0
175 198 0
174 198 0
175 198 0
174 197 0
175 198 0
175 198 0
174 198 0
175 198 0
176 199 0
173 197 0
174 197 0
173 197 0
174 197 0
174 197 0
175 198 0
174 198 0
174 197 0
175 198 0
174 198 0
175 198 0
174 197 0
175 198 0
176 199 0
174 197 0
174 197 0
175 198 0
176 199 0
175 198 0
173 197 0
174 198 0
174 197 0
175 198 0
173 197 0
176 198 0
172 196 0
174 198 0
174 198 0
176 198 0
174 198 0
174 198 0
172 196 0
174 198 0
173 196 0
174 198 0
173 197 0
175 198 0
174 198 0
174 198 0
174 197 0
176 198 0
175 198 0
174 198 0
176 199 0
175 198 0
174 197 0
176 199 0
174 197 0
176 199 0
175 198 0
174 198 0
174 197 0
172 197 0
175 198 0
175 198 0
173 197 0
176 198 0
175 198 0
175 198 0
175 198 0
174 198 0
172 196 0
174 198 0
173 197 0
174 198 0
171 195 0
174 198 0
174 197 0
174 198 0
175 198 0
174 197 0
174 198 0
174 197 0
174 197 0
175 198 0
175 198 0
174 198 0
174 198 0
175 198 0
173 197 0
173 197 0
174 197 0
174 198 0
176 198 0
173 197 0
173 197 0
171 195 0
172 196 0
173 197 0
172 196 0
176 199 0
173 196 0
173 197 0
175 198 0
174 198 0
174 197 0
174 197 0
175 198 0
172 196 0
173 197 0
171 195 0
174 198 0
171 195 0
173 196 0
175 198 0
175 198 0
174 198 0
173 197 0
173 197 0
173 197 0
173 197 0
174 198 0
172 196 0
173 197 0
174 197 0
173 196 0
172 196 0
174 198 0
173 196 0
175 197 0
173 196 0
174 197 0
169 193 0
172 196 0
171 194 0
172 196 0
171 195 0
168 192 0
171 194 0
173 195 0
169 193 0
172 197 0
171 195 0
171 195 0
170 193 0
172 195 0
170 194 0
170 193 0
172 196 0
172 196 0
173 196 0
173 197 0
174 197 25
171 194 36
174 196 80
171 195 36
172 195 76
169 192 78
167 189 86
165 188 67
173 194 94
171 193 114
172 194 102
169 192 88
169 192 99
172 194 102
171 194 99
171 194 102
166 188 111
168 190 120
168 189 95
162 185 88
162 184 80
164 186 102
163 184 84
162 183 76
157 178 88
161 181 95
158 179 84
155 176 72
159 180 76
155 176 72
144 167 25
146 168 36
155 177 36
146 168 0
156 178 0
150 172 0
136 157 0
150 171 0
139 161 0
140 161 0
152 173 0
143 164 0
134 155 0
142 163 0
140 162 0
145 165 0
138 159 0
145 166 0
144 165 0
152 173 0
144 166 0
144 165 0
146 168 0
146 166 0
157 180 0
155 175 0
154 176 0
150 172 0
150 170 0
151 172 0
160 181 0
159 181 0
157 178 0
158 181 0
158 182 0
160 183 0
165 187 0
165 187 0
167 188 0
165 187 0
162 183 0
161 181 0
172 195 0
164 187 0
162 184 0
169 192 0
166 188 0
166 188 0
165 188 0
167 190 0
168 191 0
166 189 0
167 189 0
171 193 0
168 190 0
168 190 0
168 191 0
171 193 0
169 191 0
170 192 0
170 193 0
171 194 0
170 194 0
170 192 0
170 193 0
172 195 0
170 193 0
172 194 0
172 195 0
170 193 0
172 195 0
172 195 0
173 196 0
173 196 0
171 194 0
171 193 0
171 195 0
172 195 0
173 196 0
172 196 0
170 194 0
172 196 0
172 195 0
170 193 0
172 195 0
172 195 0
173 197 0
174 197 0
172 195 0
174 197 0
174 198 0
175 197 0
175 198 0
174 197 0
174 197 0
172 196 0
174 197 0
172 195 0
174 198 0
176 198 0
174 197 0
173 196 0
173 196 0
173 196 0
173 197 0
173 196 0
174 197 0
174 197 0
174 197 0
172 196 0
176 199 0
171 194 0
174 197 0
173 197 0
174 197 0
175 198 0
175 198 0
173 197 0
171 195 0
175 198 0
174 197 0
173 197 0
174 197 0
173 197 0
176 198 0
174 198 0
175 198 0
173 197 0
173 197 0
174 197 0
173 196 0
172 196 0
175 198 0
176 199 0
174 198 0
175 198 0
174 197 0
175 198 0
174 197 0
174 197 0
174 197 0
173 197 0
176 199 0
175 198 0
174 198 0
173 197 0
176 198 0
175 198 0
173 196 0
174 197 0
175 198 0
176 199 0
175 198 0
176 199 0
174 198 0
176 198 0
173 197 0
174 198 0
175 198 0
175 198 0
175 198 0
175 198 0
174 198 0
174 198 0
175 198 0
175 198 0
176 198 0
175 198 0
174 198 0
175 198 0
174 198 0
174 198 0
174 197 0
174 198 0
174 198 0
175 198 0
176 198 0
175 198 0
175 198 0
174 197 0
176 198 0
175 198 0
173 197 0
172 196 0
174 198 0
174 198 0
175 198 0
175 198 0
175 198 0
175 198 0
174 198 0
174 198 0
175 198 0
174 197 0
174 198 0
174 198 0
173 197 0
174 197 0
176 199 0
174 198 0
174 198 0
173 197 0
173 197 0
175 198 0
175 198 0
174 198 0
174 197 0
175 198 0
175 198 0
172 197 0
175 198 0
176 199 0
175 198 0
174 198 0
173 197 0
175 198 0
174 197 0
174 197 0
175 198 0
175 198 0
175 198 0
173 197 0
175 198 0
172 197 0
174 198 0
173 197 0
176 198 0
174 197 0
173 197 0
173 197 0
173 197 0
175 198 0
175 198 0
175 198 0
175 198 0
174 198 0
176 199 0
176 199 0
176 198 0
174 197 0
175 198 0
175 198 0
173 197 0
174 197 0
175 198 0
174 198 0
174 197 0
175 198 0
172 196 0
175 198 0
176 198 0
175 198 0
172 196 0
174 198 0
175 198 0
174 198 0
173 197 0
175 198 0
174 197 0
173 197 0
175 198 0
175 198 0
173 197 0
174 198 0
177 199 0
175 198 0
175 198 0
174 197 0
176 198 0
174 197 0
175 198 0
173 197 0
173 197 0
174 198 0
173 197 0
173 197 0
175 198 0
173 197 0
174 198 0
174 198 0
173 196 0
175 198 0
174 197 0
173 197 0
174 197 0
174 198 0
176 199 0
176 199 0
173 197 0
176 199 0
176 198 0
176 198 0
173 197 0
174 197 0
176 199 0
174 197 0
175 198 0
173 197 0
174 198 0
174 198 0
174 197 0
175 198 0
174 197 0
173 197 0
174 198 0
175 198 0
174 198 0
174 198 0
175 198 0
175 198 0
176 199 0
174 198 0
173 197 0
173 197 0
174 197 0
174 198 0
175 198 0
173 196 0
175 198 0
175 198 0
174 198 0
174 197 0
174 198 0
174 198 0
174 197 0
174 197 0
173 197 0
174 197 0
172 196 0
174 198 0
173 196 0
172 196 0
174 197 0
174 198 0
173 197 0
171 195 0
174 198 0
172 196 0
173 197 0
174 197 0
174 197 0
171 195 0
172 195 0
172 196 0
175 198 0
175 198 0
174 197 0
171 195 0
174 198 0
174 197 0
173 196 0
172 195 0
170 194 0
174 197 0
172 195 0
172 195 0
172 196 0
171 195 0
170 193 0
171 195 0
171 195 0
169 193 0
169 191 0
167 191 0
171 195 0
170 194 0
172 195 0
171 194 0
172 196 0
173 197 0
173 197 0
176 198 51
169 191 47
177 199 62
168 191 57
168 190 70
166 189 74
170 192 88
171 194 78
171 194 94
170 193 88
175 197 111
176 198 120
167 189 84
171 193 102
168 191 88
165 188 84
167 190 92
168 189 76
167 189 105
157 179 95
170 192 111
169 190 95
159 180 72
166 186 99
158 179 80
164 186 76
152 175 51
164 185 80
150 172 36
152 174 44
153 175 25
151 175 0
158 180 0
149 171 0
144 165 0
132 155 0
141 162 0
154 176 0
145 166 0
146 166 0
136 159 0
146 168 0
138 159 0
141 163 0
150 171 0
153 175 0
149 171 0
146 166 0
147 169 0
146 168 0
154 175 0
146 168 0
155 177 0
154 176 0
151 173 0
148 171 0
158 181 0
156 178 0
163 184 0
157 180 0
159 181 0
164 187 0
163 185 0
160 182 0
161 184 0
162 184 0
165 187 0
164 186 0
162 183 0
162 184 0
165 187 0
166 188 0
162 184 0
165 188 0
167 189 0
160 182 0
170 192 0
166 190 0
172 194 0
168 190 0
168 191 0
167 189 0
171 194 0
168 192 0
169 191 0
168 191 0
170 194 0
168 191 0
169 192 0
173 195 0
168 190 0
173 195 0
172 194 0
173 196 0
171 193 0
171 194 0
171 195 0
170 193 0
173 196 0
171 195 0
173 196 0
172 195 0
173 195 0
171 195 0
172 195 0
173 196 0
173 195 0
171 195 0
174 196 0
171 194 0
174 197 0
173 196 0
174 198 0
173 196 0
172 195 0
173 196 0
173 197 0
171 194 0
173 197 0
172 196 0
171 195 0
175 198 0
173 197 0
173 196 0
173 196 0
175 198 0
172 197 0
174 197 0
171 195 0
172 196 0
175 198 0
172 196 0
174 196 0
176 199 0
174 198 0
173 197 0
172 196 0
173 196 0
175 198 0
174 197 0
176 198 0
174 198 0
173 196 0
173 197 0
174 198 0
174 198 0
174 197 0
173 197 0
174 197 0
174 198 0
174 198 0
174 198 0
174 197 0
174 197 0
174 197 0
175 197 0
174 197 0
175 198 0
174 197 0
173 197 0
175 198 0
175 198 0
175 198 0
175 198 0
174 198 0
173 197 0
175 198 0
174 197 0
175 198 0
174 198 0
176 199 0
174 198 0
175 198 0
174 198 0
173 196 0
175 198 0
174 198 0
174 198 0
174 198 0
174 198 0
174 197 0
173 197 0
177 199 0
174 198 0
174 197 0
173 197 0
174 198 0
174 197 0
172 196 0
174 198 0
175 198 0
174 197 0
175 198 0
173 197 0
174 197 0
174 198 0
174 197 0
173 197 0
175 198 0
175 198 0
174 198 0
174 197 0
175 198 0
176 198 0
174 198 0
174 197 0
175 198 0
175 198 0
174 198 0
175 198 0
176 199 0
174 198 0
176 199 0
173 197 0
175 198 0
175 198 0
175 198 0
174 197 0
175 198 0
173 197 0
175 198 0
176 199 0
174 197 0
174 198 0
175 198 0
174 198 0
176 198 0
173 197 0
175 198 0
175 198 0
175 198 0
175 198 0
172 196 0
176 198 0
174 197 0
175 198 0
176 199 0
176 199 0
174 198 0
174 198 0
174 198 0
175 198 0
174 197 0
173 197 0
176 199 0
174 198 0
174 198 0
173 197 0
174 198 0
174 198 0
175 198 0
174 198 0
174 198 0
175 198 0
175 198 0
174 197 0
175 198 0
175 198 0
174 198 0
175 198 0
174 198 0
173 197 0
175 198 0
173 197 0
175 198 0
175 198 0
173 197 0
174 198 0
174 197 0
175 198 0
175 198 0
173 197 0
176 198 0
175 198 0
174 198 0
174 198 0
174 198 0
175 198 0
173 197 0
175 198 0
175 198 0
175 198 0
174 198 0
174 198 0
177 199 0
175 198 0
176 198 0
174 197 0
175 198 0
174 197 0
172 197 0
174 198 0
173 197 0
175 198 0
174 198 0
176 199 0
175 198 0
175 198 0
174 198 0
174 198 0
174 198 0
174 197 0
174 197 0
175 198 0
174 197 0
173 197 0
175 198 0
173 197 0
174 198 0
175 198 0
173 197 0
174 197 0
175 198 0
176 198 0
173 197 0
174 197 0
174 198 0
174 198 0
175 198 0
175 198 0
175 198 0
174 198 0
175 198 0
174 197 0
174 197 0
174 198 0
171 195 0
174 198 0
176 199 0
174 197 0
175 198 0
174 197 0
174 197 0
175 198 0
174 198 0
173 196 0
174 197 0
174 197 0
173 197 0
173 196 0
175 198 0
173 197 0
175 198 0
173 197 0
173 197 0
174 198 0
171 196 0
174 197 0
173 197 0
173 197 0
173 197 0
174 198 0
176 198 0
174 197 0
172 196 0
173 197 0
175 198 0
173 197 0
173 196 0
176 199 0
172 196 0
175 198 0
174 197 0
172 195 0
172 196 0
174 197 0
173 196 0
174 197 0
171 195 0
173 197 0
173 195 0
173 196 0
174 197 0
175 198 0
173 197 0
172 196 0
172 195 0
173 196 0
173 195 0
173 196 0
171 195 0
169 193 0
170 194 0
174 198 0
173 196 0
169 193 0
172 196 0
172 195 0
173 197 0
171 195 0
171 195 0
172 195 0
169 193 0
173 197 0
175 198 0
172 195 0
170 194 0
171 194 0
172 195 0
173 196 0
173 197 0
171 195 31
172 195 47
166 190 25
168 191 70
169 191 65
167 190 80
171 193 91
165 188 72
171 193 99
173 196 92
177 199 99
174 195 92
175 198 105
172 193 88
167 189 92
170 191 99
164 185 102
173 194 99
173 195 88
165 187 92
171 191 105
162 184 92
163 184 84
156 177 84
158 180 51
154 175 76
160 181 62
162 183 67
161 183 25
156 179 44
158 181 0
160 183 0
164 186 0
151 174 0
152 174 0
152 173 0
155 177 0
145 167 0
148 170 0
145 165 0
148 169 0
144 167 0
146 167 0
144 166 0
152 174 0
146 167 0
140 162 0
153 175 0
150 171 0
160 183 0
156 177 0
154 176 0
156 179 0
153 174 0
160 182 0
152 173 0
164 185 0
159 180 0
161 183 0
165 187 0
159 182 0
162 184 0
162 184 0
164 185 0
163 187 0
165 187 0
161 185 0
160 181 0
171 193 0
165 188 0
167 189 0
159 183 0
165 186 0
169 193 0
168 189 0
166 189 0
162 184 0
168 191 0
166 188 0
169 190 0
169 192 0
166 189 0
170 194 0
168 191 0
165 188 0
171 194 0
167 190 0
169 192 0
170 193 0
173 196 0
173 194 0
170 193 0
173 195 0
170 194 0
173 195 0
168 192 0
174 197 0
174 197 0
172 195 0
171 194 0
172 194 0
172 194 0
172 195 0
174 197 0
171 193 0
175 198 0
171 195 0
173 196 0
172 195 0
171 195 0
173 196 0
174 196 0
173 196 0
173 196 0
175 198 0
174 197 0
173 196 0
174 197 0
171 195 0
175 197 0
173 197 0
172 195 0
173 197 0
173 197 0
173 197 0
174 198 0
173 197 0
176 198 0
172 196 0
172 196 0
175 198 0
172 195 0
175 198 0
173 197 0
173 197 0
175 198 0
174 198 0
175 198 0
173 196 0
174 197 0
173 197 0
174 197 0
175 198 0
174 197 0
173 197 0
174 197 0
172 197 0
174 198 0
173 197 0
174 197 0
175 198 0
173 197 0
174 197 0
171 195 0
173 197 0
174 198 0
173 197 0
173 197 0
173 197 0
174 197 0
172 196 0
172 195 0
173 197 0
175 198 0
175 198 0
175 198 0
176 198 0
175 198 0
172 196 0
174 198 0
174 197 0
174 197 0
174 198 0
175 198 0
173 197 0
174 198 0
174 198 0
176 198 0
173 197 0
175 198 0
173 196 0
173 197 0
173 197 0
175 198 0
177 199 0
175 198 0
173 197 0
174 198 0
174 197 0
172 197 0
174 198 0
174 198 0
173 197 0
174 198 0
174 198 0
176 199 0
173 196 0
174 198 0
173 197 0
175 198 0
173 197 0
173 197 0
174 198 0
174 198 0
174 197 0
174 198 0
175 198 0
173 197 0
174 198 0
174 198 0
174 197 0
175 198 0
174 197 0
176 199 0
174 198 0
175 198 0
175 198 0
174 198 0
174 198 0
173 196 0
173 196 0
176 198 0
174 198 0
173 197 0
175 198 0
173 197 0
175 198 0
174 198 0
173 197 0
175 198 0
174 198 0
174 198 0
174 198 0
174 198 0
175 198 0
174 197 0
175 198 0
173 197 0
175 198 0
171 196 0
173 197 0
174 198 0
175 198 0
175 198 0
174 198 0
174 198 0
174 197 0
175 198 0
174 197 0
175 198 0
175 198 0
173 197 0
174 197 0
175 198 0
175 198 0
175 198 0
175 198 0
173 197 0
175 198 0
176 199 0
175 198 0
177 199 0
175 198 0
176 199 0
174 197 0
173 197 0
176 199 0
174 197 0
174 198 0
174 198 0
174 198 0
173 197 0
173 197 0
174 198 0
175 198 0
176 198 0
176 199 0
174 198 0
176 199 0
174 198 0
175 198 0
175 198 0
174 198 0
174 198 0
175 198 0
173 197 0
174 198 0
174 198 0
173 197 0
175 198 0
176 198 0
175 198 0
174 198 0
175 198 0
173 197 0
174 198 0
175 198 0
174 198 0
173 197 0
174 198 0
174 198 0
172 196 0
175 198 0
174 197 0
175 198 0
175 198 0
174 197 0
176 199 0
175 198 0
175 198 0
175 198 0
175 198 0
175 198 0
175 198 0
175 198 0
174 198 0
173 197 0
175 198 0
174 198 0
173 197 0
174 198 0
174 198 0
172 196 0
175 198 0
174 198 0
174 198 0
173 197 0
173 197 0
175 198 0
172 196 0
174 198 0
174 197 0
175 197 0
174 197 0
174 198 0
176 199 0
175 198 0
173 197 0
173 196 0
173 197 0
173 197 0
174 197 0
172 196 0
173 196 0
172 196 0
174 197 0
173 197 0
175 198 0
174 198 0
172 196 0
174 197 0
173 197 0
171 195 0
173 197 0
173 197 0
173 196 0
174 197 0
174 198 0
174 198 0
174 197 0
176 198 0
173 197 0
171 195 0
172 196 0
172 196 0
173 197 0
174 198 0
175 198 0
174 197 0
174 197 0
173 196 0
171 195 0
175 198 0
175 198 0
172 196 0
172 196 0
172 196 0
171 195 0
173 196 0
173 197 0
170 194 0
171 195 0
172 195 0
171 194 0
170 193 0
172 194 0
174 197 0
173 197 0
170 194 0
171 195 0
169 193 0
171 195 0
171 195 0
171 195 0
173 196 0
171 195 0
172 195 0
172 195 0
173 196 0
170 194 0
171 194 18
169 193 0
175 198 62
168 191 62
170 194 67
167 188 76
160 183 80
168 190 75
166 189 74
174 196 94
174 195 67
176 198 95
176 197 72
174 195 99
170 192 102
172 194 84
168 189 92
166 187 80
167 188 76
171 193 95
168 190 80
160 182 84
160 181 95
162 183 72
160 181 80
152 173 72
165 186 51
156 177 0
153 175 44
157 181 0
165 188 0
165 187 0
150 172 0
150 172 0
158 179 0
142 164 0
146 168 0
153 174 0
151 173 0
151 173 0
144 165 0
154 176 0
144 166 0
153 175 0
153 175 0
155 177 0
157 180 0
152 174 0
151 173 0
154 177 0
160 183 0
149 171 0
165 186 0
152 173 0
153 174 0
159 183 0
152 175 0
159 182 0
159 181 0
161 184 0
160 183 0
165 187 0
168 190 0
165 188 0
163 185 0
163 186 0
169 191 0
163 185 0
166 188 0
170 191 0
166 189 0
164 187 0
168 190 0
167 189 0
168 191 0
167 190 0
169 192 0
166 189 0
170 192 0
167 190 0
167 190 0
169 191 0
169 193 0
167 191 0
169 193 0
169 193 0
168 190 0
174 196 0
172 195 0
170 193 0
170 193 0
172 194 0
169 193 0
172 196 0
174 198 0
172 195 0
173 196 0
167 189 0
169 192 0
169 193 0
173 196 0
173 196 0
170 194 0
168 191 0
172 195 0
173 196 0
175 198 0
173 196 0
172 195 0
173 196 0
171 193 0
172 195 0
173 196 0
174 197 0
172 196 0
173 196 0
172 195 0
172 194 0
174 197 0
175 197 0
172 196 0
173 196 0
172 195 0
173 197 0
172 196 0
173 196 0
174 197 0
175 198 0
171 195 0
173 196 0
175 197 0
173 196 0
174 197 0
172 196 0
173 197 0
176 198 0
173 197 0
174 197 0
171 196 0
174 196 0
175 198 0
173 196 0
171 195 0
176 199 0
174 197 0
174 198 0
174 198 0
174 198 0
174 197 0
174 197 0
175 198 0
175 198 0
175 198 0
175 198 0
176 198 0
174 197 0
175 198 0
174 198 0
174 197 0
173 197 0
174 198 0
173 197 0
174 197 0
174 198 0
174 197 0
174 198 0
173 197 0
174 197 0
173 197 0
174 198 0
175 198 0
174 197 0
175 198 0
174 197 0
174 198 0
175 198 0
173 197 0
175 198 0
175 198 0
174 198 0
175 198 0
174 198 0
174 198 0
175 198 0
174 197 0
174 197 0
176 199 0
173 197 0
174 197 0
173 197 0
174 197 0
175 198 0
174 197 0
174 197 0
173 197 0
174 198 0
174 198 0
172 196 0
174 198 0
174 198 0
173 197 0
175 198 0
176 198 0
171 196 0
174 198 0
174 197 0
175 198 0
174 198 0
174 198 0
175 198 0
176 199 0
173 197 0
175 198 0
175 198 0
174 198 0
175 198 0
175 198 0
173 197 0
173 197 0
175 198 0
173 197 0
173 197 0
175 198 0
174 197 0
174 197 0
175 198 0
174 198 0
174 198 0
174 198 0
175 198 0
173 197 0
176 199 0
175 198 0
176 199 0
174 198 0
174 198 0
174 198 0
172 196 0
174 198 0
175 198 0
175 198 0
175 198 0
173 197 0
174 197 0
175 198 0
174 198 0
174 198 0
175 198 0
173 197 0
173 197 0
175 198 0
174 198 0
175 198 0
176 199 0
173 197 0
175 198 0
172 196 0
174 197 0
174 198 0
174 198 0
175 198 0
174 198 0
173 197 0
175 198 0
174 197 0
175 198 0
176 198 0
176 199 0
174 198 0
175 198 0
174 198 0
174 197 0
174 197 0
175 198 0
175 198 0
173 197 0
175 198 0
173 197 0
174 198 0
173 197 0
173 197 0
173 197 0
176 199 0
173 197 0
174 197 0
173 197 0
174 198 0
175 198 0
174 197 0
175 198 0
174 198 0
175 198 0
173 197 0
175 198 0
174 198 0
176 199 0
173 197 0
175 198 0
174 198 0
174 198 0
173 197 0
172 196 0
174 197 0
175 198 0
173 197 0
174 198 0
174 197 0
175 198 0
175 198 0
173 196 0
171 196 0
174 198 0
175 198 0
175 198 0
173 197 0
175 198 0
174 198 0
174 197 0
176 198 0
172 196 0
176 199 0
173 197 0
175 198 0
174 198 0
174 198 0
175 198 0
175 198 0
173 197 0
175 198 0
174 198 0
173 197 0
174 198 0
174 198 0
174 197 0
175 198 0
174 198 0
174 197 0
172 196 0
173 197 0
174 197 0
174 198 0
172 196 0
172 196 0
173 196 0
173 197 0
174 198 0
174 198 0
174 198 0
172 196 0
175 198 0
174 197 0
173 197 0
175 198 0
174 197 0
172 196 0
175 198 0
174 198 0
175 198 0
173 196 0
173 197 0
174 197 0
173 197 0
173 196 0
174 197 0
173 196 0
172 195 0
174 197 0
174 197 0
173 196 0
173 197 0
173 196 0
174 197 0
175 198 0
172 196 0
172 196 0
175 198 0
174 197 0
172 195 0
172 195 0
175 198 0
175 198 0
170 194 0
172 195 0
174 197 0
172 196 0
170 194 0
174 197 0
170 194 0
170 194 0
168 192 0
172 195 0
171 194 0
172 196 0
173 196 0
171 195 0
172 195 0
170 193 0
173 196 0
174 197 0
175 198 0
170 194 0
166 189 0
170 193 0
171 194 36
171 193 62
167 190 67
170 193 54
165 187 36
170 192 76
171 192 80
172 193 76
173 195 88
177 198 95
174 196 76
175 195 76
172 194 95
170 191 84
167 189 84
170 190 92
169 190 80
164 186 72
157 178 84
163 186 80
165 185 80
163 185 88
164 185 80
161 182 36
159 181 44
163 185 25
161 183 25
159 181 0
157 179 0
155 177 0
158 180 0
148 171 0
145 168 0
151 172 0
146 168 0
149 172 0
154 176 0
153 174 0
154 176 0
145 167 0
155 178 0
156 180 0
154 175 0
153 177 0
152 175 0
158 180 0
156 180 0
159 181 0
157 179 0
161 184 0
156 178 0
163 186 0
155 178 0
160 184 0
162 184 0
166 188 0
160 183 0
165 187 0
162 184 0
164 187 0
170 192 0
163 184 0
168 190 0
166 189 0
166 188 0
168 191 0
166 189 0
164 185 0
164 187 0
168 191 0
166 190 0
168 192 0
171 194 0
166 189 0
167 190 0
166 189 0
170 192 0
168 191 0
170 193 0
170 193 0
172 196 0
172 194 0
173 195 0
170 194 0
170 193 0
171 194 0
167 190 0
173 195 0
172 195 0
168 191 0
170 192 0
170 193 0
167 190 0
170 194 0
172 196 0
172 196 0
172 195 0
172 195 0
171 194 0
174 196 0
171 195 0
173 197 0
172 195 0
173 196 0
173 195 0
172 194 0
174 197 0
175 197 0
172 196 0
172 195 0
173 195 0
174 197 0
173 197 0
174 197 0
172 196 0
174 197 0
172 195 0
175 197 0
174 198 0
172 195 0
172 195 0
173 196 0
174 198 0
173 197 0
173 197 0
174 197 0
174 197 0
174 197 0
176 199 0
174 197 0
173 196 0
175 198 0
174 197 0
173 197 0
173 196 0
172 196 0
173 197 0
174 197 0
173 196 0
173 197 0
172 196 0
175 197 0
173 197 0
174 198 0
173 197 0
175 197 0
174 197 0
174 198 0
176 197 0
174 197 0
176 199 0
174 197 0
174 197 0
174 198 0
172 196 0
174 197 0
174 197 0
174 198 0
174 197 0
173 197 0
175 198 0
174 198 0
172 196 0
174 197 0
175 198 0
175 198 0
174 197 0
174 197 0
173 197 0
175 198 0
174 198 0
174 197 0
173 196 0
174 197 0
175 198 0
174 198 0
174 198 0
174 197 0
175 198 0
174 197 0
175 198 0
174 198 0
173 197 0
174 197 0
175 198 0
173 197 0
174 198 0
174 198 0
174 198 0
175 198 0
175 198 0
175 198 0
174 197 0
174 197 0
173 197 0
176 199 0
173 197 0
173 197 0
174 198 0
173 197 0
174 198 0
174 197 0
175 198 0
173 197 0
173 197 0
174 198 0
173 197 0
174 197 0
173 197 0
173 197 0
174 198 0
174 198 0
175 198 0
175 198 0
174 197 0
175 198 0
174 197 0
174 198 0
175 198 0
176 198 0
177 199 0
175 198 0
175 198 0
174 197 0
174 198 0
174 197 0
172 196 0
175 198 0
174 198 0
174 197 0
174 196 0
173 197 0
175 198 0
176 199 0
175 198 0
176 198 0
173 197 0
175 198 0
175 198 0
174 198 0
174 198 0
175 198 0
175 198 0
174 197 0
175 198 0
175 198 0
174 197 0
175 198 0
174 198 0
175 198 0
173 197 0
174 198 0
173 197 0
176 199 0
175 198 0
174 198 0
175 198 0
175 198 0
174 197 0
174 198 0
174 198 0
173 197 0
175 198 0
173 197 0
173 196 0
174 198 0
172 196 0
174 198 0
175 198 0
174 198 0
173 197 0
174 198 0
176 199 0
174 198 0
175 198 0
176 199 0
175 198 0
173 197 0
172 196 0
173 196 0
174 197 0
175 197 0
174 198 0
174 198 0
174 198 0
175 198 0
174 197 0
175 198 0
175 198 0
174 197 0
172 197 0
174 198 0
174 198 0
174 197 0
173 197 0
173 197 0
175 198 0
173 197 0
173 197 0
175 198 0
175 198 0
174 197 0
173 197 0
173 196 0
174 197 0
174 198 0
174 197 0
174 198 0
173 197 0
173 197 0
174 198 0
175 198 0
174 198 0
174 197 0
174 197 0
175 198 0
173 197 0
175 198 0
177 199 0
173 197 0
175 198 0
176 198 0
173 196 0
174 198 0
176 198 0
174 197 0
175 198 0
175 198 0
174 198 0
175 198 0
174 198 0
173 197 0
175 198 0
174 198 0
173 196 0
173 197 0
173 197 0
174 197 0
174 197 0
175 198 0
174 197 0
174 197 0
172 195 0
175 198 0
174 197 0
175 198 0
174 197 0
172 196 0
173 197 0
173 196 0
174 198 0
173 196 0
175 198 0
172 196 0
174 198 0
173 196 0
174 198 0
172 196 0
172 195 0
173 197 0
172 195 0
171 195 0
172 196 0
174 198 0
174 198 0
172 196 0
173 197 0
171 195 0
172 196 0
173 197 0
172 196 0
175 198 0
171 195 0
172 196 0
174 197 0
170 194 0
173 196 0
172 196 0
174 197 0
171 195 0
171 194 0
173 197 0
172 195 0
173 196 0
168 192 0
174 198 0
172 195 0
174 197 0
171 194 0
173 196 0
170 193 0
172 195 0
169 192 0
170 194 0
173 196 0
172 196 0
174 196 0
174 197 0
171 195 0
173 195 18
170 193 18
169 193 25
170 192 40
166 188 57
166 187 47
169 191 67
170 192 54
173 194 70
181 202 110
174 194 84
172 194 80
173 194 67
173 195 102
168 190 80
169 192 62
167 189 36
168 190 51
166 188 84
161 182 57
162 183 51
164 186 84
168 188 88
163 185 62
163 185 44
157 180 57
166 188 0
162 186 0
156 180 0
161 184 0
160 183 0
144 167 0
161 184 0
149 171 0
155 178 0
157 179 0
153 175 0
152 174 0
154 176 0
157 179 0
147 170 0
155 177 0
161 184 0
155 179 0
153 175 0
150 172 0
156 178 0
157 180 0
164 187 0
153 177 0
156 178 0
153 176 0
156 179 0
160 182 0
161 183 0
161 184 0
164 186 0
165 187 0
161 185 0
156 178 0
171 194 0
166 189 0
162 186 0
166 188 0
168 191 0
165 187 0
164 187 0
167 190 0
168 191 0
167 190 0
168 190 0
167 190 0
166 188 0
163 187 0
165 187 0
167 189 0
168 190 0
169 192 0
171 194 0
168 190 0
169 191 0
170 193 0
170 193 0
170 193 0
171 193 0
171 194 0
169 192 0
170 193 0
170 192 0
172 195 0
170 192 0
172 196 0
170 193 0
171 195 0
170 193 0
174 196 0
170 193 0
173 196 0
172 194 0
169 192 0
172 195 0
170 193 0
174 197 0
172 196 0
172 195 0
173 196 0
169 193 0
172 195 0
174 197 0
172 195 0
174 197 0
173 196 0
171 194 0
174 197 0
171 194 0
173 197 0
172 196 0
172 196 0
174 196 0
172 196 0
173 197 0
175 198 0
172 196 0
173 196 0
173 197 0
172 196 0
174 197 0
174 197 0
173 196 0
173 196 0
173 196 0
176 198 0
173 197 0
171 194 0
174 197 0
171 194 0
173 197 0
174 197 0
174 197 0
176 198 0
175 198 0
173 196 0
175 198 0
175 198 0
174 197 0
174 198 0
174 198 0
174 198 0
174 197 0
173 197 0
174 198 0
173 196 0
174 198 0
173 197 0
174 197 0
173 196 0
174 197 0
173 197 0
175 198 0
174 197 0
174 198 0
175 197 0
174 198 0
173 197 0
174 197 0
174 197 0
173 197 0
174 197 0
175 198 0
174 198 0
173 196 0
173 196 0
174 198 0
174 198 0
172 196 0
174 197 0
174 197 0
174 197 0
174 197 0
174 198 0
175 198 0
174 197 0
173 197 0
175 198 0
174 197 0
175 198 0
174 198 0
174 197 0
175 198 0
175 198 0
174 197 0
177 199 0
173 197 0
173 197 0
173 197 0
173 197 0
173 197 0
175 198 0
175 198 0
173 197 0
174 197 0
175 198 0
174 198 0
176 199 0
175 198 0
176 198 0
176 199 0
176 199 0
173 197 0
174 198 0
177 199 0
175 198 0
174 197 0
175 198 0
175 198 0
174 198 0
175 198 0
173 197 0
175 198 0
174 197 0
175 198 0
174 198 0
174 197 0
175 198 0
174 198 0
172 197 0
174 198 0
174 197 0
174 198 0
175 198 0
175 198 0
173 197 0
175 198 0
175 198 0
174 198 0
175 198 0
176 199 0
174 198 0
174 198 0
173 197 0
173 197 0
175 198 0
174 197 0
174 197 0
174 197 0
174 197 0
174 197 0
173 197 0
174 198 0
175 198 0
174 197 0
175 198 0
174 198 0
176 198 0
173 197 0
173 197 0
173 197 0
176 198 0
175 198 0
175 198 0
175 198 0
174 198 0
175 198 0
174 197 0
175 198 0
175 198 0
175 198 0
174 198 0
173 197 0
174 198 0
175 198 0
172 196 0
176 199 0
175 198 0
174 198 0
173 197 0
173 197 0
175 198 0
174 198 0
174 197 0
175 198 0
174 198 0
173 197 0
174 198 0
175 198 0
176 199 0
174 198 0
177 199 0
174 197 0
172 196 0
174 197 0
174 198 0
174 198 0
173 197 0
174 198 0
175 198 0
174 198 0
173 197 0
175 198 0
175 198 0
175 198 0
173 197 0
173 197 0
172 197 0
173 197 0
174 198 0
174 198 0
174 198 0
173 197 0
174 197 0
175 198 0
175 198 0
174 197 0
175 198 0
176 199 0
173 197 0
174 197 0
174 197 0
173 197 0
175 198 0
174 197 0
174 197 0
174 197 0
175 198 0
175 198 0
173 197 0
176 199 0
174 197 0
175 198 0
174 197 0
175 198 0
172 196 0
172 196 0
172 196 0
175 198 0
173 196 0
173 197 0
174 198 0
173 197 0
173 197 0
174 198 0
175 197 0
173 197 0
175 198 0
172 196 0
174 198 0
174 197 0
174 198 0
175 198 0
174 197 0
174 197 0
175 198 0
175 198 0
172 195 0
173 196 0
174 198 0
173 197 0
171 196 0
175 198 0
173 197 0
173 196 0
173 196 0
172 196 0
175 198 0
174 197 0
175 198 0
175 198 0
173 197 0
174 197 0
175 198 0
173 196 0
169 193 0
171 195 0
173 196 0
174 197 0
171 195 0
173 196 0
174 197 0
173 197 0
174 198 0
170 194 0
172 196 0
172 195 0
171 194 0
170 194 0
171 195 0
171 195 0
170 194 0
172 195 0
169 192 0
172 195 0
172 195 0
169 193 0
174 197 0
171 194 0
172 196 0
172 195 0
173 196 0
174 197 0
171 194 0
171 195 0
168 192 18
163 186 18
171 193 18
166 189 40
170 192 36
165 187 36
164 186 36
170 192 31
169 191 70
168 189 51
176 197 88
175 196 67
169 191 80
170 189 67
168 190 76
169 190 51
171 192 67
164 184 51
169 190 62
167 188 57
170 190 72
171 193 44
164 185 36
164 186 51
164 187 44
171 195 0
161 184 0
163 185 0
167 189 0
161 183 0
152 173 0
155 177 0
155 178 0
160 182 0
159 181 0
157 179 0
158 180 0
154 177 0
158 181 0
154 177 0
159 181 0
159 182 0
159 182 0
160 182 0
161 184 0
161 184 0
157 180 0
163 186 0
158 181 0
164 188 0
157 180 0
159 181 0
158 180 0
161 184 0
167 190 0
164 187 0
165 187 0
167 190 0
169 192 0
165 189 0
165 188 0
163 185 0
164 188 0
163 187 0
166 189 0
164 187 0
166 189 0
165 187 0
164 187 0
167 191 0
169 193 0
168 191 0
167 189 0
162 186 0
162 184 0
170 194 0
171 194 0
170 192 0
170 194 0
168 190 0
172 195 0
172 196 0
170 194 0
171 194 0
172 195 0
172 195 0
172 194 0
168 191 0
172 195 0
170 194 0
171 194 0
169 192 0
171 195 0
171 193 0
170 193 0
171 194 0
169 193 0
175 197 0
173 196 0
174 196 0
170 193 0
174 197 0
174 197 0
172 195 0
174 196 0
171 195 0
173 195 0
171 194 0
172 195 0
175 198 0
173 197 0
173 196 0
173 197 0
174 198 0
174 197 0
176 198 0
174 197 0
172 195 0
172 196 0
172 196 0
172 196 0
175 198 0
175 198 0
174 198 0
174 197 0
175 198 0
173 196 0
174 198 0
175 198 0
174 197 0
175 198 0
174 197 0
175 197 0
173 196 0
174 197 0
171 195 0
175 198 0
173 197 0
172 195 0
174 198 0
175 198 0
173 197 0
175 198 0
176 198 0
176 198 0
174 198 0
174 198 0
172 196 0
173 196 0
174 197 0
175 198 0
173 197 0
175 198 0
173 197 0
174 198 0
172 197 0
175 198 0
174 197 0
175 198 0
174 198 0
174 198 0
174 198 0
174 197 0
173 197 0
175 198 0
173 197 0
174 198 0
173 196 0
173 197 0
171 195 0
176 199 0
173 197 0
174 198 0
173 197 0
174 198 0
174 198 0
174 198 0
175 198 0
174 198 0
175 198 0
173 196 0
174 197 0
176 199 0
175 198 0
175 198 0
173 197 0
174 197 0
175 198 0
174 198 0
175 198 0
174 198 0
175 198 0
174 198 0
175 198 0
174 198 0
174 197 0
175 198 0
174 197 0
174 197 0
174 198 0
175 198 0
174 198 0
174 198 0
176 198 0
174 198 0
173 197 0
174 197 0
174 197 0
174 198 0
173 197 0
175 198 0
172 196 0
175 198 0
175 198 0
173 197 0
173 197 0
175 198 0
173 197 0
175 198 0
175 198 0
174 197 0
173 197 0
175 198 0
173 197 0
174 197 0
174 198 0
174 197 0
176 198 0
174 198 0
176 199 0
173 197 0
173 197 0
175 198 0
174 198 0
173 197 0
173 197 0
174 198 0
175 198 0
175 198 0
174 197 0
173 197 0
174 197 0
175 198 0
175 198 0
176 198 0
174 198 0
176 199 0
173 197 0
174 197 0
174 197 0
174 198 0
175 198 0
175 198 0
174 198 0
176 199 0
174 198 0
174 197 0
173 197 0
175 198 0
175 198 0
175 198 0
173 197 0
174 198 0
176 199 0
175 198 0
174 198 0
175 198 0
175 198 0
176 198 0
173 197 0
174 198 0
174 198 0
174 197 0
175 198 0
175 198 0
173 197 0
175 198 0
174 197 0
174 198 0
175 198 0
175 198 0
175 198 0
174 198 0
174 198 0
174 197 0
174 198 0
176 199 0
176 199 0
174 198 0
174 198 0
176 198 0
174 197 0
175 198 0
175 198 0
175 198 0
174 197 0
175 198 0
174 197 0
176 198 0
176 199 0
174 197 0
174 198 0
176 198 0
175 198 0
173 197 0
174 197 0
175 198 0
174 197 0
175 198 0
173 197 0
172 196 0
172 197 0
173 197 0
174 197 0
173 197 0
176 199 0
173 196 0
174 198 0
174 197 0
174 197 0
176 199 0
175 198 0
174 198 0
176 198 0
174 197 0
174 198 0
174 197 0
175 198 0
173 197 0
174 197 0
172 196 0
172 197 0
174 197 0
173 197 0
173 197 0
177 199 0
174 197 0
173 197 0
173 197 0
174 197 0
174 197 0
174 198 0
174 197 0
174 198 0
173 196 0
174 198 0
175 198 0
174 198 0
172 195 0
173 196 0
173 197 0
174 197 0
175 198 0
175 198 0
173 197 0
173 196 0
174 197 0
173 197 0
174 198 0
173 197 0
173 197 0
175 198 0
174 197 0
171 195 0
172 196 0
172 196 0
173 196 0
173 196 0
173 197 0
170 194 0
170 194 0
172 195 0
172 196 0
175 198 0
172 196 0
171 195 0
174 197 0
174 198 0
172 195 0
176 198 0
173 197 0
171 195 0
173 196 0
174 197 0
170 193 0
170 194 0
171 194 0
175 197 0
173 196 0
174 197 0
172 195 0
172 196 0
172 196 0
170 193 0
172 195 0
172 195 0
173 196 0
172 195 0
174 197 0
172 196 0
169 192 0
170 193 0
170 193 25
172 195 25
169 192 65
165 187 36
164 186 40
168 189 47
164 186 67
175 195 51
168 190 57
170 192 57
175 196 57
174 195 84
167 188 72
168 189 76
166 187 72
170 191 62
171 192 72
166 187 67
170 190 72
162 183 36
166 188 51
167 188 25
163 186 0
167 189 0
162 184 0
156 179 0
159 181 0
154 176 0
159 181 0
158 180 0
159 182 0
150 173 0
156 179 0
152 175 0
162 185 0
155 177 0
162 186 0
159 182 0
156 179 0
159 182 0
164 186 0
158 181 0
161 184 0
158 181 0
161 183 0
159 182 0
160 182 0
166 189 0
162 184 0
160 183 0
166 189 0
164 186 0
159 181 0
161 183 0
166 188 0
158 181 0
167 190 0
166 188 0
167 190 0
167 190 0
168 191 0
169 193 0
165 188 0
168 192 0
166 189 0
164 187 0
169 191 0
166 189 0
169 193 0
166 189 0
169 192 0
168 192 0
169 193 0
166 189 0
172 195 0
166 189 0
170 194 0
165 187 0
170 193 0
172 195 0
167 189 0
168 191 0
170 194 0
170 192 0
170 194 0
172 195 0
171 194 0
172 195 0
172 195 0
169 191 0
172 195 0
171 193 0
175 198 0
172 194 0
173 197 0
172 195 0
168 191 0
169 192 0
173 197 0
172 195 0
172 195 0
171 194 0
171 195 0
171 194 0
172 195 0
174 197 0
173 196 0
171 194 0
175 198 0
171 195 0
171 195 0
173 196 0
175 197 0
174 197 0
174 197 0
174 197 0
172 195 0
174 197 0
171 195 0
175 198 0
173 197 0
175 198 0
174 197 0
172 196 0
171 196 0
173 196 0
173 196 0
175 197 0
173 196 0
175 198 0
175 197 0
173 197 0
173 196 0
173 196 0
173 196 0
174 197 0
174 198 0
174 197 0
174 198 0
175 198 0
171 195 0
173 196 0
175 198 0
175 198 0
174 198 0
174 198 0
171 195 0
172 195 0
175 197 0
174 196 0
175 198 0
175 198 0
174 198 0
174 197 0
173 197 0
173 197 0
172 195 0
174 198 0
174 198 0
173 197 0
175 198 0
176 198 0
174 198 0
173 197 0
175 198 0
173 197 0
173 196 0
174 198 0
174 198 0
174 198 0
173 197 0
175 198 0
175 198 0
176 199 0
174 198 0
173 196 0
175 198 0
174 197 0
174 197 0
173 197 0
172 197 0
173 197 0
174 197 0
173 197 0
173 197 0
175 198 0
173 197 0
174 198 0
174 198 0
174 198 0
173 197 0
173 196 0
173 197 0
175 198 0
175 198 0
174 198 0
175 198 0
173 197 0
174 198 0
175 198 0
175 198 0
174 197 0
173 197 0
175 198 0
173 197 0
174 198 0
172 197 0
175 198 0
173 197 0
172 196 0
174 197 0
175 198 0
175 198 0
176 198 0
173 197 0
174 198 0
174 198 0
173 196 0
174 198 0
173 197 0
174 198 0
174 197 0
176 199 0
174 198 0
175 198 0
174 198 0
173 197 0
174 197 0
172 196 0
174 198 0
174 197 0
173 197 0
176 198 0
175 198 0
174 197 0
176 198 0
176 198 0
173 196 0
176 199 0
176 198 0
175 198 0
174 198 0
176 199 0
175 198 0
174 198 0
175 198 0
175 198 0
174 198 0
174 198 0
173 197 0
175 198 0
174 198 0
174 198 0
174 198 0
175 198 0
174 198 0
174 197 0
176 198 0
175 198 0
175 198 0
175 198 0
174 198 0
175 198 0
175 198 0
173 197 0
175 198 0
174 198 0
174 198 0
174 197 0
174 198 0
174 198 0
174 197 0
174 197 0
174 198 0
174 197 0
173 197 0
175 198 0
175 198 0
174 197 0
173 197 0
173 197 0
176 199 0
174 198 0
172 196 0
175 198 0
173 197 0
175 198 0
173 197 0
175 198 0
174 198 0
175 198 0
173 197 0
174 198 0
175 198 0
175 198 0
175 198 0
174 198 0
175 198 0
175 198 0
174 197 0
172 197 0
175 198 0
175 198 0
174 197 0
174 198 0
174 198 0
175 198 0
176 199 0
175 198 0
173 197 0
174 198 0
176 198 0
175 198 0
174 197 0
174 198 0
175 198 0
175 198 0
173 196 0
173 197 0
175 198 0
173 197 0
175 198 0
174 198 0
174 197 0
175 198 0
173 197 0
172 196 0
174 197 0
173 197 0
175 198 0
174 198 0
173 197 0
174 197 0
173 197 0
174 197 0
174 197 0
172 196 0
171 196 0
174 197 0
174 197 0
173 197 0
174 198 0
175 198 0
174 198 0
174 197 0
174 198 0
174 198 0
175 198 0
174 198 0
173 197 0
174 197 0
172 196 0
175 198 0
173 197 0
175 198 0
173 197 0
175 198 0
175 198 0
174 197 0
174 197 0
172 196 0
174 198 0
173 196 0
173 197 0
174 197 0
175 197 0
172 196 0
172 196 0
174 198 0
173 197 0
171 195 0
173 196 0
173 196 0
172 196 0
172 196 0
173 196 0
170 194 0
174 197 0
175 198 0
172 196 0
173 197 0
173 196 0
171 195 0
172 196 0
172 195 0
172 196 0
168 191 0
171 195 0
169 192 0
172 196 0
171 194 0
171 194 0
170 193 0
171 195 0
170 194 0
174 197 0
173 196 0
174 196 0
173 197 25
171 194 0
170 194 25
174 197 25
173 194 44
170 191 40
178 198 51
170 192 25
179 200 62
171 193 36
172 194 57
175 196 72
173 195 92
172 195 80
169 191 67
172 193 72
173 194 92
174 197 84
173 194 84
167 188 72
165 187 0
171 192 44
169 192 44
166 189 0
168 191 0
169 192 0
161 183 0
164 186 0
158 180 0
155 177 0
166 188 0
158 181 0
159 182 0
160 183 0
159 181 0
159 181 0
154 177 0
165 188 0
162 185 0
155 179 0
162 185 0
160 182 0
165 187 0
155 179 0
159 183 0
166 189 0
161 184 0
161 184 0
160 184 0
160 182 0
164 187 0
169 192 0
161 184 0
166 190 0
170 193 0
168 192 0
162 186 0
168 189 0
165 187 0
162 186 0
166 187 0
167 191 0
167 190 0
167 190 0
165 189 0
169 192 0
168 191 0
168 191 0
165 188 0
169 191 0
169 192 0
169 191 0
169 192 0
170 192 0
173 196 0
170 193 0
171 194 0
169 192 0
169 193 0
174 196 0
168 190 0
172 195 0
169 192 0
172 196 0
169 192 0
170 193 0
171 195 0
169 192 0
173 195 0
170 193 0
172 196 0
173 196 0
172 196 0
166 191 0
172 195 0
173 196 0
172 195 0
172 195 0
175 197 0
173 197 0
170 193 0
172 194 0
172 195 0
174 197 0
171 194 0
173 196 0
169 193 0
172 196 0
174 197 0
173 197 0
170 194 0
174 197 0
173 196 0
171 195 0
175 198 0
173 196 0
172 195 0
170 194 0
174 197 0
175 198 0
173 196 0
173 196 0
175 197 0
174 197 0
173 196 0
173 197 0
173 197 0
173 196 0
175 197 0
172 195 0
175 198 0
174 197 0
174 197 0
172 195 0
174 197 0
174 197 0
173 197 0
173 197 0
175 198 0
173 197 0
174 196 0
174 197 0
173 197 0
175 198 0
176 198 0
173 197 0
174 198 0
175 198 0
173 197 0
172 196 0
171 195 0
173 197 0
175 198 0
174 198 0
174 197 0
174 197 0
174 198 0
173 197 0
174 198 0
174 197 0
174 197 0
175 198 0
173 197 0
174 197 0
175 198 0
175 198 0
174 198 0
175 198 0
173 197 0
176 199 0
175 198 0
174 198 0
173 196 0
174 197 0
173 197 0
174 198 0
173 197 0
175 198 0
173 197 0
174 197 0
174 198 0
174 197 0
175 198 0
175 198 0
174 197 0
173 197 0
174 198 0
174 198 0
174 197 0
174 198 0
174 197 0
175 198 0
175 198 0
174 197 0
175 198 0
173 197 0
175 198 0
175 198 0
175 198 0
175 198 0
174 198 0
174 198 0
174 198 0
174 198 0
174 198 0
173 197 0
174 198 0
174 198 0
174 198 0
173 197 0
173 197 0
176 199 0
173 197 0
174 197 0
175 198 0
176 199 0
172 196 0
174 198 0
173 196 0
177 199 0
173 197 0
175 198 0
175 198 0
176 198 0
176 199 0
174 197 0
175 198 0
174 197 0
176 199 0
175 198 0
174 198 0
174 197 0
175 198 0
176 199 0
174 198 0
174 198 0
175 198 0
174 197 0
175 198 0
173 197 0
176 199 0
174 198 0
175 198 0
175 198 0
173 197 0
174 197 0
174 197 0
174 197 0
174 197 0
175 198 0
176 198 0
175 198 0
174 197 0
174 198 0
175 198 0
174 198 0
173 197 0
175 198 0
174 198 0
174 198 0
175 198 0
175 198 0
172 197 0
175 198 0
175 198 0
174 197 0
173 197 0
176 199 0
173 197 0
174 198 0
173 197 0
174 198 0
174 197 0
173 197 0
174 197 0
175 198 0
174 197 0
176 199 0
175 198 0
173 197 0
173 197 0
175 198 0
176 199 0
175 198 0
173 196 0
174 198 0
171 196 0
175 198 0
175 198 0
173 197 0
175 198 0
174 198 0
174 197 0
173 197 0
175 198 0
174 198 0
174 198 0
175 198 0
174 198 0
174 198 0
173 197 0
174 198 0
174 197 0
175 198 0
174 197 0
174 197 0
175 198 0
173 197 0
175 198 0
173 197 0
174 197 0
175 198 0
173 196 0
173 197 0
174 197 0
175 198 0
174 197 0
174 198 0
174 198 0
175 198 0
173 197 0
175 198 0
173 197 0
173 197 0
174 197 0
173 197 0
174 197 0
173 197 0
173 197 0
174 198 0
172 196 0
174 198 0
174 197 0
172 196 0
176 199 0
175 198 0
174 197 0
174 197 0
175 198 0
173 196 0
173 197 0
174 198 0
174 197 0
175 198 0
173 196 0
173 195 0
173 197 0
173 196 0
173 197 0
173 197 0
174 198 0
175 198 0
174 198 0
173 197 0
175 198 0
175 198 0
175 198 0
175 198 0
172 196 0
174 197 0
174 197 0
175 198 0
173 197 0
174 198 0
174 197 0
174 198 0
173 196 0
171 195 0
174 197 0
173 196 0
174 198 0
172 195 0
173 197 0
176 199 0
173 197 0
173 196 0
175 198 0
171 194 0
174 197 0
170 194 0
174 198 0
171 194 0
175 198 0
171 194 0
172 196 0
171 195 0
172 195 0
171 194 0
174 197 0
172 196 0
170 194 0
170 194 0
173 197 0
169 192 0
174 197 0
171 194 0
172 195 0
170 193 0
173 197 0
176 199 0
173 196 0
173 197 25
175 198 36
170 193 36
172 194 25
175 197 62
175 196 62
176 198 67
176 198 62
174 195 62
173 195 76
176 196 67
174 196 76
176 197 80
174 194 67
180 200 76
170 191 72
174 195 57
172 192 51
168 189 51
166 188 44
172 194 36
165 188 0
168 191 0
157 179 0
168 190 0
160 182 0
164 186 0
162 184 0
166 188 0
160 181 0
158 179 0
161 184 0
156 179 0
156 179 0
156 180 0
160 184 0
163 186 0
155 178 0
155 177 0
161 184 0
157 181 0
160 183 0
163 187 0
159 181 0
158 181 0
164 186 0
163 186 0
162 184 0
163 185 0
167 190 0
164 187 0
166 188 0
163 187 0
162 185 0
165 188 0
168 191 0
164 187 0
167 189 0
162 186 0
164 187 0
168 191 0
171 194 0
168 191 0
168 191 0
166 189 0
166 189 0
172 195 0
163 186 0
171 194 0
167 192 0
170 194 0
171 193 0
171 195 0
172 196 0
169 192 0
168 192 0
169 192 0
169 192 0
173 195 0
171 195 0
166 189 0
169 192 0
170 193 0
172 196 0
171 194 0
172 195 0
171 195 0
173 195 0
172 195 0
172 195 0
171 193 0
171 193 0
173 194 0
173 196 0
173 196 0
170 193 0
172 195 0
170 193 0
172 195 0
175 197 0
174 198 0
172 196 0
173 196 0
173 197 0
172 194 0
174 197 0
173 197 0
173 196 0
172 195 0
173 196 0
172 196 0
171 194 0
175 198 0
173 196 0
174 197 0
173 196 0
175 198 0
171 195 0
172 196 0
172 195 0
172 195 0
174 197 0
174 197 0
174 198 0
171 194 0
172 195 0
173 197 0
172 196 0
175 198 0
175 198 0
175 198 0
173 196 0
174 197 0
173 196 0
174 197 0
172 196 0
173 196 0
173 197 0
174 197 0
174 197 0
173 196 0
176 198 0
172 196 0
175 198 0
173 197 0
175 198 0
175 198 0
173 196 0
174 198 0
175 198 0
175 198 0
174 197 0
175 198 0
174 197 0
172 196 0
175 198 0
174 197 0
175 198 0
173 197 0
174 196 0
174 197 0
176 198 0
174 197 0
173 196 0
174 198 0
173 197 0
175 197 0
174 198 0
173 197 0
173 196 0
174 197 0
174 198 0
175 198 0
175 198 0
174 198 0
173 197 0
174 197 0
173 197 0
175 198 0
172 196 0
175 198 0
175 198 0
176 199 0
174 198 0
173 197 0
173 197 0
174 198 0
173 197 0
173 197 0
174 198 0
175 198 0
174 198 0
172 196 0
174 198 0
175 198 0
175 198 0
174 197 0
176 199 0
174 197 0
175 198 0
174 198 0
173 197 0
173 197 0
174 197 0
175 198 0
175 198 0
174 197 0
175 198 0
172 196 0
175 198 0
176 199 0
175 198 0
173 197 0
175 198 0
174 197 0
176 198 0
173 197 0
173 197 0
174 197 0
174 198 0
175 198 0
174 198 0
176 199 0
174 198 0
174 198 0
176 198 0
175 198 0
175 198 0
174 198 0
174 197 0
174 198 0
175 198 0
175 198 0
174 198 0
173 197 0
174 197 0
175 198 0
176 198 0
175 198 0
174 198 0
176 198 0
174 197 0
175 198 0
176 199 0
174 198 0
174 198 0
177 199 0
174 198 0
174 198 0
175 198 0
174 198 0
174 198 0
173 197 0
174 198 0
174 198 0
173 197 0
174 198 0
173 197 0
175 198 0
174 197 0
174 197 0
174 198 0
174 197 0
175 198 0
173 196 0
174 198 0
174 198 0
174 197 0
174 197 0
172 197 0
173 197 0
172 196 0
174 197 0
176 198 0
175 198 0
173 197 0
173 197 0
175 198 0
175 198 0
174 197 0
174 198 0
175 198 0
174 197 0
175 198 0
175 198 0
174 197 0
176 199 0
174 198 0
172 196 0
174 198 0
174 197 0
174 198 0
174 197 0
175 198 0
174 197 0
173 197 0
175 198 0
173 197 0
175 198 0
173 197 0
175 197 0
172 197 0
175 198 0
174 197 0
174 198 0
174 198 0
175 198 0
174 198 0
175 198 0
174 198 0
174 198 0
176 198 0
174 198 0
174 198 0
173 197 0
176 198 0
173 197 0
175 198 0
174 197 0
173 196 0
174 197 0
174 198 0
172 196 0
175 198 0
172 197 0
172 196 0
173 196 0
175 198 0
175 198 0
174 197 0
174 197 0
172 196 0
174 197 0
174 197 0
175 198 0
175 198 0
174 198 0
173 197 0
174 197 0
175 198 0
174 198 0
175 198 0
174 197 0
173 197 0
173 197 0
174 197 0
174 197 0
173 197 0
173 197 0
171 195 0
174 198 0
173 196 0
173 197 0
172 196 0
174 197 0
174 197 0
173 197 0
174 197 0
174 197 0
172 195 0
173 197 0
172 195 0
171 195 0
174 197 0
173 197 0
173 197 0
171 195 0
173 196 0
172 196 0
174 197 0
171 195 0
172 196 0
174 197 0
173 196 0
173 197 0
173 197 0
172 196 0
173 197 0
169 194 0
174 197 0
172 196 0
171 195 0
171 195 0
169 193 0
173 195 0
168 192 0
172 196 0
170 194 0
169 192 0
171 194 0
174 196 0
172 196 0
172 194 0
167 192 0
171 194 0
173 195 0
174 196 0
173 196 0
174 197 0
172 197 0
174 196 0
173 196 18
171 195 18
174 197 31
175 197 47
174 195 47
173 194 60
175 195 25
170 193 57
173 194 67
176 197 76
175 195 72
174 195 72
173 193 72
174 195 51
171 193 44
172 194 44
171 192 36
172 195 57
171 193 0
170 193 0
167 190 0
166 190 0
168 191 0
160 182 0
163 185 0
170 192 0
156 178 0
159 182 0
157 178 0
166 188 0
158 181 0
163 186 0
157 180 0
159 181 0
165 187 0
163 186 0
164 185 0
166 190 0
163 186 0
163 187 0
160 184 0
163 184 0
164 187 0
164 187 0
163 186 0
164 187 0
161 183 0
158 181 0
167 190 0
159 183 0
164 186 0
161 185 0
166 189 0
165 188 0
165 187 0
167 190 0
162 184 0
166 189 0
162 185 0
166 190 0
167 190 0
168 192 0
168 192 0
169 192 0
167 190 0
164 187 0
168 192 0
166 190 0
166 189 0
169 192 0
169 192 0
166 189 0
169 193 0
169 192 0
171 193 0
167 190 0
171 195 0
171 193 0
168 191 0
170 195 0
169 190 0
171 194 0
170 194 0
169 192 0
171 195 0
172 195 0
174 197 0
174 197 0
172 195 0
173 196 0
170 193 0
169 192 0
172 196 0
167 189 0
169 193 0
168 192 0
172 196 0
172 195 0
174 197 0
172 196 0
172 196 0
173 196 0
172 195 0
172 196 0
174 197 0
172 195 0
173 196 0
174 198 0
174 197 0
175 198 0
171 194 0
173 197 0
174 197 0
174 198 0
173 197 0
173 196 0
175 198 0
173 196 0
172 195 0
175 197 0
174 196 0
174 198 0
172 196 0
174 198 0
175 198 0
173 197 0
175 197 0
172 194 0
173 196 0
174 197 0
174 197 0
175 198 0
173 195 0
174 197 0
173 197 0
174 198 0
174 197 0
175 197 0
175 198 0
176 198 0
174 197 0
175 198 0
172 196 0
172 196 0
173 196 0
175 198 0
173 197 0
172 196 0
174 197 0
175 198 0
174 198 0
174 198 0
174 197 0
174 198 0
174 197 0
173 197 0
174 197 0
175 198 0
174 198 0
173 197 0
173 197 0
174 198 0
174 197 0
174 197 0
172 196 0
174 198 0
174 198 0
175 198 0
174 198 0
175 198 0
177 199 0
174 197 0
175 198 0
173 197 0
174 197 0
175 198 0
172 196 0
176 199 0
174 197 0
176 198 0
173 197 0
174 198 0
173 196 0
174 198 0
175 198 0
174 198 0
174 197 0
175 198 0
173 197 0
173 197 0
173 196 0
175 198 0
175 198 0
174 197 0
175 198 0
174 198 0
175 198 0
173 197 0
176 198 0
173 197 0
175 198 0
175 198 0
172 196 0
174 198 0
174 197 0
175 198 0
175 198 0
174 198 0
174 198 0
174 198 0
173 197 0
176 198 0
173 197 0
174 198 0
174 198 0
174 197 0
175 198 0
174 198 0
174 198 0
173 197 0
175 198 0
174 198 0
175 198 0
173 197 0
175 198 0
173 197 0
175 198 0
174 197 0
175 198 0
175 198 0
174 198 0
176 198 0
175 198 0
175 198 0
174 197 0
173 197 0
173 197 0
174 197 0
174 198 0
175 198 0
175 198 0
175 198 0
176 198 0
176 199 0
173 196 0
175 198 0
174 198 0
174 197 0
174 197 0
174 198 0
175 198 0
174 198 0
174 198 0
173 197 0
174 197 0
177 199 0
174 198 0
174 198 0
175 198 0
174 197 0
174 198 0
175 198 0
173 197 0
172 196 0
174 198 0
175 198 0
174 198 0
175 198 0
175 198 0
174 197 0
174 198 0
174 198 0
172 195 0
174 198 0
176 198 0
173 197 0
174 198 0
174 198 0
176 198 0
174 198 0
175 198 0
174 198 0
174 197 0
175 198 0
174 197 0
175 198 0
173 197 0
176 199 0
173 197 0
174 197 0
175 198 0
175 198 0
175 198 0
172 197 0
175 198 0
174 198 0
174 198 0
174 197 0
174 198 0
175 198 0
175 198 0
174 197 0
174 197 0
174 198 0
175 198 0
174 198 0
173 197 0
171 195 0
172 196 0
174 197 0
174 197 0
175 198 0
174 197 0
176 198 0
175 198 0
172 196 0
175 198 0
173 196 0
173 197 0
174 198 0
174 197 0
175 198 0
174 197 0
175 198 0
174 197 0
174 197 0
175 198 0
173 196 0
174 198 0
173 197 0
175 198 0
173 196 0
175 198 0
174 197 0
175 198 0
173 196 0
174 197 0
176 198 0
173 197 0
174 198 0
175 198 0
174 197 0
174 197 0
172 195 0
171 195 0
172 196 0
173 197 0
175 198 0
174 197 0
176 198 0
174 197 0
174 198 0
173 197 0
173 196 0
175 198 0
174 197 0
174 198 0
174 197 0
172 196 0
173 197 0
172 196 0
171 196 0
174 197 0
173 197 0
174 198 0
175 198 0
173 197 0
175 198 0
174 197 0
173 197 0
173 196 0
172 195 0
173 197 0
174 198 0
173 196 0
173 197 0
171 195 0
174 197 0
171 195 0
174 197 0
172 195 0
173 196 0
173 196 0
173 197 0
174 196 0
172 195 0
173 197 0
174 197 0
172 195 0
173 196 0
172 194 0
169 193 0
172 196 0
174 196 0
169 192 0
172 195 0
175 197 0
171 194 0
173 196 0
172 196 0
172 196 0
173 196 0
172 195 0
174 197 25
168 190 31
170 192 0
174 196 51
178 198 51
173 194 62
176 197 57
174 196 67
171 194 44
173 194 44
169 191 51
175 196 36
170 192 44
169 191 25
171 193 0
173 196 0
166 188 0
166 188 0
167 190 0
166 187 0
166 188 0
165 186 0
160 181 0
159 182 0
163 186 0
166 187 0
157 180 0
164 186 0
163 186 0
163 187 0
161 184 0
164 186 0
162 185 0
158 181 0
164 188 0
166 189 0
165 189 0
166 189 0
163 186 0
159 182 0
165 187 0
160 183 0
163 186 0
166 190 0
162 185 0
166 188 0
164 187 0
160 184 0
166 190 0
163 186 0
167 190 0
166 187 0
162 186 0
170 192 0
165 189 0
162 185 0
169 192 0
168 191 0
168 191 0
171 194 0
165 188 0
166 189 0
166 190 0
170 193 0
169 191 0
169 192 0
171 194 0
167 190 0
165 189 0
170 194 0
169 192 0
169 192 0
171 194 0
167 190 0
165 189 0
170 194 0
170 193 0
170 194 0
170 192 0
171 194 0
174 196 0
171 194 0
173 195 0
171 195 0
170 193 0
172 195 0
172 195 0
172 195 0
173 194 0
171 194 0
172 195 0
173 195 0
171 195 0
173 196 0
172 195 0
172 196 0
171 194 0
172 195 0
175 198 0
171 194 0
174 197 0
172 196 0
172 194 0
172 196 0
174 197 0
174 197 0
172 196 0
172 194 0
175 198 0
173 196 0
174 198 0
174 198 0
172 196 0
174 196 0
173 196 0
173 196 0
175 198 0
174 197 0
175 197 0
171 194 0
175 198 0
173 196 0
172 196 0
170 194 0
174 197 0
173 197 0
175 198 0
175 198 0
172 195 0
173 196 0
174 197 0
173 196 0
175 198 0
172 196 0
174 197 0
174 197 0
173 197 0
173 196 0
173 197 0
173 197 0
174 198 0
174 198 0
174 197 0
173 197 0
173 197 0
169 194 0
173 197 0
174 197 0
175 198 0
174 197 0
173 197 0
175 198 0
173 197 0
175 198 0
176 198 0
174 197 0
174 198 0
174 197 0
173 197 0
175 198 0
173 197 0
175 198 0
174 198 0
175 198 0
174 197 0
174 198 0
174 197 0
175 198 0
174 197 0
174 197 0
173 197 0
173 197 0
175 198 0
173 197 0
175 198 0
175 198 0
174 198 0
175 198 0
175 198 0
174 198 0
174 198 0
173 197 0
174 198 0
174 198 0
173 197 0
174 197 0
174 197 0
173 197 0
173 197 0
173 197 0
174 198 0
174 197 0
174 198 0
175 198 0
175 198 0
173 197 0
175 198 0
175 198 0
174 198 0
175 198 0
174 197 0
175 198 0
174 198 0
174 197 0
174 198 0
174 198 0
173 197 0
175 198 0
173 197 0
174 198 0
174 198 0
174 197 0
173 197 0
175 198 0
173 197 0
174 198 0
175 198 0
175 198 0
175 198 0
174 198 0
174 198 0
175 198 0
173 197 0
174 198 0
175 198 0
174 197 0
174 198 0
175 198 0
176 198 0
176 199 0
176 198 0
173 197 0
174 198 0
174 197 0
175 198 0
173 197 0
174 198 0
173 197 0
174 198 0
174 198 0
175 198 0
174 198 0
173 196 0
176 199 0
175 198 0
174 197 0
174 198 0
173 197 0
173 197 0
175 198 0
175 198 0
174 198 0
175 198 0
174 198 0
175 198 0
174 197 0
174 197 0
174 198 0
174 198 0
174 198 0
175 198 0
173 197 0
174 198 0
175 198 0
174 197 0
172 196 0
173 197 0
174 198 0
174 197 0
175 198 0
176 198 0
173 197 0
174 198 0
175 198 0
173 197 0
173 197 0
175 198 0
173 197 0
174 197 0
176 199 0
175 198 0
173 197 0
175 198 0
175 198 0
175 198 0
174 198 0
175 198 0
174 197 0
175 198 0
176 198 0
175 198 0
172 197 0
174 197 0
174 198 0
173 197 0
174 197 0
176 199 0
175 198 0
174 198 0
175 198 0
173 197 0
173 197 0
175 198 0
174 197 0
174 198 0
175 198 0
174 198 0
174 197 0
174 198 0
173 197 0
174 197 0
175 198 0
173 196 0
174 198 0
175 198 0
174 198 0
174 197 0
175 198 0
174 198 0
174 197 0
173 197 0
174 197 0
176 198 0
173 197 0
175 198 0
174 198 0
175 198 0
174 197 0
173 196 0
175 198 0
175 198 0
173 197 0
174 197 0
175 198 0
176 199 0
173 196 0
175 198 0
174 197 0
176 199 0
175 198 0
174 197 0
171 196 0
173 196 0
175 198 0
173 197 0
175 198 0
176 199 0
175 198 0
174 198 0
174 198 0
173 197 0
173 197 0
172 196 0
174 197 0
172 196 0
172 197 0
173 197 0
174 198 0
174 198 0
173 196 0
172 195 0
174 197 0
174 197 0
170 194 0
172 196 0
174 197 0
175 198 0
173 197 0
171 195 0
174 197 0
173 197 0
175 198 0
173 196 0
173 197 0
174 198 0
174 196 0
175 197 0
172 196 0
170 194 0
173 197 0
171 194 0
172 195 0
170 194 0
173 196 0
172 196 0
175 198 0
173 197 0
168 192 0
173 196 0
171 194 0
171 194 0
173 196 0
174 196 0
175 198 0
171 194 0
172 195 0
172 196 0
172 196 0
170 194 0
169 192 0
175 198 0
170 193 0
173 195 0
175 197 25
170 192 44
171 193 62
176 197 57
173 195 51
174 196 36
173 195 51
175 198 36
173 195 0
172 195 0
170 193 0
169 191 0
172 194 0
168 190 0
166 188 0
167 189 0
162 183 0
163 185 0
164 186 0
164 186 0
165 187 0
166 188 0
163 187 0
165 188 0
163 186 0
167 192 0
161 183 0
166 189 0
164 187 0
162 185 0
158 181 0
164 187 0
164 186 0
161 185 0
168 191 0
163 185 0
161 184 0
163 186 0
164 188 0
160 185 0
165 189 0
169 192 0
169 192 0
169 192 0
162 184 0
171 194 0
165 189 0
165 188 0
165 188 0
164 187 0
166 189 0
168 190 0
169 192 0
171 194 0
171 194 0
168 190 0
167 189 0
167 190 0
171 194 0
167 189 0
171 194 0
169 192 0
170 192 0
168 191 0
168 192 0
167 189 0
172 195 0
170 193 0
167 191 0
167 190 0
173 195 0
171 193 0
172 194 0
169 192 0
171 194 0
172 195 0
167 191 0
172 195 0
170 193 0
172 195 0
169 193 0
172 195 0
171 195 0
169 192 0
170 194 0
173 195 0
171 194 0
172 195 0
173 196 0
171 194 0
172 194 0
175 198 0
171 195 0
172 196 0
172 194 0
172 195 0
172 196 0
171 194 0
170 194 0
174 196 0
174 197 0
174 198 0
174 197 0
173 197 0
173 197 0
174 196 0
174 197 0
172 196 0
172 195 0
173 197 0
173 196 0
174 197 0
172 196 0
174 197 0
173 197 0
174 197 0
173 196 0
173 197 0
171 194 0
171 195 0
174 198 0
173 196 0
174 197 0
172 196 0
173 197 0
175 198 0
175 198 0
174 196 0
174 197 0
172 196 0
174 197 0
174 197 0
174 198 0
174 197 0
174 197 0
173 197 0
173 196 0
175 197 0
173 196 0
175 198 0
175 198 0
176 199 0
175 198 0
173 196 0
174 198 0
175 198 0
174 197 0
175 198 0
175 198 0
173 196 0
175 198 0
174 197 0
174 197 0
173 196 0
175 198 0
174 197 0
172 196 0
174 197 0
173 197 0
174 198 0
175 198 0
172 196 0
172 196 0
174 198 0
175 198 0
175 198 0
173 197 0
175 198 0
173 197 0
174 197 0
173 197 0
175 198 0
175 198 0
176 198 0
175 198 0
172 197 0
174 197 0
174 198 0
174 198 0
176 199 0
174 198 0
174 197 0
174 197 0
175 198 0
176 198 0
174 197 0
176 199 0
174 197 0
174 197 0
174 197 0
174 198 0
174 197 0
174 197 0
173 197 0
172 197 0
173 197 0
172 197 0
173 197 0
173 197 0
174 197 0
174 198 0
174 198 0
174 198 0
174 198 0
175 198 0
174 197 0
172 197 0
175 198 0
173 197 0
174 197 0
175 198 0
174 198 0
174 198 0
175 198 0
175 198 0
174 197 0
174 197 0
174 197 0
172 196 0
175 198 0
173 197 0
174 198 0
173 197 0
173 197 0
174 198 0
175 198 0
176 198 0
174 198 0
175 198 0
174 197 0
175 198 0
174 198 0
175 198 0
175 198 0
174 198 0
174 198 0
174 198 0
174 197 0
174 197 0
173 197 0
173 197 0
174 198 0
176 198 0
174 198 0
174 198 0
174 198 0
175 198 0
174 197 0
174 197 0
175 198 0
175 198 0
174 198 0
174 198 0
173 197 0
174 197 0
175 198 0
176 199 0
174 197 0
176 198 0
174 198 0
172 196 0
176 199 0
175 198 0
174 197 0
174 198 0
174 198 0
174 198 0
176 198 0
174 198 0
172 197 0
173 197 0
173 197 0
174 197 0
175 198 0
174 198 0
173 197 0
173 197 0
174 198 0
173 197 0
175 198 0
173 196 0
174 198 0
175 198 0
174 197 0
175 198 0
175 198 0
173 197 0
174 197 0
174 198 0
174 197 0
174 198 0
174 198 0
174 198 0
174 197 0
176 199 0
173 197 0
174 198 0
175 198 0
175 198 0
174 197 0
175 198 0
172 196 0
175 198 0
172 196 0
175 198 0
173 197 0
174 198 0
176 198 0
174 198 0
175 198 0
174 198 0
173 197 0
174 198 0
173 197 0
174 198 0
174 197 0
173 197 0
173 197 0
173 197 0
175 198 0
173 197 0
173 197 0
174 197 0
174 197 0
172 196 0
174 198 0
174 198 0
173 196 0
174 197 0
173 197 0
175 198 0
172 196 0
175 198 0
174 198 0
175 198 0
175 198 0
175 198 0
174 198 0
174 197 0
173 196 0
176 199 0
174 197 0
173 196 0
174 197 0
175 198 0
172 195 0
172 196 0
175 198 0
174 197 0
174 198 0
172 196 0
174 197 0
174 198 0
170 194 0
172 197 0
172 196 0
175 198 0
172 195 0
174 197 0
172 196 0
170 194 0
173 197 0
172 196 0
171 195 0
174 197 0
171 194 0
172 196 0
171 195 0
172 196 0
173 196 0
172 195 0
173 196 0
171 195 0
172 195 0
172 195 0
175 198 0
172 195 0
172 196 0
173 197 0
174 197 0
172 195 0
172 195 0
171 195 0
173 197 0
171 195 0
171 194 0
173 196 0
174 198 0
173 196 0
173 196 0
172 195 0
171 194 0
170 192 0
174 197 0
173 197 0
173 195 0
172 194 0
173 196 0
175 198 0
175 198 0
168 192 0
174 197 0
170 194 0
174 197 0
173 196 0
169 192 0
171 193 0
173 196 0
173 195 0
173 195 0
168 191 0
173 194 0
169 192 0
168 190 0
164 185 0
165 187 0
164 186 0
167 190 0
163 184 0
169 192 0
163 185 0
161 184 0
167 189 0
165 188 0
167 191 0
163 186 0
162 184 0
162 186 0
167 190 0
161 183 0
168 190 0
165 188 0
167 190 0
167 190 0
158 182 0
164 188 0
168 191 0
164 187 0
168 190 0
161 184 0
166 189 0
165 188 0
163 187 0
170 193 0
166 189 0
167 191 0
166 189 0
170 193 0
166 189 0
165 188 0
167 191 0
169 193 0
168 191 0
169 192 0
171 194 0
168 191 0
166 189 0
167 190 0
166 189 0
172 193 0
166 188 0
170 194 0
169 192 0
168 192 0
168 191 0
171 194 0
174 196 0
169 194 0
168 191 0
167 190 0
170 193 0
170 194 0
167 190 0
170 193 0
170 193 0
171 195 0
171 194 0
165 189 0
168 191 0
171 194 0
173 197 0
169 192 0
170 194 0
169 192 0
170 194 0
174 196 0
171 194 0
172 195 0
172 195 0
171 194 0
171 195 0
170 194 0
174 197 0
173 196 0
174 197 0
172 195 0
173 196 0
170 193 0
174 197 0
172 195 0
171 195 0
174 197 0
172 196 0
173 196 0
172 195 0
174 198 0
173 197 0
170 195 0
173 197 0
175 198 0
175 198 0
174 197 0
174 197 0
174 197 0
171 195 0
173 196 0
175 198 0
173 197 0
173 197 0
173 197 0
174 198 0
172 196 0
173 197 0
174 197 0
174 197 0
175 198 0
173 196 0
174 197 0
172 196 0
174 198 0
174 198 0
171 195 0
174 196 0
173 197 0
174 197 0
174 197 0
172 196 0
172 195 0
174 198 0
173 197 0
174 198 0
173 197 0
173 197 0
174 197 0
175 198 0
173 197 0
174 197 0
174 197 0
171 194 0
172 196 0
175 198 0
173 197 0
174 197 0
175 198 0
175 198 0
175 198 0
176 199 0
176 198 0
173 197 0
174 198 0
172 196 0
174 198 0
175 198 0
176 199 0
175 198 0
174 197 0
176 199 0
173 197 0
175 198 0
175 198 0
174 198 0
175 198 0
174 197 0
175 198 0
173 197 0
173 197 0
174 198 0
175 198 0
174 197 0
174 197 0
175 198 0
172 196 0
175 198 0
173 197 0
175 198 0
174 197 0
176 198 0
176 199 0
174 197 0
174 198 0
174 197 0
173 197 0
174 198 0
174 198 0
174 197 0
175 198 0
175 198 0
175 198 0
175 198 0
175 198 0
175 198 0
174 197 0
172 196 0
173 197 0
175 198 0
174 198 0
175 198 0
173 197 0
174 197 0
172 196 0
175 198 0
174 197 0
173 197 0
174 197 0
174 197 0
173 197 0
175 198 0
176 199 0
174 198 0
174 198 0
175 198 0
175 198 0
172 196 0
174 198 0
173 197 0
174 198 0
175 198 0
173 197 0
175 198 0
175 198 0
175 198 0
173 197 0
175 198 0
173 197 0
174 198 0
174 197 0
174 197 0
175 198 0
173 197 0
175 198 0
173 197 0
176 199 0
174 197 0
175 198 0
173 197 0
173 197 0
173 197 0
174 198 0
175 198 0
175 198 0
174 198 0
175 198 0
175 198 0
175 198 0
175 198 0
175 198 0
174 197 0
175 198 0
174 197 0
174 198 0
175 198 0
173 197 0
175 198 0
174 198 0
174 198 0
174 197 0
175 198 0
175 198 0
173 197 0
174 197 0
175 198 0
174 197 0
173 197 0
173 197 0
175 198 0
175 198 0
173 197 0
175 198 0
172 197 0
174 198 0
174 198 0
175 198 0
174 197 0
173 197 0
175 198 0
174 197 0
174 197 0
174 198 0
174 198 0
174 198 0
174 198 0
175 198 0
173 197 0
175 198 0
173 196 0
174 197 0
175 198 0
173 197 0
175 198 0
175 198 0
173 197 0
173 197 0
176 199 0
175 198 0
176 198 0
175 198 0
173 197 0
175 198 0
174 198 0
175 198 0
173 197 0
175 198 0
175 198 0
174 197 0
173 197 0
174 197 0
174 197 0
173 197 0
175 198 0
174 197 0
173 197 0
174 197 0
174 197 0
174 197 0
174 197 0
173 197 0
172 196 0
174 197 0
176 199 0
174 197 0
172 196 0
174 198 0
175 198 0
174 198 0
174 197 0
173 197 0
175 198 0
174 197 0
173 197 0
174 198 0
173 197 0
173 196 0
174 198 0
174 197 0
172 196 0
173 196 0
174 197 0
173 196 0
174 197 0
175 198 0
175 198 0
175 198 0
174 197 0
174 197 0
174 197 0
175 198 0
174 197 0
172 195 0
174 197 0
174 197 0
173 196 0
173 196 0
173 197 0
172 196 0
174 198 0
175 198 0
172 195 0
176 199 0
173 197 0
175 198 0
171 195 0
172 196 0
172 196 0
174 198 0
172 195 0
175 198 0
172 195 0
172 195 0
171 195 0
172 195 0
174 197 0
173 195 0
172 195 0
174 197 0
174 197 0
172 196 0
174 197 0
173 196 0
174 196 0
173 196 0
171 193 0
173 195 0
173 196 0
170 193 0
172 195 0
174 196 0
169 192 0
171 194 0
169 192 0
171 194 0
172 194 0
172 194 0
172 194 0
174 196 0
174 197 0
171 194 0
168 191 0
173 195 0
168 190 0
171 193 0
172 194 0
169 190 25
172 194 0
169 191 0
168 190 0
171 192 0
168 190 0
166 187 0
159 181 0
168 191 0
169 191 0
162 184 0
165 188 0
166 189 0
162 185 0
166 190 0
165 187 0
160 183 0
162 185 0
160 183 0
159 183 0
166 189 0
168 192 0
167 190 0
165 188 0
169 192 0
160 184 0
166 189 0
167 190 0
166 190 0
166 189 0
165 188 0
167 189 0
169 192 0
168 191 0
165 188 0
167 189 0
172 194 0
169 193 0
167 190 0
168 191 0
168 191 0
170 194 0
169 192 0
170 194 0
168 191 0
169 192 0
169 191 0
166 188 0
170 192 0
170 193 0
167 190 0
166 189 0
169 190 0
173 196 0
171 194 0
170 192 0
172 195 0
171 194 0
175 198 0
172 196 0
169 193 0
170 193 0
170 194 0
171 193 0
168 192 0
173 197 0
173 196 0
168 191 0
172 195 0
172 196 0
171 194 0
173 196 0
172 194 0
172 195 0
173 196 0
169 193 0
171 194 0
173 196 0
171 194 0
174 196 0
173 195 0
174 197 0
172 194 0
173 197 0
171 196 0
172 195 0
171 195 0
173 197 0
172 196 0
174 197 0
171 195 0
172 196 0
175 197 0
174 197 0
173 196 0
172 196 0
175 197 0
174 197 0
174 197 0
172 195 0
171 195 0
175 198 0
172 196 0
173 196 0
173 196 0
176 198 0
173 196 0
174 197 0
172 195 0
172 196 0
172 195 0
172 195 0
171 196 0
174 197 0
174 197 0
175 198 0
174 197 0
173 197 0
172 196 0
172 196 0
174 198 0
174 197 0
172 195 0
174 198 0
175 198 0
174 197 0
173 197 0
175 198 0
174 198 0
174 197 0
174 197 0
176 199 0
175 198 0
174 197 0
174 197 0
173 197 0
172 196 0
173 196 0
175 198 0
173 197 0
175 198 0
172 195 0
175 198 0
174 198 0
174 198 0
175 198 0
174 197 0
173 197 0
174 197 0
175 198 0
173 197 0
176 198 0
173 197 0
173 197 0
174 197 0
174 197 0
175 198 0
174 197 0
173 197 0
174 197 0
174 197 0
176 199 0
174 198 0
173 197 0
174 198 0
174 198 0
174 197 0
174 197 0
174 198 0
174 197 0
175 198 0
176 198 0
175 198 0
175 198 0
174 198 0
175 198 0
175 198 0
174 198 0
173 197 0
175 198 0
174 197 0
174 198 0
174 197 0
175 198 0
173 197 0
174 198 0
173 196 0
173 197 0
174 198 0
175 198 0
174 198 0
174 198 0
173 197 0
174 198 0
174 197 0
173 197 0
174 198 0
174 198 0
174 197 0
175 198 0
174 197 0
174 197 0
172 197 0
174 197 0
174 198 0
174 198 0
174 198 0
175 198 0
173 197 0
174 198 0
174 198 0
175 198 0
173 197 0
174 197 0
174 198 0
174 198 0
174 198 0
174 197 0
174 197 0
174 198 0
173 197 0
175 198 0
174 197 0
174 198 0
174 197 0
175 198 0
173 197 0
175 198 0
173 197 0
174 197 0
174 198 0
176 198 0
175 198 0
177 199 0
175 198 0
174 198 0
174 198 0
173 197 0
175 198 0
173 197 0
176 198 0
175 198 0
174 198 0
175 198 0
174 198 0
174 197 0
174 198 0
173 197 0
175 198 0
175 198 0
174 198 0
174 197 0
175 198 0
176 198 0
175 198 0
173 197 0
173 197 0
176 199 0
175 198 0
174 197 0
174 197 0
172 196 0
173 197 0
174 197 0
173 197 0
175 198 0
174 197 0
172 195 0
175 198 0
173 197 0
176 199 0
174 198 0
175 198 0
172 197 0
173 197 0
175 198 0
175 198 0
173 196 0
175 198 0
174 198 0
174 198 0
175 198 0
173 197 0
173 197 0
175 198 0
173 197 0
175 198 0
173 197 0
174 197 0
174 197 0
173 197 0
173 197 0
174 198 0
175 198 0
175 198 0
174 197 0
174 197 0
175 198 0
174 198 0
175 198 0
174 197 0
174 197 0
172 196 0
176 198 0
174 198 0
175 198 0
172 196 0
173 197 0
176 199 0
173 197 0
173 197 0
172 196 0
174 198 0
173 197 0
173 197 0
172 196 0
174 197 0
173 197 0
174 197 0
175 198 0
175 198 0
173 197 0
173 197 0
173 197 0
174 198 0
173 196 0
174 197 0
173 197 0
174 197 0
172 197 0
172 196 0
173 197 0
174 198 0
175 198 0
172 196 0
175 198 0
175 198 0
173 197 0
173 197 0
173 196 0
174 197 0
173 197 0
175 198 0
175 198 0
173 197 0
173 197 0
175 198 0
173 197 0
173 197 0
172 196 0
172 196 0
175 198 0
173 196 0
172 196 0
172 195 0
174 197 0
172 196 0
172 195 0
172 196 0
170 194 0
175 198 0
171 195 0
171 195 0
172 196 0
172 195 0
172 196 0
171 194 0
175 198 0
173 197 0
173 196 0
173 196 0
171 195 0
172 196 0
173 197 0
172 195 0
174 197 0
173 196 0
171 194 0
171 194 0
172 195 0
168 191 0
169 192 0
173 195 0
175 197 0
173 195 25
172 194 0
174 195 0
175 197 0
172 194 0
174 195 0
172 195 0
170 193 0
171 193 0
172 194 0
171 193 0
174 195 0
170 192 0
171 194 0
170 192 0
175 196 0
173 194 0
169 191 0
169 190 0
171 192 0
170 192 0
163 184 0
169 191 0
169 192 0
168 190 0
167 189 0
167 190 0
168 191 0
168 191 0
168 190 0
165 188 0
165 188 0
158 180 0
167 190 0
167 190 0
167 191 0
163 186 0
165 189 0
169 191 0
167 190 0
166 189 0
165 188 0
170 193 0
167 190 0
165 188 0
166 188 0
169 192 0
168 192 0
168 191 0
165 186 0
166 190 0
166 190 0
167 191 0
166 188 0
169 192 0
166 190 0
165 189 0
169 192 0
168 192 0
167 191 0
167 190 0
164 188 0
170 193 0
170 193 0
172 195 0
166 190 0
165 188 0
169 191 0
170 194 0
171 194 0
174 197 0
170 193 0
168 191 0
175 198 0
172 196 0
169 192 0
174 197 0
170 194 0
171 194 0
169 191 0
173 197 0
170 193 0
173 196 0
172 194 0
171 194 0
170 193 0
170 194 0
171 195 0
172 195 0
172 195 0
174 195 0
171 194 0
169 193 0
173 196 0
171 194 0
172 195 0
173 196 0
174 196 0
172 195 0
172 195 0
172 196 0
173 197 0
172 195 0
172 195 0
174 197 0
175 198 0
176 198 0
172 196 0
171 195 0
174 197 0
171 194 0
175 198 0
174 197 0
175 198 0
172 195 0
174 197 0
171 195 0
174 197 0
171 195 0
174 197 0
172 196 0
174 198 0
173 195 0
174 197 0
172 196 0
170 194 0
172 196 0
175 198 0
174 198 0
175 197 0
172 196 0
175 197 0
174 198 0
173 197 0
174 197 0
173 197 0
171 195 0
174 198 0
173 196 0
173 197 0
173 197 0
172 196 0
173 197 0
174 197 0
175 198 0
174 197 0
173 197 0
174 197 0
174 198 0
173 196 0
174 198 0
173 197 0
172 196 0
174 197 0
174 197 0
177 199 0
173 197 0
174 197 0
173 197 0
173 196 0
175 198 0
174 198 0
176 199 0
175 198 0
174 197 0
174 198 0
174 198 0
175 198 0
173 197 0
174 197 0
175 198 0
175 198 0
174 197 0
173 196 0
174 198 0
175 198 0
173 197 0
174 197 0
173 196 0
174 198 0
175 198 0
174 198 0
173 197 0
175 198 0
173 197 0
175 198 0
174 197 0
174 197 0
174 197 0
175 197 0
172 196 0
174 197 0
175 198 0
174 198 0
175 198 0
174 198 0
175 198 0
174 197 0
173 197 0
174 198 0
175 198 0
174 198 0
174 197 0
175 198 0
174 197 0
175 198 0
174 198 0
173 197 0
175 198 0
174 198 0
175 198 0
174 197 0
176 198 0
172 196 0
173 197 0
174 198 0
175 198 0
176 199 0
173 197 0
174 197 0
175 198 0
175 198 0
174 198 0
176 199 0
175 198 0
176 199 0
174 197 0
173 197 0
175 198 0
174 198 0
175 198 0
174 197 0
174 198 0
174 198 0
175 198 0
174 198 0
174 197 0
173 197 0
174 198 0
175 198 0
174 198 0
175 198 0
175 198 0
175 198 0
175 198 0
173 197 0
173 197 0
174 198 0
174 198 0
175 198 0
173 197 0
174 198 0
174 198 0
175 198 0
174 198 0
175 198 0
174 197 0
176 198 0
174 198 0
174 197 0
174 198 0
173 196 0
175 198 0
174 197 0
172 197 0
174 197 0
174 197 0
174 197 0
174 197 0
174 198 0
174 198 0
176 198 0
175 198 0
174 197 0
175 198 0
176 198 0
174 198 0
173 197 0
174 198 0
175 198 0
174 197 0
174 198 0
173 197 0
174 198 0
175 198 0
175 198 0
176 199 0
175 198 0
173 197 0
174 198 0
175 198 0
174 198 0
175 198 0
175 198 0
174 198 0
175 198 0
176 199 0
174 198 0
173 197 0
173 197 0
174 197 0
176 198 0
174 198 0
175 198 0
174 197 0
175 198 0
171 195 0
175 197 0
174 197 0
174 197 0
173 197 0
174 198 0
175 198 0
174 197 0
173 197 0
174 198 0
173 197 0
174 198 0
174 198 0
174 197 0
174 198 0
174 198 0
175 198 0
174 197 0
174 197 0
173 197 0
175 198 0
175 198 0
173 197 0
174 198 0
175 198 0
175 198 0
174 197 0
173 197 0
173 197 0
174 198 0
175 198 0
173 196 0
174 198 0
173 197 0
170 195 0
175 198 0
174 197 0
174 198 0
176 199 0
174 197 0
174 198 0
175 198 0
173 196 0
174 197 0
173 197 0
175 198 0
175 198 0
174 198 0
174 198 0
172 196 0
173 196 0
172 196 0
173 197 0
173 197 0
172 196 0
175 198 0
174 197 0
176 198 0
175 198 0
173 196 0
174 197 0
175 198 0
173 197 0
173 197 0
174 197 0
172 196 0
174 198 0
173 196 0
172 196 0
172 196 0
172 196 0
173 196 0
175 198 0
172 195 0
170 194 0
172 196 0
173 196 0
171 194 0
171 195 0
170 193 0
172 196 0
174 197 0
172 195 0
170 193 0
172 195 0
173 196 0
173 196 0
174 197 0
173 196 0
171 193 0
169 193 0
174 196 0
174 197 0
172 194 0
174 195 0
174 196 0
175 197 0
176 197 0
173 195 0
171 192 0
174 196 0
174 196 0
174 195 0
173 195 0
172 194 0
169 190 0
169 190 0
170 191 0
170 192 0
173 194 0
174 196 0
177 197 0
169 191 0
171 194 0
169 191 0
164 186 0
168 190 0
165 188 0
167 190 0
167 190 0
165 187 0
170 193 0
166 188 0
168 190 0
168 191 0
162 185 0
163 188 0
164 187 0
171 194 0
164 186 0
168 191 0
167 190 0
166 189 0
166 189 0
168 191 0
166 189 0
165 188 0
167 190 0
165 188 0
163 187 0
168 191 0
166 189 0
171 194 0
167 189 0
168 191 0
166 189 0
169 192 0
168 191 0
169 192 0
171 195 0
167 190 0
168 192 0
171 193 0
170 192 0
173 195 0
167 189 0
166 188 0
163 186 0
168 192 0
170 194 0
171 193 0
168 191 0
171 194 0
170 194 0
170 193 0
171 195 0
171 194 0
168 191 0
172 195 0
172 195 0
172 195 0
168 191 0
172 195 0
171 195 0
172 196 0
173 196 0
173 196 0
169 193 0
171 194 0
172 195 0
172 195 0
170 194 0
174 197 0
172 197 0
172 196 0
170 193 0
172 195 0
173 196 0
173 197 0
172 195 0
173 196 0
171 195 0
171 194 0
171 195 0
172 196 0
175 198 0
171 195 0
173 196 0
173 196 0
174 197 0
173 196 0
172 196 0
174 197 0
173 196 0
174 198 0
172 195 0
172 195 0
172 195 0
176 199 0
172 196 0
174 197 0
175 198 0
174 197 0
173 197 0
174 197 0
174 197 0
174 197 0
172 196 0
173 197 0
172 195 0
172 195 0
173 196 0
172 196 0
174 197 0
171 195 0
174 198 0
174 197 0
174 196 0
175 198 0
174 197 0
173 196 0
171 195 0
174 198 0
173 197 0
174 197 0
175 198 0
172 196 0
172 196 0
174 197 0
172 196 0
174 197 0
172 196 0
172 196 0
175 198 0
174 198 0
175 198 0
172 196 0
173 197 0
175 198 0
175 198 0
175 198 0
173 197 0
175 198 0
175 198 0
174 197 0
173 197 0
176 198 0
174 198 0
175 198 0
173 196 0
175 198 0
173 197 0
174 198 0
174 197 0
174 198 0
173 196 0
173 197 0
176 198 0
174 198 0
172 197 0
175 198 0
173 197 0
175 198 0
176 199 0
175 198 0
174 198 0
175 198 0
173 197 0
175 198 0
173 197 0
173 197 0
175 198 0
173 197 0
175 198 0
174 197 0
175 198 0
175 198 0
176 198 0
174 198 0
175 198 0
174 197 0
173 197 0
172 196 0
174 198 0
176 199 0
174 197 0
174 198 0
173 197 0
173 197 0
176 198 0
174 197 0
174 198 0
174 197 0
175 198 0
173 197 0
174 198 0
174 197 0
175 198 0
174 198 0
175 198 0
175 198 0
175 198 0
173 197 0
175 198 0
175 198 0
175 198 0
175 198 0
174 198 0
175 198 0
175 198 0
174 198 0
174 198 0
175 198 0
174 197 0
174 197 0
174 198 0
174 198 0
173 197 0
174 198 0
174 197 0
172 197 0
176 198 0
174 197 0
174 198 0
175 198 0
174 197 0
174 198 0
174 198 0
176 199 0
175 198 0
176 199 0
174 198 0
175 198 0
176 199 0
176 198 0
175 198 0
174 198 0
176 199 0
176 199 0
172 197 0
175 198 0
173 197 0
174 198 0
175 198 0
175 198 0
174 198 0
173 197 0
174 198 0
174 197 0
176 198 0
174 198 0
174 198 0
174 198 0
173 197 0
174 197 0
175 198 0
174 197 0
173 197 0
175 198 0
175 198 0
174 198 0
172 196 0
175 198 0
175 198 0
175 198 0
176 198 0
173 197 0
174 197 0
174 197 0
174 197 0
174 198 0
174 197 0
175 198 0
173 197 0
176 199 0
175 198 0
173 197 0
175 198 0
173 196 0
175 198 0
174 198 0
175 198 0
173 197 0
174 198 0
175 198 0
173 197 0
175 198 0
175 198 0
175 198 0
174 198 0
174 197 0
174 197 0
173 197 0
174 197 0
175 198 0
174 198 0
175 198 0
174 197 0
174 198 0
173 197 0
175 198 0
176 198 0
174 198 0
174 198 0
174 198 0
174 198 0
174 198 0
175 198 0
173 197 0
173 196 0
174 197 0
175 198 0
173 197 0
175 198 0
174 197 0
173 196 0
175 198 0
175 198 0
173 197 0
174 198 0
175 198 0
176 198 0
174 197 0
174 197 0
173 196 0
174 198 0
174 198 0
172 196 0
174 198 0
173 197 0
173 196 0
173 197 0
172 196 0
175 198 0
174 197 0
173 196 0
173 197 0
173 197 0
175 198 0
174 197 0
172 197 0
173 197 0
172 196 0
174 198 0
172 196 0
175 198 0
171 195 0
173 197 0
172 196 0
172 196 0
174 197 0
174 197 0
172 196 0
174 197 0
172 196 0
172 196 0
173 196 0
173 196 0
173 197 0
171 194 0
173 197 0
169 192 0
173 196 0
173 197 0
172 196 0
171 195 0
171 195 0
171 195 0
174 197 0
174 197 0
174 197 0
175 198 0
175 198 0
171 195 0
172 195 0
173 196 0
175 198 0
172 195 0
172 195 0
171 194 0
172 194 0
172 195 0
172 194 0
176 198 0
175 196 0
174 196 0
171 193 0
174 196 0
174 196 0
170 192 0
172 194 0
173 195 0
171 192 0
175 196 0
172 194 0
168 190 0
173 194 0
175 196 0
175 196 0
175 196 0
169 192 0
172 193 0
171 194 0
168 190 0
165 187 0
165 188 0
169 191 0
170 193 0
163 186 0
164 187 0
167 190 0
171 194 0
169 192 0
165 188 0
164 187 0
168 192 0
167 190 0
164 187 0
163 186 0
166 189 0
166 188 0
160 182 0
167 190 0
164 187 0
164 188 0
165 189 0
166 189 0
167 189 0
166 189 0
170 192 0
167 191 0
170 193 0
167 188 0
167 191 0
168 191 0
169 193 0
169 192 0
167 189 0
165 188 0
166 190 0
168 191 0
167 190 0
167 191 0
169 192 0
169 193 0
172 195 0
169 193 0
169 192 0
172 194 0
170 193 0
168 190 0
166 190 0
169 193 0
172 196 0
173 196 0
174 197 0
169 192 0
170 193 0
170 192 0
171 194 0
171 194 0
168 191 0
168 191 0
168 191 0
171 195 0
171 195 0
173 196 0
172 194 0
171 194 0
173 196 0
171 195 0
170 193 0
172 195 0
173 197 0
172 195 0
170 193 0
171 194 0
175 198 0
169 193 0
173 196 0
173 195 0
171 195 0
169 193 0
172 196 0
172 196 0
173 196 0
173 196 0
170 193 0
175 198 0
176 198 0
171 195 0
175 197 0
174 197 0
171 195 0
172 194 0
173 197 0
173 196 0
173 196 0
175 198 0
171 195 0
171 195 0
173 197 0
173 196 0
173 197 0
173 196 0
174 197 0
173 197 0
175 198 0
173 197 0
172 195 0
172 196 0
172 196 0
173 197 0
173 196 0
176 198 0
173 197 0
175 198 0
171 194 0
172 196 0
173 196 0
173 197 0
175 198 0
174 197 0
175 197 0
174 197 0
173 197 0
173 197 0
175 198 0
175 198 0
175 198 0
174 197 0
175 198 0
171 195 0
174 198 0
174 197 0
173 197 0
174 197 0
174 198 0
175 198 0
172 196 0
174 198 0
176 198 0
173 197 0
174 197 0
173 197 0
175 198 0
175 198 0
173 196 0
175 198 0
174 197 0
172 196 0
175 198 0
174 197 0
175 198 0
174 198 0
174 198 0
174 197 0
174 198 0
175 198 0
174 198 0
173 196 0
174 197 0
174 198 0
174 198 0
174 198 0
173 197 0
174 197 0
176 198 0
175 198 0
174 197 0
175 198 0
174 198 0
174 198 0
174 198 0
173 197 0
173 196 0
174 198 0
176 199 0
176 198 0
174 197 0
174 197 0
175 198 0
174 197 0
174 198 0
172 196 0
175 198 0
173 197 0
173 196 0
174 198 0
174 197 0
175 198 0
174 198 0
173 197 0
173 197 0
173 197 0
173 197 0
176 199 0
174 197 0
177 199 0
174 198 0
173 197 0
175 198 0
174 197 0
173 197 0
174 197 0
175 198 0
174 198 0
174 198 0
174 198 0
175 198 0
173 197 0
175 198 0
174 198 0
173 197 0
173 197 0
173 196 0
176 199 0
173 196 0
176 198 0
176 199 0
175 198 0
174 197 0
175 198 0
175 198 0
174 197 0
174 198 0
175 198 0
173 197 0
174 197 0
177 199 0
174 198 0
173 197 0
175 198 0
175 198 0
175 198 0
173 197 0
174 198 0
176 198 0
173 197 0
175 198 0
175 198 0
174 197 0
173 197 0
175 198 0
175 198 0
174 197 0
173 197 0
173 197 0
174 198 0
172 195 0
173 197 0
176 199 0
175 198 0
173 197 0
175 198 0
173 197 0
173 197 0
175 198 0
173 197 0
176 199 0
174 197 0
174 198 0
173 197 0
175 198 0
173 197 0
174 198 0
176 198 0
175 198 0
176 199 0
174 198 0
171 195 0
175 198 0
173 197 0
176 198 0
175 198 0
174 198 0
175 198 0
173 197 0
174 197 0
174 198 0
173 197 0
174 198 0
175 198 0
174 198 0
175 198 0
174 198 0
174 197 0
176 198 0
174 198 0
173 197 0
175 198 0
174 197 0
174 198 0
175 198 0
174 197 0
173 197 0
173 197 0
174 198 0
174 197 0
174 198 0
174 198 0
175 198 0
174 198 0
174 197 0
175 198 0
174 197 0
173 197 0
175 198 0
173 196 0
174 197 0
175 198 0
174 197 0
175 198 0
174 198 0
173 197 0
175 198 0
176 198 0
174 198 0
174 197 0
172 196 0
174 197 0
174 197 0
173 197 0
174 198 0
174 197 0
174 197 0
173 197 0
175 198 0
175 198 0
174 198 0
172 196 0
173 197 0
172 196 0
175 198 0
173 197 0
172 196 0
173 197 0
174 198 0
174 197 0
173 197 0
173 197 0
172 196 0
172 196 0
172 196 0
171 195 0
172 196 0
173 196 0
173 196 0
175 198 0
174 196 0
173 197 0
173 197 0
173 197 0
173 197 0
173 196 0
173 196 0
172 196 0
174 197 0
174 198 0
173 197 0
173 197 0
174 198 0
174 198 0
173 196 0
172 196 0
175 198 0
172 196 0
172 196 0
173 197 0
173 197 0
174 197 0
172 196 0
170 194 0
170 194 0
173 196 0
171 195 0
168 191 0
176 198 0
173 196 0
172 195 0
173 196 0
172 194 0
175 197 0
173 195 0
173 195 0
173 195 0
175 196 0
175 196 0
174 196 0
169 192 0
169 191 0
171 193 0
175 196 0
173 195 0
174 196 0
172 193 0
169 190 0
174 195 0
173 195 0
173 194 0
166 188 0
172 193 0
170 192 0
171 193 0
166 188 0
169 191 0
167 190 0
165 186 0
169 193 0
168 192 0
169 191 0
168 191 0
167 190 0
169 191 0
169 192 0
172 195 0
167 190 0
166 189 0
168 191 0
168 192 0
165 188 0
166 189 0
165 188 0
169 193 0
165 189 0
164 188 0
167 190 0
169 193 0
167 190 0
167 191 0
167 190 0
168 191 0
166 188 0
168 191 0
172 195 0
167 191 0
167 190 0
171 193 0
168 191 0
168 191 0
170 192 0
166 189 0
166 188 0
169 193 0
168 192 0
169 193 0
169 193 0
169 192 0
167 190 0
174 196 0
172 196 0
171 194 0
170 194 0
171 195 0
171 194 0
173 196 0
171 195 0
169 192 0
171 194 0
172 195 0
172 195 0
171 194 0
172 195 0
172 194 0
170 194 0
170 194 0
173 196 0
171 194 0
176 199 0
173 196 0
166 190 0
167 190 0
173 196 0
172 196 0
172 196 0
172 196 0
171 195 0
170 194 0
171 195 0
174 198 0
172 196 0
172 195 0
172 195 0
174 196 0
172 196 0
175 197 0
172 195 0
173 196 0
174 198 0
173 196 0
173 197 0
175 198 0
173 196 0
173 196 0
175 197 0
172 195 0
173 197 0
173 197 0
173 196 0
174 197 0
174 198 0
174 197 0
172 196 0
173 196 0
174 197 0
174 196 0
173 196 0
174 197 0
174 198 0
175 198 0
173 196 0
173 196 0
173 197 0
174 197 0
174 197 0
175 197 0
175 198 0
172 196 0
175 198 0
172 195 0
173 196 0
174 197 0
173 196 0
172 197 0
173 197 0
173 196 0
173 197 0
174 198 0
174 196 0
173 197 0
172 196 0
174 197 0
174 197 0
173 197 0
175 198 0
172 196 0
175 198 0
173 197 0
175 198 0
172 196 0
174 197 0
174 197 0
175 198 0
175 198 0
175 197 0
175 198 0
175 198 0
174 197 0
175 198 0
174 198 0
174 198 0
174 197 0
174 198 0
174 198 0
175 198 0
174 197 0
176 199 0
175 198 0
174 198 0
175 198 0
174 197 0
174 197 0
174 197 0
175 198 0
174 198 0
174 198 0
174 198 0
174 198 0
175 198 0
175 198 0
174 197 0
175 198 0
172 197 0
174 197 0
174 198 0
177 199 0
172 197 0
175 198 0
172 196 0
173 197 0
174 198 0
172 197 0
175 198 0
175 198 0
173 197 0
174 198 0
176 198 0
175 198 0
174 197 0
174 197 0
174 198 0
176 199 0
175 197 0
173 197 0
175 198 0
175 198 0
174 198 0
174 198 0
173 197 0
173 197 0
175 198 0
173 197 0
174 197 0
175 198 0
174 198 0
173 197 0
175 198 0
175 198 0
174 198 0
175 198 0
174 197 0
174 197 0
173 197 0
175 198 0
175 198 0
176 199 0
177 199 0
175 198 0
174 197 0
174 198 0
174 198 0
174 197 0
174 198 0
175 198 0
174 198 0
173 197 0
174 197 0
174 197 0
173 197 0
174 197 0
174 198 0
176 199 0
173 197 0
174 198 0
174 197 0
175 198 0
175 198 0
175 198 0
174 197 0
174 197 0
174 197 0
174 197 0
174 198 0
174 198 0
173 197 0
173 197 0
175 198 0
175 198 0
174 198 0
173 196 0
173 197 0
175 198 0
174 197 0
176 199 0
174 198 0
174 198 0
175 198 0
174 198 0
174 197 0
174 197 0
175 198 0
173 197 0
175 198 0
173 197 0
173 197 0
174 198 0
174 198 0
173 197 0
175 198 0
175 198 0
176 199 0
174 198 0
174 198 0
174 198 0
173 197 0
174 198 0
174 198 0
175 198 0
174 197 0
173 197 0
176 199 0
174 197 0
174 197 0
173 196 0
173 197 0
175 198 0
172 196 0
173 196 0
175 198 0
174 197 0
173 197 0
173 197 0
175 198 0
172 197 0
174 198 0
173 197 0
173 197 0
174 198 0
172 196 0
172 196 0
174 197 0
175 198 0
172 196 0
175 198 0
174 198 0
175 198 0
175 198 0
172 196 0
175 198 0
174 198 0
173 197 0
175 198 0
173 197 0
174 197 0
174 198 0
173 197 0
169 194 0
175 198 0
174 198 0
175 198 0
174 197 0
175 198 0
174 197 0
175 198 0
174 198 0
175 198 0
173 197 0
174 197 0
173 196 0
172 196 0
172 196 0
173 197 0
171 195 0
173 197 0
174 197 0
174 198 0
174 198 0
173 197 0
173 197 0
174 197 0
174 198 0
173 197 0
173 196 0
173 197 0
173 197 0
173 197 0
174 197 0
171 195 0
172 196 0
174 198 0
173 196 0
173 197 0
173 197 0
173 197 0
173 196 0
173 196 0
174 197 0
174 198 0
172 196 0
172 196 0
174 198 0
176 198 0
173 196 0
173 196 0
175 198 0
172 196 0
172 195 0
173 196 0
174 197 0
170 193 0
173 197 0
174 197 0
175 198 0
171 194 0
171 194 0
171 195 0
174 197 0
172 196 0
174 197 0
172 195 0
173 195 0
173 196 0
171 193 0
172 195 0
173 195 0
174 196 0
175 197 0
173 195 0
174 196 0
173 194 0
171 193 0
169 191 0
171 193 0
170 192 0
173 195 0
171 192 0
171 193 0
172 193 0
170 192 0
172 194 0
172 193 0
172 195 0
171 193 0
171 194 0
171 193 0
168 191 0
174 197 0
169 192 0
172 194 0
165 189 0
170 194 0
168 192 0
169 192 0
173 195 0
168 191 0
166 190 0
161 185 0
166 189 0
164 187 0
167 190 0
170 193 0
170 193 0
168 191 0
164 187 0
167 190 0
168 192 0
166 190 0
171 195 0
169 192 0
170 192 0
165 188 0
170 194 0
170 194 0
168 191 0
170 193 0
168 192 0
171 194 0
170 194 0
169 192 0
171 194 0
169 192 0
171 195 0
171 194 0
171 194 0
172 196 0
169 193 0
168 191 0
170 195 0
170 194 0
172 195 0
168 192 0
167 190 0
169 191 0
169 192 0
169 191 0
170 193 0
174 197 0
174 197 0
170 194 0
168 192 0
171 194 0
173 196 0
169 193 0
170 193 0
170 193 0
172 196 0
172 196 0
173 197 0
173 196 0
170 192 0
172 195 0
170 193 0
171 194 0
172 195 0
172 195 0
172 196 0
172 195 0
173 196 0
172 196 0
170 194 0
172 196 0
171 195 0
174 197 0
171 194 0
173 197 0
171 195 0
174 197 0
173 196 0
171 194 0
171 194 0
172 196 0
172 195 0
174 197 0
174 197 0
172 195 0
175 197 0
173 196 0
173 196 0
173 196 0
171 196 0
173 197 0
169 193 0
173 196 0
174 198 0
173 197 0
171 195 0
173 196 0
173 196 0
173 196 0
175 198 0
174 198 0
176 199 0
173 196 0
172 196 0
176 198 0
174 197 0
175 198 0
175 197 0
174 197 0
174 197 0
172 196 0
175 198 0
173 197 0
174 198 0
172 195 0
173 197 0
174 197 0
175 197 0
174 197 0
175 198 0
174 197 0
173 197 0
173 197 0
175 197 0
174 197 0
172 195 0
174 197 0
173 197 0
173 197 0
174 197 0
172 196 0
174 198 0
173 196 0
174 198 0
174 198 0
176 199 0
173 197 0
174 197 0
175 198 0
175 198 0
176 198 0
174 198 0
174 198 0
174 198 0
175 198 0
173 197 0
175 198 0
174 197 0
176 198 0
175 198 0
173 197 0
175 198 0
174 198 0
173 197 0
173 197 0
173 196 0
174 197 0
174 197 0
175 198 0
174 198 0
174 197 0
174 198 0
175 198 0
174 198 0
174 198 0
173 197 0
174 198 0
175 198 0
176 198 0
174 198 0
173 197 0
175 198 0
174 198 0
174 197 0
175 198 0
175 198 0
176 199 0
174 198 0
173 197 0
174 198 0
175 198 0
174 197 0
173 197 0
175 198 0
174 197 0
173 197 0
173 197 0
174 197 0
174 198 0
174 198 0
175 198 0
173 197 0
173 197 0
174 198 0
176 198 0
173 197 0
174 198 0
174 197 0
173 197 0
176 198 0
175 198 0
174 198 0
175 198 0
174 198 0
174 197 0
174 197 0
175 198 0
175 198 0
176 199 0
174 198 0
174 198 0
174 198 0
175 198 0
174 197 0
173 197 0
175 198 0
173 197 0
175 198 0
173 197 0
176 198 0
172 197 0
174 198 0
173 197 0
174 198 0
174 198 0
175 198 0
174 197 0
175 198 0
174 198 0
174 197 0
174 198 0
175 198 0
175 198 0
176 199 0
174 198 0
173 197 0
174 197 0
173 197 0
173 197 0
175 198 0
172 196 0
175 198 0
174 197 0
174 197 0
176 198 0
173 197 0
173 197 0
174 197 0
171 196 0
175 198 0
174 197 0
173 197 0
174 198 0
174 198 0
174 197 0
176 198 0
174 197 0
175 198 0
174 198 0
173 197 0
174 198 0
174 198 0
174 198 0
175 198 0
175 198 0
173 197 0
175 198 0
174 197 0
173 197 0
174 197 0
173 197 0
175 198 0
176 199 0
176 198 0
172 197 0
174 198 0
175 198 0
173 197 0
175 198 0
174 198 0
174 198 0
174 197 0
174 197 0
173 197 0
174 198 0
174 198 0
174 197 0
173 196 0
174 197 0
173 197 0
176 199 0
175 198 0
174 198 0
174 198 0
172 196 0
174 197 0
175 198 0
175 198 0
175 198 0
174 198 0
174 197 0
175 198 0
175 198 0
176 198 0
173 197 0
173 197 0
174 198 0
174 197 0
176 198 0
175 198 0
173 197 0
174 197 0
175 198 0
174 197 0
173 196 0
174 198 0
172 196 0
174 197 0
173 197 0
173 196 0
173 197 0
174 197 0
174 198 0
173 197 0
173 197 0
175 198 0
172 195 0
174 197 0
173 197 0
173 197 0
175 198 0
175 198 0
175 198 0
172 196 0
174 198 0
173 196 0
172 196 0
173 197 0
175 198 0
173 196 0
173 197 0
172 196 0
176 199 0
174 197 0
174 197 0
173 197 0
172 196 0
174 197 0
172 196 0
174 197 0
172 196 0
171 195 0
173 197 0
174 197 0
173 197 0
174 197 0
173 196 0
171 195 0
173 197 0
174 198 0
172 195 0
173 196 0
172 196 0
173 196 0
174 197 0
171 194 0
172 195 0
175 197 0
173 196 0
174 197 0
175 197 0
172 195 0
174 197 0
170 193 0
173 196 0
174 196 0
174 196 0
174 196 0
174 197 0
174 196 0
173 196 0
170 193 0
173 195 0
175 197 0
171 194 0
174 196 0
174 196 0
171 194 0
169 191 0
170 192 0
170 193 0
171 194 0
168 190 0
170 192 0
171 194 0
168 191 0
167 190 0
167 190 0
167 190 0
168 190 0
168 192 0
169 191 0
169 192 0
169 192 0
170 194 0
166 189 0
170 193 0
170 193 0
166 189 0
164 188 0
168 191 0
167 190 0
170 194 0
169 193 0
167 191 0
166 189 0
165 189 0
168 191 0
171 194 0
168 192 0
167 191 0
171 195 0
169 193 0
171 195 0
167 190 0
169 192 0
167 191 0
171 194 0
169 191 0
173 195 0
174 196 0
172 195 0
169 192 0
171 194 0
168 191 0
167 190 0
170 194 0
170 193 0
170 194 0
165 190 0
171 194 0
168 191 0
171 195 0
168 192 0
173 195 0
172 195 0
168 192 0
172 194 0
169 192 0
168 191 0
172 196 0
171 193 0
173 196 0
174 197 0
174 197 0
168 191 0
171 194 0
173 196 0
169 193 0
172 196 0
171 196 0
171 194 0
171 194 0
173 196 0
172 194 0
172 195 0
175 197 0
173 196 0
174 196 0
172 194 0
171 194 0
172 195 0
173 197 0
173 197 0
173 196 0
174 197 0
171 195 0
173 197 0
171 194 0
172 195 0
173 196 0
175 198 0
172 195 0
173 196 0
173 196 0
171 195 0
172 195 0
173 196 0
173 197 0
173 196 0
174 198 0
172 195 0
174 198 0
174 197 0
173 196 0
173 196 0
172 196 0
175 198 0
175 198 0
174 197 0
173 197 0
175 198 0
172 194 0
174 197 0
173 196 0
173 196 0
172 196 0
173 197 0
173 196 0
174 197 0
175 198 0
174 197 0
173 197 0
175 198 0
174 197 0
173 197 0
175 198 0
174 198 0
174 197 0
174 197 0
172 196 0
173 197 0
175 198 0
174 198 0
173 197 0
175 198 0
174 197 0
174 198 0
174 197 0
173 196 0
174 198 0
172 197 0
173 197 0
173 197 0
174 197 0
174 197 0
173 196 0
176 199 0
174 197 0
174 198 0
173 197 0
174 198 0
173 197 0
175 198 0
173 197 0
173 197 0
172 196 0
173 197 0
173 197 0
175 198 0
174 197 0
173 197 0
174 198 0
175 198 0
174 197 0
173 197 0
175 198 0
175 198 0
172 196 0
175 198 0
174 198 0
173 196 0
172 197 0
173 196 0
175 198 0
175 197 0
175 198 0
175 198 0
174 198 0
174 198 0
174 197 0
172 196 0
173 197 0
174 197 0
175 198 0
174 197 0
174 198 0
175 198 0
173 197 0
174 198 0
175 198 0
174 197 0
174 198 0
176 199 0
175 198 0
173 197 0
174 198 0
174 197 0
176 199 0
172 196 0
174 198 0
173 197 0
175 198 0
175 198 0
174 197 0
174 198 0
175 198 0
175 198 0
174 197 0
176 199 0
174 198 0
173 197 0
174 198 0
173 197 0
176 199 0
175 198 0
175 198 0
175 198 0
174 197 0
174 197 0
173 197 0
174 198 0
175 198 0
175 198 0
175 198 0
175 198 0
175 198 0
175 198 0
175 198 0
173 197 0
174 198 0
174 198 0
175 198 0
173 197 0
175 198 0
174 197 0
173 197 0
174 198 0
175 198 0
175 198 0
174 198 0
173 197 0
175 198 0
175 198 0
175 198 0
173 197 0
176 199 0
174 197 0
174 198 0
174 197 0
174 198 0
174 198 0
174 198 0
172 196 0
172 196 0
173 197 0
173 197 0
175 198 0
175 198 0
176 199 0
174 197 0
174 197 0
173 197 0
173 196 0
173 197 0
177 199 0
175 198 0
173 197 0
174 198 0
174 198 0
175 198 0
174 197 0
175 198 0
174 198 0
175 198 0
175 198 0
176 198 0
177 199 0
172 197 0
175 198 0
174 197 0
175 198 0
173 197 0
173 196 0
173 197 0
176 198 0
174 198 0
173 197 0
174 197 0
173 197 0
175 198 0
175 198 0
174 197 0
174 197 0
175 198 0
174 197 0
174 197 0
174 198 0
175 198 0
173 196 0
173 197 0
176 199 0
174 198 0
174 198 0
174 197 0
175 198 0
172 196 0
174 198 0
175 198 0
174 197 0
175 198 0
174 197 0
175 198 0
173 197 0
175 198 0
174 197 0
174 197 0
174 198 0
173 197 0
174 198 0
174 198 0
173 197 0
175 198 0
173 196 0
173 197 0
174 197 0
175 198 0
174 198 0
174 198 0
173 197 0
172 196 0
172 197 0
173 197 0
175 198 0
174 197 0
173 197 0
172 196 0
174 197 0
172 196 0
174 198 0
174 197 0
173 196 0
173 196 0
173 197 0
172 196 0
173 197 0
175 198 0
173 196 0
175 198 0
174 198 0
175 198 0
173 197 0
173 196 0
169 194 0
174 198 0
175 197 0
170 194 0
174 197 0
172 196 0
175 198 0
173 197 0
172 195 0
174 198 0
172 196 0
174 198 0
173 196 0
172 196 0
170 194 0
172 195 0
171 194 0
175 198 0
173 196 0
171 195 0
173 196 0
172 195 0
172 196 0
172 196 0
172 195 0
173 196 0
174 196 0
172 194 0
170 194 0
172 195 0
174 197 0
167 190 0
173 195 0
173 195 0
175 198 0
174 196 0
175 197 0
175 196 0
172 195 0
174 196 0
172 195 0
168 191 0
174 196 0
173 196 0
174 196 0
170 193 0
173 196 0
172 195 0
170 193 0
170 193 0
171 194 0
171 195 0
173 196 0
170 193 0
169 193 0
171 194 0
168 191 0
165 188 0
169 193 0
170 193 0
173 196 0
169 192 0
164 188 0
168 191 0
168 191 0
168 191 0
169 193 0
170 194 0
168 191 0
167 190 0
168 192 0
169 193 0
167 191 0
171 194 0
169 192 0
169 193 0
169 193 0
168 191 0
170 193 0
165 189 0
168 191 0
171 195 0
170 193 0
169 193 0
170 195 0
170 194 0
168 192 0
168 191 0
170 194 0
168 191 0
169 193 0
165 189 0
169 192 0
169 192 0
171 193 0
172 195 0
169 194 0
171 194 0
171 194 0
172 196 0
172 195 0
169 193 0
167 191 0
170 193 0
169 193 0
169 193 0
171 195 0
173 196 0
171 194 0
172 195 0
172 195 0
170 193 0
172 195 0
170 193 0
172 196 0
174 197 0
171 194 0
174 197 0
172 195 0
171 194 0
172 195 0
172 195 0
172 195 0
176 198 0
173 197 0
173 197 0
172 196 0
171 194 0
172 195 0
172 196 0
174 197 0
172 195 0
173 197 0
173 197 0
171 195 0
172 195 0
173 197 0
172 195 0
174 198 0
173 197 0
175 198 0
172 197 0
172 197 0
171 195 0
172 196 0
172 196 0
173 196 0
173 196 0
173 197 0
171 195 0
174 197 0
174 197 0
173 196 0
174 197 0
173 197 0
172 196 0
172 196 0
173 196 0
173 197 0
174 198 0
172 195 0
172 196 0
172 196 0
173 197 0
175 198 0
173 197 0
174 198 0
175 198 0
175 198 0
174 197 0
173 197 0
173 197 0
174 198 0
172 196 0
175 198 0
174 197 0
174 198 0
174 197 0
175 198 0
174 198 0
174 198 0
174 197 0
175 198 0
173 197 0
175 198 0
173 197 0
176 198 0
175 198 0
174 197 0
174 198 0
174 197 0
171 195 0
173 197 0
173 197 0
172 196 0
175 198 0
176 199 0
175 198 0
173 196 0
174 197 0
173 197 0
175 198 0
174 197 0
173 196 0
173 197 0
175 198 0
176 199 0
175 198 0
173 197 0
173 196 0
174 197 0
173 197 0
175 198 0
176 199 0
175 198 0
176 199 0
174 198 0
174 198 0
172 196 0
174 198 0
175 198 0
175 198 0
175 198 0
175 197 0
175 198 0
173 196 0
173 197 0
174 198 0
174 197 0
174 198 0
174 197 0
175 198 0
174 198 0
173 197 0
175 198 0
175 198 0
174 198 0
173 197 0
174 198 0
171 196 0
175 198 0
176 198 0
173 197 0
172 196 0
174 198 0
174 197 0
175 198 0
175 198 0
175 198 0
174 198 0
173 197 0
175 198 0
174 198 0
174 198 0
173 197 0
172 196 0
176 198 0
174 198 0
174 198 0
175 198 0
174 198 0
175 198 0
175 198 0
174 197 0
175 198 0
174 198 0
172 196 0
174 198 0
175 198 0
174 198 0
173 197 0
175 198 0
176 199 0
175 198 0
174 197 0
176 199 0
175 198 0
176 198 0
175 198 0
175 198 0
175 198 0
173 197 0
175 198 0
174 198 0
174 197 0
173 197 0
173 197 0
175 198 0
174 198 0
173 197 0
175 198 0
173 197 0
174 198 0
174 198 0
175 198 0
176 199 0
173 197 0
173 197 0
173 197 0
175 197 0
172 197 0
176 198 0
175 198 0
175 198 0
174 197 0
175 198 0
175 198 0
173 197 0
174 198 0
175 198 0
174 198 0
174 198 0
173 197 0
172 196 0
176 199 0
173 197 0
174 197 0
174 197 0
173 197 0
174 198 0
174 198 0
173 197 0
173 197 0
173 197 0
175 198 0
173 197 0
174 198 0
176 198 0
174 198 0
174 197 0
174 198 0
173 197 0
176 198 0
174 198 0
175 198 0
174 197 0
175 198 0
173 197 0
176 199 0
174 198 0
175 198 0
173 197 0
174 198 0
175 198 0
175 198 0
173 197 0
174 197 0
175 198 0
173 197 0
174 197 0
174 198 0
173 197 0
174 197 0
173 197 0
175 198 0
174 198 0
175 198 0
173 197 0
173 197 0
173 197 0
174 198 0
174 197 0
174 198 0
174 197 0
174 197 0
174 197 0
174 197 0
173 197 0
175 197 0
174 197 0
174 197 0
173 197 0
174 197 0
174 197 0
174 197 0
175 198 0
174 198 0
171 195 0
173 197 0
175 198 0
173 196 0
174 197 0
174 198 0
171 195 0
172 197 0
174 198 0
173 197 0
173 197 0
173 197 0
175 198 0
174 198 0
172 196 0
175 198 0
174 197 0
173 197 0
172 196 0
174 197 0
174 198 0
174 197 0
173 197 0
174 197 0
173 196 0
175 198 0
174 197 0
174 197 0
173 196 0
172 196 0
171 195 0
173 197 0
173 197 0
175 198 0
174 197 0
173 197 0
175 198 0
172 194 0
173 197 0
175 198 0
173 196 0
171 195 0
173 196 0
173 196 0
172 196 0
173 196 0
175 198 0
171 194 0
174 197 0
174 197 0
172 196 0
172 194 0
174 197 0
170 193 0
172 195 0
172 194 0
173 196 0
170 193 0
169 192 0
167 190 0
170 193 0
173 195 0
175 197 0
174 196 0
173 195 0
170 193 0
173 195 0
170 192 0
173 195 0
171 194 0
171 193 0
172 195 0
171 194 0
170 193 0
171 193 0
168 191 0
171 194 0
171 194 0
171 194 0
166 189 0
170 194 0
168 191 0
167 189 0
168 192 0
168 191 0
170 194 0
167 191 0
167 190 0
166 190 0
168 190 0
167 190 0
168 191 0
171 193 0
172 195 0
169 192 0
170 193 0
164 187 0
165 190 0
168 192 0
167 192 0
165 189 0
170 194 0
168 192 0
170 193 0
171 194 0
167 191 0
169 193 0
171 194 0
171 193 0
167 191 0
171 194 0
171 193 0
168 191 0
168 192 0
171 195 0
168 191 0
170 193 0
171 195 0
173 196 0
169 193 0
169 192 0
172 196 0
172 196 0
171 195 0
171 193 0
171 194 0
172 195 0
173 196 0
173 196 0
170 194 0
168 192 0
174 196 0
171 194 0
172 195 0
171 195 0
174 197 0
171 194 0
172 196 0
173 195 0
172 195 0
172 195 0
173 196 0
174 197 0
170 194 0
172 196 0
171 195 0
172 195 0
172 195 0
174 196 0
173 197 0
172 195 0
173 197 0
173 197 0
174 197 0
174 197 0
173 197 0
171 194 0
174 197 0
172 196 0
172 196 0
173 196 0
174 198 0
172 195 0
173 196 0
173 196 0
173 196 0
175 198 0
173 197 0
173 197 0
175 198 0
172 196 0
174 197 0
173 196 0
174 197 0
173 197 0
173 197 0
174 197 0
173 197 0
176 198 0
173 196 0
173 197 0
173 195 0
174 198 0
174 198 0
175 198 0
172 196 0
175 198 0
175 198 0
175 198 0
174 197 0
174 197 0
173 197 0
173 196 0
172 195 0
174 198 0
172 196 0
174 198 0
175 198 0
174 197 0
174 197 0
174 197 0
175 198 0
176 198 0
174 197 0
176 198 0
176 199 0
175 198 0
175 198 0
174 198 0
172 195 0
172 196 0
174 197 0
173 197 0
175 198 0
173 197 0
174 198 0
173 196 0
174 197 0
174 198 0
175 198 0
174 197 0
173 197 0
174 197 0
174 198 0
173 197 0
173 197 0
174 197 0
173 197 0
173 197 0
173 196 0
171 195 0
174 197 0
174 198 0
174 198 0
175 198 0
174 197 0
174 197 0
176 199 0
174 198 0
176 199 0
174 198 0
175 198 0
175 198 0
175 198 0
174 198 0
174 197 0
175 198 0
175 198 0
173 197 0
175 198 0
173 197 0
175 198 0
175 198 0
175 198 0
173 197 0
175 198 0
174 198 0
173 197 0
174 197 0
175 198 0
175 198 0
174 198 0
174 198 0
174 197 0
174 198 0
175 198 0
173 197 0
174 197 0
174 197 0
173 197 0
175 198 0
175 198 0
175 198 0
174 197 0
175 198 0
173 197 0
176 198 0
173 197 0
175 198 0
174 198 0
174 197 0
175 198 0
176 199 0
174 197 0
174 197 0
175 198 0
174 198 0
175 198 0
176 198 0
175 198 0
174 197 0
176 199 0
176 198 0
175 198 0
175 198 0
174 198 0
174 197 0
174 197 0
173 197 0
174 197 0
177 199 0
174 197 0
174 198 0
172 197 0
175 198 0
174 197 0
174 198 0
175 198 0
175 198 0
174 198 0
175 198 0
175 198 0
173 197 0
173 197 0
174 197 0
175 198 0
172 197 0
174 197 0
174 198 0
174 198 0
173 197 0
174 197 0
175 198 0
176 199 0
174 198 0
173 197 0
174 198 0
175 198 0
175 198 0
174 197 0
175 198 0
174 198 0
173 197 0
174 197 0
174 197 0
174 198 0
172 196 0
174 198 0
176 198 0
173 197 0
173 197 0
175 198 0
175 198 0
175 198 0
175 198 0
175 198 0
174 197 0
174 197 0
175 198 0
173 197 0
175 198 0
174 198 0
173 197 0
174 197 0
174 198 0
175 198 0
174 198 0
176 198 0
174 198 0
174 197 0
174 198 0
175 198 0
174 197 0
174 197 0
175 198 0
172 196 0
175 198 0
174 197 0
174 198 0
175 198 0
173 196 0
175 197 0
174 198 0
175 198 0
175 198 0
174 198 0
175 198 0
175 198 0
171 196 0
174 198 0
172 195 0
173 197 0
175 198 0
174 198 0
173 197 0
174 198 0
172 196 0
176 198 0
175 198 0
174 197 0
175 198 0
173 197 0
175 198 0
173 197 0
173 197 0
175 198 0
175 198 0
175 198 0
175 198 0
174 198 0
175 198 0
172 196 0
172 196 0
173 197 0
175 198 0
173 197 0
174 197 0
176 199 0
175 198 0
172 195 0
173 196 0
174 198 0
173 197 0
174 197 0
172 195 0
174 198 0
174 197 0
173 197 0
173 196 0
173 197 0
173 196 0
174 198 0
173 196 0
175 197 0
173 196 0
173 197 0
174 198 0
174 197 0
175 198 0
173 197 0
171 195 0
173 197 0
173 197 0
174 197 0
174 198 0
170 194 0
173 196 0
172 196 0
173 196 0
173 196 0
173 196 0
173 196 0
172 196 0
170 193 0
171 195 0
172 194 0
174 196 0
174 197 0
170 193 0
172 195 0
173 196 0
174 197 0
171 194 0
170 194 0
173 196 0
174 196 0
174 196 0
174 197 0
176 198 0
172 195 0
173 196 0
173 196 0
170 192 0
173 195 0
170 193 0
168 191 0
171 194 0
171 194 0
170 192 0
171 195 0
172 195 0
169 191 0
168 191 0
170 194 0
173 195 0
174 197 0
168 191 0
168 191 0
170 193 0
168 191 0
169 191 0
167 191 0
173 195 0
172 195 0
164 187 0
161 183 0
166 189 0
171 194 0
169 192 0
166 189 0
169 193 0
168 192 0
171 195 0
167 190 0
170 194 0
169 192 0
169 192 0
168 192 0
168 192 0
169 192 0
169 192 0
170 193 0
172 195 0
169 192 0
167 190 0
164 188 0
170 194 0
171 195 0
170 194 0
170 193 0
171 195 0
170 194 0
171 194 0
169 193 0
171 194 0
170 194 0
172 196 0
169 192 0
173 197 0
166 189 0
170 193 0
173 196 0
169 192 0
171 194 0
173 196 0
171 194 0
172 196 0
174 197 0
172 195 0
170 193 0
170 194 0
172 195 0
172 195 0
172 195 0
169 192 0
169 192 0
170 194 0
171 194 0
170 194 0
173 196 0
172 195 0
174 196 0
171 194 0
172 195 0
172 195 0
174 197 0
173 196 0
172 196 0
173 196 0
174 197 0
174 197 0
174 197 0
174 197 0
174 197 0
172 195 0
172 196 0
171 195 0
173 197 0
174 197 0
173 197 0
174 198 0
173 196 0
172 196 0
173 196 0
172 196 0
174 198 0
172 195 0
173 197 0
174 197 0
173 196 0
174 197 0
174 197 0
173 197 0
174 197 0
173 197 0
174 197 0
173 196 0
173 197 0
168 191 0
171 195 0
172 195 0
174 197 0
173 196 0
175 198 0
172 196 0
172 196 0
174 198 0
175 198 0
174 197 0
173 197 0
173 196 0
174 197 0
174 197 0
172 196 0
175 198 0
175 198 0
173 197 0
175 198 0
172 195 0
173 197 0
174 197 0
173 197 0
174 197 0
174 197 0
174 198 0
175 197 0
173 196 0
175 198 0
174 197 0
172 195 0
174 198 0
175 198 0
172 196 0
174 197 0
174 198 0
174 198 0
173 197 0
173 197 0
174 197 0
176 198 0
174 197 0
174 197 0
174 197 0
176 199 0
174 198 0
173 197 0
174 198 0
173 197 0
173 196 0
174 198 0
174 197 0
172 197 0
174 197 0
172 196 0
174 198 0
174 197 0
172 196 0
175 198 0
174 197 0
174 198 0
174 198 0
172 197 0
175 198 0
174 198 0
175 198 0
173 197 0
175 198 0
174 198 0
174 198 0
174 197 0
176 199 0
175 198 0
173 197 0
174 197 0
176 198 0
176 199 0
175 198 0
176 199 0
174 197 0
174 198 0
173 197 0
174 198 0
174 197 0
173 197 0
174 198 0
176 198 0
173 197 0
175 198 0
173 197 0
174 198 0
175 198 0
174 197 0
173 197 0
172 197 0
174 198 0
173 197 0
175 198 0
175 198 0
175 198 0
174 197 0
175 198 0
174 197 0
175 198 0
174 197 0
174 198 0
174 197 0
175 197 0
174 198 0
173 197 0
175 198 0
173 197 0
173 197 0
176 199 0
175 198 0
176 198 0
174 198 0
173 197 0
175 198 0
174 198 0
175 198 0
174 198 0
175 198 0
175 198 0
174 197 0
173 197 0
174 198 0
173 197 0
173 197 0
175 198 0
174 198 0
173 197 0
174 197 0
174 198 0
175 198 0
174 198 0
174 198 0
173 197 0
175 198 0
173 197 0
176 198 0
174 198 0
174 197 0
174 197 0
173 197 0
174 198 0
173 197 0
174 197 0
173 197 0
173 197 0
174 198 0
174 198 0
174 198 0
173 197 0
173 197 0
174 198 0
174 197 0
175 198 0
174 198 0
174 197 0
173 197 0
171 196 0
173 197 0
174 197 0
174 197 0
174 198 0
176 198 0
174 198 0
174 198 0
175 198 0
174 197 0
175 198 0
174 198 0
175 198 0
173 197 0
174 198 0
174 198 0
173 197 0
175 198 0
173 197 0
174 197 0
173 196 0
173 196 0
175 198 0
174 197 0
174 198 0
173 197 0
175 198 0
174 197 0
172 196 0
173 196 0
175 198 0
173 197 0
173 197 0
174 197 0
174 198 0
174 197 0
174 197 0
175 198 0
174 198 0
173 197 0
173 197 0
173 197 0
173 197 0
176 198 0
174 198 0
174 197 0
173 197 0
175 198 0
174 198 0
173 196 0
173 197 0
174 197 0
174 198 0
173 196 0
173 197 0
174 197 0
172 197 0
172 196 0
173 196 0
173 196 0
174 197 0
175 198 0
174 198 0
173 196 0
173 196 0
173 197 0
174 197 0
173 197 0
174 198 0
172 195 0
173 197 0
175 198 0
174 198 0
175 197 0
174 197 0
173 196 0
172 196 0
173 197 0
174 197 0
174 197 0
172 196 0
175 198 0
173 196 0
173 197 0
173 196 0
175 198 0
173 196 0
171 196 0
173 196 0
175 198 0
174 197 0
172 195 0
171 195 0
172 196 0
170 193 0
171 195 0
175 197 0
173 197 0
170 193 0
172 195 0
175 198 0
174 197 0
172 195 0
174 197 0
175 197 0
173 197 0
174 198 0
173 196 0
169 193 0
176 198 0
173 196 0
173 196 0
175 197 0
171 194 0
174 197 0
170 193 0
169 191 0
174 196 0
174 197 0
171 194 0
172 195 0
173 195 0
172 195 0
173 195 0
173 196 0
175 198 0
173 195 0
174 197 0
174 195 0
170 193 0
168 191 0
171 194 0
170 193 0
171 194 0
168 191 0
168 191 0
170 192 0
171 195 0
170 193 0
169 193 0
171 194 0
167 190 0
173 195 0
173 196 0
171 194 0
169 193 0
168 191 0
169 192 0
170 193 0
170 194 0
169 192 0
171 195 0
169 193 0
170 193 0
169 193 0
169 193 0
170 192 0
171 194 0
168 191 0
168 191 0
170 194 0
165 188 0
172 195 0
172 196 0
168 191 0
170 193 0
171 194 0
171 195 0
171 195 0
172 195 0
170 194 0
167 191 0
168 191 0
169 192 0
168 191 0
170 194 0
171 194 0
172 195 0
171 195 0
168 192 0
171 195 0
170 193 0
174 197 0
174 197 0
168 193 0
171 194 0
169 193 0
170 194 0
170 195 0
173 196 0
172 195 0
168 191 0
171 194 0
170 194 0
173 197 0
174 196 0
173 197 0
172 195 0
169 192 0
169 193 0
171 195 0
172 196 0
172 196 0
169 193 0
173 197 0
173 196 0
175 197 0
174 197 0
171 194 0
176 198 0
171 196 0
171 194 0
171 194 0
173 197 0
176 198 0
173 196 0
174 197 0
175 198 0
171 194 0
173 196 0
174 197 0
171 195 0
173 196 0
171 194 0
170 193 0
171 194 0
173 196 0
173 196 0
173 196 0
172 196 0
174 197 0
173 197 0
172 196 0
172 196 0
173 196 0
171 195 0
173 196 0
174 197 0
173 196 0
172 196 0
173 197 0
173 197 0
174 197 0
174 197 0
172 196 0
173 197 0
173 196 0
173 197 0
172 195 0
174 197 0
174 197 0
174 198 0
174 197 0
175 198 0
174 197 0
171 196 0
175 198 0
175 198 0
174 198 0
173 196 0
175 198 0
173 197 0
174 197 0
174 197 0
175 198 0
173 197 0
175 198 0
173 196 0
173 197 0
174 197 0
173 197 0
174 198 0
173 196 0
174 198 0
173 197 0
174 198 0
174 198 0
173 196 0
176 199 0
173 197 0
175 198 0
172 197 0
173 196 0
175 198 0
173 196 0
174 198 0
174 198 0
175 198 0
176 198 0
173 197 0
175 198 0
174 198 0
175 198 0
174 197 0
174 197 0
174 198 0
173 197 0
172 196 0
173 197 0
176 199 0
174 198 0
173 197 0
173 196 0
174 198 0
173 197 0
174 197 0
175 198 0
174 198 0
174 198 0
173 197 0
175 198 0
174 197 0
174 198 0
175 198 0
174 198 0
174 198 0
174 197 0
174 198 0
175 198 0
174 198 0
173 197 0
176 199 0
174 198 0
172 196 0
173 197 0
174 198 0
174 197 0
174 198 0
173 197 0
174 197 0
173 197 0
175 198 0
173 197 0
174 198 0
176 199 0
174 197 0
173 196 0
174 197 0
175 198 0
173 197 0
174 198 0
175 198 0
174 198 0
173 197 0
175 198 0
175 198 0
175 198 0
175 198 0
174 198 0
175 198 0
174 198 0
175 198 0
174 197 0
176 199 0
173 197 0
173 197 0
175 198 0
174 198 0
173 197 0
175 198 0
175 198 0
175 198 0
175 198 0
174 198 0
174 197 0
172 196 0
175 198 0
175 198 0
175 198 0
174 197 0
174 198 0
175 198 0
175 198 0
173 197 0
173 197 0
173 197 0
173 197 0
175 198 0
175 198 0
174 197 0
173 197 0
173 197 0
175 198 0
175 198 0
175 198 0
173 196 0
175 197 0
173 196 0
175 198 0
175 198 0
173 197 0
174 198 0
174 197 0
175 198 0
174 198 0
175 198 0
171 196 0
173 197 0
173 197 0
173 197 0
175 198 0
174 198 0
175 198 0
173 197 0
174 197 0
174 197 0
175 198 0
173 197 0
174 197 0
173 197 0
175 198 0
174 197 0
172 196 0
174 198 0
174 198 0
175 198 0
174 198 0
173 197 0
174 198 0
175 198 0
172 196 0
174 197 0
176 199 0
174 198 0
174 198 0
174 197 0
174 197 0
174 198 0
173 196 0
173 197 0
176 199 0
175 198 0
176 199 0
175 198 0
174 198 0
175 198 0
173 196 0
174 198 0
176 199 0
175 198 0
172 196 0
175 198 0
173 197 0
173 196 0
175 198 0
173 197 0
173 197 0
173 197 0
174 198 0
174 197 0
174 198 0
173 197 0
174 196 0
174 197 0
175 198 0
175 198 0
175 198 0
173 196 0
174 197 0
175 198 0
173 196 0
174 198 0
174 197 0
173 197 0
176 199 0
173 197 0
172 196 0
175 198 0
173 197 0
173 197 0
171 195 0
174 198 0
173 197 0
174 198 0
174 198 0
173 197 0
173 196 0
171 194 0
174 197 0
172 196 0
174 197 0
173 196 0
174 197 0
174 197 0
174 197 0
172 196 0
174 197 0
175 198 0
171 195 0
174 197 0
173 197 0
172 195 0
172 196 0
173 196 0
172 196 0
172 196 0
174 198 0
174 198 0
171 194 0
175 198 0
173 197 0
174 197 0
172 196 0
174 197 0
175 197 0
172 195 0
172 195 0
174 197 0
173 196 0
171 195 0
174 197 0
170 193 0
170 193 0
174 196 0
174 196 0
172 196 0
173 196 0
173 196 0
174 196 0
173 196 0
175 198 0
173 196 0
173 196 0
174 196 0
172 195 0
171 193 0
172 194 0
172 196 0
173 196 0
172 194 0
172 195 0
166 189 0
168 192 0
169 192 0
166 189 0
166 190 0
172 195 0
170 193 0
171 194 0
168 190 0
168 192 0
168 192 0
170 192 0
167 191 0
170 193 0
168 191 0
169 193 0
167 191 0
165 188 0
171 194 0
169 192 0
173 196 0
167 190 0
169 191 0
166 190 0
169 192 0
170 193 0
169 193 0
170 193 0
170 192 0
173 196 0
171 193 0
169 193 0
170 193 0
169 192 0
167 190 0
170 193 0
171 194 0
171 195 0
172 195 0
170 193 0
173 196 0
170 193 0
171 194 0
171 194 0
169 193 0
171 194 0
170 194 0
174 197 0
171 195 0
169 193 0
171 195 0
170 194 0
171 195 0
172 196 0
167 190 0
173 196 0
170 194 0
174 197 0
172 195 0
171 193 0
173 196 0
170 194 0
171 194 0
171 195 0
170 193 0
169 192 0
168 191 0
172 195 0
172 196 0
173 196 0
170 194 0
170 193 0
174 197 0
173 196 0
173 196 0
170 194 0
174 197 0
174 198 0
172 195 0
172 196 0
175 197 0
174 198 0
172 195 0
172 196 0
173 197 0
172 196 0
170 193 0
172 195 0
173 196 0
173 197 0
173 197 0
173 196 0
173 197 0
172 195 0
174 197 0
172 195 0
172 196 0
174 198 0
174 197 0
173 197 0
174 198 0
173 197 0
173 196 0
174 197 0
172 195 0
174 197 0
175 198 0
174 196 0
173 196 0
175 198 0
173 197 0
173 197 0
172 195 0
175 198 0
172 196 0
172 196 0
172 196 0
174 197 0
174 197 0
174 197 0
174 197 0
174 197 0
175 198 0
175 198 0
173 197 0
174 197 0
174 197 0
174 197 0
175 198 0
173 197 0
174 198 0
174 197 0
174 197 0
173 197 0
174 197 0
173 196 0
173 197 0
172 196 0
173 197 0
175 198 0
174 198 0
173 196 0
174 197 0
174 198 0
172 197 0
173 197 0
175 198 0
172 196 0
175 198 0
175 198 0
175 198 0
172 196 0
174 198 0
175 198 0
174 197 0
174 197 0
174 198 0
174 197 0
175 198 0
174 198 0
176 198 0
173 197 0
174 198 0
176 198 0
174 198 0
173 196 0
174 197 0
174 197 0
174 198 0
175 198 0
174 198 0
175 198 0
174 197 0
176 199 0
175 198 0
176 198 0
174 198 0
174 198 0
174 198 0
174 197 0
173 197 0
176 199 0
172 197 0
174 197 0
174 198 0
175 198 0
173 197 0
175 198 0
174 198 0
174 197 0
174 198 0
174 198 0
175 198 0
174 197 0
174 198 0
175 198 0
176 198 0
175 198 0
174 197 0
174 198 0
173 197 0
174 197 0
175 198 0
174 198 0
173 196 0
174 198 0
173 197 0
175 198 0
174 197 0
173 197 0
174 197 0
175 198 0
174 198 0
176 198 0
175 198 0
175 198 0
176 198 0
174 197 0
174 197 0
174 198 0
174 198 0
174 197 0
175 198 0
175 198 0
176 199 0
175 198 0
174 197 0
174 198 0
175 198 0
175 198 0
173 197 0
174 197 0
175 198 0
174 197 0
173 197 0
175 198 0
174 198 0
173 197 0
173 197 0
174 197 0
176 199 0
175 198 0
174 198 0
175 198 0
175 198 0
174 197 0
175 198 0
173 197 0
172 197 0
174 198 0
175 198 0
174 197 0
175 198 0
174 197 0
175 198 0
174 198 0
175 198 0
175 198 0
173 197 0
175 198 0
174 198 0
174 198 0
175 198 0
175 198 0
175 198 0
176 199 0
174 197 0
175 198 0
175 198 0
176 199 0
174 198 0
174 198 0
172 197 0
174 197 0
174 197 0
172 196 0
174 198 0
173 197 0
176 199 0
175 198 0
174 198 0
173 197 0
174 198 0
174 198 0
175 197 0
175 198 0
175 198 0
173 197 0
175 198 0
174 197 0
177 199 0
174 198 0
173 197 0
174 198 0
173 197 0
172 195 0
174 197 0
173 197 0
174 197 0
174 198 0
175 198 0
172 197 0
174 198 0
175 198 0
174 197 0
175 198 0
174 197 0
174 197 0
172 196 0
175 198 0
174 198 0
174 198 0
175 198 0
175 198 0
174 198 0
175 198 0
173 197 0
173 197 0
175 197 0
175 198 0
173 197 0
172 196 0
172 196 0
174 198 0
174 197 0
174 198 0
172 196 0
173 196 0
175 198 0
173 197 0
173 197 0
174 197 0
174 197 0
173 197 0
173 197 0
173 197 0
174 198 0
174 197 0
171 195 0
173 197 0
173 196 0
173 197 0
175 198 0
173 197 0
175 198 0
173 197 0
173 197 0
176 199 0
171 195 0
173 196 0
173 197 0
172 195 0
173 196 0
175 198 0
173 197 0
173 196 0
175 198 0
172 196 0
174 197 0
172 195 0
172 196 0
173 196 0
173 197 0
171 194 0
171 196 0
173 197 0
172 195 0
172 195 0
175 198 0
172 196 0
173 196 0
174 197 0
174 197 0
174 197 0
173 197 0
172 195 0
173 196 0
169 193 0
176 198 0
172 196 0
173 196 0
172 195 0
173 196 0
172 195 0
169 193 0
175 198 0
172 195 0
174 197 0
174 197 0
170 192 0
172 195 0
172 195 0
174 196 0
172 196 0
173 195 0
174 197 0
173 195 0
171 194 0
169 193 0
170 192 0
173 196 0
169 192 0
170 193 0
168 192 0
171 195 0
168 190 0
173 196 0
174 196 0
171 194 0
167 190 0
171 195 0
168 191 0
169 192 0
170 193 0
171 195 0
168 191 0
167 190 0
172 193 0
169 193 0
171 195 0
171 195 0
172 195 0
171 194 0
171 194 0
167 190 0
171 194 0
167 191 0
169 193 0
168 192 0
171 194 0
173 196 0
166 188 0
168 191 0
171 194 0
173 196 0
168 192 0
171 194 0
172 195 0
168 192 0
168 192 0
171 195 0
172 196 0
170 193 0
173 197 0
170 194 0
170 194 0
171 195 0
168 192 0
172 196 0
171 195 0
169 193 0
171 195 0
170 193 0
166 190 0
171 195 0
172 195 0
171 194 0
173 196 0
171 194 0
173 196 0
174 197 0
171 194 0
171 195 0
173 196 0
170 193 0
172 195 0
173 196 0
168 192 0
172 195 0
172 196 0
173 196 0
170 194 0
173 196 0
173 196 0
171 195 0
174 197 0
172 196 0
172 196 0
170 193 0
173 195 0
175 198 0
172 196 0
171 194 0
173 196 0
173 196 0
175 198 0
173 196 0
174 197 0
172 196 0
173 197 0
175 198 0
174 197 0
173 196 0
174 196 0
173 196 0
174 197 0
169 193 0
173 196 0
173 197 0
175 198 0
174 197 0
173 196 0
174 197 0
173 196 0
175 197 0
174 197 0
172 196 0
175 198 0
174 197 0
175 198 0
174 197 0
175 198 0
174 197 0
175 198 0
171 195 0
175 198 0
174 197 0
172 196 0
172 196 0
175 198 0
172 196 0
173 197 0
174 197 0
173 197 0
175 198 0
175 198 0
175 198 0
175 198 0
175 198 0
173 196 0
173 196 0
173 197 0
174 197 0
173 196 0
173 197 0
171 194 0
175 198 0
173 197 0
176 199 0
173 197 0
174 197 0
175 198 0
176 199 0
173 197 0
174 198 0
173 197 0
174 197 0
172 197 0
175 198 0
173 197 0
175 198 0
174 197 0
172 196 0
173 197 0
176 199 0
174 197 0
173 197 0
175 198 0
174 197 0
173 197 0
174 197 0
174 198 0
174 198 0
174 197 0
174 198 0
174 197 0
174 198 0
174 197 0
175 198 0
174 198 0
174 197 0
175 198 0
173 197 0
174 198 0
174 198 0
174 198 0
174 198 0
173 197 0
173 197 0
175 198 0
175 198 0
174 198 0
174 198 0
173 197 0
177 199 0
176 198 0
175 198 0
174 198 0
174 198 0
174 198 0
174 197 0
174 198 0
175 198 0
174 198 0
173 197 0
174 198 0
175 198 0
175 198 0
173 197 0
175 198 0
175 198 0
175 198 0
173 197 0
173 196 0
174 197 0
176 198 0
176 199 0
175 198 0
174 197 0
175 198 0
174 198 0
174 197 0
174 197 0
175 198 0
174 198 0
174 198 0
175 198 0
176 198 0
175 198 0
174 198 0
174 198 0
174 198 0
174 198 0
174 198 0
173 197 0
174 197 0
175 198 0
175 198 0
174 198 0
175 198 0
174 198 0
174 198 0
174 198 0
174 197 0
174 197 0
175 198 0
173 197 0
175 198 0
176 198 0
174 197 0
173 197 0
175 198 0
174 198 0
175 198 0
175 197 0
173 197 0
176 199 0
174 198 0
174 197 0
175 198 0
172 197 0
174 197 0
173 197 0
173 197 0
174 198 0
175 198 0
173 197 0
173 197 0
175 198 0
175 198 0
174 198 0
174 198 0
172 197 0
176 198 0
175 198 0
172 197 0
174 197 0
175 198 0
175 198 0
174 197 0
174 197 0
174 198 0
175 198 0
174 198 0
171 196 0
173 197 0
173 197 0
174 198 0
174 198 0
173 197 0
172 197 0
175 198 0
175 198 0
174 198 0
173 197 0
172 196 0
174 197 0
172 196 0
173 197 0
173 197 0
172 195 0
175 198 0
172 196 0
173 196 0
175 198 0
174 198 0
173 197 0
174 198 0
175 198 0
173 197 0
172 196 0
174 198 0
175 198 0
174 197 0
174 197 0
175 198 0
175 198 0
175 198 0
171 195 0
174 197 0
174 197 0
175 198 0
174 197 0
173 197 0
174 198 0
173 197 0
173 196 0
174 197 0
173 197 0
173 197 0
173 196 0
173 196 0
173 197 0
174 197 0
173 196 0
173 197 0
176 199 0
174 197 0
175 198 0
173 197 0
174 197 0
174 197 0
170 195 0
174 197 0
174 197 0
172 196 0
170 194 0
174 197 0
172 195 0
174 198 0
174 197 0
173 196 0
173 196 0
173 197 0
172 197 0
173 197 0
174 197 0
174 198 0
175 198 0
173 197 0
174 197 0
175 198 0
175 198 0
174 198 0
174 197 0
174 197 0
175 198 0
173 197 0
172 196 0
174 197 0
173 196 0
171 195 0
173 197 0
173 197 0
172 195 0
174 198 0
170 194 0
172 195 0
175 198 0
173 196 0
174 197 0
171 195 0
174 197 0
173 196 0
173 196 0
174 197 0
175 197 0
175 198 0
173 196 0
174 198 0
172 195 0
172 196 0
171 193 0
173 196 0
171 195 0
173 196 0
171 194 0
171 193 0
171 195 0
172 195 0
170 193 0
174 197 0
171 194 0
174 196 0
170 193 0
174 197 0
172 196 0
169 191 0
173 196 0
171 194 0
171 195 0
172 195 0
175 197 0
172 195 0
170 193 0
173 195 0
170 194 0
172 195 0
167 190 0
172 195 0
174 197 0
167 191 0
168 192 0
171 193 0
169 193 0
169 192 0
173 195 0
171 195 0
171 193 0
172 194 0
170 193 0
168 192 0
170 194 0
168 192 0
171 193 0
169 191 0
169 193 0
171 195 0
167 190 0
173 196 0
170 193 0
169 193 0
170 193 0
171 195 0
172 195 0
169 193 0
169 193 0
171 195 0
168 192 0
170 194 0
170 194 0
170 193 0
170 194 0
170 194 0
170 194 0
173 196 0
169 193 0
173 196 0
174 197 0
171 194 0
169 193 0
170 194 0
171 195 0
172 195 0
168 191 0
171 195 0
172 195 0
170 193 0
170 194 0
172 194 0
175 198 0
172 195 0
173 195 0
171 194 0
173 196 0
172 195 0
170 194 0
170 193 0
171 194 0
172 194 0
171 195 0
173 196 0
172 196 0
173 196 0
171 195 0
173 196 0
174 197 0
170 194 0
171 195 0
173 196 0
172 195 0
171 195 0
173 197 0
174 197 0
175 198 0
172 196 0
174 196 0
173 196 0
174 198 0
174 197 0
174 197 0
172 196 0
176 198 0
173 197 0
172 195 0
172 196 0
173 196 0
175 198 0
173 197 0
173 197 0
171 195 0
174 197 0
173 196 0
174 198 0
173 197 0
172 196 0
173 197 0
174 196 0
172 195 0
175 198 0
173 197 0
174 197 0
173 196 0
173 197 0
172 196 0
172 195 0
175 198 0
174 197 0
176 199 0
172 196 0
174 197 0
174 198 0
175 198 0
175 198 0
174 197 0
173 197 0
174 198 0
173 197 0
172 196 0
174 198 0
172 196 0
175 198 0
173 197 0
173 197 0
175 198 0
172 196 0
175 198 0
174 198 0
174 197 0
175 198 0
172 196 0
175 198 0
173 197 0
173 197 0
173 197 0
174 198 0
175 198 0
174 198 0
174 197 0
174 197 0
175 198 0
174 198 0
172 197 0
173 196 0
174 197 0
175 198 0
174 197 0
173 197 0
174 197 0
174 198 0
174 198 0
174 197 0
174 197 0
173 197 0
175 198 0
173 196 0
173 196 0
174 198 0
175 198 0
175 198 0
173 197 0
175 197 0
175 198 0
171 196 0
174 197 0
175 198 0
175 198 0
175 198 0
173 196 0
173 197 0
175 198 0
175 198 0
173 197 0
175 198 0
175 198 0
175 198 0
173 196 0
174 197 0
174 198 0
174 198 0
175 198 0
174 197 0
174 197 0
174 197 0
175 198 0
172 197 0
174 197 0
174 197 0
175 198 0
173 197 0
175 198 0
176 198 0
174 197 0
174 198 0
175 198 0
172 197 0
175 198 0
174 198 0
174 197 0
176 199 0
175 198 0
173 197 0
174 198 0
174 198 0
174 197 0
174 198 0
174 198 0
174 198 0
175 198 0
175 198 0
174 198 0
176 199 0
175 198 0
175 198 0
173 197 0
174 197 0
175 198 0
172 196 0
175 198 0
173 197 0
174 198 0
173 197 0
175 198 0
174 197 0
172 197 0
174 197 0
174 198 0
173 197 0
174 198 0
175 198 0
176 198 0
174 198 0
175 198 0
173 196 0
173 196 0
173 197 0
173 197 0
175 198 0
174 198 0
175 198 0
174 198 0
174 197 0
175 198 0
176 199 0
174 198 0
173 197 0
174 197 0
174 197 0
175 198 0
174 198 0
174 198 0
175 198 0
175 198 0
175 198 0
175 198 0
175 198 0
174 197 0
174 197 0
175 198 0
174 198 0
173 197 0
175 198 0
173 197 0
175 198 0
175 198 0
172 196 0
174 197 0
174 198 0
174 198 0
174 198 0
174 197 0
175 198 0
176 198 0
173 197 0
175 198 0
175 198 0
174 197 0
173 197 0
174 198 0
174 198 0
175 198 0
173 197 0
172 196 0
173 197 0
173 197 0
173 196 0
174 198 0
174 197 0
174 198 0
174 198 0
173 197 0
173 197 0
172 196 0
174 198 0
173 196 0
174 197 0
174 197 0
174 197 0
174 197 0
175 198 0
175 198 0
174 197 0
174 197 0
175 198 0
175 198 0
173 197 0
175 198 0
175 198 0
172 197 0
174 197 0
173 196 0
174 198 0
171 195 0
174 198 0
174 197 0
173 197 0
174 198 0
175 198 0
174 197 0
174 197 0
175 198 0
173 196 0
173 197 0
173 197 0
172 196 0
175 198 0
173 197 0
175 198 0
175 198 0
173 197 0
174 196 0
171 195 0
174 197 0
173 197 0
176 198 0
174 197 0
174 197 0
173 197 0
172 196 0
174 197 0
174 197 0
174 197 0
173 197 0
175 198 0
174 198 0
174 197 0
174 198 0
173 196 0
171 195 0
174 198 0
173 197 0
173 197 0
171 195 0
173 197 0
172 195 0
173 196 0
173 196 0
171 195 0
172 195 0
172 196 0
172 196 0
175 198 0
173 196 0
171 195 0
174 197 0
170 194 0
172 195 0
170 194 0
172 196 0
173 197 0
171 194 0
172 195 0
171 194 0
171 194 0
172 195 0
174 197 0
172 195 0
172 196 0
172 195 0
170 194 0
172 195 0
172 195 0
173 196 0
171 193 0
170 193 0
170 193 0
171 194 0
170 193 0
170 192 0
172 196 0
173 197 0
173 196 0
170 194 0
170 194 0
170 194 0
170 193 0
164 188 0
170 192 0
171 194 0
166 190 0
169 193 0
169 193 0
168 192 0
171 194 0
171 194 0
173 196 0
168 192 0
174 196 0
170 194 0
170 194 0
170 194 0
170 194 0
171 194 0
170 194 0
171 195 0
168 191 0
168 191 0
169 193 0
173 195 0
169 192 0
170 193 0
170 193 0
167 191 0
169 193 0
172 195 0
171 195 0
168 193 0
169 192 0
171 194 0
171 194 0
173 197 0
166 189 0
171 194 0
167 191 0
174 198 0
170 193 0
170 193 0
170 194 0
170 193 0
169 192 0
173 196 0
172 196 0
171 193 0
168 193 0
169 193 0
169 192 0
171 195 0
170 194 0
174 197 0
172 195 0
173 196 0
172 195 0
175 198 0
172 195 0
172 195 0
174 197 0
173 197 0
170 194 0
172 196 0
171 194 0
167 191 0
170 193 0
170 194 0
171 195 0
174 196 0
172 195 0
170 194 0
172 195 0
173 196 0
173 197 0
172 195 0
172 197 0
170 193 0
170 195 0
173 196 0
172 196 0
173 196 0
174 197 0
169 193 0
172 196 0
172 195 0
170 194 0
172 196 0
173 195 0
174 197 0
173 197 0
172 195 0
174 198 0
174 197 0
173 197 0
174 197 0
173 197 0
173 196 0
173 197 0
173 197 0
174 197 0
173 197 0
173 196 0
171 195 0
173 197 0
173 196 0
173 196 0
175 198 0
172 196 0
175 198 0
174 197 0
173 196 0
173 196 0
174 198 0
175 198 0
174 198 0
173 197 0
174 197 0
173 197 0
175 198 0
174 198 0
174 197 0
173 196 0
174 197 0
173 197 0
171 195 0
174 198 0
172 195 0
174 197 0
174 197 0
175 198 0
176 198 0
174 198 0
175 198 0
174 197 0
173 197 0
174 197 0
173 196 0
175 198 0
174 198 0
175 197 0
175 198 0
171 196 0
174 198 0
173 197 0
174 197 0
175 198 0
176 199 0
174 197 0
173 197 0
174 197 0
175 198 0
174 197 0
176 198 0
173 197 0
173 197 0
175 197 0
173 197 0
172 196 0
175 198 0
174 198 0
174 198 0
175 198 0
175 198 0
174 198 0
174 197 0
175 198 0
174 197 0
175 198 0
173 197 0
175 198 0
175 198 0
174 198 0
174 197 0
174 198 0
176 198 0
175 198 0
174 198 0
174 198 0
176 199 0
174 197 0
174 198 0
174 198 0
175 198 0
174 198 0
175 198 0
173 196 0
173 197 0
174 198 0
174 197 0
174 198 0
175 198 0
173 197 0
174 197 0
174 198 0
176 199 0
174 198 0
175 198 0
173 197 0
175 198 0
175 198 0
174 198 0
174 198 0
175 198 0
175 198 0
174 198 0
175 198 0
173 197 0
173 197 0
174 197 0
175 198 0
174 197 0
175 198 0
174 198 0
173 197 0
173 197 0
175 198 0
174 198 0
174 197 0
174 198 0
175 198 0
175 198 0
173 197 0
173 197 0
173 197 0
173 197 0
172 196 0
175 198 0
175 198 0
174 198 0
174 198 0
174 197 0
172 197 0
174 198 0
173 196 0
175 198 0
174 197 0
175 198 0
177 199 0
172 197 0
174 198 0
174 198 0
173 196 0
173 196 0
175 198 0
175 198 0
173 197 0
175 198 0
175 198 0
172 196 0
175 198 0
174 197 0
173 197 0
175 198 0
174 198 0
174 197 0
175 198 0
175 198 0
175 198 0
174 198 0
174 198 0
174 198 0
174 198 0
173 197 0
175 198 0
174 197 0
175 198 0
174 198 0
172 196 0
174 198 0
175 198 0
175 198 0
173 197 0
174 197 0
175 198 0
172 196 0
175 197 0
174 197 0
175 198 0
173 197 0
174 197 0
175 198 0
173 197 0
175 198 0
172 196 0
174 198 0
173 197 0
175 197 0
175 198 0
174 198 0
173 197 0
174 197 0
176 199 0
173 197 0
174 197 0
174 198 0
173 197 0
175 198 0
176 198 0
174 198 0
174 198 0
174 198 0
174 197 0
173 197 0
173 197 0
174 198 0
172 196 0
175 198 0
176 198 0
175 198 0
174 197 0
174 197 0
173 197 0
174 197 0
173 197 0
174 198 0
174 197 0
174 198 0
175 198 0
173 197 0
174 198 0
174 197 0
171 195 0
174 198 0
172 196 0
173 196 0
175 198 0
174 197 0
174 197 0
174 198 0
174 197 0
174 197 0
174 197 0
173 196 0
173 197 0
175 198 0
174 198 0
174 198 0
173 197 0
172 196 0
174 198 0
174 197 0
173 197 0
173 197 0
173 196 0
176 199 0
173 196 0
175 198 0
173 197 0
174 198 0
174 197 0
175 197 0
170 194 0
174 198 0
173 197 0
173 196 0
172 196 0
174 198 0
175 198 0
174 197 0
173 197 0
172 196 0
173 196 0
175 198 0
173 197 0
172 196 0
171 195 0
174 197 0
171 195 0
175 198 0
173 197 0
171 194 0
173 197 0
173 196 0
169 192 0
173 196 0
173 196 0
172 195 0
172 195 0
174 197 0
174 196 0
171 195 0
174 197 0
171 195 0
171 194 0
169 192 0
173 195 0
174 197 0
172 195 0
171 193 0
171 195 0
173 196 0
168 192 0
174 197 0
171 194 0
175 198 0
170 193 0
170 194 0
171 194 0
170 194 0
171 194 0
171 194 0
170 193 0
173 197 0
170 193 0
170 193 0
170 195 0
172 196 0
171 194 0
173 196 0
171 194 0
174 197 0
168 191 0
174 197 0
171 195 0
170 194 0
170 194 0
170 194 0
168 192 0
172 196 0
168 192 0
172 196 0
168 191 0
169 193 0
168 192 0
172 194 0
172 195 0
171 194 0
169 192 0
168 192 0
164 189 0
171 194 0
169 193 0
171 194 0
173 196 0
170 193 0
169 192 0
170 193 0
169 193 0
170 193 0
169 193 0
170 193 0
172 195 0
170 193 0
168 192 0
170 193 0
170 194 0
173 196 0
171 195 0
173 196 0
171 194 0
171 195 0
173 196 0
171 194 0
169 193 0
171 195 0
173 196 0
171 194 0
175 198 0
171 195 0
173 196 0
172 196 0
174 196 0
174 198 0
172 195 0
172 195 0
171 195 0
174 197 0
171 194 0
172 196 0
173 196 0
171 195 0
171 194 0
169 193 0
171 194 0
172 197 0
174 197 0
173 196 0
173 196 0
173 196 0
173 196 0
171 195 0
169 193 0
174 198 0
174 197 0
171 195 0
174 197 0
171 196 0
174 197 0
173 197 0
171 196 0
174 197 0
174 198 0
173 197 0
173 196 0
172 196 0
173 196 0
175 198 0
172 195 0
172 196 0
174 197 0
173 196 0
171 194 0
173 196 0
172 196 0
175 198 0
174 196 0
174 198 0
173 197 0
172 196 0
174 197 0
173 197 0
174 197 0
174 197 0
174 198 0
170 194 0
173 197 0
172 195 0
173 196 0
172 196 0
175 198 0
173 196 0
173 197 0
174 197 0
175 198 0
172 195 0
173 196 0
175 198 0
172 195 0
173 196 0
171 196 0
171 195 0
172 197 0
174 198 0
175 198 0
175 197 0
174 197 0
174 197 0
174 197 0
174 197 0
175 198 0
174 198 0
173 197 0
172 197 0
174 198 0
172 195 0
174 197 0
174 197 0
172 196 0
176 199 0
174 198 0
173 197 0
174 197 0
174 198 0
175 198 0
175 198 0
175 198 0
173 197 0
174 197 0
175 198 0
174 197 0
174 197 0
174 198 0
173 197 0
175 198 0
173 197 0
174 198 0
174 198 0
175 198 0
173 197 0
173 197 0
174 197 0
173 197 0
174 197 0
175 198 0
176 198 0
173 197 0
174 198 0
174 198 0
174 198 0
175 198 0
173 197 0
175 198 0
175 198 0
174 198 0
173 197 0
174 198 0
175 198 0
173 197 0
173 197 0
174 197 0
174 198 0
173 197 0
175 198 0
174 197 0
175 198 0
174 198 0
175 198 0
175 198 0
176 198 0
175 198 0
174 197 0
174 197 0
174 197 0
173 197 0
174 197 0
173 197 0
176 199 0
174 197 0
173 197 0
174 198 0
174 198 0
174 197 0
174 198 0
174 197 0
175 198 0
173 196 0
174 197 0
173 197 0
173 197 0
175 198 0
174 197 0
177 199 0
175 198 0
172 197 0
175 198 0
174 198 0
172 196 0
175 198 0
174 198 0
175 198 0
175 198 0
172 197 0
175 198 0
174 197 0
175 198 0
176 199 0
173 197 0
175 198 0
175 198 0
174 198 0
173 197 0
173 197 0
174 197 0
175 198 0
173 197 0
175 198 0
175 198 0
174 197 0
176 198 0
173 197 0
174 197 0
173 197 0
173 196 0
174 198 0
173 197 0
173 197 0
175 198 0
174 198 0
173 197 0
174 198 0
174 198 0
173 197 0
175 198 0
174 198 0
175 198 0
175 198 0
173 196 0
174 197 0
174 197 0
176 198 0
175 198 0
176 198 0
175 198 0
176 198 0
172 196 0
175 198 0
173 197 0
174 197 0
175 198 0
174 197 0
174 197 0
174 198 0
174 198 0
173 197 0
174 198 0
173 197 0
175 198 0
175 198 0
175 198 0
175 198 0
174 198 0
174 197 0
176 199 0
175 198 0
171 196 0
174 197 0
175 198 0
173 197 0
174 197 0
173 197 0
173 197 0
174 197 0
173 197 0
175 198 0
175 198 0
175 198 0
174 197 0
174 197 0
173 197 0
174 197 0
174 198 0
174 197 0
175 198 0
174 197 0
174 197 0
174 197 0
174 197 0
174 198 0
175 198 0
174 197 0
174 198 0
173 197 0
173 197 0
172 196 0
175 197 0
174 197 0
174 198 0
174 197 0
172 196 0
174 197 0
174 197 0
173 197 0
174 197 0
174 198 0
174 197 0
171 195 0
174 197 0
173 197 0
174 197 0
174 198 0
173 197 0
173 197 0
175 198 0
170 195 0
175 198 0
173 197 0
173 197 0
174 197 0
173 196 0
173 197 0
172 196 0
173 197 0
171 195 0
174 197 0
173 197 0
174 197 0
171 195 0
174 197 0
175 198 0
173 197 0
172 196 0
174 197 0
172 195 0
172 196 0
175 198 0
171 194 0
172 195 0
171 195 0
174 197 0
172 196 0
171 194 0
173 196 0
174 196 0
173 197 0
170 194 0
174 197 0
170 194 0
173 196 0
174 197 0
172 196 0
171 195 0
173 196 0
173 197 0
173 196 0
174 197 0
171 195 0
173 196 0
172 195 0
172 195 0
173 196 0
174 197 0
173 196 0
171 195 0
169 192 0
173 197 0
172 196 0
173 196 0
175 198 0
170 193 0
171 194 0
173 197 0
170 194 0
171 194 0
171 194 0
171 194 0
171 194 0
168 192 0
170 194 0
172 194 0
170 193 0
172 196 0
170 194 0
172 195 0
174 197 0
172 195 0
172 195 0
168 191 0
171 195 0
168 191 0
172 196 0
168 192 0
174 197 0
168 191 0
172 196 0
171 195 0
172 196 0
170 193 0
169 192 0
169 193 0
171 195 0
173 196 0
170 194 0
171 194 0
173 196 0
168 191 0
174 196 0
173 196 0
170 193 0
169 193 0
171 195 0
168 191 0
170 194 0
172 195 0
172 196 0
172 196 0
170 192 0
171 195 0
173 197 0
169 193 0
175 198 0
172 196 0
171 195 0
173 196 0
172 196 0
172 195 0
173 197 0
172 196 0
173 196 0
174 198 0
173 195 0
172 196 0
171 194 0
173 195 0
173 197 0
173 196 0
172 196 0
174 197 0
174 197 0
172 196 0
175 198 0
173 196 0
173 197 0
172 196 0
169 192 0
175 198 0
171 194 0
172 196 0
174 197 0
174 197 0
173 196 0
173 197 0
171 195 0
174 198 0
174 197 0
172 196 0
175 197 0
172 195 0
173 196 0
173 197 0
172 196 0
173 196 0
172 196 0
172 197 0
174 197 0
172 196 0
173 197 0
173 196 0
172 196 0
174 197 0
173 196 0
174 197 0
173 196 0
173 197 0
172 195 0
169 193 0
173 196 0
174 197 0
175 197 0
172 196 0
173 196 0
175 198 0
174 196 0
173 197 0
175 198 0
173 197 0
176 199 0
173 197 0
174 198 0
174 197 0
173 197 0
174 198 0
175 198 0
174 198 0
174 198 0
174 198 0
174 197 0
173 197 0
173 195 0
173 196 0
174 197 0
175 198 0
173 197 0
173 197 0
173 197 0
174 198 0
176 199 0
175 198 0
172 195 0
174 197 0
172 197 0
174 197 0
176 199 0
174 197 0
175 198 0
174 198 0
175 198 0
176 198 0
174 198 0
172 195 0
174 197 0
174 197 0
176 198 0
174 198 0
175 198 0
174 198 0
173 196 0
172 196 0
175 198 0
172 196 0
174 198 0
175 198 0
174 197 0
174 198 0
174 197 0
175 198 0
175 198 0
177 199 0
174 198 0
174 198 0
174 198 0
174 197 0
175 198 0
174 198 0
173 197 0
172 196 0
175 198 0
173 197 0
174 198 0
173 197 0
173 197 0
175 198 0
174 198 0
175 198 0
174 198 0
174 197 0
176 198 0
173 197 0
175 198 0
176 198 0
175 198 0
175 198 0
174 197 0
177 199 0
173 197 0
175 198 0
174 197 0
175 198 0
175 198 0
174 197 0
173 197 0
175 198 0
173 197 0
174 197 0
176 198 0
175 198 0
176 199 0
175 198 0
175 197 0
175 198 0
173 197 0
174 198 0
173 197 0
174 198 0
174 197 0
173 197 0
176 198 0
172 196 0
175 198 0
174 198 0
174 197 0
174 197 0
174 198 0
174 197 0
174 197 0
174 197 0
174 198 0
173 197 0
175 198 0
172 196 0
174 198 0
173 197 0
176 199 0
176 199 0
175 198 0
174 198 0
176 199 0
175 198 0
175 198 0
173 197 0
175 198 0
177 199 0
174 198 0
173 197 0
175 198 0
176 199 0
175 198 0
174 197 0
172 197 0
175 198 0
174 198 0
175 198 0
175 198 0
175 198 0
174 198 0
173 197 0
176 198 0
174 197 0
173 196 0
174 198 0
174 197 0
175 198 0
175 198 0
173 197 0
173 197 0
174 198 0
174 197 0
174 197 0
174 198 0
173 197 0
173 197 0
174 197 0
175 198 0
174 198 0
176 198 0
175 198 0
174 198 0
173 197 0
173 197 0
174 197 0
175 198 0
174 198 0
173 197 0
175 198 0
173 197 0
175 198 0
175 198 0
173 197 0
174 198 0
174 198 0
174 198 0
175 198 0
174 197 0
174 197 0
175 198 0
174 197 0
177 199 0
175 198 0
174 197 0
174 197 0
176 199 0
176 198 0
171 194 0
174 198 0
173 197 0
174 198 0
174 198 0
174 197 0
175 198 0
172 196 0
175 198 0
173 197 0
175 198 0
174 198 0
175 198 0
175 198 0
172 197 0
173 197 0
173 197 0
174 197 0
172 196 0
173 196 0
174 197 0
174 198 0
175 198 0
173 197 0
174 198 0
175 197 0
175 198 0
172 196 0
174 198 0
173 196 0
173 197 0
174 197 0
172 196 0
174 197 0
173 196 0
174 198 0
174 198 0
173 197 0
173 197 0
175 198 0
172 196 0
171 196 0
173 196 0
171 196 0
173 196 0
174 198 0
173 197 0
172 195 0
174 197 0
170 194 0
173 197 0
173 196 0
173 197 0
173 197 0
173 197 0
173 196 0
169 193 0
174 198 0
172 197 0
172 195 0
172 196 0
173 196 0
175 198 0
172 197 0
173 197 0
171 194 0
170 193 0
174 197 0
174 197 0
171 194 0
173 196 0
172 195 0
173 197 0
174 197 0
169 193 0
173 196 0
173 196 0
173 197 0
171 195 0
174 197 0
172 195 0
174 197 0
173 197 0
169 192 0
174 197 0
169 193 0
173 197 0
172 196 0
172 195 0
172 195 0
174 196 0
171 194 0
172 195 0
170 194 0
171 193 0
170 194 0
172 195 0
171 195 0
173 196 0
172 195 0
171 194 0
174 197 0
169 192 0
170 194 0
169 193 0
169 193 0
168 192 0
165 189 0
172 196 0
171 195 0
171 195 0
169 191 0
172 195 0
171 194 0
168 192 0
170 194 0
168 190 0
169 193 0
172 196 0
169 191 0
170 194 0
171 195 0
170 192 0
171 195 0
170 194 0
171 194 0
172 196 0
170 193 0
168 191 0
168 192 0
171 195 0
174 197 0
173 196 0
171 195 0
169 192 0
169 191 0
168 192 0
171 194 0
168 192 0
170 194 0
172 195 0
170 194 0
172 196 0
172 195 0
172 195 0
172 195 0
173 195 0
171 194 0
170 192 0
170 193 0
173 196 0
173 196 0
173 196 0
170 193 0
172 195 0
173 196 0
172 196 0
171 195 0
172 195 0
172 196 0
167 190 0
171 195 0
173 196 0
174 198 0
174 197 0
173 196 0
172 195 0
172 194 0
172 196 0
172 196 0
170 193 0
173 196 0
173 196 0
173 197 0
172 196 0
172 195 0
172 195 0
173 196 0
172 196 0
174 197 0
172 195 0
172 196 0
171 195 0
172 196 0
171 194 0
174 197 0
173 197 0
175 198 0
170 193 0
175 198 0
172 195 0
174 197 0
173 196 0
175 198 0
172 196 0
173 196 0
174 197 0
175 197 0
174 198 0
175 198 0
175 198 0
174 197 0
173 196 0
172 196 0
175 197 0
173 196 0
175 197 0
174 197 0
173 197 0
174 197 0
175 198 0
170 194 0
172 196 0
171 194 0
175 198 0
173 197 0
174 197 0
175 198 0
175 198 0
172 196 0
170 194 0
173 197 0
171 195 0
174 197 0
173 197 0
174 198 0
174 198 0
169 193 0
173 196 0
171 196 0
173 197 0
173 197 0
173 196 0
172 196 0
175 198 0
172 196 0
174 197 0
172 196 0
173 197 0
175 197 0
173 196 0
174 197 0
174 197 0
175 198 0
174 198 0
173 197 0
173 197 0
174 198 0
173 197 0
174 197 0
175 198 0
174 198 0
175 198 0
174 197 0
174 198 0
174 198 0
175 198 0
175 198 0
174 198 0
174 198 0
176 198 0
173 197 0
173 197 0
173 197 0
175 198 0
173 197 0
176 198 0
175 198 0
175 198 0
174 198 0
173 197 0
174 198 0
174 197 0
173 196 0
175 198 0
173 197 0
175 198 0
175 198 0
174 197 0
174 197 0
176 198 0
175 198 0
173 197 0
174 198 0
175 197 0
174 198 0
174 198 0
174 198 0
175 198 0
174 197 0
176 198 0
172 196 0
172 197 0
174 198 0
175 198 0
174 197 0
174 198 0
175 198 0
175 198 0
173 197 0
175 197 0
174 198 0
173 197 0
175 198 0
176 199 0
175 198 0
175 198 0
175 198 0
174 197 0
174 198 0
174 198 0
174 198 0
176 199 0
174 198 0
174 198 0
174 197 0
176 199 0
173 197 0
175 198 0
175 198 0
174 197 0
173 197 0
173 197 0
173 197 0
174 198 0
173 197 0
174 197 0
175 198 0
172 197 0
174 197 0
175 198 0
175 198 0
175 198 0
175 198 0
175 198 0
175 198 0
175 198 0
174 197 0
175 198 0
176 198 0
174 198 0
173 197 0
174 198 0
174 198 0
175 198 0
175 198 0
174 198 0
174 198 0
174 198 0
174 198 0
174 197 0
175 197 0
175 198 0
174 197 0
174 197 0
174 197 0
175 198 0
174 197 0
173 197 0
175 198 0
174 198 0
174 197 0
174 198 0
174 198 0
173 197 0
174 197 0
175 198 0
174 198 0
175 198 0
175 198 0
177 199 0
175 198 0
173 197 0
173 197 0
173 197 0
174 198 0
174 198 0
175 198 0
175 198 0
175 198 0
175 198 0
173 197 0
171 195 0
176 199 0
175 198 0
174 197 0
175 198 0
173 197 0
175 198 0
173 197 0
173 197 0
174 198 0
173 197 0
174 198 0
174 197 0
173 197 0
173 197 0
175 198 0
174 197 0
174 198 0
175 198 0
173 197 0
175 198 0
174 197 0
171 195 0
173 197 0
174 197 0
174 197 0
174 198 0
173 197 0
173 197 0
176 198 0
175 198 0
174 197 0
174 197 0
172 196 0
176 198 0
174 197 0
174 197 0
175 198 0
175 198 0
174 197 0
173 197 0
174 198 0
173 196 0
173 197 0
174 197 0
174 198 0
174 198 0
173 197 0
174 198 0
172 196 0
175 198 0
172 197 0
174 197 0
176 198 0
174 197 0
174 197 0
172 196 0
175 198 0
175 198 0
174 198 0
173 197 0
176 199 0
174 197 0
174 197 0
173 196 0
171 195 0
175 198 0
172 197 0
174 197 0
173 196 0
170 195 0
172 197 0
172 196 0
176 199 0
172 196 0
174 198 0
174 198 0
172 196 0
174 197 0
174 197 0
174 197 0
172 196 0
174 197 0
172 196 0
173 196 0
172 196 0
173 197 0
172 196 0
172 196 0
175 197 0
175 198 0
172 196 0
175 198 0
173 197 0
173 196 0
172 195 0
171 195 0
172 195 0
168 191 0
174 197 0
173 196 0
172 195 0
173 197 0
174 197 0
172 195 0
171 195 0
173 197 0
171 194 0
173 196 0
171 195 0
171 195 0
170 194 0
171 195 0
172 196 0
174 197 0
172 196 0
172 195 0
171 195 0
170 193 0
172 195 0
173 197 0
171 195 0
170 193 0
168 191 0
173 196 0
172 195 0
171 194 0
170 194 0
169 192 0
169 192 0
168 192 0
168 191 0
170 193 0
171 194 0
171 195 0
171 195 0
172 195 0
169 192 0
170 194 0
166 189 0
171 195 0
169 192 0
172 196 0
173 196 0
172 196 0
171 195 0
171 194 0
172 195 0
171 195 0
170 194 0
172 196 0
169 193 0
168 192 0
173 196 0
173 196 0
169 192 0
171 195 0
170 194 0
171 195 0
170 194 0
171 194 0
173 196 0
170 194 0
174 196 0
171 194 0
169 192 0
172 196 0
173 196 0
172 196 0
173 197 0
172 196 0
171 194 0
169 192 0
172 195 0
173 196 0
169 193 0
171 194 0
173 197 0
174 196 0
173 196 0
171 194 0
173 197 0
172 196 0
174 197 0
172 195 0
171 194 0
174 198 0
170 194 0
173 196 0
172 196 0
173 197 0
171 195 0
171 195 0
171 195 0
170 194 0
172 196 0
174 197 0
171 195 0
173 197 0
174 197 0
170 194 0
173 196 0
174 197 0
173 197 0
173 197 0
174 197 0
175 197 0
174 197 0
173 197 0
175 198 0
173 197 0
174 198 0
175 197 0
175 197 0
173 196 0
173 196 0
176 198 0
174 198 0
174 198 0
172 196 0
173 197 0
174 197 0
175 198 0
173 197 0
175 198 0
173 197 0
171 195 0
173 197 0
174 197 0
174 198 0
175 198 0
171 194 0
174 197 0
173 197 0
174 197 0
172 196 0
174 197 0
174 198 0
175 198 0
173 197 0
172 196 0
174 197 0
175 198 0
173 197 0
175 198 0
172 196 0
174 197 0
173 197 0
173 197 0
173 197 0
174 198 0
175 198 0
175 198 0
172 196 0
175 198 0
174 198 0
174 197 0
172 195 0
175 198 0
173 196 0
174 196 0
174 198 0
173 197 0
175 198 0
173 197 0
173 197 0
174 197 0
174 198 0
175 197 0
175 198 0
175 198 0
174 197 0
171 195 0
175 198 0
174 197 0
175 198 0
175 198 0
174 198 0
174 197 0
174 198 0
173 197 0
174 197 0
175 198 0
173 197 0
172 196 0
174 198 0
173 197 0
172 196 0
174 198 0
173 196 0
174 197 0
175 198 0
176 199 0
173 196 0
176 199 0
174 198 0
174 197 0
175 198 0
173 197 0
173 197 0
174 197 0
174 197 0
174 197 0
173 197 0
175 198 0
174 197 0
172 196 0
172 195 0
175 198 0
175 198 0
175 198 0
174 197 0
173 196 0
176 199 0
175 198 0
173 197 0
171 195 0
173 197 0
174 197 0
173 197 0
173 197 0
173 197 0
174 198 0
175 198 0
174 198 0
174 198 0
174 198 0
175 198 0
175 198 0
172 196 0
174 197 0
173 197 0
175 198 0
175 198 0
173 196 0
173 197 0
174 197 0
177 199 0
173 197 0
174 198 0
175 198 0
175 198 0
174 197 0
176 199 0
175 198 0
173 197 0
176 199 0
173 197 0
174 198 0
174 197 0
174 198 0
175 198 0
176 199 0
174 198 0
173 197 0
172 196 0
174 198 0
174 198 0
174 198 0
174 197 0
175 198 0
174 198 0
174 198 0
173 197 0
174 198 0
174 197 0
174 198 0
173 197 0
173 197 0
176 198 0
173 197 0
175 198 0
173 197 0
175 198 0
175 198 0
175 198 0
175 198 0
175 198 0
174 198 0
174 198 0
175 198 0
176 199 0
173 197 0
175 198 0
175 198 0
175 198 0
174 198 0
173 197 0
173 197 0
176 198 0
175 198 0
174 198 0
174 197 0
174 197 0
173 196 0
174 197 0
175 198 0
174 198 0
174 198 0
173 197 0
173 197 0
176 198 0
175 198 0
175 198 0
174 198 0
174 197 0
172 196 0
173 197 0
174 198 0
173 197 0
174 198 0
173 197 0
173 197 0
173 197 0
173 196 0
173 197 0
175 198 0
176 198 0
172 195 0
174 198 0
172 196 0
173 197 0
173 197 0
173 197 0
173 197 0
173 197 0
173 197 0
173 197 0
173 196 0
174 197 0
176 198 0
174 197 0
174 197 0
173 197 0
175 198 0
172 196 0
176 198 0
174 197 0
173 197 0
170 195 0
171 196 0
172 196 0
175 198 0
172 195 0
173 197 0
175 198 0
173 197 0
176 199 0
172 196 0
174 198 0
174 198 0
170 194 0
175 198 0
174 198 0
174 197 0
173 197 0
175 198 0
172 196 0
173 197 0
172 195 0
172 196 0
174 198 0
173 196 0
175 198 0
173 197 0
172 195 0
174 198 0
175 198 0
174 197 0
175 198 0
174 197 0
173 197 0
171 194 0
171 195 0
175 198 0
173 197 0
171 195 0
174 197 0
172 196 0
170 193 0
171 194 0
174 198 0
174 198 0
172 196 0
172 196 0
173 196 0
173 196 0
171 195 0
172 196 0
171 195 0
172 195 0
173 197 0
173 196 0
172 196 0
172 196 0
172 195 0
171 194 0
172 195 0
174 198 0
173 196 0
173 197 0
171 194 0
172 196 0
173 196 0
169 193 0
170 193 0
174 197 0
174 197 0
171 194 0
172 195 0
172 196 0
171 195 0
174 197 0
172 196 0
170 194 0
175 197 0
169 193 0
173 197 0
170 194 0
170 194 0
174 197 0
173 196 0
170 193 0
171 194 0
170 194 0
174 198 0
172 195 0
171 195 0
170 194 0
173 195 0
169 193 0
172 195 0
171 194 0
173 195 0
172 195 0
172 195 0
170 193 0
172 194 0
169 193 0
171 195 0
173 197 0
170 194 0
171 195 0
170 192 0
170 194 0
172 196 0
171 194 0
169 192 0
171 194 0
173 197 0
168 191 0
173 196 0
168 192 0
170 194 0
174 197 0
171 195 0
171 194 0
173 197 0
171 194 0
174 196 0
171 194 0
170 193 0
170 194 0
173 196 0
174 197 0
173 196 0
171 195 0
174 197 0
172 196 0
173 197 0
171 195 0
172 196 0
174 197 0
175 198 0
171 194 0
170 193 0
171 194 0
174 197 0
173 197 0
169 193 0
173 196 0
173 195 0
173 196 0
174 196 0
170 194 0
172 195 0
172 196 0
174 197 0
169 193 0
172 195 0
175 197 0
172 196 0
173 196 0
171 195 0
173 196 0
175 197 0
171 194 0
172 196 0
174 197 0
174 197 0
170 194 0
172 195 0
172 195 0
172 196 0
174 198 0
172 195 0
174 197 0
174 198 0
172 196 0
174 197 0
172 196 0
171 195 0
174 197 0
172 196 0
175 198 0
172 196 0
173 196 0
171 195 0
169 193 0
174 198 0
175 198 0
173 196 0
173 197 0
174 197 0
174 197 0
174 197 0
173 197 0
175 197 0
172 195 0
174 198 0
171 195 0
171 195 0
174 198 0
174 197 0
174 197 0
175 198 0
173 196 0
172 196 0
175 198 0
172 196 0
174 198 0
173 196 0
174 197 0
175 198 0
173 197 0
174 197 0
176 198 0
173 197 0
174 198 0
176 199 0
175 198 0
171 196 0
175 198 0
173 197 0
172 196 0
176 199 0
175 197 0
174 198 0
175 198 0
176 198 0
175 197 0
174 197 0
173 196 0
173 197 0
176 199 0
173 197 0
175 198 0
176 198 0
175 198 0
174 197 0
174 197 0
173 197 0
173 197 0
174 197 0
174 198 0
175 198 0
173 197 0
173 196 0
174 198 0
174 198 0
173 197 0
175 198 0
176 198 0
172 197 0
174 198 0
174 198 0
174 198 0
175 198 0
173 197 0
174 197 0
175 198 0
174 197 0
174 197 0
174 198 0
173 196 0
175 197 0
175 198 0
174 198 0
175 198 0
173 197 0
174 197 0
174 197 0
174 198 0
174 197 0
174 198 0
174 198 0
174 198 0
174 198 0
173 197 0
174 198 0
173 196 0
173 197 0
174 197 0
173 197 0
172 197 0
174 197 0
174 197 0
175 198 0
174 197 0
176 199 0
173 197 0
176 198 0
175 198 0
174 198 0
175 198 0
174 198 0
175 198 0
175 198 0
173 197 0
174 197 0
174 197 0
174 198 0
174 198 0
176 199 0
174 198 0
173 197 0
175 198 0
175 198 0
173 197 0
174 198 0
174 197 0
172 197 0
175 198 0
173 197 0
174 197 0
174 198 0
176 198 0
173 197 0
173 197 0
175 198 0
174 197 0
175 198 0
174 197 0
173 197 0
172 196 0
173 197 0
173 197 0
175 198 0
176 199 0
176 198 0
175 198 0
172 196 0
176 199 0
174 197 0
173 197 0
174 198 0
176 198 0
175 198 0
173 196 0
176 199 0
175 198 0
174 197 0
175 198 0
175 198 0
174 197 0
175 198 0
175 198 0
174 197 0
176 199 0
175 198 0
175 198 0
174 197 0
172 196 0
174 198 0
174 197 0
175 198 0
174 198 0
175 198 0
175 197 0
175 198 0
172 196 0
174 198 0
174 198 0
174 198 0
173 197 0
173 197 0
174 197 0
174 198 0
174 197 0
173 197 0
173 197 0
173 197 0
173 197 0
175 198 0
173 197 0
174 198 0
174 198 0
174 198 0
173 197 0
174 198 0
174 197 0
174 198 0
175 197 0
174 197 0
174 197 0
175 197 0
174 197 0
174 197 0
174 198 0
173 197 0
174 198 0
173 197 0
174 198 0
173 197 0
171 195 0
175 198 0
173 197 0
174 198 0
174 197 0
173 197 0
174 197 0
174 197 0
173 197 0
173 196 0
175 198 0
174 197 0
173 197 0
172 196 0
174 198 0
174 198 0
173 196 0
173 197 0
174 197 0
175 198 0
174 197 0
174 197 0
175 198 0
174 197 0
171 195 0
173 197 0
173 197 0
175 198 0
173 196 0
173 196 0
175 198 0
174 198 0
173 197 0
174 197 0
174 197 0
173 197 0
173 196 0
174 198 0
173 196 0
175 198 0
174 198 0
174 197 0
172 195 0
172 196 0
175 198 0
175 197 0
173 196 0
174 198 0
172 196 0
174 197 0
173 196 0
173 197 0
174 197 0
174 198 0
172 195 0
171 195 0
171 195 0
173 197 0
170 194 0
173 197 0
175 198 0
174 197 0
171 194 0
170 193 0
174 197 0
174 198 0
171 195 0
174 197 0
172 195 0
171 195 0
174 197 0
172 196 0
172 196 0
168 191 0
174 196 0
171 194 0
171 195 0
174 197 0
173 196 0
173 196 0
175 198 0
173 196 0
174 197 0
171 194 0
173 196 0
171 195 0
171 194 0
171 195 0
173 196 0
172 195 0
172 195 0
171 195 0
167 190 0
171 194 0
173 196 0
171 194 0
172 195 0
170 194 0
171 194 0
171 194 0
171 195 0
172 196 0
173 197 0
172 196 0
170 193 0
171 194 0
171 194 0
171 195 0
171 194 0
170 194 0
170 194 0
169 192 0
171 196 0
171 195 0
169 192 0
171 195 0
171 194 0
172 196 0
171 195 0
171 194 0
172 195 0
172 196 0
172 195 0
173 196 0
170 193 0
173 197 0
170 194 0
171 195 0
173 196 0
173 197 0
172 195 0
172 195 0
173 196 0
166 189 0
168 192 0
170 194 0
170 194 0
173 196 0
173 196 0
173 196 0
174 198 0
172 195 0
169 193 0
170 193 0
171 194 0
171 195 0
175 198 0
173 196 0
171 194 0
173 196 0
173 197 0
174 198 0
175 197 0
171 194 0
173 197 0
175 198 0
172 196 0
169 193 0
171 195 0
173 196 0
170 194 0
172 195 0
173 197 0
174 197 0
171 195 0
174 197 0
174 197 0
174 198 0
173 196 0
171 194 0
173 196 0
173 197 0
173 196 0
173 196 0
175 198 0
174 197 0
173 196 0
172 196 0
174 197 0
173 196 0
172 196 0
172 195 0
173 196 0
174 197 0
171 195 0
173 196 0
171 195 0
172 196 0
171 195 0
173 197 0
173 196 0
171 195 0
173 197 0
173 197 0
174 198 0
175 198 0
174 197 0
172 196 0
173 197 0
174 197 0
175 198 0
173 196 0
174 198 0
174 197 0
173 197 0
175 197 0
171 194 0
174 197 0
172 195 0
173 197 0
175 198 0
176 198 0
173 196 0
174 198 0
173 197 0
174 197 0
175 198 0
174 198 0
173 196 0
173 197 0
173 196 0
175 198 0
174 197 0
174 197 0
172 196 0
173 196 0
173 197 0
174 197 0
175 198 0
173 197 0
173 196 0
173 196 0
173 197 0
175 198 0
175 198 0
173 197 0
176 199 0
175 198 0
175 198 0
174 197 0
171 196 0
176 199 0
174 197 0
175 198 0
173 196 0
174 197 0
173 197 0
174 197 0
175 198 0
173 197 0
175 198 0
175 198 0
172 196 0
171 195 0
175 198 0
174 198 0
174 198 0
172 196 0
174 197 0
174 198 0
174 197 0
175 198 0
173 197 0
175 198 0
174 198 0
173 196 0
175 198 0
175 198 0
173 196 0
173 197 0
175 198 0
173 197 0
176 199 0
173 197 0
172 196 0
176 198 0
172 196 0
174 198 0
176 199 0
174 198 0
174 197 0
175 198 0
175 198 0
174 197 0
175 198 0
174 197 0
175 198 0
173 197 0
175 198 0
174 198 0
172 196 0
173 197 0
173 196 0
174 198 0
174 197 0
175 198 0
175 198 0
174 197 0
175 198 0
174 198 0
175 198 0
174 198 0
174 198 0
175 198 0
174 198 0
174 197 0
175 198 0
173 197 0
175 198 0
175 198 0
174 198 0
174 198 0
175 198 0
174 197 0
175 198 0
172 196 0
174 197 0
175 198 0
176 199 0
173 197 0
175 198 0
175 198 0
174 198 0
176 199 0
175 198 0
174 198 0
176 198 0
174 198 0
176 199 0
175 198 0
175 198 0
175 198 0
175 198 0
175 198 0
175 198 0
174 198 0
176 199 0
174 197 0
176 199 0
174 197 0
173 196 0
175 198 0
174 198 0
174 198 0
175 198 0
175 198 0
172 196 0
174 198 0
174 198 0
176 198 0
175 198 0
174 198 0
174 197 0
175 198 0
174 198 0
174 198 0
173 197 0
175 198 0
174 198 0
174 198 0
176 198 0
175 198 0
173 197 0
174 198 0
173 197 0
175 198 0
175 198 0
172 196 0
172 196 0
174 197 0
174 198 0
176 199 0
174 198 0
174 198 0
174 197 0
174 197 0
176 198 0
175 198 0
172 196 0
172 196 0
173 197 0
176 198 0
174 198 0
175 198 0
175 198 0
173 197 0
174 198 0
173 197 0
175 198 0
175 198 0
173 197 0
173 197 0
173 197 0
175 198 0
174 197 0
174 198 0
175 198 0
174 198 0
173 197 0
174 198 0
173 196 0
174 197 0
176 198 0
173 196 0
174 198 0
173 197 0
174 197 0
173 197 0
176 198 0
175 198 0
172 196 0
175 198 0
174 197 0
174 197 0
175 198 0
174 198 0
174 197 0
174 197 0
172 197 0
174 197 0
175 198 0
173 197 0
174 198 0
174 197 0
176 198 0
176 198 0
172 196 0
172 196 0
173 196 0
173 197 0
173 196 0
176 199 0
173 197 0
172 197 0
173 197 0
175 198 0
175 198 0
173 197 0
173 196 0
172 196 0
171 194 0
169 194 0
173 196 0
175 198 0
173 196 0
170 194 0
173 197 0
172 196 0
173 197 0
172 196 0
173 196 0
172 196 0
174 197 0
174 197 0
171 195 0
170 194 0
172 196 0
173 196 0
172 196 0
174 197 0
172 196 0
175 198 0
174 197 0
173 196 0
173 197 0
174 198 0
174 198 0
174 197 0
171 195 0
173 196 0
172 196 0
176 199 0
174 197 0
169 193 0
174 197 0
172 195 0
172 195 0
171 195 0
173 196 0
173 196 0
172 195 0
171 195 0
170 194 0
170 194 0
173 196 0
169 193 0
172 195 0
171 194 0
170 193 0
171 195 0
170 194 0
174 197 0
168 192 0
171 194 0
172 195 0
170 194 0
168 192 0
172 195 0
173 196 0
171 195 0
170 194 0
172 195 0
174 197 0
169 194 0
170 193 0
172 196 0
170 193 0
173 196 0
169 193 0
171 193 0
170 194 0
169 192 0
170 194 0
168 193 0
172 195 0
170 193 0
169 192 0
172 195 0
172 196 0
173 196 0
172 196 0
172 196 0
171 195 0
173 196 0
169 193 0
173 197 0
174 198 0
172 196 0
173 196 0
170 194 0
174 197 0
173 196 0
172 195 0
173 196 0
172 194 0
173 195 0
171 195 0
169 193 0
170 194 0
176 198 0
173 196 0
173 196 0
170 194 0
173 196 0
171 195 0
172 195 0
174 197 0
172 195 0
172 195 0
169 193 0
173 196 0
172 196 0
172 196 0
171 195 0
172 196 0
172 196 0
170 193 0
175 198 0
171 194 0
173 197 0
174 197 0
169 192 0
173 197 0
173 195 0
173 196 0
173 196 0
174 197 0
172 195 0
174 197 0
173 197 0
174 197 0
173 196 0
175 198 0
174 197 0
174 197 0
176 198 0
173 197 0
171 196 0
173 196 0
175 198 0
172 196 0
172 196 0
174 197 0
173 195 0
174 196 0
171 195 0
173 197 0
175 197 0
173 196 0
174 197 0
174 197 0
173 197 0
174 197 0
172 197 0
173 196 0
172 195 0
174 197 0
173 197 0
175 198 0
172 196 0
175 197 0
174 197 0
172 196 0
172 196 0
175 198 0
174 197 0
173 197 0
173 197 0
173 197 0
174 198 0
174 197 0
174 197 0
174 197 0
174 198 0
174 197 0
176 199 0
175 198 0
173 196 0
174 197 0
175 198 0
173 196 0
175 198 0
174 197 0
174 198 0
174 197 0
175 198 0
174 198 0
175 198 0
175 198 0
174 197 0
175 198 0
174 198 0
175 198 0
169 193 0
174 198 0
172 196 0
173 197 0
174 197 0
172 196 0
174 197 0
171 196 0
175 198 0
175 198 0
174 198 0
173 197 0
175 198 0
175 198 0
174 197 0
175 198 0
175 198 0
175 198 0
175 198 0
175 198 0
176 198 0
175 198 0
173 197 0
174 197 0
174 198 0
174 197 0
173 197 0
174 198 0
176 199 0
174 198 0
173 197 0
173 197 0
173 196 0
175 198 0
173 197 0
174 197 0
174 198 0
173 197 0
174 197 0
174 197 0
174 197 0
173 197 0
174 198 0
173 196 0
177 199 0
173 197 0
174 198 0
175 198 0
176 198 0
175 198 0
174 197 0
174 197 0
174 197 0
175 198 0
175 197 0
174 197 0
173 196 0
174 198 0
175 198 0
174 198 0
173 197 0
174 198 0
173 197 0
175 198 0
177 199 0
175 198 0
175 198 0
174 198 0
174 198 0
175 198 0
174 198 0
175 198 0
175 198 0
173 197 0
175 198 0
175 198 0
174 198 0
176 199 0
174 198 0
175 198 0
175 198 0
174 198 0
176 199 0
175 198 0
173 197 0
175 198 0
174 197 0
174 198 0
175 198 0
174 197 0
175 198 0
173 197 0
173 197 0
174 198 0
175 198 0
175 198 0
174 197 0
175 198 0
175 198 0
175 198 0
172 196 0
174 198 0
174 198 0
176 198 0
175 198 0
175 198 0
174 198 0
173 197 0
174 198 0
173 196 0
174 197 0
174 198 0
175 198 0
173 197 0
174 198 0
175 198 0
175 198 0
174 198 0
173 197 0
175 198 0
174 197 0
174 197 0
171 195 0
173 197 0
174 197 0
173 197 0
173 197 0
176 199 0
175 198 0
176 199 0
176 198 0
172 195 0
173 197 0
174 198 0
173 197 0
175 198 0
174 197 0
173 197 0
173 196 0
175 198 0
175 198 0
173 197 0
175 198 0
175 198 0
175 198 0
173 197 0
174 197 0
175 198 0
174 197 0
173 197 0
175 198 0
173 197 0
177 199 0
175 198 0
173 197 0
175 198 0
175 198 0
173 197 0
174 197 0
173 196 0
176 198 0
176 199 0
174 198 0
174 198 0
173 197 0
174 197 0
175 198 0
174 198 0
174 197 0
173 197 0
173 197 0
173 197 0
175 198 0
175 198 0
175 197 0
172 195 0
176 198 0
176 198 0
175 198 0
173 196 0
174 197 0
174 197 0
172 196 0
174 197 0
174 197 0
174 198 0
175 198 0
171 195 0
174 197 0
173 196 0
173 196 0
172 196 0
174 198 0
174 198 0
172 197 0
174 198 0
173 197 0
175 198 0
175 198 0
174 198 0
173 196 0
174 198 0
172 196 0
172 195 0
173 197 0
172 196 0
171 195 0
174 197 0
173 197 0
173 197 0
171 195 0
173 197 0
173 197 0
172 196 0
173 197 0
174 197 0
175 198 0
174 197 0
174 197 0
171 195 0
174 198 0
174 197 0
173 197 0
173 197 0
170 194 0
174 197 0
173 197 0
174 197 0
173 197 0
173 196 0
172 196 0
174 196 0
174 197 0
174 197 0
174 197 0
174 197 0
176 199 0
171 194 0
171 195 0
173 197 0
173 196 0
174 197 0
171 195 0
174 197 0
171 194 0
175 198 0
173 196 0
169 192 0
172 196 0
172 195 0
172 196 0
174 197 0
174 197 0
172 196 0
172 195 0
172 195 0
170 193 0
174 197 0
173 196 0
171 194 0
171 195 0
170 193 0
169 193 0
174 196 0
173 197 0
174 197 0
174 198 0
170 194 0
171 194 0
172 196 0
170 194 0
172 195 0
170 195 0
171 195 0
172 196 0
173 196 0
171 194 0
171 195 0
173 196 0
172 196 0
173 197 0
166 190 0
169 193 0
173 197 0
170 193 0
173 196 0
168 191 0
173 195 0
169 193 0
174 196 0
171 193 0
171 194 0
173 197 0
172 196 0
171 195 0
171 195 0
171 193 0
170 193 0
171 195 0
170 194 0
171 195 0
168 192 0
173 196 0
173 196 0
170 193 0
172 195 0
171 194 0
173 195 0
170 193 0
172 196 0
173 197 0
173 197 0
172 196 0
173 196 0
174 197 0
172 195 0
173 196 0
172 195 0
172 195 0
171 194 0
174 197 0
172 195 0
170 194 0
172 195 0
176 199 0
175 198 0
172 196 0
173 196 0
172 195 0
173 196 0
174 197 0
172 196 0
170 193 0
171 194 0
173 197 0
174 197 0
173 197 0
174 198 0
172 195 0
174 198 0
173 196 0
174 197 0
173 196 0
173 196 0
173 196 0
171 194 0
172 195 0
174 197 0
174 197 0
175 198 0
174 198 0
174 197 0
172 195 0
173 197 0
174 196 0
172 195 0
173 197 0
172 196 0
173 197 0
175 198 0
174 197 0
175 198 0
172 195 0
173 196 0
173 197 0
173 197 0
173 196 0
175 198 0
173 196 0
176 198 0
173 197 0
174 197 0
172 196 0
175 198 0
175 198 0
175 198 0
175 197 0
175 198 0
174 197 0
172 196 0
171 195 0
175 198 0
175 198 0
175 198 0
172 196 0
173 197 0
173 197 0
173 197 0
175 198 0
174 197 0
174 197 0
174 197 0
174 197 0
175 198 0
175 197 0
174 197 0
174 197 0
174 197 0
173 197 0
173 197 0
173 197 0
173 197 0
174 197 0
173 196 0
174 197 0
173 197 0
174 197 0
176 198 0
174 197 0
175 198 0
174 198 0
175 198 0
174 197 0
174 197 0
175 198 0
174 197 0
176 198 0
175 198 0
174 198 0
171 195 0
174 198 0
175 197 0
173 197 0
175 198 0
174 198 0
175 198 0
175 198 0
172 196 0
173 197 0
175 198 0
174 197 0
174 197 0
176 198 0
175 198 0
174 197 0
174 197 0
173 197 0
175 198 0
174 198 0
175 198 0
174 197 0
172 196 0
174 198 0
175 198 0
173 197 0
171 196 0
176 199 0
174 197 0
175 198 0
174 198 0
176 199 0
175 198 0
173 197 0
174 198 0
175 198 0
175 198 0
175 198 0
175 198 0
173 197 0
174 197 0
176 198 0
174 198 0
174 197 0
172 196 0
175 198 0
176 199 0
174 198 0
174 198 0
173 197 0
174 197 0
174 198 0
175 198 0
173 197 0
173 197 0
176 198 0
175 197 0
175 198 0
173 197 0
174 198 0
174 197 0
174 198 0
175 198 0
175 198 0
175 198 0
175 198 0
175 198 0
174 198 0
175 198 0
175 198 0
173 197 0
176 199 0
175 198 0
175 198 0
175 198 0
174 197 0
174 197 0
174 197 0
174 197 0
174 198 0
175 198 0
173 197 0
175 198 0
174 197 0
175 198 0
176 198 0
175 197 0
173 197 0
175 198 0
173 197 0
176 199 0
173 197 0
175 198 0
175 198 0
174 198 0
175 198 0
173 197 0
176 199 0
175 198 0
174 198 0
174 198 0
173 197 0
175 198 0
174 198 0
176 199 0
175 198 0
174 198 0
173 197 0
171 196 0
175 198 0
174 198 0
175 198 0
174 198 0
173 197 0
176 198 0
175 198 0
174 197 0
174 198 0
175 198 0
172 196 0
174 197 0
175 198 0
174 198 0
174 198 0
172 196 0
174 197 0
174 197 0
173 197 0
176 198 0
173 197 0
175 198 0
173 197 0
174 198 0
174 197 0
173 197 0
173 197 0
174 197 0
173 197 0
174 197 0
173 196 0
174 198 0
173 197 0
174 197 0
176 199 0
175 198 0
175 198 0
174 198 0
174 198 0
173 197 0
173 197 0
174 198 0
175 198 0
173 197 0
173 197 0
174 198 0
174 198 0
173 197 0
174 198 0
174 197 0
173 197 0
175 198 0
172 195 0
173 197 0
176 199 0
173 196 0
175 198 0
175 198 0
173 197 0
174 198 0
173 197 0
174 197 0
174 197 0
173 197 0
175 198 0
172 197 0
173 197 0
172 196 0
176 198 0
174 198 0
173 197 0
174 197 0
173 197 0
174 197 0
174 198 0
174 197 0
173 197 0
174 198 0
174 198 0
173 197 0
171 195 0
173 197 0
173 197 0
175 198 0
173 196 0
174 197 0
173 196 0
172 196 0
170 194 0
172 196 0
174 198 0
174 197 0
171 195 0
173 197 0
171 196 0
173 196 0
172 196 0
174 198 0
172 196 0
174 197 0
174 197 0
173 197 0
173 196 0
173 196 0
175 197 0
172 196 0
172 195 0
171 195 0
173 197 0
174 197 0
174 197 0
172 196 0
172 196 0
172 196 0
170 194 0
172 195 0
173 196 0
173 196 0
171 195 0
172 195 0
174 197 0
173 196 0
173 196 0
173 196 0
172 195 0
174 197 0
172 195 0
173 197 0
171 194 0
172 195 0
173 197 0
171 194 0
171 195 0
172 195 0
171 195 0
173 196 0
171 195 0
171 194 0
172 195 0
175 197 0
173 197 0
170 195 0
172 195 0
171 194 0
170 193 0
169 194 0
171 195 0
171 195 0
173 197 0
171 195 0
173 196 0
167 191 0
172 196 0
168 192 0
171 195 0
172 195 0
172 196 0
169 193 0
170 194 0
169 193 0
172 196 0
171 194 0
172 195 0
170 194 0
170 194 0
172 196 0
173 196 0
173 197 0
169 194 0
173 196 0
175 198 0
172 195 0
170 193 0
174 197 0
171 194 0
170 193 0
171 195 0
171 194 0
171 195 0
170 193 0
171 195 0
171 194 0
171 194 0
174 198 0
172 196 0
172 195 0
173 196 0
170 194 0
174 198 0
171 194 0
170 193 0
173 197 0
173 196 0
171 195 0
171 195 0
171 195 0
171 194 0
173 196 0
172 195 0
173 197 0
174 196 0
173 196 0
172 196 0
172 195 0
174 197 0
171 195 0
175 197 0
174 197 0
172 195 0
171 195 0
172 195 0
172 195 0
173 196 0
173 197 0
174 197 0
173 196 0
174 196 0
174 197 0
175 198 0
173 196 0
174 197 0
174 197 0
172 196 0
175 197 0
175 197 0
172 195 0
172 195 0
174 198 0
174 197 0
175 198 0
174 197 0
173 197 0
175 198 0
171 194 0
174 197 0
172 196 0
174 197 0
175 198 0
176 199 0
173 196 0
174 198 0
176 198 0
174 197 0
174 198 0
173 197 0
174 198 0
173 197 0
173 196 0
173 196 0
174 197 0
174 197 0
173 196 0
172 195 0
172 196 0
175 197 0
173 196 0
173 197 0
170 195 0
173 197 0
174 198 0
174 197 0
172 196 0
173 197 0
174 198 0
173 197 0
174 197 0
174 197 0
176 199 0
173 196 0
171 196 0
174 197 0
174 198 0
173 197 0
173 197 0
174 197 0
173 197 0
173 197 0
174 197 0
175 198 0
174 197 0
173 197 0
173 197 0
173 197 0
175 198 0
173 196 0
172 196 0
174 197 0
174 197 0
175 198 0
173 197 0
174 198 0
174 197 0
175 198 0
174 198 0
173 197 0
174 198 0
175 198 0
175 198 0
173 197 0
173 196 0
174 198 0
175 198 0
174 197 0
172 196 0
175 198 0
174 197 0
175 198 0
174 197 0
176 198 0
174 198 0
172 196 0
173 197 0
174 197 0
173 197 0
172 196 0
175 198 0
174 197 0
173 197 0
175 197 0
173 197 0
176 198 0
174 198 0
174 197 0
174 198 0
174 197 0
175 198 0
175 198 0
173 197 0
174 197 0
174 197 0
174 198 0
175 198 0
174 198 0
176 199 0
174 198 0
176 198 0
176 199 0
174 198 0
173 197 0
176 198 0
175 198 0
174 198 0
175 198 0
176 199 0
175 198 0
175 198 0
175 198 0
174 198 0
175 198 0
175 198 0
174 198 0
174 198 0
175 198 0
174 197 0
174 197 0
175 198 0
173 197 0
174 198 0
172 196 0
175 198 0
176 198 0
173 197 0
175 197 0
175 198 0
173 197 0
173 197 0
174 197 0
174 197 0
175 198 0
175 198 0
175 198 0
174 198 0
173 197 0
176 199 0
175 198 0
173 197 0
174 198 0
173 197 0
174 197 0
175 198 0
174 197 0
175 198 0
174 197 0
172 197 0
172 196 0
173 197 0
175 198 0
175 198 0
174 198 0
173 197 0
174 198 0
175 198 0
174 198 0
174 198 0
176 198 0
174 197 0
174 197 0
175 198 0
173 197 0
173 197 0
172 195 0
176 198 0
175 198 0
174 197 0
174 197 0
175 198 0
173 197 0
176 199 0
175 198 0
174 198 0
175 198 0
174 198 0
176 199 0
175 198 0
173 197 0
174 197 0
175 198 0
174 198 0
175 198 0
174 198 0
174 197 0
174 197 0
176 199 0
174 198 0
174 197 0
174 198 0
173 197 0
174 198 0
174 197 0
174 197 0
174 197 0
172 196 0
174 197 0
175 198 0
172 196 0
174 197 0
173 197 0
174 197 0
174 197 0
175 198 0
173 197 0
176 198 0
176 199 0
174 197 0
175 198 0
174 197 0
175 198 0
173 197 0
173 197 0
173 197 0
173 197 0
173 197 0
174 198 0
172 196 0
175 198 0
175 198 0
175 198 0
173 197 0
172 196 0
174 197 0
175 198 0
173 197 0
175 198 0
173 197 0
174 197 0
173 197 0
174 198 0
175 198 0
175 198 0
174 198 0
173 197 0
173 197 0
173 197 0
172 196 0
173 197 0
173 197 0
175 198 0
174 197 0
174 197 0
175 198 0
172 195 0
173 196 0
173 197 0
173 196 0
174 198 0
169 194 0
171 195 0
171 195 0
172 196 0
172 196 0
173 197 0
174 197 0
174 198 0
173 196 0
172 195 0
173 197 0
171 195 0
174 198 0
173 197 0
170 194 0
173 197 0
171 195 0
172 196 0
174 197 0
174 197 0
173 196 0
173 197 0
174 197 0
173 196 0
173 197 0
170 194 0
174 198 0
171 194 0
173 197 0
172 196 0
172 195 0
172 195 0
169 193 0
171 194 0
169 192 0
171 194 0
174 198 0
173 196 0
170 194 0
174 197 0
174 197 0
174 197 0
172 195 0
173 197 0
169 194 0
171 195 0
172 196 0
174 197 0
174 197 0
169 193 0
173 196 0
170 193 0
171 195 0
172 195 0
174 197 0
172 196 0
171 195 0
171 194 0
169 193 0
173 196 0
171 194 0
170 195 0
170 193 0
173 197 0
171 195 0
171 194 0
170 193 0
172 195 0
173 196 0
171 195 0
172 196 0
169 192 0
171 195 0
174 197 0
173 196 0
172 196 0
169 192 0
172 196 0
172 195 0
172 195 0
170 193 0
174 197 0
171 194 0
171 194 0
173 197 0
173 197 0
172 196 0
174 198 0
173 196 0
171 196 0
171 195 0
170 193 0
172 195 0
170 194 0
171 195 0
174 197 0
173 196 0
173 196 0
172 196 0
172 196 0
172 195 0
172 196 0
174 198 0
171 194 0
172 196 0
174 197 0
173 197 0
174 197 0
171 194 0
172 196 0
170 194 0
173 196 0
173 196 0
173 196 0
173 197 0
174 198 0
174 197 0
172 195 0
173 197 0
171 195 0
173 197 0
173 196 0
173 195 0
173 196 0
172 195 0
175 198 0
174 197 0
171 195 0
171 195 0
173 196 0
172 196 0
173 196 0
173 196 0
173 196 0
172 195 0
175 198 0
173 197 0
173 197 0
174 197 0
175 198 0
171 195 0
172 196 0
174 197 0
175 198 0
173 196 0
174 198 0
175 198 0
173 197 0
174 197 0
175 198 0
175 198 0
173 196 0
172 196 0
174 198 0
175 197 0
173 197 0
173 196 0
174 198 0
175 198 0
174 197 0
174 197 0
174 197 0
172 196 0
174 197 0
173 197 0
173 197 0
174 198 0
173 196 0
174 197 0
175 198 0
174 197 0
174 198 0
175 198 0
174 198 0
174 198 0
173 197 0
174 198 0
174 198 0
174 197 0
174 197 0
174 198 0
174 198 0
173 196 0
174 198 0
174 198 0
173 197 0
175 198 0
175 198 0
174 197 0
173 196 0
175 198 0
173 197 0
173 197 0
173 196 0
173 197 0
171 195 0
173 196 0
173 197 0
173 196 0
173 197 0
174 197 0
172 196 0
175 198 0
174 197 0
173 197 0
176 198 0
175 198 0
175 198 0
173 197 0
174 198 0
175 198 0
174 197 0
173 196 0
174 198 0
174 197 0
172 196 0
175 198 0
173 196 0
176 199 0
172 197 0
174 198 0
174 198 0
174 197 0
176 199 0
175 198 0
174 198 0
173 197 0
173 197 0
174 198 0
176 199 0
174 198 0
175 198 0
175 198 0
175 198 0
175 198 0
174 197 0
174 198 0
174 198 0
174 198 0
175 198 0
174 198 0
174 198 0
174 198 0
174 197 0
175 198 0
174 197 0
174 197 0
176 198 0
174 197 0
173 197 0
174 197 0
177 199 0
174 198 0
173 197 0
174 198 0
174 197 0
174 197 0
175 198 0
173 197 0
175 198 0
174 198 0
173 197 0
173 197 0
175 198 0
175 198 0
175 198 0
174 198 0
173 197 0
173 197 0
175 198 0
173 197 0
173 197 0
175 198 0
175 198 0
174 198 0
174 198 0
175 198 0
173 196 0
174 197 0
174 198 0
175 198 0
175 198 0
175 198 0
174 197 0
174 197 0
175 198 0
172 196 0
174 197 0
174 198 0
173 197 0
176 199 0
174 198 0
173 197 0
174 198 0
174 198 0
174 197 0
174 197 0
174 197 0
174 198 0
177 199 0
174 198 0
173 197 0
175 198 0
173 197 0
175 198 0
172 196 0
175 197 0
173 197 0
175 198 0
174 197 0
173 196 0
174 197 0
174 198 0
174 197 0
175 198 0
175 198 0
173 197 0
175 198 0
173 197 0
172 196 0
174 198 0
174 197 0
174 198 0
173 197 0
175 198 0
174 197 0
173 196 0
174 197 0
175 198 0
175 198 0
174 198 0
173 197 0
173 197 0
173 197 0
174 197 0
173 197 0
174 198 0
172 196 0
174 197 0
174 198 0
172 196 0
175 198 0
173 197 0
174 197 0
174 198 0
174 198 0
174 197 0
174 198 0
173 197 0
173 197 0
173 197 0
175 198 0
176 199 0
174 198 0
174 197 0
175 198 0
174 197 0
175 197 0
174 197 0
173 196 0
174 197 0
174 197 0
173 197 0
176 199 0
175 198 0
174 197 0
175 198 0
174 198 0
173 196 0
175 198 0
174 198 0
173 197 0
173 197 0
172 196 0
173 197 0
174 198 0
173 197 0
174 198 0
173 197 0
174 197 0
175 198 0
174 197 0
173 197 0
175 198 0
175 198 0
172 196 0
174 198 0
171 195 0
175 198 0
174 197 0
174 197 0
174 197 0
174 197 0
175 198 0
174 197 0
175 198 0
175 198 0
174 198 0
173 197 0
172 196 0
174 197 0
173 197 0
173 197 0
175 198 0
172 196 0
176 198 0
172 196 0
173 197 0
173 197 0
173 197 0
175 198 0
174 197 0
175 198 0
173 196 0
171 195 0
172 195 0
172 195 0
172 196 0
172 196 0
173 197 0
172 196 0
173 196 0
173 196 0
172 195 0
174 197 0
173 196 0
171 195 0
173 196 0
169 193 0
174 197 0
168 192 0
172 195 0
171 194 0
174 197 0
173 197 0
174 197 0
171 195 0
172 196 0
172 196 0
173 196 0
171 195 0
171 194 0
171 194 0
174 197 0
173 196 0
171 194 0
173 197 0
175 198 0
171 195 0
170 195 0
173 195 0
173 195 0
171 194 0
171 194 0
171 194 0
174 197 0
169 192 0
173 196 0
172 195 0
173 196 0
169 193 0
171 195 0
171 195 0
169 193 0
172 195 0
171 195 0
172 195 0
170 193 0
171 194 0
171 194 0
172 196 0
170 193 0
173 197 0
171 195 0
172 195 0
173 196 0
172 196 0
172 196 0
170 194 0
170 194 0
173 197 0
169 193 0
174 198 0
171 195 0
172 195 0
171 194 0
171 195 0
173 197 0
171 194 0
169 192 0
171 194 0
173 197 0
175 198 0
171 195 0
172 196 0
174 197 0
172 195 0
172 195 0
171 194 0
171 194 0
174 196 0
172 195 0
172 195 0
173 196 0
172 195 0
172 195 0
172 195 0
170 194 0
172 196 0
173 196 0
171 195 0
172 196 0
172 195 0
173 196 0
172 195 0
172 195 0
172 195 0
171 196 0
172 196 0
172 195 0
172 196 0
174 196 0
173 196 0
172 196 0
172 196 0
171 194 0
174 197 0
175 198 0
174 197 0
174 197 0
174 198 0
173 196 0
171 195 0
173 196 0
175 198 0
175 198 0
174 197 0
173 196 0
176 199 0
174 197 0
174 197 0
173 197 0
173 197 0
173 197 0
174 198 0
174 197 0
174 197 0
174 198 0
175 197 0
172 196 0
174 197 0
174 197 0
172 196 0
173 197 0
174 198 0
173 196 0
174 198 0
174 197 0
174 198 0
174 197 0
172 195 0
175 198 0
175 198 0
172 195 0
175 198 0
175 198 0
176 198 0
173 197 0
174 197 0
174 197 0
174 197 0
176 198 0
172 196 0
175 198 0
174 197 0
174 197 0
172 196 0
174 197 0
173 196 0
173 197 0
175 198 0
173 197 0
174 197 0
174 197 0
174 197 0
175 198 0
174 197 0
174 197 0
174 197 0
174 197 0
174 198 0
175 198 0
173 196 0
174 197 0
174 198 0
175 198 0
174 198 0
174 198 0
173 197 0
173 197 0
174 198 0
174 197 0
174 197 0
176 199 0
172 195 0
174 197 0
174 198 0
175 198 0
175 198 0
174 197 0
173 197 0
174 198 0
172 196 0
175 198 0
174 197 0
173 197 0
174 197 0
174 198 0
173 197 0
172 196 0
174 198 0
175 198 0
173 197 0
172 196 0
174 197 0
174 197 0
175 198 0
174 197 0
175 198 0
174 198 0
175 198 0
174 198 0
175 198 0
174 198 0
174 197 0
174 197 0
174 198 0
174 197 0
174 198 0
176 199 0
172 196 0
175 198 0
174 197 0
173 196 0
174 198 0
175 198 0
173 197 0
175 198 0
176 199 0
175 198 0
174 197 0
175 198 0
176 198 0
172 196 0
176 198 0
175 198 0
176 199 0
173 197 0
173 197 0
172 197 0
174 197 0
175 198 0
175 198 0
173 197 0
174 198 0
174 197 0
173 196 0
174 197 0
176 199 0
175 198 0
175 198 0
174 197 0
176 198 0
175 198 0
175 198 0
175 198 0
174 198 0
175 198 0
174 198 0
174 198 0
177 199 0
173 197 0
175 198 0
174 197 0
174 198 0
173 197 0
175 198 0
175 198 0
174 197 0
175 198 0
174 197 0
175 198 0
172 196 0
175 198 0
173 197 0
175 198 0
174 197 0
175 198 0
175 198 0
174 198 0
174 198 0
174 197 0
174 198 0
175 198 0
173 197 0
174 198 0
173 197 0
173 196 0
175 198 0
175 197 0
173 197 0
175 198 0
173 197 0
175 198 0
173 197 0
174 197 0
174 197 0
175 198 0
174 197 0
174 198 0
174 198 0
174 198 0
174 197 0
174 198 0
174 197 0
177 199 0
174 198 0
174 198 0
173 197 0
175 198 0
174 197 0
174 197 0
175 198 0
173 197 0
174 197 0
175 198 0
174 198 0
176 199 0
175 198 0
175 198 0
174 197 0
174 198 0
175 198 0
173 197 0
175 198 0
174 197 0
174 198 0
172 196 0
174 198 0
173 197 0
174 197 0
174 197 0
174 197 0
170 194 0
173 196 0
173 197 0
174 198 0
175 198 0
173 197 0
174 197 0
173 197 0
174 197 0
173 197 0
171 195 0
173 197 0
174 198 0
173 196 0
175 198 0
175 198 0
173 197 0
174 198 0
174 197 0
172 196 0
173 197 0
175 198 0
174 197 0
174 197 0
174 198 0
174 198 0
172 196 0
171 195 0
172 196 0
174 197 0
174 198 0
174 197 0
173 197 0
176 198 0
175 198 0
173 197 0
174 198 0
174 197 0
173 196 0
174 198 0
173 197 0
173 196 0
173 197 0
174 197 0
173 196 0
174 197 0
171 195 0
174 197 0
173 196 0
170 193 0
174 197 0
173 196 0
173 197 0
172 196 0
172 196 0
176 199 0
172 196 0
172 195 0
174 197 0
172 195 0
173 196 0
173 197 0
173 197 0
172 196 0
172 196 0
171 195 0
174 197 0
172 196 0
172 196 0
174 198 0
175 198 0
173 196 0
174 198 0
170 193 0
172 195 0
172 195 0
172 195 0
171 194 0
171 195 0
173 196 0
174 198 0
172 195 0
171 194 0
169 193 0
172 195 0
173 197 0
174 198 0
172 196 0
173 196 0
172 196 0
171 194 0
172 196 0
170 192 0
173 197 0
171 195 0
173 196 0
172 195 0
171 194 0
173 196 0
169 192 0
173 197 0
173 196 0
171 195 0
174 197 0
170 193 0
174 198 0
173 197 0
173 197 0
174 197 0
174 197 0
173 197 0
173 196 0
172 195 0
173 197 0
170 194 0
170 193 0
169 193 0
173 196 0
173 196 0
173 196 0
171 194 0
172 196 0
173 196 0
172 196 0
174 197 0
171 195 0
172 196 0
175 197 0
171 195 0
171 195 0
172 195 0
171 195 0
171 194 0
169 193 0
174 198 0
171 194 0
171 194 0
172 195 0
172 195 0
172 195 0
174 197 0
170 193 0
171 195 0
174 197 0
171 195 0
172 196 0
175 198 0
173 197 0
173 197 0
174 197 0
173 196 0
172 195 0
172 195 0
173 196 0
176 198 0
173 196 0
174 197 0
172 194 0
173 197 0
174 198 0
172 195 0
172 196 0
175 198 0
172 195 0
173 196 0
173 196 0
173 196 0
171 194 0
173 196 0
172 195 0
172 196 0
174 197 0
171 195 0
173 195 0
169 193 0
173 195 0
172 196 0
175 198 0
172 195 0
173 196 0
174 197 0
174 197 0
174 197 0
173 197 0
174 198 0
173 197 0
173 196 0
173 196 0
173 196 0
173 197 0
173 197 0
173 197 0
174 197 0
174 197 0
173 197 0
174 197 0
174 197 0
173 196 0
171 195 0
171 195 0
174 197 0
174 197 0
173 197 0
173 197 0
173 197 0
174 198 0
175 197 0
174 197 0
175 198 0
173 197 0
174 197 0
173 197 0
175 198 0
174 197 0
174 198 0
172 196 0
174 197 0
171 195 0
173 197 0
175 198 0
175 198 0
173 197 0
175 198 0
172 195 0
174 198 0
173 197 0
174 197 0
175 198 0
174 198 0
175 198 0
175 198 0
174 197 0
174 197 0
175 198 0
175 198 0
174 198 0
173 197 0
172 197 0
176 199 0
175 198 0
175 198 0
175 198 0
174 198 0
173 196 0
173 197 0
174 198 0
174 197 0
176 198 0
174 197 0
175 197 0
174 197 0
175 197 0
173 196 0
174 197 0
172 196 0
174 197 0
175 198 0
175 198 0
174 197 0
175 198 0
175 198 0
174 197 0
173 197 0
174 197 0
173 196 0
175 198 0
174 197 0
176 198 0
173 197 0
175 198 0
174 197 0
175 198 0
173 197 0
173 197 0
174 198 0
173 197 0
174 197 0
176 199 0
176 198 0
174 197 0
175 198 0
172 196 0
174 198 0
175 198 0
176 199 0
174 198 0
174 197 0
174 198 0
173 197 0
174 198 0
174 198 0
173 197 0
174 198 0
175 198 0
175 198 0
174 197 0
174 198 0
174 197 0
177 199 0
175 198 0
175 198 0
175 198 0
173 197 0
174 198 0
174 198 0
174 197 0
174 197 0
175 198 0
174 197 0
175 198 0
173 196 0
174 197 0
173 197 0
174 197 0
173 197 0
175 198 0
175 198 0
175 198 0
174 198 0
174 198 0
176 198 0
175 198 0
174 198 0
173 197 0
173 197 0
174 198 0
175 198 0
175 198 0
175 198 0
173 197 0
173 197 0
173 197 0
176 199 0
175 198 0
175 198 0
174 198 0
173 197 0
173 196 0
173 196 0
175 198 0
175 198 0
175 198 0
173 197 0
173 197 0
174 198 0
174 197 0
174 198 0
175 198 0
174 197 0
173 197 0
176 199 0
174 198 0
175 198 0
174 198 0
173 197 0
176 199 0
174 198 0
173 197 0
175 198 0
176 198 0
174 197 0
175 198 0
176 199 0
173 197 0
172 196 0
173 197 0
173 197 0
174 197 0
174 197 0
174 197 0
174 197 0
174 197 0
173 197 0
175 198 0
175 198 0
173 197 0
174 198 0
175 198 0
174 198 0
175 198 0
176 198 0
175 198 0
175 198 0
173 197 0
175 198 0
174 198 0
173 197 0
173 197 0
174 198 0
174 198 0
175 197 0
176 199 0
174 198 0
173 196 0
175 198 0
173 197 0
175 198 0
174 198 0
174 197 0
172 196 0
172 196 0
173 197 0
172 196 0
175 198 0
174 198 0
174 197 0
175 198 0
174 198 0
174 197 0
173 196 0
171 195 0
173 197 0
174 198 0
174 198 0
173 197 0
174 197 0
172 196 0
173 197 0
174 197 0
173 197 0
175 198 0
173 197 0
174 198 0
172 195 0
172 195 0
174 198 0
172 196 0
174 197 0
173 197 0
175 198 0
173 197 0
176 199 0
174 197 0
174 198 0
172 195 0
171 195 0
173 197 0
173 196 0
178 199 0
174 197 0
173 197 0
173 196 0
174 198 0
174 197 0
173 196 0
173 197 0
175 198 0
174 198 0
172 196 0
173 197 0
172 196 0
176 198 0
174 197 0
172 196 0
173 197 0
171 195 0
174 198 0
174 198 0
174 198 0
174 197 0
172 196 0
173 196 0
174 197 0
172 196 0
173 196 0
174 198 0
172 196 0
173 197 0
171 194 0
173 196 0
173 197 0
173 196 0
173 197 0
172 195 0
174 198 0
172 196 0
172 196 0
174 197 0
172 196 0
172 195 0
172 195 0
176 199 0
172 196 0
173 197 0
173 197 0
172 197 0
173 196 0
172 196 0
171 196 0
172 195 0
171 194 0
172 196 0
172 195 0
171 194 0
170 194 0
173 196 0
168 192 0
170 194 0
170 194 0
172 196 0
174 197 0
172 195 0
174 197 0
172 196 0
172 195 0
173 197 0
172 195 0
171 195 0
173 196 0
170 194 0
171 195 0
171 196 0
174 197 0
171 195 0
173 196 0
171 195 0
171 193 0
174 198 0
172 195 0
171 195 0
173 197 0
172 195 0
170 194 0
170 194 0
171 195 0
172 195 0
173 196 0
172 195 0
172 195 0
171 194 0
174 197 0
175 198 0
174 198 0
173 196 0
173 197 0
174 198 0
170 195 0
172 196 0
170 193 0
170 194 0
173 196 0
173 197 0
173 197 0
168 192 0
172 195 0
173 196 0
171 195 0
171 194 0
173 196 0
172 195 0
174 197 0
171 193 0
171 195 0
174 197 0
171 195 0
172 196 0
172 196 0
174 198 0
173 196 0
174 197 0
173 197 0
172 196 0
173 196 0
173 196 0
174 197 0
173 196 0
172 196 0
176 199 0
172 196 0
172 196 0
173 196 0
173 196 0
174 197 0
172 195 0
173 197 0
172 196 0
171 194 0
174 198 0
172 196 0
174 196 0
171 195 0
175 198 0
172 195 0
173 196 0
174 197 0
171 195 0
172 196 0
174 197 0
173 197 0
174 198 0
172 195 0
172 196 0
174 197 0
175 198 0
173 196 0
174 197 0
173 196 0
174 198 0
172 195 0
171 194 0
175 197 0
175 198 0
173 197 0
170 194 0
174 197 0
171 195 0
171 195 0
172 196 0
173 196 0
173 197 0
174 197 0
174 197 0
173 197 0
174 197 0
173 196 0
175 198 0
176 198 0
175 198 0
173 196 0
174 197 0
174 198 0
174 197 0
174 197 0
174 198 0
173 196 0
173 196 0
176 198 0
174 197 0
173 197 0
174 198 0
173 197 0
175 198 0
172 196 0
173 196 0
174 197 0
175 198 0
173 196 0
174 197 0
175 198 0
175 198 0
175 198 0
174 197 0
174 197 0
174 198 0
174 198 0
174 197 0
175 198 0
173 197 0
173 197 0
173 197 0
174 197 0
174 197 0
173 196 0
174 197 0
175 198 0
175 198 0
174 197 0
173 197 0
173 197 0
173 197 0
175 198 0
175 198 0
174 197 0
175 198 0
174 198 0
175 198 0
174 197 0
175 198 0
175 198 0
175 198 0
173 197 0
173 197 0
175 198 0
174 197 0
174 198 0
175 198 0
174 198 0
175 198 0
174 198 0
175 198 0
173 197 0
174 198 0
173 197 0
174 197 0
174 198 0
174 198 0
174 197 0
171 196 0
174 198 0
173 197 0
174 197 0
173 197 0
173 197 0
174 197 0
174 197 0
174 197 0
174 198 0
174 198 0
174 198 0
175 198 0
173 197 0
175 198 0
173 197 0
174 198 0
173 197 0
175 198 0
176 198 0
175 198 0
173 197 0
175 198 0
176 199 0
175 198 0
175 198 0
174 198 0
175 198 0
173 197 0
176 199 0
174 197 0
174 198 0
174 197 0
174 198 0
175 198 0
174 197 0
175 198 0
174 198 0
173 197 0
173 197 0
174 198 0
175 198 0
176 199 0
175 198 0
174 198 0
175 198 0
174 197 0
173 197 0
174 197 0
174 198 0
175 198 0
175 198 0
174 197 0
173 197 0
174 198 0
175 198 0
175 198 0
176 199 0
174 198 0
175 198 0
173 197 0
175 198 0
171 195 0
175 198 0
173 197 0
173 197 0
175 198 0
173 196 0
174 198 0
175 198 0
175 198 0
174 197 0
173 197 0
174 197 0
174 197 0
175 198 0
174 198 0
174 198 0
176 199 0
175 198 0
174 198 0
174 197 0
173 197 0
173 196 0
174 197 0
172 196 0
176 199 0
175 198 0
173 197 0
174 198 0
173 197 0
175 198 0
174 198 0
176 199 0
174 198 0
176 198 0
174 197 0
173 197 0
174 197 0
173 196 0
175 198 0
173 197 0
172 196 0
176 198 0
174 198 0
174 198 0
173 197 0
173 197 0
173 197 0
174 197 0
175 198 0
174 198 0
173 197 0
173 197 0
173 197 0
174 198 0
172 196 0
173 196 0
174 197 0
174 197 0
173 197 0
174 198 0
175 198 0
173 197 0
174 198 0
173 197 0
173 197 0
174 198 0
174 198 0
174 197 0
174 198 0
173 197 0
172 196 0
172 196 0
172 196 0
175 198 0
173 197 0
174 197 0
174 197 0
173 196 0
174 198 0
172 196 0
174 197 0
174 197 0
174 197 0
174 198 0
173 197 0
173 197 0
173 197 0
173 196 0
173 197 0
176 198 0
176 198 0
174 197 0
174 197 0
174 197 0
174 197 0
173 197 0
174 197 0
171 195 0
173 196 0
174 197 0
174 198 0
173 197 0
174 197 0
172 197 0
175 198 0
174 197 0
173 197 0
171 195 0
171 194 0
173 196 0
174 197 0
173 196 0
175 198 0
174 198 0
172 196 0
171 196 0
173 197 0
174 197 0
173 196 0
171 195 0
174 197 0
173 197 0
173 197 0
174 198 0
172 197 0
173 196 0
173 197 0
175 198 0
173 197 0
172 197 0
174 197 0
172 196 0
170 193 0
173 197 0
173 196 0
175 198 0
171 195 0
171 195 0
173 196 0
173 196 0
171 195 0
173 196 0
173 197 0
169 193 0
173 196 0
172 195 0
173 197 0
172 196 0
0 0 0
173 195 0
171 193 0
169 194 0
172 195 0
174 196 0
173 196 0
172 196 0
174 197 0
173 195 0
172 196 0
170 194 0
171 194 0
172 196 0
173 196 0
170 194 0
172 196 0
169 192 0
173 197 0
171 195 0
171 195 0
171 194 0
172 195 0
172 194 0
173 197 0
173 196 0
173 196 0
169 193 0
168 191 0
172 195 0
173 196 0
171 194 0
170 194 0
171 195 0
169 192 0
171 194 0
172 195 0
171 195 0
172 195 0
171 193 0
169 193 0
173 197 0
170 193 0
171 194 0
171 194 0
169 193 0
171 195 0
171 195 0
171 195 0
174 196 0
173 197 0
172 195 0
174 197 0
173 197 0
174 197 0
173 196 0
171 195 0
172 196 0
172 196 0
173 197 0
172 195 0
171 194 0
172 196 0
174 197 0
172 196 0
174 197 0
172 196 0
173 197 0
172 196 0
174 197 0
173 197 0
173 197 0
174 197 0
172 195 0
174 197 0
173 197 0
172 195 0
173 196 0
172 195 0
172 195 0
172 196 0
172 196 0
174 197 0
173 196 0
172 196 0
171 194 0
172 196 0
171 195 0
175 198 0
173 197 0
175 198 0
172 196 0
173 197 0
172 196 0
175 198 0
173 197 0
174 197 0
172 196 0
173 196 0
173 196 0
174 198 0
173 197 0
173 197 0
172 197 0
175 198 0
173 196 0
173 197 0
172 196 0
174 198 0
172 195 0
174 197 0
174 197 0
174 197 0
174 197 0
173 197 0
174 197 0
174 197 0
175 198 0
174 197 0
174 198 0
172 195 0
174 198 0
174 198 0
174 197 0
175 198 0
174 198 0
174 197 0
174 198 0
174 197 0
172 195 0
174 197 0
174 198 0
174 197 0
174 197 0
175 198 0
174 197 0
171 195 0
173 197 0
174 197 0
174 198 0
174 198 0
173 197 0
175 198 0
175 197 0
171 195 0
174 197 0
172 196 0
174 197 0
173 196 0
173 197 0
173 197 0
173 197 0
174 197 0
173 197 0
174 198 0
174 196 0
175 198 0
173 197 0
173 196 0
174 197 0
174 198 0
175 198 0
174 197 0
175 198 0
175 198 0
175 198 0
175 198 0
174 198 0
173 197 0
172 196 0
173 197 0
174 197 0
174 197 0
173 197 0
173 197 0
174 197 0
174 198 0
173 197 0
175 198 0
175 198 0
173 197 0
175 198 0
175 198 0
175 198 0
175 198 0
175 198 0
174 198 0
175 198 0
175 198 0
173 197 0
174 197 0
174 198 0
173 197 0
174 198 0
174 197 0
173 197 0
174 198 0
172 196 0
174 198 0
175 198 0
175 198 0
175 198 0
176 198 0
175 198 0
175 198 0
174 198 0
175 198 0
175 198 0
176 199 0
173 197 0
174 198 0
174 198 0
174 198 0
175 198 0
174 198 0
173 196 0
174 198 0
173 197 0
175 198 0
174 198 0
175 198 0
173 197 0
174 198 0
174 198 0
175 198 0
172 196 0
175 198 0
175 198 0
174 197 0
176 198 0
175 198 0
176 198 0
174 197 0
175 198 0
173 197 0
175 198 0
175 198 0
175 198 0
174 198 0
174 197 0
176 198 0
175 198 0
174 198 0
174 198 0
176 198 0
174 198 0
172 196 0
173 197 0
175 198 0
173 197 0
175 198 0
174 198 0
173 197 0
175 198 0
174 197 0
174 197 0
174 197 0
176 198 0
173 197 0
175 198 0
174 197 0
175 198 0
172 196 0
173 197 0
175 198 0
174 197 0
176 199 0
176 198 0
174 197 0
173 197 0
173 197 0
175 198 0
174 198 0
174 198 0
173 197 0
176 199 0
174 198 0
174 198 0
175 198 0
173 196 0
174 198 0
174 198 0
175 198 0
176 199 0
174 198 0
173 197 0
175 198 0
173 197 0
175 198 0
174 197 0
174 197 0
173 197 0
176 199 0
174 197 0
175 198 0
174 198 0
176 199 0
174 198 0
173 197 0
174 198 0
172 196 0
176 199 0
174 198 0
174 198 0
174 198 0
173 197 0
172 197 0
173 197 0
172 197 0
174 198 0
175 198 0
174 197 0
173 196 0
175 198 0
173 197 0
173 196 0
173 196 0
175 198 0
173 197 0
174 197 0
175 198 0
173 196 0
174 198 0
173 197 0
174 198 0
173 197 0
176 199 0
172 196 0
173 196 0
173 197 0
174 197 0
173 197 0
174 198 0
175 198 0
175 198 0
175 198 0
171 196 0
170 195 0
172 195 0
173 197 0
175 197 0
172 196 0
174 197 0
174 197 0
173 196 0
173 197 0
174 197 0
176 199 0
174 198 0
174 198 0
173 197 0
174 197 0
173 197 0
172 197 0
172 196 0
172 196 0
176 199 0
171 195 0
174 198 0
174 197 0
173 197 0
175 198 0
171 196 0
172 195 0
172 196 0
176 198 0
172 196 0
170 194 0
176 199 0
172 196 0
172 196 0
171 195 0
173 197 0
175 197 0
175 198 0
175 198 0
174 197 0
171 195 0
173 197 0
172 196 0
172 196 0
170 194 0
172 197 0
171 195 0
173 197 0
173 196 0
172 195 0
171 195 0
173 196 0
175 198 0
174 197 0
172 196 0
172 196 0
173 196 0
171 195 0
173 197 0
172 196 0
170 194 0
171 195 0
172 196 0
171 195 0
171 195 0
172 196 0
169 193 0
172 196 0
172 195 0
170 195 0
172 195 0
170 193 0
169 192 0
171 195 0
173 197 0
173 196 0
173 197 0
171 195 0
173 196 0
173 196 0
171 194 0
169 193 0
168 192 0
174 197 0
174 197 0
174 197 0
172 196 0
171 195 0
172 196 0
171 194 0
169 192 0
169 193 0
175 197 0
173 197 0
172 196 0
172 195 0
173 196 0
175 198 0
170 194 0
172 195 0
172 195 0
171 195 0
172 195 0
173 197 0
174 197 0
172 196 0
171 195 0
172 196 0
172 196 0
172 195 0
172 196 0
173 196 0
175 198 0
170 194 0
173 197 0
174 197 0
173 196 0
171 195 0
172 196 0
172 195 0
174 197 0
174 197 0
174 197 0
173 197 0
173 197 0
173 197 0
175 198 0
171 194 0
173 196 0
174 197 0
172 196 0
172 195 0
169 193 0
173 196 0
174 197 0
171 194 0
173 196 0
174 197 0
173 197 0
173 197 0
176 198 0
172 195 0
170 193 0
171 195 0
173 196 0
174 197 0
175 198 0
173 196 0
172 195 0
173 197 0
172 196 0
173 197 0
173 196 0
175 198 0
173 196 0
173 196 0
172 195 0
174 197 0
173 197 0
173 197 0
171 195 0
175 198 0
174 197 0
174 197 0
174 197 0
174 197 0
174 197 0
176 198 0
172 195 0
174 198 0
173 197 0
172 195 0
173 197 0
174 197 0
173 196 0
173 196 0
172 195 0
174 197 0
174 197 0
173 196 0
174 198 0
174 198 0
175 197 0
173 196 0
172 196 0
173 197 0
174 197 0
173 197 0
174 198 0
173 197 0
175 198 0
174 197 0
174 198 0
174 198 0
174 197 0
175 198 0
174 198 0
172 195 0
174 198 0
174 198 0
173 196 0
170 194 0
175 198 0
174 197 0
173 196 0
174 197 0
175 197 0
174 198 0
174 197 0
173 197 0
175 198 0
175 198 0
172 196 0
174 198 0
175 198 0
174 198 0
175 198 0
175 198 0
176 199 0
174 197 0
176 198 0
173 196 0
173 197 0
174 197 0
176 198 0
173 197 0
175 198 0
174 198 0
174 198 0
172 196 0
174 197 0
174 198 0
175 198 0
174 197 0
174 198 0
174 197 0
174 198 0
176 199 0
174 198 0
175 198 0
175 198 0
175 198 0
173 197 0
174 198 0
174 198 0
173 197 0
174 198 0
175 198 0
172 195 0
174 198 0
173 197 0
175 198 0
174 198 0
176 198 0
174 197 0
174 197 0
173 197 0
175 198 0
174 197 0
174 197 0
175 198 0
175 198 0
173 197 0
175 198 0
174 197 0
174 197 0
174 198 0
173 197 0
176 199 0
175 198 0
172 196 0
174 198 0
174 198 0
175 198 0
175 198 0
175 198 0
173 197 0
175 198 0
174 198 0
174 198 0
174 197 0
174 198 0
175 198 0
175 198 0
175 198 0
173 196 0
173 197 0
174 197 0
175 198 0
175 198 0
174 197 0
175 198 0
172 196 0
175 198 0
174 198 0
173 197 0
174 198 0
174 198 0
175 198 0
173 197 0
174 198 0
174 198 0
174 198 0
173 197 0
173 197 0
173 196 0
176 198 0
173 197 0
175 198 0
176 198 0
173 196 0
174 198 0
174 198 0
176 198 0
172 196 0
174 198 0
176 199 0
173 197 0
175 198 0
175 198 0
173 197 0
174 198 0
173 196 0
172 196 0
173 197 0
175 198 0
174 197 0
176 199 0
174 197 0
175 198 0
175 198 0
174 197 0
173 197 0
174 198 0
174 197 0
175 198 0
174 197 0
174 198 0
173 196 0
174 198 0
175 198 0
175 198 0
174 197 0
174 197 0
175 198 0
175 198 0
174 198 0
174 198 0
173 197 0
173 197 0
174 198 0
175 198 0
175 198 0
173 197 0
175 198 0
173 197 0
173 197 0
174 198 0
174 198 0
175 198 0
175 198 0
175 198 0
175 198 0
174 197 0
174 198 0
174 197 0
173 197 0
173 197 0
172 196 0
173 197 0
174 197 0
175 198 0
174 198 0
176 199 0
174 197 0
174 198 0
176 198 0
172 197 0
175 198 0
173 196 0
174 198 0
174 198 0
175 198 0
174 198 0
174 197 0
173 197 0
173 197 0
173 197 0
172 195 0
174 198 0
171 195 0
173 197 0
175 198 0
172 196 0
174 198 0
172 195 0
174 197 0
174 197 0
173 197 0
173 197 0
174 197 0
174 198 0
174 197 0
175 198 0
173 197 0
174 197 0
173 196 0
173 197 0
174 197 0
171 196 0
175 198 0
173 197 0
174 197 0
173 196 0
173 196 0
173 196 0
174 198 0
172 196 0
173 197 0
173 196 0
174 198 0
173 196 0
173 197 0
174 197 0
172 195 0
171 194 0
171 195 0
173 196 0
173 197 0
173 197 0
170 194 0
174 197 0
174 198 0
173 197 0
173 196 0
174 197 0
174 197 0
173 196 0
172 196 0
174 198 0
172 196 0
175 198 0
173 197 0
173 197 0
174 197 0
173 196 0
173 196 0
170 195 0
170 194 0
172 196 0
172 195 0
176 198 0
172 196 0
172 196 0
170 193 0
173 197 0
173 197 0
173 197 0
170 193 0
175 198 0
172 196 0
174 196 0
170 193 0
172 195 0
171 195 0
167 191 0
171 195 0
171 195 0
172 195 0
171 195 0
173 196 0
172 195 0
171 195 0
171 195 0
172 195 0
171 193 0
171 194 0
172 196 0
171 195 0
169 193 0
172 195 0
170 194 0
171 194 0
172 196 0
171 195 0
174 198 0
171 193 0
172 196 0
171 194 0
172 196 0
172 196 0
173 196 0
171 194 0
172 196 0
174 197 0
173 196 0
172 195 0
171 195 0
173 196 0
173 196 0
173 197 0
173 196 0
172 195 0
171 194 0
172 196 0
174 197 0
170 194 0
173 196 0
172 196 0
172 195 0
171 195 0
172 195 0
171 195 0
175 198 0
174 197 0
172 196 0
171 194 0
173 197 0
169 193 0
173 195 0
174 197 0
174 198 0
174 197 0
173 197 0
171 194 0
175 198 0
173 197 0
174 197 0
175 198 0
173 195 0
175 198 0
174 197 0
174 198 0
174 197 0
173 197 0
175 198 0
173 197 0
170 194 0
174 197 0
173 196 0
175 198 0
173 197 0
173 196 0
173 197 0
171 196 0
175 198 0
176 198 0
171 195 0
173 197 0
175 198 0
174 197 0
175 198 0
172 194 0
173 197 0
172 195 0
174 198 0
173 196 0
171 194 0
173 196 0
172 196 0
173 196 0
174 196 0
173 197 0
172 195 0
173 197 0
172 195 0
173 196 0
174 197 0
173 196 0
174 197 0
173 197 0
173 197 0
175 198 0
175 198 0
174 197 0
174 197 0
173 196 0
175 198 0
173 197 0
174 197 0
172 196 0
173 196 0
175 198 0
173 197 0
173 197 0
173 197 0
173 197 0
174 197 0
174 197 0
172 196 0
174 198 0
175 198 0
174 198 0
173 196 0
173 197 0
175 197 0
173 197 0
172 196 0
173 197 0
173 197 0
175 198 0
174 198 0
173 197 0
174 198 0
173 197 0
174 197 0
174 198 0
174 198 0
170 194 0
175 198 0
174 198 0
174 198 0
174 198 0
174 197 0
173 197 0
176 199 0
175 197 0
174 198 0
174 198 0
175 198 0
175 198 0
173 197 0
173 197 0
173 197 0
174 198 0
175 198 0
175 198 0
174 198 0
175 198 0
172 196 0
175 198 0
174 198 0
174 198 0
172 196 0
172 196 0
174 197 0
175 198 0
174 197 0
174 198 0
174 197 0
175 198 0
175 198 0
174 197 0
172 196 0
175 198 0
174 198 0
171 195 0
175 198 0
173 197 0
175 198 0
174 197 0
174 198 0
174 198 0
175 198 0
175 198 0
176 199 0
172 196 0
175 198 0
175 198 0
174 198 0
176 198 0
173 197 0
175 198 0
175 198 0
174 197 0
174 197 0
174 197 0
176 198 0
175 198 0
174 197 0
175 198 0
174 197 0
175 198 0
174 198 0
175 198 0
175 198 0
173 197 0
174 198 0
174 197 0
177 199 0
174 198 0
173 197 0
171 195 0
174 197 0
174 198 0
173 197 0
175 198 0
175 198 0
175 198 0
175 198 0
176 199 0
174 198 0
175 198 0
173 197 0
175 198 0
175 198 0
173 197 0
175 198 0
176 199 0
173 197 0
174 198 0
173 197 0
175 198 0
174 197 0
174 197 0
175 198 0
175 198 0
174 197 0
175 198 0
174 198 0
173 197 0
174 198 0
172 196 0
173 197 0
174 197 0
174 198 0
174 198 0
175 198 0
173 197 0
174 198 0
175 198 0
174 198 0
173 197 0
174 197 0
174 197 0
174 198 0
173 197 0
174 197 0
175 198 0
174 198 0
174 197 0
173 197 0
173 197 0
175 198 0
175 198 0
175 198 0
173 197 0
175 198 0
175 198 0
175 198 0
175 198 0
175 198 0
175 198 0
173 197 0
175 198 0
173 197 0
174 198 0
174 198 0
173 197 0
174 197 0
174 197 0
174 198 0
174 197 0
174 197 0
173 197 0
173 197 0
173 197 0
172 197 0
174 198 0
175 198 0
173 197 0
175 198 0
173 197 0
175 198 0
173 197 0
172 196 0
174 198 0
175 198 0
174 197 0
175 198 0
174 197 0
175 198 0
175 198 0
174 198 0
175 198 0
175 198 0
175 198 0
174 197 0
172 196 0
173 197 0
176 198 0
176 198 0
174 198 0
174 198 0
174 198 0
173 196 0
175 198 0
174 197 0
174 197 0
174 198 0
174 197 0
174 197 0
174 198 0
175 198 0
174 197 0
174 197 0
173 196 0
173 197 0
174 197 0
175 198 0
174 198 0
174 198 0
174 197 0
173 196 0
173 197 0
174 198 0
172 196 0
173 196 0
172 196 0
173 196 0
175 198 0
174 197 0
175 198 0
171 196 0
173 196 0
175 198 0
174 198 0
173 196 0
174 197 0
173 196 0
173 196 0
175 198 0
174 198 0
173 197 0
172 196 0
172 196 0
174 197 0
175 198 0
172 196 0
175 198 0
171 195 0
170 194 0
172 195 0
175 198 0
175 198 0
173 196 0
175 197 0
175 197 0
175 198 0
172 196 0
173 197 0
173 197 0
172 196 0
173 196 0
172 195 0
172 195 0
173 196 0
172 195 0
172 197 0
174 198 0
170 194 0
172 194 0
172 196 0
172 196 0
170 194 0
174 196 0
175 198 0
173 196 0
171 195 0
173 196 0
172 195 0
172 195 0
173 197 0
173 196 0
172 196 0
174 197 0
173 196 0
172 196 0
171 194 0
170 193 0
172 196 0
169 194 0
174 197 0
169 193 0
171 195 0
173 197 0
173 196 0
170 193 0
174 197 0
169 193 0
172 195 0
173 197 0
172 196 0
169 193 0
175 198 0
170 194 0
171 194 0
174 197 0
173 196 0
170 193 0
173 197 0
174 197 0
174 197 0
171 194 0
171 194 0
170 194 0
172 194 0
173 196 0
173 196 0
169 193 0
170 194 0
170 194 0
172 196 0
170 194 0
171 195 0
171 194 0
172 196 0
173 196 0
174 197 0
173 197 0
172 195 0
171 195 0
175 198 0
175 198 0
172 196 0
173 196 0
173 196 0
172 195 0
174 197 0
171 195 0
171 194 0
170 194 0
172 194 0
173 197 0
172 195 0
173 197 0
175 197 0
173 197 0
170 193 0
175 197 0
173 197 0
173 196 0
173 197 0
175 197 0
172 196 0
175 198 0
172 195 0
171 194 0
171 195 0
174 197 0
173 196 0
174 198 0
173 196 0
175 198 0
174 197 0
173 197 0
173 196 0
173 196 0
171 195 0
173 197 0
173 195 0
174 197 0
173 196 0
173 196 0
172 195 0
173 196 0
170 194 0
174 197 0
173 197 0
174 197 0
172 196 0
174 197 0
173 197 0
175 197 0
173 197 0
172 195 0
174 197 0
172 195 0
174 197 0
174 198 0
171 195 0
174 197 0
171 195 0
174 197 0
173 197 0
173 196 0
173 196 0
175 198 0
172 196 0
173 197 0
172 196 0
174 197 0
174 198 0
175 198 0
176 198 0
174 197 0
173 197 0
174 198 0
174 197 0
173 197 0
173 197 0
175 198 0
173 197 0
173 197 0
176 198 0
174 197 0
173 196 0
174 197 0
174 198 0
175 198 0
175 198 0
174 198 0
172 196 0
175 197 0
174 197 0
176 199 0
174 197 0
173 197 0
174 198 0
174 198 0
174 198 0
174 198 0
174 197 0
173 196 0
173 197 0
174 198 0
174 197 0
173 197 0
174 197 0
174 198 0
175 198 0
175 198 0
172 196 0
175 198 0
173 196 0
174 198 0
173 197 0
174 198 0
174 198 0
174 198 0
173 197 0
174 198 0
175 198 0
174 198 0
175 198 0
174 198 0
174 198 0
174 197 0
173 197 0
173 197 0
174 198 0
173 197 0
175 198 0
174 198 0
173 197 0
173 197 0
176 199 0
174 198 0
175 198 0
174 198 0
176 198 0
175 198 0
173 197 0
174 198 0
173 197 0
175 198 0
173 197 0
175 198 0
175 198 0
175 198 0
174 197 0
175 198 0
173 197 0
173 197 0
174 197 0
175 198 0
172 196 0
173 197 0
174 198 0
175 198 0
174 198 0
172 197 0
173 196 0
175 198 0
175 198 0
175 198 0
174 197 0
175 198 0
175 198 0
174 198 0
173 197 0
173 196 0
176 198 0
174 198 0
176 199 0
175 198 0
175 198 0
175 198 0
174 197 0
177 199 0
174 197 0
175 198 0
173 197 0
175 198 0
172 196 0
175 198 0
175 198 0
174 198 0
175 198 0
174 198 0
174 198 0
174 198 0
174 198 0
174 198 0
173 197 0
175 198 0
174 198 0
173 197 0
172 197 0
173 197 0
174 197 0
175 198 0
173 197 0
173 197 0
175 198 0
174 197 0
175 198 0
174 198 0
175 198 0
175 198 0
173 197 0
174 198 0
174 198 0
174 198 0
173 197 0
174 197 0
174 198 0
174 198 0
174 198 0
174 197 0
176 199 0
174 197 0
173 196 0
174 198 0
174 198 0
173 197 0
175 198 0
174 197 0
174 197 0
173 196 0
174 198 0
172 197 0
174 198 0
173 197 0
174 198 0
175 198 0
171 196 0
172 197 0
175 198 0
173 197 0
174 197 0
173 196 0
174 198 0
172 196 0
174 197 0
173 196 0
175 198 0
173 196 0
174 197 0
173 197 0
174 198 0
173 197 0
175 198 0
175 198 0
172 196 0
174 197 0
174 197 0
175 198 0
174 198 0
171 196 0
175 197 0
175 198 0
172 196 0
174 198 0
172 196 0
174 198 0
175 198 0
172 196 0
176 199 0
175 198 0
174 197 0
174 198 0
174 197 0
176 198 0
175 198 0
173 197 0
172 196 0
173 197 0
176 198 0
174 198 0
174 198 0
174 198 0
173 197 0
173 197 0
175 198 0
173 197 0
172 196 0
174 198 0
173 197 0
171 195 0
173 196 0
174 198 0
172 196 0
173 197 0
173 196 0
172 196 0
175 198 0
174 197 0
175 198 0
174 198 0
174 198 0
173 196 0
173 197 0
173 196 0
172 196 0
174 198 0
173 197 0
172 196 0
172 195 0
171 195 0
172 196 0
174 197 0
172 196 0
175 198 0
174 197 0
173 197 0
173 197 0
171 195 0
173 197 0
173 196 0
171 196 0
173 196 0
173 196 0
172 196 0
174 197 0
172 195 0
174 198 0
172 196 0
173 196 0
174 197 0
172 196 0
174 198 0
173 196 0
173 196 0
173 196 0
173 196 0
173 197 0
171 195 0
174 198 0
175 197 0
175 198 0
172 195 0
174 196 0
172 196 0
174 196 0
173 197 0
173 196 0
173 196 0
173 197 0
169 192 0
172 194 0
173 197 0
174 197 0
171 195 0
172 195 0
173 197 0
171 194 0
171 195 0
173 196 0
171 194 0
172 195 0
171 195 0
174 198 0
170 194 0
173 196 0
173 196 0
172 196 0
171 195 0
170 194 0
170 193 0
173 196 0
170 194 0
171 195 0
171 194 0
172 195 0
173 197 0
172 195 0
172 195 0
174 198 0
173 196 0
173 197 0
172 195 0
173 196 0
173 196 0
172 196 0
173 196 0
174 197 0
173 196 0
172 195 0
172 196 0
171 193 0
171 195 0
173 197 0
172 196 0
172 195 0
173 197 0
171 194 0
172 195 0
171 195 0
174 197 0
172 196 0
171 195 0
171 195 0
173 196 0
172 196 0
170 194 0
170 194 0
171 194 0
175 198 0
172 194 0
172 196 0
173 196 0
173 196 0
172 196 0
171 195 0
171 195 0
173 195 0
173 197 0
171 194 0
174 197 0
173 196 0
174 198 0
174 197 0
172 196 0
173 197 0
173 195 0
174 197 0
173 196 0
173 197 0
173 196 0
174 197 0
173 196 0
173 197 0
174 198 0
175 198 0
172 196 0
173 197 0
175 198 0
173 197 0
173 196 0
174 197 0
174 197 0
174 196 0
175 198 0
173 197 0
173 196 0
172 196 0
173 196 0
174 198 0
174 198 0
173 196 0
174 197 0
172 195 0
172 196 0
174 198 0
175 198 0
176 199 0
174 198 0
174 198 0
174 198 0
172 196 0
173 196 0
173 197 0
174 197 0
172 196 0
172 195 0
174 197 0
172 196 0
173 196 0
173 196 0
173 196 0
174 198 0
173 197 0
177 199 0
176 199 0
174 197 0
175 198 0
174 198 0
175 198 0
174 197 0
173 197 0
173 196 0
172 196 0
174 198 0
172 196 0
172 196 0
174 197 0
175 198 0
174 198 0
175 198 0
174 197 0
175 198 0
175 198 0
175 198 0
175 198 0
174 198 0
175 198 0
175 198 0
174 198 0
175 198 0
175 198 0
173 196 0
174 197 0
172 196 0
174 198 0
173 197 0
175 198 0
174 198 0
173 196 0
176 198 0
173 197 0
173 197 0
174 197 0
176 198 0
174 198 0
175 198 0
173 197 0
173 197 0
174 198 0
174 197 0
174 198 0
174 197 0
176 199 0
175 198 0
175 198 0
174 197 0
173 197 0
174 197 0
174 197 0
174 197 0
173 197 0
174 197 0
174 197 0
175 198 0
175 198 0
174 198 0
174 197 0
173 197 0
174 198 0
173 197 0
176 199 0
172 197 0
174 198 0
175 198 0
175 198 0
175 198 0
173 197 0
175 198 0
173 196 0
174 198 0
174 197 0
174 198 0
175 198 0
174 197 0
175 198 0
173 197 0
174 197 0
173 197 0
175 198 0
175 198 0
174 197 0
175 198 0
175 198 0
174 197 0
172 197 0
176 198 0
175 198 0
174 197 0
176 198 0
174 198 0
173 197 0
174 197 0
173 197 0
173 197 0
173 197 0
175 198 0
174 198 0
173 197 0
175 198 0
174 198 0
174 198 0
174 198 0
174 198 0
175 198 0
175 198 0
174 198 0
174 197 0
174 198 0
173 197 0
174 198 0
174 198 0
175 198 0
173 197 0
174 197 0
174 198 0
174 198 0
175 198 0
172 197 0
175 198 0
174 198 0
175 198 0
174 198 0
176 198 0
174 198 0
175 198 0
172 197 0
174 198 0
174 198 0
176 199 0
176 198 0
174 198 0
173 197 0
173 197 0
176 199 0
175 198 0
173 197 0
175 198 0
172 195 0
174 198 0
175 198 0
173 197 0
174 198 0
173 197 0
173 197 0
174 198 0
176 198 0
173 197 0
174 197 0
175 198 0
174 197 0
174 197 0
174 198 0
175 198 0
173 196 0
174 198 0
175 198 0
174 198 0
173 197 0
173 197 0
173 197 0
175 198 0
174 197 0
174 197 0
174 198 0
174 198 0
173 197 0
174 198 0
173 197 0
174 198 0
175 198 0
175 198 0
173 196 0
175 198 0
175 198 0
174 198 0
174 198 0
174 197 0
172 196 0
175 198 0
174 198 0
173 196 0
174 197 0
174 197 0
173 197 0
174 197 0
173 197 0
173 196 0
175 198 0
174 198 0
175 198 0
172 196 0
174 198 0
173 196 0
174 197 0
172 196 0
174 197 0
174 198 0
174 197 0
174 198 0
175 198 0
173 197 0
174 198 0
173 197 0
174 197 0
174 198 0
174 197 0
173 197 0
173 196 0
174 197 0
174 197 0
173 197 0
172 197 0
174 198 0
174 197 0
173 196 0
174 197 0
174 198 0
174 198 0
173 197 0
174 198 0
171 195 0
172 196 0
174 197 0
172 195 0
172 195 0
171 195 0
173 197 0
173 196 0
171 194 0
172 196 0
173 196 0
173 196 0
173 197 0
173 196 0
172 196 0
173 197 0
173 197 0
174 198 0
173 197 0
171 195 0
174 197 0
175 198 0
175 198 0
173 196 0
172 196 0
173 196 0
174 197 0
174 197 0
173 196 0
172 196 0
174 196 0
172 195 0
172 196 0
173 196 0
173 197 0
174 197 0
172 196 0
174 197 0
173 196 0
170 194 0
174 197 0
172 196 0
172 196 0
172 196 0
173 196 0
174 197 0
172 195 0
171 195 0
173 197 0
173 197 0
173 197 0
174 197 0
171 195 0
173 197 0
170 193 0
173 196 0
167 191 0
170 193 0
169 193 0
173 196 0
173 196 0
171 195 0
174 197 0
171 196 0
173 196 0
173 196 0
171 194 0
173 196 0
171 195 0
172 196 0
170 193 0
171 194 0
172 196 0
170 193 0
172 195 0
173 196 0
170 193 0
173 196 0
172 196 0
174 197 0
170 194 0
172 195 0
172 196 0
173 196 0
173 196 0
173 195 0
168 192 0
175 197 0
172 196 0
174 197 0
172 195 0
176 198 0
173 197 0
173 196 0
173 197 0
173 196 0
175 198 0
173 196 0
172 195 0
171 195 0
173 197 0
174 198 0
171 194 0
173 196 0
173 197 0
171 194 0
173 197 0
171 195 0
174 197 0
173 197 0
172 195 0
174 197 0
172 196 0
176 199 0
174 198 0
173 196 0
171 195 0
173 196 0
172 196 0
176 198 0
172 196 0
173 197 0
173 197 0
174 198 0
174 197 0
174 198 0
173 197 0
173 196 0
172 196 0
172 196 0
173 197 0
173 197 0
175 198 0
175 198 0
173 196 0
174 196 0
174 197 0
175 198 0
173 197 0
174 197 0
174 197 0
173 197 0
172 196 0
172 196 0
174 197 0
175 198 0
172 195 0
174 197 0
174 197 0
174 197 0
174 197 0
173 197 0
171 195 0
173 196 0
172 196 0
175 198 0
174 197 0
170 194 0
173 197 0
174 197 0
173 197 0
170 194 0
173 196 0
174 198 0
175 198 0
174 197 0
174 197 0
173 196 0
175 198 0
172 196 0
174 197 0
174 198 0
174 197 0
174 197 0
175 198 0
173 197 0
174 198 0
174 198 0
175 198 0
175 197 0
173 196 0
174 197 0
174 197 0
173 196 0
176 199 0
175 198 0
173 197 0
176 199 0
174 197 0
174 198 0
174 197 0
173 196 0
174 197 0
173 196 0
175 198 0
175 198 0
175 198 0
174 197 0
173 197 0
173 197 0
173 197 0
172 196 0
173 197 0
174 197 0
173 197 0
174 197 0
175 198 0
173 197 0
174 198 0
173 197 0
175 198 0
173 196 0
174 198 0
175 197 0
172 197 0
175 198 0
175 198 0
172 196 0
175 198 0
174 197 0
173 197 0
174 198 0
175 198 0
174 197 0
173 197 0
175 198 0
175 198 0
173 196 0
174 197 0
174 198 0
175 198 0
175 198 0
173 197 0
175 198 0
175 198 0
173 197 0
174 197 0
174 198 0
173 197 0
173 196 0
175 198 0
174 197 0
175 198 0
174 197 0
176 198 0
177 199 0
174 197 0
174 197 0
173 197 0
173 197 0
175 198 0
174 198 0
172 196 0
173 197 0
175 198 0
176 199 0
174 198 0
174 198 0
173 196 0
174 198 0
173 197 0
173 197 0
174 198 0
176 199 0
174 198 0
175 198 0
174 198 0
174 197 0
175 198 0
173 197 0
173 197 0
174 197 0
174 197 0
174 198 0
174 198 0
174 197 0
175 198 0
172 196 0
174 197 0
174 198 0
175 198 0
177 199 0
175 198 0
174 197 0
174 198 0
174 198 0
173 197 0
175 198 0
173 197 0
176 198 0
174 197 0
175 198 0
174 198 0
174 197 0
175 197 0
174 198 0
174 198 0
174 197 0
173 197 0
174 198 0
174 197 0
175 198 0
173 197 0
174 198 0
174 198 0
174 198 0
175 198 0
174 197 0
173 197 0
175 198 0
173 197 0
175 198 0
174 198 0
174 197 0
175 198 0
174 198 0
174 198 0
174 197 0
175 198 0
176 199 0
170 194 0
176 198 0
174 198 0
175 198 0
176 199 0
174 197 0
176 199 0
175 197 0
177 199 0
173 197 0
172 196 0
175 198 0
175 198 0
173 197 0
174 197 0
174 198 0
174 197 0
172 196 0
176 199 0
173 197 0
175 198 0
172 196 0
175 198 0
175 198 0
174 197 0
173 197 0
175 198 0
173 197 0
173 197 0
174 198 0
174 198 0
175 198 0
173 197 0
175 198 0
172 196 0
174 198 0
175 198 0
174 197 0
174 198 0
174 197 0
175 198 0
175 198 0
173 197 0
174 198 0
175 198 0
175 198 0
174 198 0
175 198 0
174 198 0
174 198 0
173 196 0
175 197 0
175 198 0
174 198 0
172 196 0
175 198 0
174 197 0
174 198 0
174 197 0
173 196 0
175 197 0
172 196 0
172 196 0
174 198 0
173 197 0
176 199 0
174 198 0
175 198 0
175 198 0
174 198 0
173 197 0
175 198 0
173 197 0
173 197 0
173 197 0
173 197 0
172 196 0
173 196 0
175 198 0
174 197 0
172 196 0
174 197 0
172 196 0
171 195 0
173 196 0
174 198 0
174 198 0
174 197 0
172 196 0
171 196 0
172 196 0
174 196 0
174 198 0
172 197 0
174 197 0
174 197 0
173 196 0
173 197 0
175 198 0
173 197 0
173 197 0
174 197 0
173 196 0
174 197 0
174 197 0
175 198 0
172 196 0
173 197 0
174 197 0
171 195 0
173 196 0
172 195 0
174 197 0
174 198 0
172 197 0
170 193 0
174 198 0
175 198 0
173 196 0
172 196 0
172 197 0
173 196 0
172 195 0
173 196 0
171 195 0
173 197 0
174 197 0
175 198 0
172 196 0
172 195 0
173 197 0
174 197 0
170 194 0
173 196 0
171 195 0
174 197 0
168 192 0
172 195 0
171 195 0
171 195 0
172 195 0
171 195 0
172 195 0
173 197 0
174 197 0
172 196 0
172 195 0
173 197 0
171 194 0
171 196 0
171 195 0
172 195 0
173 196 0
171 194 0
172 196 0
172 195 0
171 195 0
172 195 0
174 197 0
170 193 0
171 194 0
174 197 0
173 196 0
171 195 0
174 197 0
171 195 0
174 197 0
173 197 0
172 195 0
170 194 0
171 194 0
173 196 0
173 195 0
174 197 0
174 197 0
174 197 0
172 196 0
173 196 0
171 194 0
170 195 0
171 194 0
172 195 0
173 196 0
174 198 0
174 197 0
174 197 0
170 193 0
173 196 0
170 193 0
170 194 0
173 197 0
175 198 0
175 198 0
172 196 0
173 196 0
174 197 0
174 197 0
172 196 0
174 197 0
174 198 0
171 195 0
174 198 0
175 198 0
173 197 0
173 196 0
173 197 0
173 197 0
172 196 0
174 198 0
171 195 0
172 196 0
173 197 0
174 197 0
174 198 0
173 197 0
173 196 0
172 196 0
174 197 0
172 196 0
175 198 0
173 196 0
174 198 0
171 196 0
175 197 0
173 196 0
174 198 0
173 196 0
173 197 0
173 197 0
174 197 0
174 197 0
175 198 0
174 197 0
175 198 0
174 197 0
173 197 0
173 197 0
174 198 0
172 196 0
173 197 0
173 197 0
172 196 0
176 198 0
173 197 0
174 197 0
172 195 0
173 196 0
173 196 0
172 196 0
171 194 0
172 196 0
175 198 0
174 197 0
174 198 0
175 198 0
174 197 0
175 198 0
173 197 0
172 197 0
174 197 0
174 197 0
174 197 0
176 198 0
174 198 0
174 197 0
175 198 0
174 197 0
173 197 0
172 197 0
174 198 0
174 198 0
174 197 0
174 198 0
173 197 0
175 198 0
174 198 0
176 199 0
175 198 0
174 197 0
175 198 0
174 198 0
175 198 0
174 197 0
174 197 0
175 198 0
174 198 0
174 198 0
174 198 0
174 198 0
175 198 0
174 198 0
174 198 0
173 196 0
173 196 0
173 197 0
175 198 0
175 198 0
172 196 0
174 197 0
174 198 0
173 197 0
173 197 0
173 197 0
174 197 0
172 196 0
173 197 0
175 198 0
171 195 0
175 198 0
175 198 0
175 198 0
175 198 0
173 197 0
174 198 0
174 198 0
174 198 0
175 198 0
175 198 0
174 198 0
173 197 0
174 197 0
174 198 0
174 197 0
174 198 0
174 197 0
174 197 0
173 197 0
175 198 0
174 198 0
175 198 0
174 198 0
174 198 0
174 198 0
176 199 0
175 198 0
174 197 0
175 198 0
174 198 0
174 198 0
173 196 0
174 197 0
172 196 0
174 198 0
174 198 0
174 197 0
174 198 0
174 197 0
175 198 0
174 197 0
175 198 0
175 198 0
175 198 0
174 198 0
176 198 0
173 197 0
174 198 0
174 198 0
175 198 0
175 198 0
173 197 0
173 197 0
173 197 0
174 197 0
174 198 0
175 198 0
173 197 0
173 196 0
174 198 0
176 198 0
172 197 0
173 197 0
174 198 0
174 197 0
173 197 0
173 197 0
175 198 0
176 198 0
174 198 0
176 199 0
173 197 0
174 197 0
173 197 0
174 197 0
173 197 0
173 197 0
173 197 0
174 197 0
176 198 0
173 197 0
174 198 0
175 198 0
174 197 0
174 198 0
175 198 0
175 197 0
173 197 0
176 198 0
174 198 0
175 198 0
173 197 0
176 199 0
174 198 0
172 197 0
173 196 0
176 199 0
176 198 0
175 198 0
173 197 0
173 197 0
173 197 0
172 196 0
174 198 0
173 197 0
173 197 0
174 198 0
175 198 0
174 198 0
176 198 0
175 198 0
174 197 0
174 197 0
174 197 0
172 196 0
173 197 0
173 197 0
174 198 0
175 198 0
175 198 0
173 196 0
174 198 0
173 197 0
174 198 0
174 198 0
174 198 0
175 198 0
175 198 0
173 197 0
175 198 0
174 197 0
174 198 0
175 198 0
174 197 0
174 197 0
175 198 0
174 198 0
173 197 0
175 198 0
174 197 0
173 197 0
174 197 0
174 197 0
174 198 0
175 198 0
174 198 0
173 197 0
173 197 0
176 199 0
174 198 0
174 198 0
173 196 0
175 198 0
174 197 0
172 196 0
174 198 0
174 197 0
173 197 0
174 198 0
174 197 0
174 197 0
173 196 0
174 197 0
175 198 0
173 196 0
174 198 0
173 197 0
172 196 0
174 198 0
174 197 0
175 198 0
173 196 0
174 196 0
172 196 0
174 196 0
174 197 0
174 198 0
174 198 0
174 197 0
173 196 0
173 196 0
172 196 0
173 197 0
173 196 0
173 197 0
175 198 0
173 197 0
172 195 0
173 196 0
175 198 0
174 198 0
174 197 0
172 196 0
173 196 0
173 196 0
171 195 0
174 197 0
172 196 0
173 197 0
173 196 0
172 196 0
174 196 0
171 195 0
175 198 0
173 196 0
173 196 0
171 195 0
175 198 0
174 198 0
172 195 0
172 195 0
174 196 0
170 194 0
172 196 0
171 194 0
173 197 0
173 197 0
173 196 0
172 195 0
173 196 0
171 194 0
173 196 0
174 197 0
171 195 0
171 194 0
172 196 0
171 195 0
173 197 0
173 197 0
171 195 0
172 196 0
172 195 0
170 194 0
174 197 0
171 194 0
172 195 0
169 193 0
171 195 0
170 194 0
173 196 0
169 193 0
173 197 0
171 195 0
171 194 0
171 195 0
174 198 0
173 197 0
172 196 0
174 197 0
174 197 0
172 196 0
173 196 0
172 196 0
173 196 0
172 196 0
173 196 0
174 197 0
173 196 0
173 197 0
174 197 0
172 196 0
172 195 0
173 196 0
172 196 0
173 196 0
172 196 0
173 196 0
171 195 0
171 195 0
172 195 0
167 191 0
173 196 0
173 197 0
172 195 0
174 197 0
172 195 0
172 196 0
170 194 0
173 197 0
170 193 0
173 196 0
176 198 0
171 195 0
172 196 0
172 196 0
172 194 0
173 195 0
174 197 0
173 196 0
174 197 0
173 196 0
173 197 0
175 198 0
174 197 0
173 197 0
170 194 0
173 196 0
173 197 0
173 197 0
172 196 0
172 195 0
173 196 0
173 196 0
172 195 0
175 198 0
171 194 0
173 196 0
172 195 0
173 197 0
171 195 0
173 196 0
172 196 0
173 196 0
174 197 0
173 196 0
171 195 0
174 197 0
173 197 0
173 197 0
173 196 0
172 197 0
173 196 0
172 196 0
175 197 0
174 198 0
173 197 0
172 195 0
171 195 0
173 197 0
175 198 0
174 197 0
172 195 0
174 198 0
172 196 0
173 197 0
174 198 0
174 197 0
173 197 0
174 198 0
172 195 0
174 197 0
174 198 0
176 198 0
174 197 0
174 198 0
173 196 0
174 198 0
174 197 0
175 198 0
172 196 0
174 197 0
174 198 0
174 198 0
175 198 0
174 198 0
174 198 0
174 197 0
175 198 0
175 198 0
173 197 0
174 197 0
173 196 0
175 198 0
175 198 0
175 198 0
173 197 0
174 197 0
175 198 0
174 198 0
174 197 0
175 198 0
175 198 0
174 197 0
174 197 0
173 197 0
175 198 0
173 196 0
174 198 0
174 197 0
174 197 0
174 197 0
173 196 0
174 197 0
176 198 0
173 197 0
175 198 0
173 197 0
174 197 0
172 195 0
174 198 0
176 198 0
173 197 0
173 197 0
172 196 0
174 198 0
173 197 0
174 198 0
174 198 0
173 197 0
173 197 0
173 197 0
174 198 0
170 194 0
174 198 0
176 199 0
175 198 0
174 198 0
175 198 0
175 198 0
174 198 0
174 198 0
176 199 0
175 198 0
173 197 0
173 197 0
174 198 0
175 198 0
175 198 0
176 199 0
173 197 0
175 198 0
173 197 0
174 197 0
173 197 0
174 197 0
175 198 0
174 197 0
174 198 0
174 197 0
173 196 0
174 198 0
174 197 0
174 198 0
174 197 0
176 199 0
173 197 0
175 198 0
174 198 0
174 197 0
173 197 0
174 198 0
174 197 0
175 198 0
174 198 0
172 197 0
174 197 0
174 197 0
174 197 0
174 198 0
173 197 0
176 199 0
175 198 0
174 198 0
174 198 0
174 198 0
175 198 0
174 197 0
174 197 0
176 199 0
175 198 0
174 198 0
174 198 0
173 197 0
174 197 0
176 198 0
175 198 0
173 197 0
174 198 0
173 197 0
175 198 0
175 198 0
174 198 0
175 198 0
175 198 0
173 197 0
175 198 0
174 198 0
173 197 0
173 197 0
176 199 0
174 198 0
175 198 0
175 198 0
175 198 0
176 198 0
175 198 0
172 196 0
174 197 0
175 198 0
175 198 0
174 198 0
174 197 0
175 198 0
173 197 0
175 198 0
173 197 0
175 198 0
174 197 0
172 196 0
175 198 0
174 198 0
174 198 0
174 197 0
175 198 0
175 198 0
174 197 0
173 197 0
173 197 0
173 197 0
174 198 0
173 197 0
175 198 0
174 197 0
172 196 0
175 198 0
174 198 0
172 197 0
175 198 0
175 198 0
173 196 0
174 198 0
172 197 0
174 198 0
175 198 0
175 197 0
173 197 0
174 198 0
174 198 0
176 199 0
174 197 0
174 197 0
172 196 0
173 196 0
175 198 0
172 196 0
171 195 0
176 198 0
174 198 0
173 196 0
176 198 0
173 197 0
171 196 0
174 197 0
176 198 0
174 198 0
172 196 0
173 197 0
173 197 0
173 196 0
173 197 0
172 196 0
173 196 0
174 197 0
173 196 0
174 198 0
174 198 0
177 199 0
175 198 0
175 197 0
172 196 0
175 198 0
174 197 0
174 198 0
172 196 0
175 198 0
174 197 0
174 198 0
175 198 0
171 196 0
175 198 0
174 197 0
173 197 0
172 196 0
174 197 0
172 195 0
174 197 0
173 197 0
174 197 0
173 197 0
171 195 0
174 197 0
172 196 0
174 198 0
171 195 0
173 196 0
173 196 0
171 195 0
173 197 0
170 194 0
173 196 0
174 197 0
173 196 0
172 195 0
172 196 0
173 197 0
173 197 0
174 198 0
175 198 0
174 198 0
172 196 0
174 198 0
173 196 0
175 197 0
174 197 0
175 198 0
174 198 0
173 196 0
171 194 0
174 198 0
174 197 0
173 196 0
172 196 0
174 197 0
173 197 0
173 196 0
172 196 0
171 195 0
174 198 0
174 197 0
174 197 0
172 196 0
171 194 0
174 197 0
169 193 0
174 197 0
173 196 0
174 196 0
173 197 0
172 195 0
172 196 0
172 196 0
173 196 0
171 195 0
174 198 0
170 193 0
169 192 0
172 196 0
174 197 0
174 197 0
171 194 0
174 197 0
174 197 0
174 197 0
173 196 0
172 195 0
173 197 0
172 195 0
171 195 0
173 197 0
171 195 0
172 196 0
175 197 0
171 196 0
171 194 0
170 194 0
173 196 0
171 195 0
173 197 0
173 196 0
171 195 0
174 198 0
174 197 0
174 197 0
171 195 0
173 197 0
174 198 0
174 197 0
174 197 0
173 196 0
174 196 0
174 197 0
170 194 0
172 196 0
170 195 0
174 197 0
170 194 0
172 195 0
172 195 0
174 198 0
175 198 0
175 197 0
175 197 0
173 196 0
173 196 0
171 195 0
173 196 0
175 198 0
174 198 0
174 197 0
174 198 0
173 195 0
173 196 0
171 195 0
174 197 0
171 195 0
173 197 0
174 197 0
172 196 0
173 197 0
173 196 0
173 197 0
175 198 0
174 198 0
172 196 0
173 197 0
173 197 0
173 197 0
174 197 0
172 196 0
174 198 0
173 196 0
174 197 0
174 198 0
175 197 0
173 196 0
175 198 0
174 197 0
174 197 0
174 197 0
174 197 0
172 196 0
173 196 0
172 196 0
172 196 0
172 196 0
175 198 0
175 198 0
175 198 0
173 196 0
172 196 0
175 198 0
176 198 0
173 196 0
173 196 0
174 197 0
175 198 0
172 195 0
175 198 0
173 196 0
173 196 0
175 198 0
173 197 0
174 196 0
174 197 0
175 198 0
173 197 0
174 197 0
173 196 0
175 198 0
175 198 0
175 198 0
174 197 0
174 198 0
174 198 0
172 196 0
174 198 0
172 196 0
173 197 0
173 197 0
176 199 0
173 196 0
174 198 0
173 197 0
173 197 0
172 197 0
175 198 0
175 198 0
175 198 0
175 198 0
175 198 0
175 198 0
174 197 0
174 198 0
173 196 0
175 198 0
175 198 0
172 196 0
175 198 0
174 198 0
174 198 0
176 199 0
175 198 0
175 198 0
175 198 0
175 198 0
175 198 0
173 197 0
175 198 0
176 199 0
175 197 0
175 198 0
173 197 0
173 196 0
176 199 0
175 198 0
173 196 0
174 198 0
173 197 0
176 198 0
172 196 0
173 197 0
174 198 0
175 198 0
174 197 0
175 198 0
173 197 0
175 198 0
174 198 0
174 198 0
173 196 0
175 198 0
175 198 0
176 198 0
173 197 0
172 195 0
173 197 0
174 197 0
174 197 0
175 198 0
173 196 0
173 196 0
175 198 0
173 196 0
175 198 0
176 199 0
175 198 0
175 198 0
176 199 0
175 198 0
175 198 0
173 197 0
174 198 0
173 197 0
174 197 0
175 198 0
176 199 0
176 199 0
174 197 0
173 197 0
175 198 0
173 197 0
174 198 0
174 198 0
173 197 0
173 197 0
174 197 0
173 197 0
175 198 0
171 196 0
174 197 0
175 198 0
175 198 0
175 198 0
175 197 0
174 197 0
176 198 0
173 197 0
174 198 0
174 197 0
174 197 0
173 197 0
174 198 0
174 198 0
174 198 0
174 197 0
175 198 0
174 198 0
174 197 0
173 197 0
174 198 0
173 197 0
172 196 0
174 198 0
175 198 0
175 198 0
174 198 0
174 197 0
172 196 0
173 197 0
175 198 0
175 198 0
174 198 0
174 198 0
174 198 0
173 196 0
176 199 0
175 198 0
174 198 0
175 198 0
176 199 0
176 199 0
174 197 0
173 197 0
174 197 0
174 198 0
174 197 0
172 196 0
172 195 0
174 198 0
173 197 0
174 197 0
174 197 0
174 197 0
173 197 0
176 199 0
176 198 0
173 197 0
172 196 0
175 198 0
172 196 0
174 197 0
174 197 0
174 197 0
175 198 0
175 198 0
173 196 0
175 198 0
174 197 0
174 198 0
173 197 0
175 198 0
174 198 0
174 198 0
173 196 0
173 197 0
176 198 0
174 197 0
174 197 0
174 198 0
175 198 0
174 198 0
174 197 0
175 198 0
175 198 0
174 198 0
174 197 0
174 197 0
173 197 0
175 198 0
175 198 0
174 197 0
174 198 0
174 198 0
172 196 0
172 195 0
174 198 0
172 196 0
174 197 0
176 198 0
174 198 0
174 198 0
173 197 0
174 198 0
172 196 0
173 196 0
173 197 0
173 197 0
174 197 0
174 197 0
173 197 0
175 198 0
171 195 0
173 196 0
175 198 0
173 197 0
175 198 0
173 197 0
174 197 0
174 197 0
174 197 0
174 198 0
174 198 0
173 197 0
171 194 0
174 198 0
174 197 0
175 198 0
175 198 0
175 198 0
174 198 0
174 197 0
174 198 0
175 198 0
173 197 0
173 197 0
175 198 0
172 195 0
173 196 0
174 197 0
173 196 0
173 196 0
173 196 0
173 197 0
172 196 0
174 197 0
173 197 0
174 197 0
174 197 0
175 198 0
173 197 0
173 197 0
174 198 0
171 195 0
172 196 0
173 197 0
174 198 0
171 195 0
172 196 0
173 197 0
173 197 0
173 196 0
170 194 0
174 197 0
169 193 0
171 194 0
173 197 0
168 193 0
173 197 0
171 194 0
173 197 0
175 198 0
174 198 0
172 195 0
172 195 0
173 196 0
173 197 0
172 194 0
175 198 0
173 196 0
176 199 0
171 195 0
173 197 0
171 195 0
175 198 0
173 197 0
175 198 0
172 195 0
171 194 0
173 197 0
170 194 0
173 196 0
172 195 0
172 196 0
172 195 0
170 193 0
170 194 0
171 195 0
174 197 0
173 197 0
172 195 0
172 196 0
172 196 0
171 195 0
175 197 0
172 196 0
171 195 0
173 197 0
171 195 0
173 197 0
173 196 0
172 196 0
172 196 0
172 195 0
174 197 0
172 196 0
174 197 0
174 197 0
173 197 0
172 196 0
174 197 0
172 194 0
171 194 0
171 194 0
174 197 0
172 196 0
173 196 0
174 197 0
174 198 0
170 194 0
172 196 0
173 196 0
173 197 0
174 197 0
172 195 0
171 195 0
171 195 0
175 198 0
171 195 0
170 194 0
173 196 0
174 197 0
173 197 0
173 197 0
173 197 0
174 197 0
172 196 0
171 195 0
172 195 0
173 197 0
173 197 0
174 197 0
175 198 0
176 198 0
173 197 0
174 197 0
173 197 0
173 197 0
173 196 0
171 195 0
172 196 0
175 197 0
175 198 0
174 197 0
173 196 0
173 196 0
173 197 0
174 197 0
174 197 0
171 195 0
171 195 0
170 194 0
172 196 0
174 197 0
173 196 0
172 196 0
174 197 0
174 197 0
173 197 0
174 197 0
175 198 0
174 197 0
174 198 0
172 196 0
174 197 0
173 196 0
174 197 0
172 196 0
172 196 0
174 198 0
173 196 0
175 198 0
172 196 0
173 197 0
175 198 0
172 196 0
172 196 0
173 197 0
173 197 0
173 196 0
172 197 0
173 196 0
175 197 0
173 196 0
173 197 0
173 197 0
173 197 0
172 196 0
174 197 0
175 198 0
176 199 0
173 196 0
175 198 0
173 197 0
174 197 0
173 196 0
174 197 0
175 198 0
174 197 0
174 197 0
174 198 0
175 197 0
176 198 0
174 197 0
173 197 0
175 198 0
174 197 0
175 198 0
175 198 0
175 198 0
174 198 0
173 196 0
173 197 0
174 198 0
174 197 0
174 197 0
175 198 0
174 198 0
172 196 0
174 197 0
172 196 0
176 199 0
173 197 0
174 198 0
174 197 0
175 198 0
175 198 0
173 197 0
173 197 0
175 198 0
176 199 0
174 198 0
174 198 0
175 198 0
174 198 0
174 198 0
174 197 0
175 198 0
174 197 0
175 198 0
173 197 0
175 198 0
174 198 0
175 198 0
175 198 0
174 197 0
175 198 0
173 197 0
174 198 0
173 197 0
173 196 0
175 198 0
175 198 0
175 198 0
175 198 0
174 198 0
175 198 0
172 196 0
174 197 0
175 198 0
174 198 0
175 198 0
174 198 0
175 198 0
174 198 0
175 198 0
172 196 0
173 196 0
173 197 0
175 198 0
174 198 0
174 197 0
175 198 0
172 196 0
173 197 0
176 199 0
174 198 0
174 197 0
175 198 0
175 198 0
173 197 0
173 197 0
175 198 0
175 198 0
174 197 0
173 197 0
175 198 0
175 198 0
173 197 0
174 198 0
176 199 0
175 198 0
175 198 0
173 197 0
175 198 0
174 198 0
175 198 0
173 197 0
175 197 0
175 198 0
173 197 0
174 198 0
173 197 0
173 197 0
174 197 0
172 196 0
175 198 0
174 197 0
174 197 0
174 198 0
174 197 0
173 197 0
171 196 0
175 198 0
175 198 0
174 198 0
175 198 0
176 199 0
176 199 0
175 198 0
174 197 0
174 197 0
174 198 0
174 198 0
175 198 0
174 197 0
175 198 0
174 197 0
175 198 0
173 197 0
175 198 0
173 196 0
173 197 0
173 197 0
173 197 0
174 197 0
174 197 0
174 198 0
174 198 0
173 196 0
172 197 0
174 198 0
174 197 0
174 198 0
173 197 0
173 197 0
174 198 0
175 198 0
173 197 0
174 198 0
175 198 0
174 197 0
174 198 0
173 197 0
173 197 0
174 197 0
175 198 0
173 197 0
174 197 0
174 198 0
174 198 0
175 198 0
175 198 0
174 198 0
173 197 0
173 197 0
175 198 0
174 197 0
174 198 0
173 197 0
174 198 0
176 198 0
174 197 0
175 198 0
174 198 0
172 196 0
174 198 0
174 197 0
174 197 0
174 197 0
174 198 0
174 197 0
174 198 0
172 196 0
173 196 0
175 198 0
173 196 0
174 197 0
175 198 0
174 198 0
173 196 0
173 197 0
175 198 0
175 198 0
173 197 0
174 197 0
174 198 0
175 198 0
171 195 0
175 198 0
175 198 0
173 197 0
173 197 0
174 197 0
173 197 0
174 198 0
174 198 0
170 194 0
173 196 0
172 196 0
173 196 0
174 198 0
172 196 0
174 197 0
172 196 0
173 196 0
171 195 0
174 197 0
171 195 0
174 196 0
173 196 0
173 196 0
171 194 0
170 194 0
174 198 0
174 197 0
170 193 0
173 196 0
174 197 0
173 196 0
175 198 0
172 196 0
173 197 0
171 194 0
173 196 0
170 194 0
172 195 0
172 196 0
174 197 0
172 196 0
175 198 0
172 195 0
173 196 0
173 196 0
172 196 0
174 197 0
174 198 0
174 197 0
175 198 0
171 195 0
172 195 0
171 194 0
172 194 0
173 197 0
172 196 0
171 195 0
172 196 0
172 196 0
172 196 0
173 196 0
170 194 0
173 196 0
171 195 0
172 195 0
174 198 0
173 196 0
172 196 0
172 196 0
172 196 0
172 196 0
173 197 0
170 193 0
174 198 0
175 198 0
174 197 0
175 198 0
173 196 0
173 197 0
172 196 0
173 196 0
173 196 0
173 196 0
172 196 0
172 196 0
171 195 0
175 198 0
172 196 0
171 195 0
169 192 0
174 198 0
172 195 0
173 196 0
174 197 0
174 197 0
174 198 0
173 197 0
172 196 0
172 196 0
175 198 0
174 197 0
174 197 0
174 197 0
172 196 0
173 196 0
175 198 0
173 196 0
174 197 0
172 195 0
174 197 0
171 194 0
173 197 0
175 198 0
174 197 0
173 197 0
172 195 0
172 196 0
176 199 0
172 195 0
175 198 0
170 193 0
174 197 0
174 197 0
174 197 0
173 197 0
174 197 0
176 198 0
174 197 0
174 197 0
174 198 0
173 196 0
173 197 0
174 197 0
176 198 0
173 196 0
174 197 0
175 198 0
172 196 0
172 196 0
173 196 0
171 196 0
173 196 0
174 197 0
172 196 0
174 197 0
174 197 0
172 196 0
173 197 0
172 196 0
173 197 0
176 199 0
172 196 0
174 197 0
174 198 0
173 197 0
175 198 0
173 197 0
174 197 0
175 198 0
174 197 0
174 197 0
172 196 0
173 196 0
174 198 0
174 197 0
171 195 0
174 198 0
174 198 0
173 196 0
175 198 0
175 198 0
174 198 0
172 196 0
174 198 0
173 197 0
172 195 0
172 195 0
173 197 0
174 198 0
175 198 0
173 197 0
173 197 0
174 198 0
174 197 0
174 198 0
173 196 0
173 196 0
173 197 0
175 198 0
175 198 0
174 197 0
174 197 0
175 198 0
174 198 0
174 197 0
174 198 0
173 197 0
172 196 0
173 196 0
173 197 0
174 197 0
174 197 0
175 197 0
174 197 0
173 197 0
174 197 0
177 199 0
175 198 0
173 197 0
173 197 0
176 199 0
175 198 0
176 199 0
175 198 0
176 198 0
175 198 0
173 197 0
172 195 0
174 197 0
174 198 0
175 198 0
175 198 0
174 197 0
175 197 0
175 198 0
172 197 0
175 198 0
174 197 0
175 198 0
174 197 0
174 198 0
173 197 0
174 197 0
175 198 0
174 198 0
174 198 0
174 198 0
175 198 0
174 197 0
176 198 0
174 198 0
174 198 0
174 198 0
176 198 0
174 197 0
174 198 0
173 197 0
174 197 0
173 196 0
175 198 0
174 197 0
175 198 0
175 198 0
174 198 0
175 198 0
175 198 0
174 197 0
174 197 0
174 197 0
174 197 0
174 197 0
173 196 0
172 196 0
174 198 0
175 198 0
173 197 0
175 198 0
174 198 0
175 198 0
173 197 0
173 197 0
174 198 0
174 197 0
175 198 0
173 197 0
173 197 0
175 198 0
173 197 0
175 198 0
174 198 0
173 197 0
174 198 0
174 198 0
172 196 0
174 197 0
174 198 0
175 198 0
172 196 0
174 197 0
176 199 0
174 197 0
175 198 0
174 197 0
173 197 0
173 197 0
173 196 0
174 198 0
171 196 0
174 198 0
175 198 0
174 198 0
174 198 0
175 198 0
174 197 0
175 198 0
176 199 0
175 198 0
173 196 0
175 198 0
173 197 0
175 198 0
174 198 0
174 197 0
174 197 0
175 198 0
173 197 0
175 198 0
174 198 0
175 198 0
173 197 0
176 199 0
174 198 0
175 198 0
175 198 0
174 197 0
174 198 0
175 198 0
175 198 0
175 198 0
174 198 0
174 198 0
175 198 0
173 197 0
173 197 0
175 198 0
175 198 0
175 198 0
174 197 0
173 197 0
176 198 0
174 198 0
175 198 0
173 197 0
175 198 0
174 198 0
172 197 0
176 198 0
174 197 0
174 197 0
175 198 0
174 197 0
172 197 0
174 197 0
173 197 0
173 197 0
171 194 0
174 197 0
174 197 0
174 197 0
175 198 0
175 198 0
173 197 0
174 198 0
172 196 0
176 199 0
175 198 0
174 197 0
173 196 0
175 198 0
175 198 0
174 197 0
172 196 0
176 198 0
175 198 0
172 196 0
174 197 0
174 197 0
173 197 0
172 196 0
174 198 0
172 196 0
174 198 0
173 197 0
175 198 0
176 198 0
174 197 0
174 197 0
172 196 0
174 198 0
172 196 0
174 197 0
174 198 0
173 197 0
175 198 0
174 197 0
173 196 0
173 197 0
173 197 0
171 195 0
174 197 0
174 198 0
173 197 0
173 197 0
173 197 0
173 197 0
172 196 0
174 198 0
173 196 0
174 198 0
174 197 0
175 198 0
173 197 0
173 196 0
173 197 0
173 197 0
174 197 0
175 198 0
173 197 0
174 197 0
173 197 0
173 196 0
173 197 0
172 196 0
171 195 0
175 198 0
174 197 0
173 196 0
174 198 0
175 198 0
174 197 0
173 197 0
173 196 0
174 196 0
172 196 0
173 197 0
173 197 0
173 197 0
173 197 0
174 197 0
173 197 0
174 197 0
175 198 0
175 198 0
173 196 0
171 195 0
172 196 0
175 198 0
172 195 0
172 196 0
175 198 0
171 195 0
175 198 0
173 197 0
172 195 0
174 198 0
171 195 0
173 197 0
172 196 0
171 195 0
173 197 0
173 196 0
172 196 0
171 195 0
172 196 0
173 197 0
173 196 0
172 196 0
174 197 0
170 194 0
173 196 0
173 197 0
174 197 0
170 194 0
175 197 0
172 195 0
170 194 0
171 194 0
172 196 0
175 198 0
175 198 0
173 197 0
173 197 0
173 196 0
171 194 0
172 195 0
173 196 0
173 197 0
173 196 0
172 196 0
174 198 0
172 195 0
173 196 0
171 195 0
173 196 0
172 196 0
172 196 0
174 197 0
174 196 0
171 195 0
173 196 0
171 194 0
173 196 0
175 198 0
173 196 0
173 196 0
172 196 0
173 197 0
173 196 0
174 197 0
172 195 0
173 197 0
172 195 0
173 196 0
173 196 0
173 197 0
174 197 0
173 197 0
174 198 0
173 196 0
174 197 0
174 197 0
173 197 0
174 197 0
171 195 0
173 197 0
172 195 0
173 196 0
173 197 0
171 194 0
172 196 0
175 198 0
173 196 0
175 198 0
173 197 0
173 196 0
175 198 0
173 196 0
174 197 0
171 195 0
171 195 0
174 196 0
176 198 0
173 197 0
174 197 0
173 196 0
172 196 0
173 196 0
174 197 0
174 197 0
175 198 0
175 198 0
173 197 0
174 197 0
173 197 0
173 197 0
176 198 0
175 198 0
174 197 0
174 197 0
171 196 0
174 198 0
175 198 0
174 198 0
174 197 0
173 197 0
172 196 0
174 197 0
175 198 0
173 197 0
173 197 0
174 197 0
176 198 0
175 198 0
172 196 0
174 196 0
175 197 0
176 198 0
174 197 0
174 198 0
173 197 0
173 197 0
174 197 0
174 198 0
174 197 0
173 197 0
172 196 0
172 196 0
173 197 0
172 196 0
172 196 0
173 197 0
171 196 0
175 198 0
174 197 0
175 198 0
175 198 0
174 197 0
174 197 0
172 196 0
174 197 0
174 197 0
173 197 0
173 197 0
175 198 0
175 197 0
174 198 0
174 197 0
173 197 0
173 197 0
175 198 0
174 197 0
174 198 0
174 198 0
173 196 0
174 197 0
175 198 0
176 199 0
174 197 0
175 198 0
173 197 0
173 197 0
175 198 0
175 198 0
174 197 0
176 199 0
174 197 0
173 196 0
175 198 0
172 196 0
174 197 0
174 197 0
172 197 0
175 198 0
174 197 0
176 199 0
175 198 0
173 197 0
172 196 0
175 198 0
174 197 0
173 197 0
174 197 0
173 197 0
173 197 0
173 197 0
174 198 0
175 198 0
175 198 0
175 198 0
171 196 0
174 198 0
173 197 0
174 197 0
172 197 0
172 196 0
173 197 0
175 198 0
174 198 0
174 198 0
173 197 0
174 198 0
174 198 0
175 198 0
174 197 0
175 198 0
174 197 0
174 197 0
176 199 0
173 197 0
175 198 0
175 198 0
175 198 0
171 196 0
176 198 0
174 198 0
176 199 0
173 197 0
174 197 0
174 198 0
174 197 0
174 197 0
174 198 0
175 198 0
174 198 0
176 199 0
173 197 0
173 197 0
174 198 0
176 199 0
173 197 0
174 197 0
175 198 0
175 198 0
175 198 0
174 198 0
173 197 0
173 197 0
173 197 0
176 198 0
175 198 0
174 197 0
175 198 0
174 198 0
173 197 0
174 197 0
174 198 0
175 198 0
176 199 0
175 198 0
173 197 0
175 198 0
174 198 0
175 198 0
175 198 0
174 197 0
174 197 0
175 198 0
175 198 0
174 197 0
174 197 0
174 198 0
173 197 0
174 197 0
174 198 0
177 199 0
176 198 0
173 197 0
173 196 0
174 198 0
174 197 0
174 197 0
174 198 0
174 198 0
173 197 0
174 198 0
174 197 0
173 197 0
175 198 0
174 197 0
173 196 0
174 197 0
174 198 0
173 197 0
175 198 0
173 197 0
174 198 0
173 197 0
175 198 0
175 198 0
175 198 0
174 197 0
174 197 0
174 197 0
175 198 0
173 197 0
173 197 0
174 197 0
173 197 0
174 198 0
173 197 0
174 198 0
173 197 0
174 197 0
174 198 0
173 196 0
174 198 0
175 198 0
173 197 0
174 197 0
175 198 0
172 196 0
174 197 0
174 198 0
175 198 0
175 198 0
173 197 0
173 196 0
172 196 0
172 196 0
173 197 0
173 197 0
175 198 0
174 197 0
173 197 0
174 197 0
173 197 0
172 196 0
176 198 0
174 198 0
173 197 0
174 197 0
172 197 0
174 197 0
173 196 0
172 196 0
172 197 0
175 198 0
174 197 0
176 199 0
175 198 0
172 196 0
173 197 0
175 198 0
171 196 0
172 197 0
172 196 0
171 195 0
175 197 0
172 196 0
174 197 0
173 197 0
174 197 0
174 198 0
174 197 0
172 194 0
172 195 0
173 197 0
172 196 0
172 196 0
172 196 0
174 197 0
175 198 0
173 197 0
173 196 0
172 196 0
173 196 0
174 198 0
172 196 0
172 196 0
171 195 0
173 197 0
173 197 0
173 196 0
174 197 0
174 197 0
174 196 0
171 195 0
172 196 0
172 196 0
173 196 0
171 195 0
173 195 0
174 197 0
174 197 0
175 198 0
173 196 0
174 197 0
175 198 0
173 196 0
174 197 0
173 196 0
172 196 0
172 195 0
172 194 0
174 197 0
175 197 0
174 197 0
172 195 0
175 198 0
171 194 0
172 195 0
173 196 0
172 196 0
173 196 0
172 195 0
172 197 0
175 198 0
174 198 0
172 195 0
172 196 0
171 194 0
173 196 0
172 196 0
173 197 0
172 195 0
168 192 0
173 196 0
172 195 0
173 197 0
174 197 0
173 196 0
171 195 0
173 196 0
173 196 0
170 194 0
171 195 0
171 195 0
173 196 0
173 196 0
172 196 0
172 195 0
173 196 0
171 194 0
172 196 0
172 196 0
174 197 0
172 195 0
172 195 0
173 197 0
173 196 0
172 196 0
172 196 0
172 195 0
172 195 0
172 195 0
172 196 0
170 194 0
173 197 0
172 196 0
173 196 0
173 197 0
171 195 0
172 196 0
174 197 0
173 197 0
172 196 0
174 196 0
174 197 0
172 195 0
173 196 0
173 195 0
173 196 0
173 197 0
174 198 0
175 198 0
172 196 0
172 195 0
172 195 0
174 198 0
172 196 0
171 195 0
170 193 0
172 195 0
173 196 0
173 196 0
173 197 0
172 195 0
171 195 0
173 196 0
170 194 0
174 198 0
174 197 0
172 196 0
174 196 0
172 195 0
173 197 0
173 196 0
173 196 0
171 194 0
176 198 0
174 197 0
175 198 0
172 196 0
173 197 0
172 195 0
174 197 0
174 197 0
172 196 0
175 198 0
173 196 0
174 197 0
173 196 0
176 199 0
173 196 0
172 195 0
172 197 0
175 198 0
174 197 0
173 196 0
172 196 0
173 196 0
173 196 0
174 198 0
175 198 0
174 197 0
174 197 0
172 195 0
172 196 0
175 197 0
173 196 0
173 196 0
174 197 0
174 197 0
173 196 0
175 198 0
174 197 0
173 197 0
174 198 0
174 197 0
176 198 0
175 198 0
173 197 0
172 196 0
173 197 0
174 198 0
173 197 0
174 197 0
175 198 0
174 198 0
172 195 0
175 198 0
173 197 0
175 198 0
175 198 0
172 196 0
174 197 0
175 198 0
173 197 0
173 196 0
173 197 0
176 199 0
173 196 0
173 196 0
174 197 0
174 197 0
174 197 0
173 196 0
175 198 0
173 197 0
174 197 0
176 199 0
173 197 0
173 197 0
176 199 0
173 196 0
173 196 0
174 197 0
174 197 0
174 198 0
175 198 0
174 197 0
174 197 0
174 197 0
175 198 0
174 198 0
175 198 0
175 198 0
174 197 0
174 198 0
173 197 0
175 198 0
174 197 0
173 197 0
175 198 0
174 197 0
174 197 0
174 198 0
175 198 0
177 199 0
174 198 0
173 197 0
174 197 0
174 198 0
174 198 0
173 197 0
174 198 0
174 197 0
173 197 0
175 198 0
174 198 0
174 198 0
175 198 0
173 197 0
176 198 0
174 197 0
174 198 0
175 198 0
174 198 0
175 198 0
174 198 0
174 197 0
173 197 0
175 198 0
174 198 0
173 197 0
173 197 0
176 199 0
173 197 0
174 197 0
175 198 0
175 198 0
174 198 0
174 198 0
176 199 0
175 198 0
175 198 0
174 198 0
173 197 0
176 198 0
175 198 0
174 197 0
175 198 0
174 197 0
174 197 0
176 198 0
174 198 0
175 198 0
174 197 0
175 198 0
175 198 0
175 198 0
176 199 0
175 198 0
173 197 0
175 198 0
174 198 0
175 198 0
173 197 0
174 198 0
174 198 0
174 198 0
173 197 0
175 198 0
175 198 0
173 197 0
174 197 0
173 197 0
174 198 0
173 197 0
173 197 0
174 198 0
173 197 0
175 198 0
175 198 0
174 197 0
173 197 0
174 197 0
174 198 0
172 196 0
175 198 0
174 198 0
174 197 0
173 197 0
174 197 0
174 198 0
173 197 0
175 198 0
176 198 0
172 196 0
176 199 0
172 197 0
175 198 0
175 198 0
174 197 0
175 198 0
174 196 0
174 198 0
174 197 0
174 197 0
174 198 0
175 198 0
175 198 0
174 197 0
173 197 0
174 197 0
173 196 0
175 198 0
173 197 0
174 198 0
174 198 0
174 197 0
175 198 0
173 197 0
175 198 0
173 197 0
174 198 0
175 198 0
175 198 0
174 197 0
174 197 0
175 198 0
176 199 0
174 197 0
174 197 0
173 197 0
174 197 0
174 198 0
174 198 0
175 198 0
173 196 0
173 197 0
174 198 0
175 198 0
175 197 0
173 197 0
171 194 0
174 198 0
174 197 0
174 197 0
174 198 0
174 197 0
175 198 0
175 198 0
175 198 0
175 198 0
173 197 0
173 197 0
171 195 0
173 197 0
172 196 0
175 198 0
174 197 0
172 196 0
173 197 0
174 197 0
172 195 0
173 197 0
174 198 0
173 197 0
174 197 0
174 197 0
173 197 0
174 197 0
175 198 0
172 196 0
171 196 0
174 197 0
173 197 0
174 198 0
173 197 0
173 197 0
174 197 0
171 195 0
172 195 0
173 196 0
173 196 0
173 196 0
173 197 0
174 197 0
175 198 0
175 198 0
172 196 0
173 197 0
171 196 0
172 196 0
174 197 0
172 196 0
174 197 0
172 196 0
174 197 0
173 196 0
171 195 0
175 198 0
174 197 0
172 196 0
174 197 0
173 196 0
170 194 0
173 197 0
171 195 0
171 195 0
173 196 0
173 197 0
172 196 0
171 195 0
173 196 0
174 197 0
176 198 0
170 193 0
171 195 0
168 192 0
174 197 0
171 195 0
174 198 0
173 196 0
175 198 0
172 196 0
172 195 0
173 196 0
172 196 0
171 195 0
173 195 0
172 195 0
173 195 0
171 194 0
173 196 0
174 198 0
172 195 0
174 197 0
174 197 0
173 197 0
173 196 0
173 196 0
173 196 0
172 196 0
171 195 0
173 196 0
174 197 0
172 195 0
173 196 0
175 197 0
175 198 0
170 194 0
173 196 0
173 196 0
172 195 0
172 195 0
172 195 0
173 197 0
172 195 0
173 197 0
174 198 0
173 197 0
174 197 0
172 196 0
171 194 0
172 195 0
171 195 0
173 197 0
173 196 0
175 197 0
171 195 0
173 196 0
172 196 0
172 195 0
172 195 0
172 196 0
172 196 0
172 196 0
173 196 0
173 196 0
173 196 0
174 197 0
173 196 0
172 196 0
174 197 0
173 197 0
172 195 0
173 195 0
173 196 0
174 198 0
173 197 0
173 196 0
172 196 0
172 195 0
172 196 0
171 195 0
173 197 0
173 197 0
172 195 0
174 198 0
173 197 0
173 197 0
174 197 0
172 196 0
174 197 0
175 198 0
173 197 0
172 196 0
173 197 0
171 195 0
173 196 0
172 196 0
174 198 0
174 198 0
173 197 0
176 198 0
172 195 0
174 197 0
175 198 0
173 197 0
174 198 0
174 197 0
174 197 0
172 195 0
176 199 0
173 197 0
174 197 0
174 197 0
172 196 0
172 196 0
173 197 0
173 197 0
172 196 0
173 196 0
174 197 0
173 197 0
173 197 0
172 196 0
173 197 0
173 197 0
173 196 0
173 196 0
173 197 0
173 197 0
173 197 0
175 198 0
173 196 0
174 198 0
172 196 0
174 197 0
173 197 0
175 198 0
174 197 0
174 197 0
174 198 0
174 198 0
174 198 0
171 196 0
175 198 0
175 198 0
175 198 0
173 197 0
174 198 0
172 195 0
172 196 0
174 197 0
174 197 0
174 197 0
176 198 0
172 195 0
174 197 0
173 197 0
173 196 0
175 198 0
174 197 0
176 198 0
171 195 0
175 198 0
175 198 0
173 197 0
175 198 0
173 196 0
173 197 0
174 198 0
175 198 0
175 198 0
175 198 0
174 198 0
174 197 0
174 198 0
174 197 0
172 197 0
173 197 0
174 197 0
173 197 0
175 198 0
172 196 0
174 197 0
174 197 0
173 196 0
176 198 0
173 197 0
175 198 0
173 197 0
176 198 0
175 198 0
174 198 0
174 198 0
174 198 0
173 197 0
175 197 0
173 197 0
174 198 0
174 198 0
173 197 0
174 197 0
175 198 0
173 196 0
174 198 0
174 198 0
175 198 0
173 197 0
174 197 0
175 198 0
174 198 0
171 194 0
174 198 0
174 198 0
173 197 0
176 199 0
175 198 0
175 198 0
173 197 0
176 199 0
175 198 0
173 197 0
175 198 0
174 197 0
175 198 0
174 197 0
174 197 0
174 197 0
174 198 0
175 198 0
176 199 0
172 197 0
175 198 0
174 198 0
175 198 0
174 198 0
173 197 0
173 197 0
173 196 0
174 198 0
174 198 0
175 198 0
174 198 0
174 197 0
174 198 0
175 198 0
174 197 0
175 198 0
174 198 0
174 198 0
175 198 0
174 197 0
175 198 0
176 199 0
174 197 0
175 198 0
174 198 0
175 198 0
175 198 0
173 197 0
173 197 0
175 198 0
173 197 0
173 197 0
173 197 0
174 198 0
173 196 0
173 197 0
174 198 0
174 198 0
175 198 0
174 197 0
174 198 0
175 198 0
174 198 0
174 198 0
174 197 0
176 198 0
176 199 0
172 196 0
175 198 0
173 196 0
173 197 0
174 198 0
174 197 0
174 197 0
174 197 0
175 198 0
175 198 0
174 197 0
174 198 0
173 197 0
172 196 0
175 198 0
173 197 0
175 198 0
173 197 0
175 197 0
175 198 0
174 198 0
174 197 0
174 197 0
176 198 0
173 197 0
174 198 0
174 198 0
172 196 0
175 198 0
174 198 0
175 198 0
175 198 0
173 197 0
175 198 0
174 197 0
174 197 0
174 198 0
174 198 0
174 198 0
175 198 0
174 198 0
174 197 0
173 197 0
175 197 0
175 198 0
173 196 0
174 198 0
172 196 0
174 198 0
174 197 0
174 197 0
175 198 0
174 197 0
173 197 0
173 197 0
172 196 0
175 198 0
171 195 0
173 197 0
174 197 0
173 196 0
173 197 0
174 197 0
172 196 0
175 198 0
175 198 0
175 198 0
175 198 0
175 198 0
174 197 0
173 197 0
174 197 0
173 197 0
175 198 0
175 198 0
174 197 0
174 197 0
174 197 0
173 196 0
175 198 0
174 197 0
174 197 0
175 198 0
172 197 0
173 196 0
173 197 0
176 198 0
175 198 0
173 197 0
174 197 0
172 196 0
172 196 0
174 197 0
173 197 0
172 196 0
173 197 0
175 198 0
174 197 0
173 196 0
174 198 0
174 198 0
173 196 0
175 198 0
175 198 0
174 197 0
173 196 0
172 195 0
173 196 0
173 196 0
173 197 0
174 198 0
173 197 0
172 195 0
173 197 0
172 196 0
172 194 0
175 197 0
171 194 0
175 197 0
174 197 0
174 197 0
171 195 0
174 197 0
171 195 0
173 196 0
172 196 0
171 195 0
172 195 0
176 198 0
173 196 0
173 197 0
174 197 0
173 197 0
173 197 0
173 196 0
172 197 0
172 195 0
172 196 0
172 196 0
175 198 0
171 194 0
171 195 0
172 195 0
172 195 0
172 196 0
174 198 0
174 197 0
172 196 0
176 198 0
170 194 0
173 196 0
173 197 0
174 197 0
171 195 0
172 196 0
174 198 0
172 196 0
174 198 0
172 196 0
175 198 0
174 197 0
173 196 0
175 198 0
170 193 0
173 197 0
173 197 0
174 198 0
173 197 0
173 196 0
173 197 0
172 196 0
173 196 0
171 195 0
171 195 0
174 197 0
175 198 0
174 197 0
173 196 0
174 197 0
174 197 0
173 196 0
173 197 0
173 197 0
173 197 0
174 197 0
170 194 0
171 195 0
173 196 0
174 198 0
173 196 0
171 195 0
175 198 0
175 197 0
173 197 0
174 196 0
173 197 0
174 198 0
170 194 0
175 198 0
171 195 0
174 197 0
174 197 0
173 197 0
174 197 0
175 198 0
173 196 0
173 196 0
175 198 0
173 197 0
173 197 0
173 196 0
175 198 0
172 196 0
172 196 0
174 197 0
173 196 0
174 197 0
172 196 0
173 196 0
175 198 0
172 196 0
174 198 0
173 196 0
174 197 0
173 197 0
174 197 0
174 197 0
173 197 0
174 197 0
172 196 0
173 196 0
174 197 0
174 197 0
173 197 0
174 197 0
173 196 0
174 198 0
173 195 0
176 199 0
174 197 0
174 198 0
175 198 0
173 197 0
174 197 0
173 197 0
174 197 0
176 199 0
173 197 0
176 198 0
173 196 0
174 198 0
172 196 0
174 197 0
174 198 0
173 197 0
175 198 0
173 196 0
173 196 0
175 198 0
174 198 0
174 197 0
176 198 0
172 196 0
174 198 0
175 198 0
173 197 0
173 197 0
175 198 0
174 197 0
174 197 0
173 197 0
174 198 0
173 197 0
174 197 0
174 198 0
175 198 0
175 198 0
175 198 0
173 197 0
174 197 0
172 196 0
174 198 0
175 198 0
174 197 0
173 197 0
175 198 0
174 197 0
174 198 0
175 198 0
175 198 0
175 198 0
176 198 0
174 197 0
174 198 0
174 198 0
175 198 0
173 197 0
174 197 0
174 197 0
174 198 0
174 198 0
173 196 0
174 197 0
175 198 0
173 197 0
174 198 0
173 197 0
174 197 0
174 197 0
173 197 0
173 197 0
174 198 0
173 197 0
174 197 0
174 197 0
176 199 0
174 198 0
174 198 0
176 198 0
173 197 0
175 198 0
175 198 0
175 198 0
174 198 0
174 198 0
172 196 0
174 197 0
174 197 0
173 197 0
176 199 0
176 199 0
173 197 0
175 198 0
175 198 0
175 198 0
175 198 0
175 198 0
173 197 0
176 198 0
174 198 0
174 197 0
175 198 0
173 197 0
174 197 0
173 197 0
175 198 0
175 198 0
172 197 0
173 197 0
174 198 0
175 198 0
175 198 0
175 198 0
173 197 0
171 196 0
176 198 0
175 198 0
174 198 0
173 197 0
174 198 0
174 198 0
176 199 0
175 198 0
173 197 0
175 198 0
174 198 0
176 198 0
174 197 0
174 197 0
173 197 0
175 198 0
174 198 0
176 199 0
173 197 0
173 197 0
174 197 0
175 198 0
174 197 0
174 198 0
174 198 0
172 196 0
176 199 0
174 198 0
174 197 0
173 197 0
175 198 0
174 198 0
174 198 0
175 198 0
173 197 0
174 198 0
173 196 0
173 197 0
173 196 0
175 198 0
174 197 0
175 198 0
175 198 0
174 198 0
175 198 0
173 197 0
176 198 0
175 198 0
175 198 0
174 198 0
174 198 0
175 198 0
174 198 0
172 196 0
174 197 0
175 198 0
175 198 0
174 198 0
174 198 0
174 197 0
173 197 0
175 198 0
174 197 0
173 197 0
173 196 0
174 198 0
176 199 0
173 197 0
174 198 0
174 198 0
175 198 0
176 198 0
174 198 0
172 195 0
175 198 0
173 197 0
173 197 0
173 196 0
171 195 0
173 197 0
175 198 0
172 196 0
175 198 0
174 198 0
173 196 0
174 198 0
172 196 0
175 198 0
173 197 0
171 195 0
172 195 0
174 198 0
174 197 0
172 196 0
175 198 0
174 198 0
174 197 0
172 196 0
175 198 0
174 197 0
174 197 0
173 197 0
172 196 0
173 197 0
174 197 0
174 197 0
176 198 0
174 198 0
173 197 0
172 196 0
173 196 0
171 194 0
173 197 0
175 198 0
173 197 0
174 197 0
172 196 0
174 197 0
174 197 0
173 197 0
173 197 0
173 197 0
174 198 0
174 197 0
172 197 0
173 197 0
174 197 0
174 198 0
175 198 0
175 197 0
175 198 0
171 195 0
172 197 0
171 196 0
172 196 0
172 196 0
173 197 0
176 199 0
173 197 0
175 198 0
174 198 0
173 197 0
173 197 0
175 198 0
172 196 0
173 196 0
174 197 0
174 197 0
173 196 0
175 198 0
174 197 0
170 194 0
173 196 0
175 198 0
174 197 0
175 198 0
174 197 0
172 197 0
172 196 0
172 195 0
174 197 0
173 196 0
173 196 0
174 197 0
174 197 0
175 197 0
173 197 0
174 197 0
173 196 0
173 197 0
173 196 0
173 196 0
173 196 0
173 197 0
171 195 0
170 194 0
171 194 0
172 196 0
174 197 0
173 196 0
173 197 0
173 197 0
172 195 0
171 195 0
170 194 0
174 197 0
173 196 0
172 196 0
174 197 0
173 197 0
173 196 0
174 197 0
172 195 0
173 196 0
173 196 0
174 197 0
173 196 0
173 196 0
173 196 0
172 196 0
172 196 0
174 197 0
174 197 0
172 195 0
174 197 0
173 197 0
174 198 0
171 195 0
174 197 0
173 196 0
173 197 0
175 198 0
175 198 0
171 194 0
173 197 0
173 196 0
171 193 0
174 197 0
174 197 0
171 195 0
175 198 0
173 197 0
174 197 0
173 195 0
171 195 0
174 197 0
171 194 0
174 197 0
174 197 0
174 197 0
174 197 0
173 197 0
174 197 0
174 197 0
171 195 0
172 195 0
173 197 0
173 196 0
173 196 0
173 196 0
173 196 0
175 197 0
172 195 0
174 197 0
174 197 0
174 197 0
175 198 0
173 196 0
172 196 0
173 197 0
172 196 0
173 196 0
174 197 0
173 197 0
173 196 0
172 196 0
172 195 0
174 197 0
174 198 0
175 198 0
174 198 0
173 197 0
173 197 0
173 196 0
173 197 0
174 197 0
174 198 0
174 197 0
173 197 0
174 197 0
175 198 0
176 198 0
175 198 0
175 198 0
173 197 0
174 197 0
173 197 0
173 196 0
174 198 0
173 197 0
174 197 0
175 198 0
175 198 0
174 197 0
171 196 0
174 197 0
171 195 0
173 197 0
173 196 0
174 197 0
172 196 0
175 198 0
174 197 0
174 197 0
173 197 0
174 197 0
173 196 0
173 196 0
172 196 0
175 198 0
171 195 0
173 197 0
174 197 0
173 195 0
174 198 0
173 197 0
174 198 0
174 197 0
174 197 0
174 198 0
173 197 0
173 196 0
174 197 0
174 197 0
175 198 0
174 198 0
174 198 0
174 198 0
174 198 0
173 196 0
174 197 0
175 198 0
174 198 0
175 198 0
174 197 0
173 197 0
174 198 0
173 197 0
173 197 0
175 198 0
173 197 0
175 198 0
173 196 0
173 197 0
174 198 0
175 198 0
172 196 0
175 197 0
175 198 0
174 197 0
174 197 0
175 198 0
174 197 0
176 198 0
175 198 0
174 198 0
174 198 0
172 196 0
173 197 0
174 198 0
173 196 0
176 198 0
174 198 0
175 198 0
173 196 0
173 197 0
173 197 0
174 197 0
173 197 0
175 197 0
172 197 0
174 198 0
175 198 0
174 198 0
174 198 0
174 198 0
173 196 0
175 198 0
172 197 0
175 198 0
175 198 0
176 198 0
173 197 0
175 198 0
174 198 0
173 197 0
174 197 0
175 198 0
175 198 0
173 197 0
173 197 0
174 198 0
172 196 0
174 198 0
173 197 0
175 198 0
175 198 0
172 197 0
174 198 0
177 199 0
172 196 0
175 198 0
175 198 0
174 198 0
174 197 0
175 198 0
174 197 0
174 198 0
175 198 0
174 197 0
173 197 0
174 198 0
175 198 0
176 198 0
174 198 0
174 197 0
174 198 0
175 198 0
175 198 0
175 198 0
174 198 0
174 197 0
175 198 0
173 197 0
174 198 0
175 198 0
176 199 0
175 198 0
174 198 0
175 198 0
176 199 0
175 198 0
174 198 0
175 198 0
176 199 0
175 198 0
174 198 0
174 198 0
174 198 0
175 198 0
175 198 0
172 196 0
173 197 0
174 198 0
176 198 0
174 197 0
174 197 0
175 198 0
176 199 0
174 198 0
175 198 0
175 198 0
175 198 0
173 196 0
175 198 0
174 197 0
174 198 0
173 197 0
175 198 0
174 198 0
174 198 0
175 198 0
173 197 0
175 198 0
174 198 0
174 197 0
175 198 0
172 197 0
174 198 0
174 197 0
173 197 0
174 198 0
173 196 0
174 198 0
175 198 0
175 198 0
176 199 0
173 197 0
174 198 0
174 198 0
174 197 0
175 198 0
173 197 0
175 198 0
173 197 0
173 197 0
173 196 0
173 197 0
173 197 0
175 198 0
175 198 0
173 197 0
174 198 0
172 196 0
174 198 0
173 197 0
174 197 0
174 197 0
173 197 0
174 198 0
174 198 0
173 197 0
173 197 0
175 198 0
174 197 0
172 196 0
173 197 0
175 198 0
174 198 0
174 197 0
175 198 0
174 197 0
175 198 0
174 197 0
171 195 0
173 197 0
173 197 0
173 197 0
172 196 0
173 196 0
174 197 0
174 198 0
173 196 0
174 197 0
173 196 0
174 197 0
175 198 0
174 198 0
173 197 0
174 197 0
172 195 0
172 197 0
173 197 0
173 197 0
173 197 0
175 198 0
174 197 0
174 197 0
173 197 0
175 198 0
172 196 0
174 197 0
173 196 0
174 197 0
173 197 0
171 195 0
173 197 0
173 197 0
173 196 0
175 198 0
173 197 0
172 196 0
174 197 0
174 198 0
176 198 0
172 196 0
174 198 0
174 197 0
171 194 0
173 196 0
173 197 0
173 197 0
174 197 0
172 196 0
172 196 0
173 197 0
173 196 0
172 195 0
172 195 0
174 197 0
171 195 0
172 195 0
173 196 0
175 198 0
171 194 0
175 198 0
173 197 0
173 196 0
171 195 0
172 195 0
173 196 0
175 198 0
174 197 0
174 197 0
170 194 0
174 197 0
175 198 0
172 196 0
173 196 0
172 196 0
172 196 0
172 196 0
172 196 0
171 195 0
173 196 0
174 197 0
171 195 0
174 197 0
175 198 0
174 197 0
172 196 0
174 197 0
171 195 0
173 197 0
175 198 0
173 197 0
175 198 0
172 195 0
171 195 0
173 195 0
175 198 0
175 198 0
172 196 0
172 195 0
172 196 0
171 195 0
171 195 0
173 197 0
170 195 0
171 195 0
174 197 0
173 196 0
173 195 0
174 197 0
174 197 0
173 197 0
172 196 0
174 198 0
173 197 0
175 198 0
172 196 0
172 196 0
173 197 0
172 197 0
175 198 0
171 195 0
172 196 0
173 197 0
175 198 0
172 196 0
173 196 0
172 196 0
173 196 0
174 197 0
173 197 0
174 197 0
173 196 0
171 195 0
175 197 0
174 197 0
174 197 0
174 197 0
172 196 0
175 198 0
175 198 0
174 198 0
171 195 0
173 197 0
173 196 0
175 197 0
173 197 0
171 196 0
171 195 0
174 197 0
176 198 0
175 198 0
174 198 0
172 196 0
173 197 0
173 197 0
173 196 0
171 195 0
174 197 0
173 196 0
175 198 0
174 198 0
175 198 0
174 198 0
174 197 0
174 198 0
173 197 0
174 197 0
174 197 0
174 197 0
174 197 0
172 196 0
172 196 0
174 197 0
173 196 0
174 197 0
175 198 0
173 197 0
172 197 0
174 197 0
172 196 0
172 195 0
173 197 0
172 197 0
174 197 0
175 198 0
174 197 0
175 198 0
174 197 0
174 198 0
175 198 0
174 197 0
174 197 0
174 198 0
175 198 0
173 197 0
175 198 0
173 196 0
173 197 0
173 197 0
176 198 0
173 196 0
173 197 0
173 196 0
175 198 0
172 197 0
173 197 0
174 197 0
174 197 0
174 197 0
175 198 0
174 197 0
173 197 0
175 198 0
173 197 0
174 198 0
174 198 0
171 196 0
175 198 0
174 197 0
175 197 0
174 197 0
175 198 0
172 196 0
176 199 0
173 197 0
175 198 0
173 197 0
174 197 0
172 197 0
175 197 0
173 197 0
173 197 0
172 196 0
175 198 0
175 198 0
174 198 0
175 198 0
174 197 0
174 197 0
174 198 0
175 198 0
175 198 0
174 197 0
172 196 0
172 196 0
175 198 0
173 197 0
173 197 0
174 198 0
174 198 0
173 197 0
174 197 0
174 197 0
173 197 0
175 198 0
173 197 0
175 198 0
175 198 0
175 198 0
173 197 0
174 198 0
175 198 0
174 198 0
174 198 0
174 198 0
174 198 0
175 198 0
174 198 0
175 198 0
174 198 0
173 197 0
173 197 0
176 199 0
176 199 0
174 197 0
173 197 0
175 198 0
174 198 0
174 197 0
174 198 0
174 198 0
173 197 0
175 198 0
174 198 0
174 197 0
174 198 0
174 197 0
174 197 0
176 199 0
173 197 0
174 198 0
171 196 0
174 198 0
174 197 0
175 198 0
176 198 0
176 198 0
175 198 0
174 198 0
175 198 0
175 198 0
173 197 0
175 198 0
176 199 0
174 197 0
175 198 0
173 197 0
174 198 0
175 198 0
175 198 0
174 198 0
174 197 0
176 199 0
174 197 0
175 198 0
175 198 0
174 197 0
174 197 0
174 198 0
175 198 0
173 197 0
174 197 0
174 197 0
173 196 0
175 198 0
174 196 0
174 198 0
174 198 0
174 197 0
175 198 0
173 197 0
173 197 0
175 198 0
175 198 0
173 196 0
172 196 0
176 198 0
174 198 0
174 198 0
175 198 0
174 197 0
175 198 0
174 198 0
175 198 0
173 196 0
173 197 0
173 197 0
173 197 0
175 198 0
174 198 0
172 196 0
175 198 0
175 198 0
174 197 0
173 197 0
173 197 0
173 197 0
174 197 0
173 197 0
175 198 0
173 197 0
172 197 0
174 198 0
174 198 0
174 197 0
174 198 0
173 197 0
174 198 0
175 198 0
173 197 0
174 198 0
173 196 0
173 197 0
175 198 0
175 198 0
174 198 0
172 196 0
174 197 0
173 197 0
174 198 0
175 198 0
171 195 0
173 197 0
176 199 0
177 199 0
173 196 0
176 198 0
174 197 0
173 196 0
174 197 0
173 197 0
174 196 0
174 197 0
173 197 0
172 196 0
174 198 0
173 196 0
174 198 0
173 197 0
174 197 0
174 198 0
172 196 0
173 196 0
174 197 0
172 196 0
175 198 0
174 197 0
174 197 0
175 198 0
173 197 0
174 198 0
172 196 0
174 197 0
174 197 0
175 198 0
174 197 0
173 196 0
171 195 0
174 197 0
173 196 0
172 196 0
171 194 0
174 197 0
174 198 0
172 196 0
175 198 0
173 197 0
173 197 0
174 197 0
174 198 0
174 197 0
173 196 0
174 197 0
172 195 0
173 197 0
173 196 0
174 197 0
173 196 0
175 198 0
173 197 0
172 196 0
172 195 0
172 197 0
174 197 0
171 194 0
174 197 0
174 198 0
174 196 0
174 196 0
172 196 0
174 197 0
173 196 0
172 195 0
174 198 0
173 196 0
175 198 0
173 197 0
171 195 0
173 197 0
173 195 0
173 197 0
174 198 0
173 196 0
172 196 0
171 195 0
171 194 0
174 197 0
173 197 0
172 195 0
173 197 0
172 196 0
173 196 0
174 198 0
172 196 0
175 198 0
173 196 0
174 198 0
172 195 0
173 197 0
176 198 0
175 197 0
174 197 0
171 195 0
172 195 0
175 197 0
175 198 0
173 196 0
173 196 0
172 196 0
171 195 0
171 194 0
172 196 0
172 196 0
174 197 0
173 196 0
174 197 0
172 196 0
171 195 0
171 194 0
174 197 0
171 195 0
174 197 0
173 197 0
171 195 0
174 198 0
173 196 0
172 196 0
172 195 0
174 197 0
174 197 0
173 196 0
173 197 0
172 195 0
172 196 0
173 196 0
172 196 0
176 198 0
171 195 0
173 196 0
176 199 0
174 197 0
175 198 0
171 195 0
174 198 0
174 197 0
173 196 0
173 196 0
173 196 0
173 196 0
174 197 0
175 197 0
172 196 0
172 197 0
173 196 0
174 197 0
172 196 0
175 198 0
174 198 0
175 198 0
173 197 0
173 197 0
175 198 0
175 197 0
173 197 0
173 196 0
174 198 0
174 197 0
171 195 0
174 197 0
173 196 0
174 198 0
174 198 0
175 198 0
174 198 0
174 197 0
173 197 0
174 197 0
173 197 0
173 197 0
174 198 0
174 197 0
175 198 0
173 197 0
172 196 0
175 198 0
173 197 0
176 199 0
171 194 0
173 197 0
173 196 0
174 198 0
175 198 0
173 196 0
173 196 0
173 196 0
175 198 0
174 198 0
174 197 0
175 198 0
175 198 0
174 197 0
174 197 0
174 197 0
173 197 0
176 198 0
171 196 0
175 197 0
175 198 0
172 196 0
173 196 0
174 198 0
175 198 0
174 198 0
175 198 0
173 197 0
174 198 0
173 197 0
173 197 0
174 197 0
173 197 0
174 197 0
176 198 0
174 197 0
175 198 0
174 198 0
173 197 0
175 198 0
173 197 0
172 195 0
175 198 0
174 198 0
174 197 0
173 196 0
175 198 0
173 197 0
172 196 0
173 197 0
173 197 0
175 198 0
174 197 0
175 198 0
174 198 0
174 198 0
174 198 0
176 198 0
173 196 0
175 198 0
173 196 0
176 198 0
176 199 0
175 198 0
173 196 0
174 197 0
173 197 0
173 197 0
174 197 0
174 197 0
173 197 0
175 198 0
173 197 0
173 196 0
173 197 0
173 197 0
174 198 0
175 198 0
174 198 0
174 198 0
175 198 0
174 198 0
176 198 0
176 199 0
173 197 0
174 197 0
174 197 0
176 199 0
173 197 0
174 198 0
173 197 0
175 198 0
176 198 0
175 198 0
175 198 0
174 197 0
174 198 0
174 197 0
176 199 0
175 198 0
173 197 0
175 198 0
174 197 0
174 197 0
173 197 0
174 198 0
175 198 0
174 198 0
174 197 0
175 198 0
175 198 0
174 198 0
176 198 0
173 197 0
175 198 0
174 197 0
175 198 0
174 197 0
174 198 0
173 197 0
174 197 0
174 197 0
174 198 0
175 198 0
174 198 0
174 198 0
173 197 0
173 197 0
174 197 0
175 198 0
175 198 0
174 198 0
174 197 0
174 197 0
174 197 0
173 197 0
175 198 0
174 198 0
174 198 0
174 198 0
173 197 0
175 198 0
173 197 0
173 197 0
175 198 0
176 199 0
174 197 0
174 198 0
173 197 0
174 198 0
173 196 0
175 198 0
174 197 0
176 198 0
174 198 0
174 198 0
173 197 0
174 197 0
175 198 0
174 198 0
176 199 0
174 198 0
174 198 0
175 198 0
173 197 0
175 198 0
175 198 0
174 198 0
173 197 0
173 197 0
173 197 0
173 197 0
175 198 0
175 198 0
174 198 0
172 196 0
172 196 0
174 198 0
173 196 0
174 197 0
174 198 0
173 197 0
175 198 0
176 198 0
174 198 0
175 198 0
175 198 0
174 197 0
174 197 0
175 198 0
174 198 0
175 198 0
174 197 0
173 197 0
173 197 0
174 197 0
174 198 0
175 198 0
174 197 0
174 198 0
174 198 0
174 197 0
174 197 0
175 198 0
175 198 0
172 197 0
174 197 0
173 197 0
174 197 0
172 196 0
174 198 0
175 198 0
172 196 0
175 198 0
172 196 0
174 197 0
171 196 0
175 198 0
173 197 0
173 196 0
176 199 0
174 197 0
176 199 0
174 198 0
173 196 0
175 198 0
174 197 0
175 198 0
173 197 0
174 197 0
175 198 0
174 198 0
174 197 0
174 198 0
175 198 0
173 197 0
173 197 0
171 195 0
173 197 0
174 197 0
173 197 0
173 197 0
173 196 0
174 198 0
175 198 0
175 198 0
174 197 0
175 198 0
172 195 0
174 197 0
174 198 0
173 196 0
174 197 0
173 197 0
175 198 0
172 196 0
171 195 0
173 196 0
173 196 0
174 197 0
173 196 0
172 195 0
175 198 0
175 198 0
173 196 0
173 196 0
173 197 0
173 196 0
173 196 0
172 197 0
170 194 0
176 198 0
174 197 0
170 194 0
173 196 0
170 194 0
173 196 0
172 195 0
173 196 0
173 196 0
173 196 0
173 197 0
173 196 0
173 196 0
172 196 0
172 196 0
174 197 0
173 197 0
174 198 0
171 195 0
171 194 0
174 197 0
173 197 0
174 197 0
173 197 0
172 196 0
174 197 0
174 197 0
173 196 0
171 195 0
173 196 0
172 195 0
173 196 0
174 197 0
172 196 0
172 195 0
174 198 0
175 198 0
174 196 0
172 196 0
172 196 0
172 196 0
173 196 0
170 194 0
175 198 0
174 197 0
170 193 0
173 197 0
173 197 0
173 197 0
171 195 0
172 196 0
173 197 0
172 195 0
171 194 0
171 195 0
173 197 0
172 196 0
174 197 0
173 196 0
172 196 0
173 196 0
176 199 0
173 197 0
174 197 0
174 197 0
173 197 0
172 196 0
170 193 0
172 195 0
174 197 0
172 195 0
175 198 0
173 196 0
174 197 0
173 197 0
174 197 0
174 197 0
171 194 0
173 196 0
172 195 0
173 197 0
175 198 0
173 197 0
173 197 0
173 197 0
172 195 0
173 197 0
171 194 0
173 197 0
173 196 0
173 197 0
173 197 0
174 197 0
173 197 0
174 197 0
175 198 0
171 195 0
172 196 0
173 196 0
175 197 0
173 197 0
172 195 0
175 198 0
175 198 0
172 196 0
173 197 0
174 197 0
171 195 0
173 196 0
173 196 0
172 195 0
173 197 0
172 196 0
173 196 0
174 197 0
175 197 0
173 197 0
172 197 0
172 196 0
171 194 0
176 198 0
173 197 0
173 197 0
172 196 0
174 197 0
172 196 0
176 198 0
173 197 0
174 198 0
172 196 0
173 196 0
174 198 0
175 198 0
174 197 0
174 198 0
172 196 0
172 196 0
173 197 0
173 196 0
174 197 0
175 198 0
173 196 0
174 197 0
175 198 0
173 197 0
172 196 0
174 198 0
174 198 0
175 198 0
173 197 0
174 198 0
174 197 0
175 198 0
174 197 0
174 198 0
173 197 0
174 198 0
174 198 0
174 198 0
173 196 0
173 197 0
173 197 0
175 198 0
175 197 0
173 197 0
176 198 0
174 197 0
175 198 0
175 198 0
173 196 0
174 198 0
173 197 0
174 197 0
175 198 0
174 197 0
173 196 0
172 196 0
174 197 0
172 197 0
174 197 0
174 198 0
174 197 0
175 198 0
174 197 0
175 198 0
174 198 0
175 198 0
173 197 0
174 197 0
175 198 0
175 198 0
175 198 0
175 198 0
174 198 0
174 198 0
173 197 0
175 198 0
175 198 0
175 198 0
175 198 0
174 198 0
173 197 0
173 197 0
174 198 0
175 198 0
175 198 0
174 197 0
175 198 0
173 197 0
173 197 0
175 198 0
175 198 0
175 198 0
173 197 0
175 198 0
174 197 0
173 197 0
175 198 0
174 197 0
174 198 0
174 197 0
174 198 0
174 197 0
174 198 0
172 196 0
174 198 0
175 198 0
173 196 0
174 197 0
174 198 0
176 199 0
174 197 0
174 198 0
173 197 0
174 197 0
175 198 0
172 196 0
174 198 0
174 198 0
173 197 0
174 197 0
174 197 0
173 197 0
174 198 0
176 199 0
173 197 0
174 197 0
175 198 0
174 198 0
173 197 0
173 196 0
174 197 0
173 197 0
176 199 0
174 198 0
174 198 0
175 198 0
173 197 0
174 198 0
174 198 0
173 197 0
173 197 0
176 199 0
175 198 0
174 197 0
172 196 0
175 198 0
174 197 0
173 197 0
174 197 0
174 198 0
175 198 0
174 197 0
176 198 0
173 197 0
174 198 0
175 198 0
176 199 0
175 198 0
175 198 0
173 197 0
173 197 0
174 198 0
172 196 0
174 198 0
173 197 0
173 197 0
173 196 0
173 197 0
174 198 0
175 198 0
175 198 0
172 197 0
176 199 0
173 197 0
174 198 0
174 198 0
175 198 0
175 198 0
172 197 0
174 198 0
174 197 0
174 198 0
175 198 0
174 197 0
174 198 0
174 197 0
175 198 0
175 198 0
175 198 0
174 197 0
176 199 0
174 198 0
173 197 0
174 198 0
173 197 0
173 197 0
175 198 0
172 196 0
175 198 0
173 197 0
174 198 0
174 198 0
173 196 0
172 196 0
176 199 0
173 197 0
173 196 0
174 198 0
174 198 0
175 198 0
173 197 0
175 198 0
172 196 0
175 198 0
173 197 0
174 198 0
173 197 0
173 197 0
174 197 0
174 197 0
174 198 0
175 198 0
174 197 0
174 197 0
174 198 0
175 198 0
175 198 0
173 197 0
174 197 0
174 198 0
174 197 0
174 198 0
173 197 0
174 198 0
174 198 0
175 198 0
175 198 0
174 197 0
172 195 0
172 195 0
174 197 0
174 198 0
174 197 0
174 197 0
173 197 0
174 198 0
174 198 0
174 197 0
174 197 0
174 197 0
173 196 0
170 193 0
175 198 0
176 198 0
172 196 0
173 196 0
173 197 0
173 196 0
173 197 0
173 196 0
173 196 0
172 196 0
174 197 0
174 196 0
171 195 0
175 198 0
175 198 0
173 197 0
174 198 0
173 197 0
173 197 0
174 197 0
174 197 0
173 196 0
172 196 0
171 195 0
173 197 0
170 194 0
174 198 0
172 196 0
173 196 0
175 198 0
170 194 0
174 197 0
174 198 0
174 197 0
174 198 0
174 197 0
171 195 0
173 197 0
174 197 0
172 195 0
173 197 0
172 196 0
174 198 0
174 198 0
173 197 0
173 197 0
171 195 0
174 198 0
172 196 0
173 196 0
173 196 0
172 195 0
173 197 0
172 195 0
171 196 0
172 195 0
174 197 0
173 197 0
172 195 0
170 193 0
170 194 0
173 197 0
173 196 0
172 196 0
173 197 0
173 196 0
173 196 0
174 197 0
173 197 0
169 193 0
171 195 0
173 196 0
173 196 0
174 197 0
174 196 0
173 196 0
173 197 0
171 194 0
172 196 0
172 196 0
173 196 0
172 196 0
176 198 0
173 196 0
175 197 0
171 195 0
172 195 0
173 197 0
174 197 0
170 194 0
173 197 0
173 196 0
173 197 0
173 197 0
172 196 0
174 197 0
173 197 0
173 196 0
172 196 0
173 196 0
175 198 0
174 198 0
174 198 0
175 198 0
173 197 0
174 197 0
171 194 0
174 198 0
174 197 0
175 198 0
170 194 0
172 196 0
174 197 0
174 197 0
174 198 0
172 196 0
174 196 0
173 196 0
172 196 0
173 197 0
170 194 0
174 197 0
176 199 0
172 196 0
173 197 0
175 198 0
173 196 0
174 198 0
173 197 0
175 198 0
174 198 0
174 198 0
175 198 0
173 197 0
173 197 0
174 197 0
173 197 0
174 198 0
173 197 0
173 197 0
173 196 0
172 195 0
173 196 0
173 197 0
173 196 0
174 198 0
175 198 0
174 196 0
172 197 0
173 197 0
173 197 0
173 197 0
174 197 0
173 197 0
173 196 0
175 198 0
172 197 0
173 196 0
175 198 0
175 198 0
173 197 0
174 197 0
175 198 0
174 197 0
174 197 0
175 198 0
175 198 0
174 197 0
173 197 0
173 197 0
174 197 0
173 197 0
172 196 0
173 196 0
172 195 0
176 198 0
175 198 0
173 196 0
174 198 0
175 197 0
173 196 0
175 198 0
174 198 0
174 197 0
172 196 0
174 197 0
172 197 0
173 196 0
174 197 0
172 196 0
173 197 0
175 197 0
175 198 0
175 198 0
174 197 0
175 198 0
174 198 0
175 198 0
174 198 0
174 197 0
174 197 0
174 198 0
173 197 0
173 197 0
172 197 0
174 197 0
174 198 0
175 198 0
174 198 0
173 197 0
174 198 0
173 196 0
174 198 0
175 198 0
174 197 0
175 198 0
176 198 0
174 197 0
175 198 0
172 196 0
176 198 0
173 197 0
173 197 0
177 199 0
172 197 0
174 197 0
173 197 0
173 197 0
173 197 0
174 198 0
175 198 0
174 197 0
175 198 0
175 198 0
173 196 0
173 197 0
175 198 0
175 198 0
173 197 0
173 196 0
172 196 0
175 198 0
175 198 0
174 198 0
174 198 0
174 197 0
174 198 0
173 197 0
174 198 0
174 197 0
175 198 0
174 197 0
174 198 0
174 198 0
173 197 0
173 197 0
174 198 0
174 198 0
174 197 0
174 198 0
175 198 0
174 198 0
174 198 0
174 198 0
173 197 0
174 198 0
174 198 0
174 197 0
172 196 0
174 198 0
174 197 0
174 197 0
174 197 0
175 198 0
173 197 0
174 197 0
174 198 0
174 198 0
172 196 0
174 197 0
174 198 0
175 198 0
173 197 0
175 198 0
174 198 0
174 198 0
175 198 0
174 198 0
175 198 0
175 198 0
174 198 0
175 198 0
174 197 0
174 197 0
174 198 0
173 197 0
172 196 0
174 197 0
174 198 0
176 198 0
174 198 0
173 197 0
173 197 0
174 198 0
175 198 0
175 198 0
174 198 0
173 197 0
173 197 0
176 199 0
175 198 0
175 198 0
173 197 0
174 197 0
174 197 0
174 198 0
174 198 0
174 197 0
175 198 0
176 198 0
175 198 0
174 198 0
172 196 0
175 198 0
172 196 0
174 198 0
175 198 0
174 198 0
172 196 0
175 198 0
175 198 0
174 197 0
175 198 0
175 198 0
172 197 0
170 195 0
174 197 0
171 195 0
174 198 0
172 197 0
173 196 0
173 197 0
174 197 0
174 198 0
174 198 0
175 198 0
173 197 0
174 197 0
174 198 0
172 196 0
173 197 0
175 198 0
175 198 0
174 197 0
174 197 0
175 198 0
175 198 0
174 197 0
176 198 0
174 197 0
174 198 0
174 197 0
174 198 0
172 197 0
173 197 0
175 198 0
173 197 0
175 198 0
174 198 0
174 197 0
174 198 0
173 196 0
174 197 0
174 198 0
175 198 0
174 198 0
174 197 0
173 197 0
173 196 0
173 197 0
174 198 0
174 198 0
173 197 0
174 197 0
173 197 0
174 197 0
172 197 0
173 197 0
173 197 0
174 197 0
173 197 0
173 197 0
173 197 0
175 198 0
173 197 0
173 196 0
174 198 0
175 198 0
174 197 0
173 196 0
174 196 0
175 198 0
173 197 0
173 197 0
172 196 0
172 195 0
174 198 0
173 197 0
175 198 0
173 196 0
172 196 0
175 198 0
175 198 0
173 197 0
175 198 0
172 196 0
174 198 0
174 198 0
175 198 0
175 198 0
174 197 0
172 195 0
174 198 0
173 197 0
173 196 0
172 196 0
174 198 0
173 197 0
174 198 0
173 196 0
172 196 0
171 195 0
172 196 0
175 198 0
174 197 0
175 198 0
172 196 0
176 198 0
173 197 0
173 197 0
172 195 0
173 197 0
174 198 0
171 195 0
172 197 0
172 196 0
173 196 0
171 195 0
172 196 0
172 195 0
173 197 0
173 196 0
173 197 0
174 197 0
172 196 0
174 197 0
171 196 0
173 197 0
174 197 0
173 196 0
173 197 0
172 196 0
175 197 0
171 195 0
170 194 0
174 197 0
173 196 0
172 195 0
172 196 0
172 196 0
172 196 0
171 195 0
171 195 0
173 197 0
171 195 0
174 197 0
173 196 0
172 196 0
170 193 0
172 195 0
172 196 0
173 196 0
173 197 0
174 197 0
175 197 0
174 197 0
173 196 0
173 196 0
172 195 0
172 196 0
173 196 0
174 197 0
175 198 0
174 197 0
174 197 0
173 196 0
174 198 0
175 197 0
171 194 0
172 196 0
174 197 0
173 196 0
172 196 0
174 197 0
174 197 0
172 196 0
172 196 0
175 198 0
174 197 0
175 198 0
174 197 0
170 194 0
173 196 0
172 196 0
175 198 0
172 196 0
172 195 0
173 196 0
173 197 0
174 197 0
174 197 0
173 197 0
173 197 0
173 196 0
174 198 0
171 194 0
172 196 0
173 197 0
174 197 0
173 196 0
171 195 0
174 196 0
173 196 0
173 197 0
174 197 0
175 198 0
173 196 0
175 198 0
173 197 0
173 197 0
175 197 0
172 196 0
172 196 0
173 197 0
172 196 0
174 197 0
173 196 0
175 198 0
174 197 0
174 197 0
175 198 0
174 197 0
173 196 0
175 198 0
173 197 0
174 197 0
175 198 0
173 197 0
174 198 0
172 196 0
176 199 0
174 198 0
175 198 0
175 198 0
174 197 0
175 198 0
171 195 0
172 196 0
174 197 0
173 197 0
174 198 0
174 198 0
172 196 0
174 197 0
175 198 0
175 197 0
175 198 0
173 197 0
172 195 0
174 198 0
175 198 0
175 198 0
175 198 0
172 196 0
173 197 0
174 197 0
174 197 0
174 197 0
174 197 0
175 198 0
173 196 0
174 197 0
174 198 0
174 198 0
173 197 0
175 198 0
173 197 0
174 198 0
173 196 0
174 198 0
174 198 0
173 197 0
174 198 0
175 198 0
175 198 0
173 197 0
172 196 0
175 198 0
174 197 0
174 197 0
173 197 0
174 197 0
175 198 0
175 198 0
173 197 0
174 197 0
173 197 0
174 198 0
173 197 0
174 197 0
174 197 0
174 198 0
174 198 0
173 197 0
175 198 0
176 198 0
174 198 0
173 197 0
176 199 0
176 198 0
174 197 0
174 198 0
175 198 0
175 198 0
176 199 0
176 199 0
174 198 0
173 197 0
174 198 0
173 197 0
174 197 0
175 198 0
175 198 0
174 198 0
175 198 0
175 198 0
174 198 0
174 197 0
174 197 0
172 197 0
175 197 0
175 198 0
174 198 0
175 197 0
174 197 0
174 198 0
175 198 0
175 198 0
173 197 0
175 198 0
174 198 0
175 198 0
175 198 0
177 199 0
174 197 0
174 198 0
174 197 0
176 199 0
175 198 0
174 198 0
177 199 0
173 197 0
174 198 0
175 198 0
175 198 0
174 197 0
175 198 0
173 197 0
175 198 0
173 197 0
173 197 0
175 198 0
173 196 0
174 198 0
176 198 0
174 197 0
174 197 0
174 197 0
173 197 0
174 198 0
174 198 0
174 198 0
176 199 0
174 198 0
175 198 0
174 197 0
176 199 0
175 198 0
174 198 0
174 198 0
173 197 0
175 198 0
177 199 0
174 197 0
175 198 0
174 198 0
173 197 0
174 198 0
174 197 0
173 197 0
175 198 0
174 197 0
174 198 0
174 197 0
175 198 0
175 198 0
176 199 0
175 198 0
175 198 0
173 197 0
175 198 0
173 197 0
176 198 0
171 195 0
174 198 0
172 196 0
174 198 0
174 197 0
172 196 0
174 198 0
174 197 0
175 198 0
174 198 0
175 198 0
175 198 0
174 198 0
177 199 0
176 198 0
173 196 0
173 197 0
174 197 0
173 197 0
174 198 0
175 198 0
173 196 0
173 197 0
175 198 0
174 198 0
175 198 0
174 198 0
175 198 0
175 198 0
175 198 0
173 197 0
173 197 0
173 197 0
174 198 0
175 198 0
175 198 0
174 197 0
174 197 0
175 198 0
173 197 0
174 197 0
173 197 0
174 197 0
174 198 0
173 197 0
173 197 0
174 197 0
172 195 0
174 198 0
173 196 0
174 197 0
173 197 0
176 199 0
174 197 0
174 198 0
174 197 0
175 198 0
176 198 0
174 198 0
171 196 0
174 197 0
174 198 0
175 198 0
172 196 0
174 198 0
174 198 0
172 196 0
173 197 0
175 198 0
172 196 0
173 197 0
175 198 0
174 198 0
174 197 0
174 198 0
173 196 0
172 196 0
173 197 0
175 198 0
174 197 0
174 197 0
172 196 0
173 197 0
175 198 0
174 197 0
173 196 0
174 198 0
173 197 0
174 197 0
173 197 0
174 197 0
172 197 0
175 198 0
172 196 0
172 196 0
174 197 0
174 197 0
173 197 0
174 198 0
173 197 0
174 197 0
173 197 0
171 195 0
174 197 0
174 197 0
175 198 0
173 197 0
172 196 0
172 196 0
172 195 0
173 196 0
173 196 0
173 197 0
173 197 0
172 196 0
172 196 0
171 195 0
173 196 0
174 197 0
172 195 0
171 195 0
175 198 0
174 197 0
171 195 0
170 194 0
173 196 0
174 197 0
174 197 0
172 195 0
172 195 0
174 197 0
171 194 0
172 196 0
171 194 0
174 198 0
171 195 0
172 196 0
173 197 0
171 194 0
173 197 0
175 198 0
173 197 0
173 197 0
172 196 0
172 196 0
171 195 0
171 194 0
174 197 0
174 198 0
171 195 0
172 196 0
174 197 0
172 195 0
173 196 0
173 197 0
174 197 0
172 195 0
174 198 0
171 195 0
172 195 0
172 196 0
174 197 0
173 197 0
170 193 0
172 195 0
168 192 0
174 198 0
173 197 0
173 197 0
171 195 0
174 197 0
173 196 0
172 196 0
174 198 0
173 196 0
172 196 0
173 197 0
175 197 0
173 196 0
174 197 0
174 197 0
175 198 0
172 196 0
170 194 0
173 197 0
173 197 0
173 196 0
173 197 0
173 196 0
173 196 0
174 197 0
175 198 0
175 198 0
174 197 0
172 195 0
173 196 0
172 196 0
171 194 0
173 196 0
174 198 0
172 196 0
173 197 0
173 195 0
172 196 0
173 197 0
174 198 0
173 197 0
172 196 0
173 197 0
171 194 0
176 199 0
171 195 0
173 197 0
173 196 0
173 197 0
176 198 0
174 197 0
173 196 0
174 197 0
174 197 0
173 197 0
175 198 0
173 197 0
173 197 0
174 197 0
175 198 0
174 198 0
175 198 0
175 198 0
173 197 0
172 195 0
175 198 0
174 197 0
174 197 0
173 197 0
174 197 0
174 198 0
173 197 0
174 197 0
173 197 0
174 197 0
173 196 0
172 196 0
172 197 0
175 198 0
173 197 0
173 196 0
175 198 0
172 196 0
174 198 0
174 197 0
173 197 0
175 198 0
172 196 0
174 198 0
175 198 0
173 196 0
174 198 0
176 199 0
174 197 0
173 196 0
175 198 0
174 197 0
174 198 0
174 197 0
172 196 0
172 195 0
175 198 0
174 198 0
174 198 0
175 198 0
175 198 0
175 198 0
175 198 0
174 197 0
173 197 0
175 198 0
175 198 0
175 198 0
176 198 0
174 197 0
174 198 0
175 198 0
174 197 0
174 197 0
174 198 0
175 198 0
171 195 0
173 197 0
173 197 0
174 197 0
174 197 0
174 198 0
173 197 0
175 198 0
174 198 0
173 197 0
174 197 0
177 199 0
175 198 0
174 197 0
174 197 0
173 197 0
173 197 0
173 197 0
174 198 0
172 197 0
174 197 0
173 197 0
173 196 0
174 198 0
175 198 0
173 196 0
173 197 0
173 197 0
173 197 0
174 197 0
175 198 0
175 198 0
175 198 0
175 198 0
174 198 0
173 197 0
175 198 0
173 197 0
174 197 0
174 198 0
175 198 0
174 198 0
173 197 0
175 198 0
175 198 0
176 198 0
175 198 0
173 197 0
175 198 0
174 198 0
173 197 0
175 198 0
175 198 0
175 198 0
174 198 0
174 198 0
174 198 0
176 198 0
175 198 0
174 198 0
175 198 0
176 198 0
173 197 0
175 198 0
175 198 0
173 197 0
175 198 0
176 198 0
174 197 0
176 199 0
174 198 0
174 197 0
173 197 0
175 198 0
175 198 0
173 197 0
176 199 0
175 198 0
174 198 0
173 197 0
174 198 0
173 197 0
175 198 0
176 198 0
175 198 0
173 197 0
174 198 0
174 198 0
174 198 0
173 197 0
175 198 0
173 197 0
175 198 0
175 198 0
174 197 0
172 196 0
173 197 0
176 199 0
175 198 0
176 198 0
174 197 0
174 197 0
173 197 0
173 197 0
175 198 0
173 197 0
174 198 0
176 199 0
175 198 0
173 197 0
175 198 0
172 196 0
173 197 0
174 198 0
174 198 0
174 198 0
174 198 0
173 196 0
175 198 0
173 196 0
173 197 0
178 200 0
174 198 0
175 198 0
174 198 0
174 198 0
175 198 0
175 198 0
175 198 0
175 198 0
174 198 0
174 197 0
175 198 0
174 198 0
175 198 0
174 198 0
175 198 0
174 197 0
174 198 0
175 198 0
175 198 0
173 196 0
172 196 0
173 197 0
173 197 0
174 198 0
174 197 0
175 198 0
175 198 0
174 197 0
175 198 0
174 197 0
175 198 0
176 199 0
176 198 0
172 197 0
173 197 0
173 196 0
174 197 0
175 198 0
174 198 0
174 197 0
171 195 0
176 199 0
173 197 0
173 196 0
173 197 0
171 195 0
172 197 0
174 198 0
173 197 0
173 197 0
175 198 0
172 196 0
174 198 0
173 197 0
174 197 0
175 198 0
174 198 0
175 198 0
173 197 0
174 197 0
173 197 0
172 196 0
175 198 0
176 199 0
173 197 0
175 198 0
174 198 0
174 197 0
174 197 0
173 197 0
173 197 0
173 197 0
173 196 0
174 197 0
173 196 0
173 197 0
173 197 0
173 197 0
171 195 0
174 198 0
173 197 0
173 197 0
172 196 0
174 197 0
172 196 0
173 197 0
174 197 0
175 198 0
173 197 0
174 197 0
172 197 0
172 195 0
173 197 0
173 197 0
172 196 0
173 197 0
175 198 0
176 198 0
172 195 0
173 197 0
173 197 0
173 196 0
172 196 0
174 197 0
171 195 0
174 198 0
175 198 0
172 196 0
172 197 0
172 196 0
174 197 0
174 197 0
173 197 0
174 197 0
172 196 0
172 196 0
173 196 0
175 198 0
173 197 0
170 194 0
176 199 0
173 196 0
174 197 0
174 198 0
172 195 0
173 197 0
175 198 0
172 196 0
173 197 0
172 196 0
172 196 0
171 195 0
175 198 0
174 197 0
172 196 0
172 196 0
172 195 0
168 192 0
173 197 0
174 197 0
172 196 0
173 197 0
175 198 0
173 196 0
174 198 0
169 193 0
170 194 0
172 196 0
173 196 0
172 195 0
173 197 0
173 197 0
174 197 0
173 196 0
174 197 0
173 197 0
173 196 0
172 195 0
170 194 0
173 197 0
172 196 0
174 198 0
172 195 0
172 196 0
174 197 0
173 197 0
172 195 0
172 195 0
174 197 0
172 195 0
170 193 0
173 197 0
174 197 0
170 193 0
173 196 0
174 197 0
173 196 0
173 197 0
173 197 0
176 198 0
174 197 0
173 196 0
173 197 0
176 199 0
172 195 0
173 196 0
174 197 0
174 197 0
171 195 0
176 198 0
173 197 0
173 197 0
173 197 0
175 198 0
173 197 0
174 197 0
174 197 0
175 198 0
175 198 0
175 198 0
174 197 0
172 196 0
175 198 0
170 194 0
172 195 0
173 197 0
172 196 0
174 197 0
173 197 0
175 198 0
175 198 0
173 196 0
173 197 0
174 197 0
172 195 0
174 197 0
173 197 0
175 198 0
174 197 0
173 197 0
173 197 0
174 198 0
174 197 0
171 194 0
175 198 0
173 197 0
173 197 0
174 197 0
176 198 0
174 197 0
175 198 0
173 197 0
173 196 0
173 196 0
173 196 0
176 199 0
174 197 0
173 196 0
174 197 0
174 198 0
172 197 0
173 197 0
173 196 0
172 196 0
171 195 0
174 197 0
175 198 0
174 198 0
174 197 0
174 197 0
174 198 0
172 195 0
174 197 0
174 198 0
175 198 0
174 197 0
173 197 0
174 198 0
174 197 0
176 198 0
175 198 0
174 197 0
172 197 0
175 198 0
171 195 0
174 197 0
174 198 0
175 198 0
174 197 0
174 198 0
174 198 0
176 198 0
173 197 0
175 197 0
174 197 0
172 196 0
173 195 0
174 198 0
174 198 0
171 195 0
172 196 0
175 198 0
172 196 0
174 198 0
174 197 0
172 196 0
174 198 0
175 198 0
173 196 0
174 198 0
171 195 0
173 197 0
174 198 0
172 196 0
174 197 0
174 197 0
173 197 0
175 198 0
175 198 0
175 198 0
174 197 0
172 196 0
173 197 0
174 197 0
174 198 0
174 197 0
173 197 0
173 197 0
174 197 0
174 198 0
173 197 0
174 197 0
174 198 0
174 198 0
173 197 0
174 198 0
173 196 0
175 198 0
174 198 0
174 197 0
174 197 0
175 198 0
173 197 0
174 197 0
174 198 0
175 198 0
173 197 0
173 197 0
175 198 0
174 198 0
174 198 0
174 198 0
174 198 0
175 198 0
174 198 0
175 198 0
175 198 0
174 197 0
172 196 0
175 198 0
175 198 0
172 196 0
173 197 0
175 198 0
174 198 0
174 197 0
174 197 0
173 197 0
173 196 0
174 198 0
174 197 0
175 198 0
172 197 0
175 198 0
174 198 0
174 198 0
174 197 0
176 198 0
173 197 0
174 198 0
174 198 0
175 198 0
173 197 0
174 198 0
174 197 0
172 196 0
175 198 0
174 198 0
174 198 0
173 197 0
174 197 0
175 198 0
173 197 0
175 198 0
175 198 0
175 198 0
174 198 0
174 197 0
175 198 0
173 197 0
175 198 0
172 197 0
174 198 0
173 197 0
174 198 0
175 198 0
175 198 0
173 197 0
174 198 0
174 197 0
176 199 0
174 198 0
172 196 0
175 198 0
175 198 0
174 197 0
176 199 0
174 197 0
175 198 0
174 197 0
173 197 0
173 197 0
175 198 0
176 199 0
174 197 0
175 198 0
174 197 0
175 198 0
175 198 0
173 197 0
176 198 0
174 198 0
175 198 0
175 198 0
175 198 0
172 195 0
172 197 0
175 198 0
174 197 0
175 198 0
175 198 0
174 197 0
175 198 0
173 197 0
173 197 0
173 197 0
173 197 0
175 198 0
173 196 0
176 199 0
175 198 0
174 197 0
174 197 0
173 197 0
173 197 0
177 199 0
173 196 0
175 198 0
174 197 0
174 197 0
173 197 0
172 197 0
174 198 0
171 195 0
175 198 0
173 197 0
173 197 0
175 198 0
173 197 0
173 197 0
175 198 0
174 197 0
173 197 0
172 196 0
174 198 0
174 197 0
175 198 0
175 198 0
173 197 0
174 198 0
175 198 0
172 197 0
174 198 0
171 195 0
171 196 0
173 197 0
174 197 0
174 197 0
173 196 0
172 195 0
172 196 0
173 197 0
172 196 0
174 198 0
173 197 0
175 198 0
175 198 0
172 196 0
172 196 0
173 197 0
174 198 0
174 197 0
174 198 0
174 197 0
173 197 0
174 197 0
174 198 0
174 197 0
174 198 0
173 196 0
175 198 0
173 197 0
175 198 0
172 196 0
171 195 0
173 196 0
173 196 0
172 195 0
174 197 0
174 198 0
173 196 0
174 197 0
172 196 0
171 194 0
172 195 0
171 195 0
174 198 0
174 198 0
173 196 0
173 197 0
173 197 0
173 197 0
174 197 0
172 196 0
171 195 0
174 197 0
173 196 0
172 197 0
173 196 0
172 196 0
173 196 0
172 196 0
173 196 0
173 197 0
174 198 0
173 196 0
173 197 0
172 195 0
172 195 0
174 198 0
171 194 0
173 196 0
172 196 0
173 196 0
170 193 0
168 192 0
174 197 0
173 195 0
173 196 0
171 195 0
171 194 0
173 196 0
172 196 0
173 197 0
173 197 0
173 197 0
173 196 0
171 195 0
173 196 0
174 197 0
172 196 0
172 197 0
172 196 0
174 197 0
172 196 0
173 197 0
171 195 0
173 195 0
172 196 0
173 196 0
173 197 0
173 196 0
173 196 0
174 197 0
172 196 0
174 197 0
172 195 0
171 195 0
173 196 0
173 196 0
169 193 0
174 197 0
172 196 0
174 198 0
173 197 0
173 197 0
174 197 0
172 196 0
173 197 0
173 197 0
174 197 0
173 196 0
174 198 0
173 196 0
172 196 0
173 197 0
174 197 0
173 196 0
173 196 0
172 196 0
173 197 0
172 195 0
174 197 0
174 197 0
173 196 0
174 198 0
172 195 0
174 197 0
175 198 0
173 196 0
171 195 0
172 195 0
176 198 0
172 195 0
174 197 0
174 198 0
173 197 0
173 197 0
174 198 0
175 198 0
173 197 0
175 198 0
173 197 0
173 196 0
174 198 0
173 196 0
173 197 0
173 197 0
174 197 0
173 197 0
173 197 0
175 198 0
173 196 0
173 196 0
174 197 0
173 196 0
171 195 0
174 197 0
172 196 0
174 198 0
175 197 0
173 197 0
173 196 0
173 197 0
173 197 0
174 197 0
175 198 0
173 197 0
171 195 0
175 198 0
173 196 0
170 194 0
176 198 0
173 196 0
174 197 0
175 198 0
176 198 0
174 197 0
174 197 0
173 196 0
173 197 0
174 197 0
173 196 0
173 196 0
173 196 0
173 197 0
176 198 0
174 197 0
176 199 0
175 198 0
174 197 0
174 197 0
174 198 0
175 198 0
174 197 0
174 197 0
174 198 0
173 197 0
174 198 0
175 198 0
174 198 0
174 198 0
174 197 0
174 197 0
175 198 0
174 197 0
175 197 0
174 198 0
173 197 0
174 197 0
175 198 0
175 198 0
173 197 0
173 196 0
175 198 0
174 198 0
175 198 0
174 197 0
172 196 0
176 199 0
174 198 0
175 198 0
174 197 0
174 197 0
173 197 0
174 198 0
173 197 0
174 197 0
173 197 0
173 197 0
173 197 0
173 197 0
173 197 0
175 198 0
174 198 0
174 197 0
174 198 0
174 197 0
174 198 0
174 197 0
174 198 0
174 198 0
174 197 0
174 197 0
174 198 0
174 197 0
174 197 0
176 199 0
174 197 0
173 197 0
173 197 0
176 198 0
175 198 0
171 196 0
174 198 0
177 199 0
176 198 0
174 197 0
177 199 0
176 198 0
175 198 0
175 198 0
174 198 0
173 197 0
173 197 0
174 197 0
174 197 0
174 198 0
174 197 0
174 197 0
174 198 0
175 198 0
175 198 0
175 198 0
175 198 0
174 198 0
174 198 0
173 197 0
174 198 0
175 198 0
172 196 0
176 198 0
173 197 0
174 198 0
173 197 0
174 198 0
174 198 0
173 197 0
173 197 0
174 197 0
173 197 0
175 198 0
174 197 0
175 198 0
174 197 0
174 197 0
172 196 0
174 197 0
173 196 0
173 197 0
173 197 0
176 199 0
174 197 0
175 198 0
175 198 0
173 197 0
174 197 0
174 198 0
176 198 0
172 197 0
177 199 0
174 198 0
175 198 0
175 198 0
174 198 0
177 199 0
174 197 0
176 199 0
174 198 0
174 197 0
175 198 0
174 198 0
174 197 0
176 198 0
174 197 0
175 198 0
175 198 0
176 198 0
173 197 0
174 197 0
173 197 0
173 197 0
173 197 0
173 197 0
174 197 0
174 197 0
175 198 0
174 197 0
173 197 0
175 198 0
175 198 0
175 198 0
175 198 0
173 197 0
175 198 0
172 197 0
173 197 0
174 198 0
175 198 0
176 199 0
175 198 0
174 197 0
175 198 0
174 198 0
175 198 0
174 198 0
174 198 0
174 197 0
174 198 0
172 196 0
175 198 0
171 196 0
175 198 0
174 198 0
175 198 0
175 198 0
172 196 0
173 197 0
175 198 0
176 199 0
172 196 0
175 198 0
174 198 0
175 198 0
173 197 0
173 197 0
173 196 0
174 197 0
174 198 0
174 197 0
172 197 0
175 198 0
173 197 0
175 198 0
173 197 0
173 196 0
173 196 0
173 197 0
174 198 0
172 196 0
174 198 0
173 197 0
174 197 0
175 198 0
174 197 0
172 196 0
175 198 0
176 198 0
171 195 0
172 196 0
173 196 0
175 198 0
173 197 0
173 196 0
174 198 0
172 196 0
175 198 0
172 196 0
173 196 0
174 198 0
175 197 0
173 197 0
173 197 0
173 197 0
172 196 0
172 195 0
174 197 0
172 196 0
175 198 0
175 198 0
172 196 0
175 198 0
171 195 0
174 197 0
173 197 0
171 194 0
174 197 0
173 197 0
171 195 0
173 196 0
172 196 0
172 196 0
175 198 0
173 196 0
172 195 0
170 194 0
173 196 0
174 197 0
174 197 0
172 195 0
173 197 0
172 196 0
171 195 0
173 197 0
174 198 0
173 197 0
173 197 0
173 196 0
175 198 0
172 196 0
175 198 0
173 196 0
175 198 0
173 197 0
174 198 0
174 197 0
173 196 0
172 196 0
174 197 0
171 195 0
172 196 0
174 197 0
175 198 0
170 194 0
175 197 0
173 197 0
173 197 0
173 197 0
171 194 0
173 197 0
172 196 0
169 193 0
173 196 0
172 196 0
173 196 0
172 196 0
174 197 0
174 197 0
175 198 0
174 197 0
172 196 0
172 196 0
174 197 0
173 197 0
175 198 0
170 195 0
172 196 0
174 198 0
173 196 0
172 196 0
175 198 0
171 195 0
173 197 0
174 197 0
174 198 0
173 196 0
173 196 0
173 196 0
172 196 0
174 197 0
171 196 0
173 196 0
175 198 0
172 196 0
175 198 0
173 196 0
175 198 0
174 197 0
174 197 0
174 197 0
173 197 0
172 195 0
174 197 0
173 197 0
174 197 0
173 197 0
175 198 0
173 197 0
173 196 0
174 198 0
172 195 0
174 197 0
172 196 0
174 198 0
175 198 0
174 197 0
174 197 0
172 195 0
172 195 0
174 197 0
175 198 0
172 197 0
173 196 0
175 198 0
175 198 0
172 196 0
175 198 0
173 197 0
175 198 0
173 196 0
174 198 0
174 197 0
173 197 0
173 197 0
174 197 0
174 197 0
176 198 0
173 197 0
173 197 0
174 197 0
176 198 0
172 196 0
174 197 0
174 198 0
174 197 0
174 197 0
172 195 0
174 197 0
173 197 0
173 197 0
173 197 0
175 198 0
175 198 0
174 197 0
174 198 0
173 197 0
173 195 0
172 196 0
173 197 0
174 197 0
175 198 0
175 198 0
173 197 0
174 197 0
174 198 0
176 199 0
172 196 0
174 197 0
174 198 0
177 199 0
173 197 0
175 198 0
174 197 0
175 198 0
174 197 0
172 196 0
176 199 0
176 199 0
174 197 0
174 197 0
174 198 0
174 198 0
175 198 0
175 198 0
175 198 0
174 197 0
174 197 0
176 199 0
174 197 0
175 198 0
173 196 0
175 197 0
172 196 0
175 198 0
173 197 0
174 197 0
172 196 0
174 197 0
174 197 0
175 198 0
174 197 0
172 196 0
176 198 0
175 198 0
174 198 0
173 197 0
174 197 0
174 198 0
174 198 0
175 198 0
175 198 0
174 198 0
173 197 0
174 197 0
174 197 0
173 197 0
172 196 0
175 198 0
173 196 0
173 197 0
173 197 0
173 197 0
174 198 0
173 197 0
173 197 0
175 198 0
174 198 0
173 197 0
171 196 0
176 199 0
176 199 0
175 197 0
173 197 0
175 198 0
173 197 0
172 196 0
174 198 0
176 198 0
175 197 0
175 198 0
173 197 0
176 199 0
177 199 0
175 198 0
173 197 0
173 197 0
173 197 0
173 197 0
174 198 0
176 199 0
174 198 0
175 198 0
174 198 0
174 198 0
174 198 0
174 197 0
176 198 0
176 199 0
173 197 0
175 198 0
174 197 0
172 195 0
175 198 0
174 197 0
174 198 0
174 198 0
175 198 0
174 197 0
174 198 0
173 197 0
175 198 0
175 198 0
173 197 0
176 199 0
172 196 0
173 196 0
174 198 0
177 199 0
173 197 0
172 197 0
175 198 0
175 198 0
175 198 0
173 196 0
173 197 0
174 198 0
174 198 0
174 198 0
174 197 0
175 198 0
175 198 0
173 197 0
173 197 0
175 198 0
173 197 0
176 198 0
174 198 0
174 197 0
173 197 0
174 197 0
174 198 0
174 197 0
173 196 0
174 198 0
174 198 0
173 197 0
173 197 0
174 197 0
175 198 0
173 197 0
175 198 0
173 197 0
173 197 0
173 197 0
174 197 0
173 197 0
176 198 0
174 198 0
172 197 0
176 199 0
174 197 0
174 197 0
173 197 0
173 197 0
175 198 0
176 199 0
174 198 0
174 197 0
174 198 0
173 197 0
174 198 0
174 197 0
174 198 0
174 198 0
173 197 0
173 197 0
174 197 0
176 198 0
174 197 0
174 197 0
175 198 0
173 197 0
175 198 0
174 198 0
173 197 0
174 197 0
173 197 0
173 196 0
174 197 0
173 197 0
176 198 0
173 197 0
173 197 0
176 199 0
173 197 0
173 197 0
173 197 0
175 198 0
172 196 0
174 197 0
173 197 0
175 198 0
173 197 0
173 196 0
173 197 0
173 197 0
174 197 0
173 197 0
174 197 0
173 197 0
171 195 0
174 198 0
175 198 0
172 197 0
173 196 0
173 197 0
174 197 0
174 197 0
174 198 0
174 198 0
174 197 0
172 196 0
174 197 0
173 197 0
173 197 0
173 197 0
176 199 0
173 197 0
174 197 0
175 198 0
174 197 0
173 197 0
175 198 0
173 196 0
174 197 0
173 197 0
175 198 0
175 198 0
174 197 0
175 198 0
173 197 0
172 196 0
172 197 0
172 196 0
173 197 0
172 196 0
171 195 0
174 198 0
173 197 0
172 197 0
174 196 0
174 198 0
174 197 0
173 197 0
175 198 0
173 197 0
174 197 0
176 198 0
173 196 0
171 196 0
173 196 0
173 196 0
173 197 0
174 197 0
174 197 0
175 198 0
173 196 0
171 195 0
176 199 0
173 196 0
173 197 0
172 196 0
173 197 0
174 197 0
172 196 0
174 197 0
174 197 0
174 197 0
175 198 0
173 197 0
174 197 0
175 198 0
172 197 0
175 198 0
176 198 0
173 197 0
173 196 0
171 195 0
175 198 0
172 195 0
172 196 0
173 197 0
170 194 0
173 197 0
175 198 0
175 198 0
174 198 0
172 195 0
173 196 0
173 197 0
173 197 0
174 196 0
174 197 0
175 198 0
174 197 0
174 197 0
173 196 0
172 196 0
174 198 0
174 198 0
174 197 0
169 194 0
172 196 0
172 196 0
172 195 0
174 197 0
173 195 0
175 198 0
174 197 0
173 197 0
175 198 0
173 196 0
173 197 0
172 195 0
175 198 0
174 198 0
173 197 0
175 198 0
174 197 0
172 196 0
175 198 0
173 196 0
174 196 0
173 197 0
172 196 0
173 197 0
173 196 0
173 197 0
175 197 0
171 195 0
173 196 0
172 196 0
173 196 0
173 197 0
173 196 0
173 196 0
172 195 0
174 197 0
173 196 0
172 195 0
172 196 0
175 198 0
172 195 0
173 197 0
174 197 0
173 196 0
172 196 0
173 197 0
174 198 0
172 196 0
174 197 0
171 194 0
174 197 0
172 197 0
173 196 0
171 195 0
174 197 0
174 197 0
172 196 0
173 197 0
174 197 0
172 196 0
173 197 0
173 196 0
172 196 0
174 198 0
174 197 0
173 196 0
172 196 0
174 197 0
171 195 0
172 197 0
175 197 0
175 198 0
172 196 0
174 198 0
172 196 0
173 197 0
173 197 0
176 198 0
174 198 0
174 197 0
175 198 0
174 197 0
175 198 0
175 198 0
172 196 0
174 197 0
174 197 0
173 197 0
173 197 0
175 198 0
174 197 0
173 197 0
175 197 0
173 197 0
174 197 0
175 198 0
174 198 0
175 198 0
174 197 0
174 197 0
174 197 0
173 197 0
174 198 0
174 197 0
173 197 0
173 196 0
173 197 0
174 198 0
173 197 0
174 198 0
174 197 0
174 198 0
175 198 0
174 197 0
173 197 0
172 196 0
174 197 0
174 197 0
174 198 0
173 197 0
174 197 0
173 197 0
174 198 0
174 198 0
175 198 0
173 196 0
174 197 0
174 198 0
173 197 0
173 197 0
174 196 0
175 198 0
174 198 0
174 197 0
174 197 0
174 198 0
175 198 0
173 197 0
176 198 0
173 197 0
174 197 0
175 198 0
175 198 0
174 197 0
174 197 0
174 197 0
174 198 0
173 197 0
173 197 0
173 197 0
173 197 0
175 198 0
175 197 0
175 198 0
176 198 0
174 198 0
175 198 0
176 199 0
174 198 0
173 197 0
176 199 0
174 198 0
174 197 0
175 198 0
174 197 0
174 198 0
175 198 0
174 197 0
174 197 0
174 197 0
176 199 0
174 198 0
173 197 0
173 197 0
175 198 0
174 198 0
173 197 0
175 198 0
174 197 0
173 196 0
172 197 0
174 197 0
174 198 0
174 197 0
174 198 0
175 198 0
174 198 0
174 198 0
174 197 0
174 198 0
175 198 0
175 198 0
174 198 0
174 198 0
175 198 0
173 197 0
175 198 0
175 198 0
175 198 0
174 197 0
173 197 0
175 198 0
176 198 0
174 198 0
174 197 0
175 198 0
175 198 0
174 198 0
173 197 0
172 196 0
175 198 0
174 198 0
173 197 0
174 198 0
174 198 0
175 198 0
176 198 0
175 198 0
176 199 0
173 197 0
174 198 0
174 197 0
173 196 0
175 198 0
174 197 0
174 198 0
175 198 0
174 197 0
176 198 0
175 198 0
173 197 0
174 197 0
173 196 0
174 197 0
171 195 0
175 198 0
174 198 0
174 197 0
173 196 0
174 198 0
174 198 0
174 198 0
176 198 0
173 197 0
175 198 0
172 196 0
174 197 0
173 197 0
175 198 0
173 197 0
174 198 0
174 198 0
174 197 0
176 198 0
174 197 0
174 197 0
173 197 0
174 197 0
174 197 0
175 198 0
177 199 0
175 198 0
175 198 0
174 197 0
173 197 0
176 198 0
173 197 0
174 197 0
174 197 0
174 198 0
174 197 0
175 198 0
174 198 0
174 197 0
174 198 0
173 197 0
174 197 0
175 198 0
175 198 0
174 197 0
175 198 0
174 197 0
175 198 0
174 197 0
173 197 0
175 198 0
173 197 0
173 196 0
174 198 0
175 198 0
174 197 0
174 198 0
172 196 0
174 198 0
175 198 0
174 197 0
175 198 0
175 198 0
174 197 0
176 199 0
174 197 0
174 197 0
173 196 0
176 198 0
174 198 0
176 199 0
174 198 0
175 197 0
172 195 0
173 197 0
173 197 0
173 197 0
172 196 0
172 196 0
174 196 0
174 197 0
172 196 0
175 198 0
172 195 0
172 196 0
174 198 0
172 196 0
171 195 0
175 198 0
173 197 0
174 197 0
172 196 0
172 195 0
173 197 0
171 195 0
172 197 0
173 196 0
172 196 0
173 197 0
173 196 0
174 197 0
175 198 0
174 198 0
174 198 0
173 197 0
171 195 0
172 196 0
175 198 0
174 197 0
174 197 0
173 197 0
173 197 0
175 197 0
173 196 0
173 196 0
171 194 0
175 198 0
170 194 0
175 198 0
174 198 0
174 197 0
172 195 0
171 195 0
175 198 0
171 194 0
174 197 0
172 197 0
172 196 0
173 197 0
173 196 0
172 196 0
173 196 0
174 197 0
174 198 0
174 197 0
173 196 0
173 196 0
174 197 0
171 194 0
174 197 0
173 196 0
173 196 0
171 195 0
172 196 0
175 198 0
174 197 0
173 196 0
173 197 0
174 196 0
172 196 0
174 198 0
174 198 0
173 196 0
174 197 0
173 197 0
173 197 0
175 198 0
173 196 0
171 195 0
172 196 0
171 196 0
174 197 0
173 196 0
171 196 0
174 197 0
173 197 0
172 195 0
174 198 0
173 197 0
174 198 0
174 198 0
170 193 0
171 194 0
173 196 0
173 197 0
172 196 0
172 196 0
172 195 0
174 197 0
175 198 0
172 196 0
171 195 0
173 197 0
173 196 0
173 196 0
173 197 0
174 197 0
174 197 0
172 196 0
172 196 0
173 196 0
171 194 0
172 196 0
171 195 0
173 196 0
173 196 0
172 195 0
172 196 0
172 196 0
175 198 0
175 198 0
174 197 0
174 197 0
172 196 0
174 197 0
174 197 0
173 196 0
174 198 0
174 198 0
174 197 0
170 194 0
174 197 0
172 196 0
175 198 0
174 197 0
173 197 0
174 198 0
172 196 0
172 196 0
174 198 0
174 197 0
174 197 0
174 198 0
174 198 0
174 197 0
174 196 0
175 197 0
174 197 0
173 197 0
173 197 0
172 196 0
174 198 0
174 197 0
173 195 0
173 197 0
173 197 0
174 198 0
173 197 0
172 196 0
175 198 0
175 198 0
173 196 0
175 198 0
174 198 0
175 198 0
173 197 0
173 196 0
173 197 0
174 198 0
174 198 0
174 198 0
176 199 0
176 198 0
173 197 0
173 197 0
172 196 0
174 197 0
174 197 0
175 198 0
173 196 0
173 197 0
176 199 0
173 197 0
175 198 0
174 198 0
172 196 0
172 196 0
172 195 0
174 198 0
174 197 0
174 197 0
174 197 0
174 197 0
174 198 0
174 197 0
173 197 0
173 197 0
174 197 0
174 198 0
174 197 0
172 195 0
173 197 0
174 197 0
174 197 0
174 197 0
174 197 0
174 197 0
174 197 0
173 197 0
174 197 0
173 197 0
174 197 0
173 197 0
175 198 0
174 197 0
175 198 0
175 198 0
174 197 0
174 198 0
175 198 0
175 197 0
175 198 0
175 198 0
173 197 0
175 198 0
173 196 0
174 198 0
174 197 0
175 198 0
175 198 0
173 197 0
175 198 0
175 198 0
174 198 0
174 197 0
173 197 0
173 197 0
175 198 0
174 197 0
173 197 0
174 197 0
174 197 0
174 198 0
175 197 0
176 198 0
173 196 0
175 198 0
174 197 0
176 198 0
174 198 0
175 198 0
175 198 0
173 196 0
174 197 0
172 196 0
173 197 0
173 197 0
175 198 0
174 198 0
174 197 0
175 198 0
174 197 0
174 197 0
174 197 0
173 197 0
174 198 0
176 199 0
175 198 0
172 197 0
176 199 0
174 197 0
174 198 0
173 197 0
174 198 0
175 198 0
173 197 0
174 198 0
175 198 0
176 198 0
176 199 0
174 198 0
174 198 0
175 198 0
176 199 0
173 197 0
175 198 0
174 198 0
174 198 0
175 198 0
175 198 0
174 197 0
175 198 0
174 197 0
174 197 0
173 197 0
173 197 0
173 197 0
175 198 0
175 198 0
175 198 0
175 198 0
174 198 0
175 198 0
175 198 0
175 198 0
175 198 0
174 197 0
174 197 0
174 197 0
174 198 0
174 198 0
173 197 0
174 198 0
174 198 0
173 197 0
175 198 0
174 198 0
173 197 0
173 197 0
174 197 0
174 198 0
174 198 0
174 198 0
175 198 0
174 197 0
174 197 0
176 198 0
173 197 0
174 198 0
173 197 0
175 198 0
175 198 0
174 198 0
173 197 0
174 198 0
175 198 0
173 197 0
176 199 0
173 197 0
175 198 0
175 198 0
174 197 0
173 197 0
172 196 0
174 198 0
174 198 0
173 197 0
171 195 0
174 198 0
175 198 0
176 198 0
174 198 0
175 198 0
174 197 0
173 197 0
174 197 0
173 197 0
175 198 0
175 198 0
175 198 0
174 197 0
174 198 0
174 197 0
174 198 0
176 198 0
175 198 0
173 197 0
175 198 0
173 197 0
175 198 0
174 197 0
173 197 0
173 197 0
174 198 0
174 197 0
174 197 0
174 198 0
175 198 0
176 198 0
176 199 0
174 197 0
175 198 0
172 196 0
174 197 0
175 197 0
175 198 0
174 197 0
175 198 0
173 197 0
174 197 0
173 196 0
172 195 0
174 197 0
174 197 0
173 196 0
175 198 0
172 196 0
174 198 0
173 196 0
173 196 0
173 196 0
173 197 0
174 197 0
175 198 0
173 197 0
174 198 0
173 197 0
173 197 0
173 197 0
173 196 0
173 197 0
173 196 0
173 197 0
173 196 0
174 198 0
176 199 0
173 197 0
174 197 0
173 197 0
170 194 0
175 198 0
174 198 0
174 197 0
173 197 0
175 198 0
173 197 0
173 197 0
172 196 0
174 197 0
174 197 0
172 196 0
174 197 0
173 197 0
173 197 0
175 198 0
173 197 0
173 197 0
174 198 0
174 197 0
174 197 0
173 197 0
173 197 0
174 197 0
174 197 0
175 198 0
173 197 0
173 196 0
173 196 0
175 198 0
173 196 0
173 197 0
173 196 0
172 196 0
173 196 0
174 197 0
175 198 0
174 198 0
173 197 0
172 196 0
174 197 0
173 196 0
175 198 0
173 196 0
173 196 0
173 197 0
174 197 0
173 196 0
172 196 0
174 197 0
172 196 0
173 197 0
173 197 0
174 197 0
172 195 0
172 195 0
175 198 0
172 196 0
174 196 0
173 197 0
172 196 0
173 197 0
174 197 0
173 196 0
172 196 0
174 197 0
174 197 0
173 197 0
173 197 0
174 197 0
173 196 0
171 195 0
173 197 0
173 196 0
175 198 0
173 197 0
174 198 0
173 196 0
175 198 0
173 197 0
174 198 0
174 197 0
172 196 0
171 194 0
173 197 0
171 195 0
172 196 0
174 197 0
174 197 0
174 198 0
174 197 0
175 198 0
173 196 0
174 197 0
171 195 0
172 196 0
173 196 0
175 197 0
172 196 0
173 196 0
173 197 0
173 197 0
173 196 0
173 196 0
170 194 0
174 198 0
173 196 0
173 197 0
175 198 0
174 197 0
173 196 0
174 197 0
174 196 0
175 198 0
174 197 0
174 198 0
173 197 0
174 198 0
177 199 0
175 197 0
174 197 0
173 197 0
174 197 0
175 198 0
173 197 0
173 196 0
172 196 0
174 197 0
172 196 0
173 196 0
173 197 0
172 196 0
171 196 0
175 198 0
174 198 0
174 197 0
173 196 0
174 197 0
173 197 0
173 197 0
172 196 0
173 197 0
175 198 0
172 196 0
174 197 0
174 197 0
174 198 0
174 197 0
174 197 0
175 198 0
173 197 0
174 198 0
173 197 0
173 197 0
174 197 0
174 198 0
173 197 0
174 198 0
173 197 0
175 198 0
173 197 0
173 197 0
173 196 0
173 196 0
172 196 0
173 197 0
174 198 0
175 197 0
173 197 0
175 198 0
173 197 0
176 198 0
174 197 0
175 198 0
172 195 0
174 198 0
175 198 0
172 196 0
174 198 0
173 197 0
174 198 0
175 198 0
173 197 0
174 197 0
175 198 0
175 198 0
174 197 0
175 198 0
173 197 0
176 199 0
174 198 0
173 197 0
174 197 0
174 197 0
172 197 0
174 198 0
176 199 0
172 196 0
172 196 0
173 196 0
175 198 0
174 198 0
174 198 0
174 197 0
172 196 0
174 198 0
172 196 0
172 196 0
173 197 0
173 197 0
174 198 0
175 198 0
174 198 0
173 197 0
175 198 0
174 198 0
174 198 0
175 198 0
175 198 0
175 198 0
174 198 0
174 198 0
175 198 0
174 197 0
174 198 0
175 198 0
174 197 0
174 197 0
174 198 0
173 197 0
174 198 0
173 197 0
173 197 0
175 198 0
174 197 0
175 198 0
174 198 0
173 197 0
174 198 0
174 198 0
173 197 0
175 198 0
175 198 0
175 198 0
176 199 0
176 198 0
174 198 0
175 198 0
175 198 0
176 199 0
174 198 0
174 197 0
175 198 0
175 198 0
174 197 0
174 198 0
174 198 0
173 197 0
175 198 0
174 198 0
174 197 0
175 198 0
174 198 0
174 198 0
174 197 0
174 197 0
175 198 0
176 198 0
173 197 0
175 198 0
174 198 0
174 198 0
174 197 0
173 197 0
174 198 0
174 197 0
174 197 0
175 198 0
175 198 0
175 198 0
172 196 0
174 197 0
175 198 0
173 197 0
173 197 0
174 197 0
174 198 0
173 197 0
176 199 0
176 198 0
174 197 0
173 196 0
175 198 0
175 198 0
174 197 0
174 198 0
174 197 0
175 197 0
174 197 0
172 196 0
175 198 0
175 198 0
176 199 0
174 198 0
173 197 0
174 198 0
175 198 0
174 197 0
176 199 0
174 198 0
174 198 0
172 196 0
175 198 0
175 198 0
173 197 0
173 197 0
175 198 0
174 197 0
175 198 0
173 197 0
173 197 0
174 197 0
174 198 0
175 198 0
173 197 0
173 197 0
173 197 0
175 198 0
174 197 0
175 198 0
174 198 0
174 198 0
173 197 0
175 198 0
174 197 0
174 198 0
173 196 0
174 198 0
174 198 0
176 199 0
175 198 0
175 198 0
174 198 0
171 195 0
176 199 0
173 197 0
174 197 0
174 197 0
174 198 0
174 198 0
175 198 0
172 196 0
172 197 0
173 197 0
173 197 0
173 197 0
174 198 0
174 198 0
174 197 0
173 196 0
175 198 0
173 197 0
175 198 0
174 197 0
172 196 0
176 199 0
174 198 0
175 198 0
175 198 0
173 197 0
174 198 0
173 197 0
175 198 0
175 198 0
175 198 0
174 197 0
172 196 0
174 198 0
175 198 0
175 198 0
175 198 0
172 196 0
175 198 0
173 196 0
174 197 0
173 197 0
174 197 0
173 197 0
173 197 0
175 198 0
174 197 0
172 196 0
171 195 0
173 197 0
175 198 0
174 198 0
174 197 0
173 197 0
172 195 0
173 196 0
175 198 0
174 197 0
173 196 0
174 197 0
171 195 0
172 196 0
173 196 0
174 197 0
174 197 0
173 197 0
172 196 0
173 197 0
175 198 0
172 195 0
174 197 0
171 194 0
174 197 0
174 197 0
174 198 0
174 197 0
175 198 0
174 197 0
172 196 0
173 196 0
173 196 0
174 197 0
175 198 0
172 196 0
171 194 0
175 198 0
174 198 0
173 196 0
173 197 0
173 197 0
173 197 0
173 197 0
171 193 0
175 198 0
173 197 0
174 198 0
171 195 0
174 197 0
174 197 0
173 197 0
174 197 0
173 197 0
172 195 0
175 198 0
171 195 0
174 198 0
174 197 0
172 196 0
174 197 0
172 197 0
174 197 0
174 197 0
172 196 0
173 196 0
174 197 0
175 198 0
173 196 0
173 196 0
174 197 0
174 197 0
172 195 0
174 198 0
172 195 0
173 197 0
175 198 0
174 198 0
172 195 0
174 197 0
172 195 0
171 195 0
175 198 0
174 198 0
173 196 0
173 197 0
175 198 0
174 197 0
172 196 0
174 197 0
175 198 0
175 198 0
174 197 0
175 198 0
174 197 0
172 196 0
171 195 0
175 198 0
173 197 0
172 195 0
173 197 0
172 196 0
175 198 0
175 198 0
175 198 0
172 196 0
172 196 0
175 197 0
172 197 0
171 195 0
175 198 0
173 196 0
175 198 0
174 197 0
174 197 0
174 197 0
174 197 0
173 197 0
173 196 0
173 196 0
173 197 0
175 198 0
173 197 0
174 197 0
172 196 0
175 198 0
172 195 0
175 198 0
173 197 0
173 197 0
172 195 0
173 197 0
173 196 0
174 197 0
173 196 0
174 197 0
174 197 0
173 197 0
172 197 0
173 197 0
173 197 0
174 197 0
174 197 0
173 196 0
174 197 0
172 196 0
176 199 0
172 196 0
173 197 0
172 196 0
173 196 0
174 198 0
175 198 0
174 197 0
173 197 0
174 197 0
174 198 0
173 197 0
174 198 0
173 197 0
175 198 0
174 198 0
173 197 0
171 194 0
175 198 0
174 198 0
173 197 0
173 197 0
175 198 0
173 197 0
174 198 0
175 198 0
173 196 0
175 198 0
173 197 0
173 197 0
174 197 0
173 196 0
175 198 0
172 196 0
173 196 0
175 198 0
173 196 0
174 197 0
173 197 0
173 196 0
175 198 0
174 197 0
176 199 0
174 198 0
175 198 0
175 197 0
171 195 0
176 199 0
175 198 0
173 196 0
174 197 0
175 198 0
175 198 0
175 198 0
171 195 0
174 198 0
172 197 0
174 198 0
175 198 0
173 197 0
173 197 0
175 198 0
175 198 0
174 197 0
173 197 0
175 198 0
176 199 0
174 198 0
175 198 0
175 198 0
174 197 0
174 197 0
174 198 0
173 197 0
174 197 0
174 197 0
173 197 0
173 196 0
173 197 0
173 197 0
175 198 0
172 196 0
175 198 0
174 198 0
174 197 0
174 198 0
175 198 0
173 196 0
175 198 0
175 197 0
175 198 0
174 197 0
175 198 0
175 198 0
174 197 0
174 198 0
175 198 0
175 198 0
175 198 0
172 197 0
174 198 0
173 197 0
176 199 0
173 197 0
176 199 0
174 197 0
174 197 0
174 198 0
174 198 0
175 198 0
176 199 0
172 196 0
173 197 0
175 198 0
174 198 0
174 198 0
176 199 0
174 197 0
174 197 0
173 197 0
174 198 0
175 198 0
173 197 0
174 198 0
174 197 0
175 198 0
174 198 0
174 198 0
173 197 0
173 197 0
175 198 0
174 197 0
174 198 0
175 198 0
175 198 0
174 198 0
174 198 0
174 198 0
174 198 0
174 198 0
175 198 0
175 198 0
175 198 0
175 198 0
174 197 0
176 199 0
172 196 0
174 197 0
173 196 0
173 197 0
174 197 0
175 198 0
175 198 0
176 199 0
175 198 0
175 198 0
174 198 0
176 198 0
174 198 0
173 197 0
175 198 0
173 197 0
176 199 0
173 197 0
174 198 0
174 198 0
174 197 0
175 198 0
173 197 0
174 197 0
174 197 0
174 197 0
173 197 0
175 198 0
175 198 0
175 198 0
173 197 0
175 198 0
175 198 0
175 198 0
176 198 0
173 197 0
174 197 0
172 196 0
174 197 0
175 198 0
173 197 0
173 196 0
175 198 0
174 198 0
174 197 0
172 196 0
174 197 0
174 198 0
174 197 0
174 197 0
175 198 0
172 196 0
174 197 0
175 198 0
175 198 0
173 196 0
174 198 0
175 198 0
174 198 0
173 197 0
175 198 0
174 197 0
173 197 0
174 198 0
175 198 0
175 198 0
173 196 0
173 197 0
174 197 0
173 197 0
173 197 0
174 197 0
176 198 0
174 197 0
173 197 0
175 198 0
172 196 0
174 198 0
174 197 0
172 196 0
174 197 0
175 198 0
173 196 0
173 197 0
173 197 0
174 198 0
173 197 0
175 198 0
174 198 0
174 198 0
175 198 0
173 197 0
173 197 0
173 196 0
174 198 0
175 198 0
173 196 0
175 198 0
175 198 0
173 197 0
176 198 0
175 198 0
174 198 0
174 197 0
173 196 0
175 198 0
174 197 0
174 197 0
175 198 0
173 197 0
175 198 0
174 197 0
176 199 0
173 196 0
174 198 0
172 196 0
175 198 0
175 198 0
172 196 0
172 196 0
171 195 0
174 198 0
175 198 0
173 197 0
172 196 0
174 197 0
175 198 0
172 196 0
173 197 0
170 193 0
174 198 0
170 194 0
173 196 0
174 198 0
173 197 0
172 196 0
173 197 0
174 198 0
173 197 0
175 198 0
174 198 0
173 196 0
172 196 0
175 197 0
172 196 0
174 197 0
176 199 0
173 196 0
176 198 0
173 197 0
173 196 0
173 197 0
173 197 0
174 196 0
172 196 0
173 196 0
173 196 0
174 197 0
171 195 0
174 197 0
174 197 0
172 195 0
172 196 0
172 196 0
173 196 0
174 198 0
174 197 0
173 196 0
175 198 0
171 194 0
173 196 0
175 198 0
172 195 0
171 194 0
174 197 0
174 197 0
173 197 0
171 195 0
171 194 0
174 197 0
173 196 0
174 197 0
170 194 0
173 197 0
173 197 0
173 197 0
173 197 0
173 195 0
172 196 0
175 198 0
175 198 0
173 196 0
173 196 0
174 197 0
173 197 0
172 195 0
175 198 0
173 196 0
170 194 0
173 197 0
174 197 0
174 197 0
173 197 0
174 197 0
173 197 0
174 198 0
172 196 0
172 195 0
173 196 0
173 197 0
173 197 0
174 197 0
173 196 0
171 194 0
173 197 0
173 195 0
172 196 0
170 195 0
174 198 0
172 196 0
173 197 0
175 198 0
173 197 0
174 197 0
175 198 0
172 196 0
172 195 0
173 196 0
175 197 0
174 197 0
174 198 0
172 195 0
172 196 0
174 197 0
172 195 0
174 198 0
174 197 0
173 197 0
175 198 0
172 196 0
175 198 0
172 195 0
173 197 0
174 197 0
175 198 0
174 198 0
173 196 0
175 198 0
174 197 0
174 197 0
173 196 0
174 198 0
173 197 0
172 196 0
175 198 0
172 196 0
174 197 0
172 196 0
175 198 0
174 198 0
173 196 0
175 198 0
171 195 0
171 195 0
173 197 0
172 196 0
172 196 0
175 198 0
172 196 0
172 197 0
173 197 0
174 197 0
173 197 0
172 196 0
174 197 0
175 198 0
174 198 0
173 197 0
173 197 0
174 197 0
176 199 0
174 197 0
175 198 0
173 197 0
173 197 0
176 199 0
174 198 0
174 197 0
174 198 0
175 198 0
174 197 0
174 197 0
175 198 0
173 197 0
175 198 0
174 197 0
173 196 0
174 197 0
174 198 0
173 197 0
175 197 0
173 197 0
173 197 0
175 198 0
174 197 0
173 197 0
175 198 0
174 198 0
170 193 0
174 197 0
174 198 0
173 196 0
173 197 0
173 197 0
174 197 0
174 197 0
174 197 0
176 198 0
173 196 0
174 197 0
174 197 0
174 198 0
175 198 0
173 197 0
175 198 0
174 198 0
174 197 0
175 198 0
174 198 0
173 197 0
173 197 0
172 196 0
175 198 0
174 197 0
173 197 0
174 197 0
174 198 0
175 198 0
174 197 0
172 196 0
175 198 0
173 197 0
175 198 0
174 198 0
174 197 0
174 197 0
175 198 0
174 198 0
173 197 0
174 198 0
174 198 0
175 198 0
174 197 0
175 198 0
172 197 0
173 197 0
173 197 0
174 197 0
174 198 0
174 197 0
175 198 0
175 198 0
174 197 0
173 197 0
174 198 0
174 197 0
173 197 0
174 197 0
175 197 0
175 198 0
174 198 0
175 198 0
174 198 0
175 198 0
173 197 0
173 196 0
174 198 0
175 198 0
173 197 0
175 198 0
175 198 0
175 198 0
175 198 0
174 197 0
175 198 0
174 197 0
173 197 0
174 197 0
174 198 0
173 197 0
176 198 0
173 197 0
175 198 0
174 198 0
173 197 0
173 197 0
174 198 0
175 198 0
176 199 0
175 198 0
175 198 0
174 198 0
174 197 0
175 198 0
175 198 0
173 197 0
174 198 0
174 197 0
176 199 0
175 198 0
174 197 0
174 197 0
174 198 0
172 197 0
174 197 0
173 197 0
173 197 0
171 195 0
174 198 0
175 198 0
174 198 0
174 198 0
174 198 0
174 197 0
173 197 0
175 198 0
175 198 0
174 198 0
175 198 0
176 198 0
172 196 0
175 198 0
173 197 0
175 198 0
174 197 0
173 197 0
175 198 0
172 196 0
173 197 0
176 199 0
173 197 0
174 198 0
173 197 0
173 197 0
172 196 0
174 198 0
174 198 0
176 198 0
173 197 0
175 198 0
174 198 0
172 197 0
174 198 0
174 197 0
175 198 0
172 196 0
175 198 0
174 197 0
172 196 0
174 198 0
172 196 0
174 197 0
174 197 0
175 198 0
173 197 0
174 198 0
174 197 0
174 197 0
174 198 0
175 198 0
175 198 0
174 197 0
174 198 0
173 197 0
174 197 0
173 196 0
174 198 0
174 197 0
172 196 0
174 197 0
174 197 0
175 198 0
175 198 0
175 198 0
173 196 0
173 197 0
175 198 0
175 198 0
174 198 0
174 197 0
170 195 0
173 197 0
174 197 0
173 197 0
173 196 0
174 198 0
173 197 0
173 196 0
172 196 0
174 198 0
175 198 0
173 197 0
175 198 0
174 198 0
174 197 0
176 198 0
172 196 0
177 199 0
175 198 0
173 197 0
173 197 0
171 195 0
174 197 0
173 196 0
173 196 0
173 197 0
174 198 0
172 196 0
174 197 0
174 198 0
173 197 0
175 198 0
174 197 0
174 197 0
173 197 0
171 195 0
172 196 0
173 196 0
173 197 0
172 195 0
173 197 0
172 196 0
173 196 0
172 196 0
173 197 0
172 196 0
173 196 0
175 198 0
172 196 0
171 195 0
173 197 0
173 196 0
173 197 0
172 195 0
175 198 0
174 198 0
175 198 0
173 196 0
175 198 0
174 197 0
172 195 0
174 197 0
173 196 0
172 196 0
172 196 0
173 196 0
174 196 0
173 197 0
175 198 0
171 195 0
172 196 0
175 198 0
173 196 0
175 198 0
172 195 0
173 196 0
173 196 0
174 197 0
171 195 0
172 196 0
173 196 0
171 195 0
174 198 0
175 198 0
173 197 0
173 197 0
173 197 0
173 196 0
175 197 0
172 196 0
173 196 0
174 197 0
172 196 0
174 197 0
175 198 0
174 197 0
175 198 0
173 196 0
175 198 0
172 196 0
173 197 0
173 196 0
174 198 0
174 197 0
173 197 0
172 196 0
173 197 0
172 195 0
172 196 0
173 197 0
173 197 0
171 195 0
173 196 0
174 198 0
174 197 0
174 197 0
174 197 0
174 198 0
172 195 0
174 197 0
173 197 0
174 197 0
171 195 0
172 196 0
172 196 0
172 196 0
172 195 0
173 196 0
172 195 0
175 198 0
173 196 0
173 196 0
173 197 0
173 197 0
174 198 0
173 196 0
172 195 0
172 196 0
174 197 0
172 195 0
173 197 0
171 195 0
174 196 0
175 198 0
174 198 0
173 197 0
173 197 0
173 196 0
173 197 0
173 197 0
174 198 0
171 195 0
175 198 0
173 196 0
175 198 0
174 197 0
172 196 0
171 195 0
173 197 0
173 197 0
174 197 0
173 196 0
174 198 0
176 198 0
174 197 0
173 197 0
175 198 0
172 195 0
172 197 0
173 196 0
172 195 0
176 198 0
174 197 0
174 197 0
173 196 0
175 198 0
175 198 0
172 196 0
173 197 0
175 198 0
173 196 0
174 198 0
174 197 0
173 197 0
175 198 0
175 198 0
175 198 0
171 196 0
175 198 0
174 198 0
173 197 0
173 197 0
175 198 0
174 197 0
175 198 0
174 197 0
173 196 0
175 198 0
173 197 0
175 198 0
174 197 0
174 198 0
175 198 0
172 195 0
176 198 0
175 198 0
173 197 0
173 197 0
176 198 0
175 198 0
175 198 0
174 197 0
172 197 0
175 198 0
174 198 0
173 197 0
174 197 0
173 196 0
173 196 0
173 197 0
173 197 0
174 197 0
173 197 0
174 197 0
174 197 0
173 197 0
175 198 0
173 197 0
175 198 0
175 198 0
174 198 0
176 198 0
174 197 0
173 197 0
175 198 0
174 197 0
175 198 0
174 198 0
175 198 0
173 197 0
176 199 0
175 198 0
174 197 0
173 197 0
175 198 0
175 198 0
174 197 0
175 198 0
174 198 0
175 198 0
174 198 0
172 196 0
174 198 0
174 198 0
174 197 0
174 197 0
177 199 0
174 197 0
173 197 0
175 198 0
175 198 0
173 197 0
175 198 0
173 197 0
175 198 0
175 198 0
174 198 0
174 198 0
174 198 0
174 198 0
174 197 0
173 196 0
174 198 0
175 198 0
174 198 0
176 198 0
174 198 0
175 198 0
173 197 0
174 197 0
175 198 0
174 197 0
175 198 0
173 197 0
175 198 0
173 197 0
175 198 0
174 198 0
175 198 0
175 198 0
175 198 0
174 198 0
175 198 0
175 198 0
174 198 0
175 198 0
175 198 0
173 197 0
173 197 0
175 198 0
174 198 0
173 197 0
173 197 0
175 198 0
174 197 0
174 197 0
175 198 0
173 197 0
175 198 0
175 197 0
175 198 0
175 198 0
174 198 0
174 198 0
174 197 0
174 198 0
174 198 0
174 198 0
174 198 0
174 198 0
173 197 0
174 198 0
174 198 0
174 197 0
174 198 0
173 197 0
174 198 0
174 198 0
172 197 0
174 198 0
174 197 0
173 196 0
175 198 0
174 197 0
175 198 0
173 197 0
175 198 0
173 197 0
174 198 0
176 198 0
175 198 0
174 198 0
173 197 0
175 198 0
174 198 0
175 198 0
173 197 0
174 198 0
174 197 0
172 196 0
174 198 0
176 199 0
174 198 0
175 198 0
174 198 0
173 197 0
175 198 0
174 197 0
173 197 0
175 198 0
173 197 0
173 197 0
176 198 0
171 195 0
176 199 0
173 197 0
174 198 0
173 197 0
173 197 0
176 199 0
174 197 0
173 197 0
175 198 0
175 197 0
174 197 0
174 198 0
175 198 0
172 196 0
174 197 0
172 196 0
174 197 0
171 195 0
172 196 0
174 197 0
173 196 0
173 196 0
174 198 0
174 198 0
172 196 0
175 198 0
174 197 0
174 198 0
175 198 0
175 198 0
174 197 0
174 197 0
175 198 0
176 198 0
172 196 0
173 197 0
174 197 0
174 197 0
174 197 0
175 198 0
173 197 0
173 197 0
173 197 0
173 197 0
175 198 0
174 198 0
174 197 0
173 197 0
175 198 0
173 197 0
173 197 0
172 196 0
173 197 0
175 198 0
175 198 0
174 197 0
174 197 0
174 197 0
173 197 0
173 196 0
173 196 0
173 197 0
173 196 0
175 198 0
173 196 0
175 198 0
172 195 0
172 196 0
174 197 0
174 197 0
173 197 0
174 197 0
174 197 0
174 197 0
173 196 0
172 195 0
172 195 0
172 197 0
176 198 0
175 198 0
173 197 0
173 196 0
173 197 0
174 197 0
173 196 0
174 197 0
174 197 0
172 196 0
171 195 0
173 197 0
173 197 0
171 194 0
174 197 0
174 198 0
173 197 0
174 198 0
173 197 0
173 196 0
175 198 0
174 197 0
173 196 0
173 197 0
173 197 0
174 197 0
170 193 0
171 195 0
176 199 0
173 197 0
173 196 0
173 196 0
171 195 0
172 195 0
174 197 0
171 196 0
174 198 0
174 197 0
174 197 0
175 198 0
170 194 0
172 195 0
172 197 0
172 197 0
174 198 0
173 197 0
174 198 0
175 198 0
172 195 0
172 196 0
174 198 0
174 198 0
172 196 0
174 198 0
173 196 0
174 198 0
173 197 0
174 198 0
172 196 0
171 195 0
172 196 0
176 199 0
176 199 0
173 196 0
173 196 0
174 197 0
172 196 0
175 198 0
174 197 0
174 197 0
173 196 0
173 197 0
173 197 0
176 198 0
175 198 0
173 195 0
171 195 0
172 196 0
173 196 0
174 196 0
172 196 0
173 197 0
173 195 0
174 197 0
175 198 0
173 197 0
174 198 0
174 198 0
174 198 0
174 197 0
173 197 0
172 196 0
174 197 0
172 196 0
173 196 0
171 195 0
173 197 0
173 196 0
175 198 0
175 197 0
173 197 0
173 197 0
174 197 0
174 197 0
174 197 0
175 198 0
173 197 0
174 198 0
174 197 0
174 197 0
174 197 0
174 198 0
173 197 0
174 197 0
175 198 0
176 199 0
173 196 0
173 197 0
174 198 0
171 195 0
174 197 0
175 198 0
173 196 0
172 196 0
175 198 0
172 196 0
173 197 0
173 197 0
173 197 0
173 197 0
174 197 0
174 197 0
175 198 0
173 197 0
175 197 0
174 198 0
175 198 0
173 197 0
175 198 0
175 198 0
174 197 0
174 197 0
175 198 0
173 197 0
175 198 0
174 198 0
176 199 0
174 198 0
174 197 0
174 198 0
174 197 0
175 198 0
176 199 0
173 197 0
175 198 0
175 198 0
173 196 0
174 197 0
174 198 0
175 198 0
175 198 0
174 198 0
174 197 0
174 198 0
175 198 0
174 197 0
174 198 0
176 199 0
174 198 0
174 197 0
173 197 0
175 198 0
174 198 0
174 197 0
174 198 0
173 197 0
175 198 0
174 197 0
175 198 0
175 198 0
174 198 0
172 196 0
174 198 0
173 197 0
175 198 0
173 197 0
173 196 0
173 197 0
174 198 0
175 198 0
175 198 0
173 197 0
175 198 0
175 198 0
176 198 0
171 196 0
175 198 0
176 199 0
174 198 0
176 199 0
175 198 0
176 199 0
178 200 0
174 198 0
174 197 0
175 198 0
174 197 0
174 198 0
176 199 0
172 196 0
174 198 0
174 198 0
173 196 0
174 197 0
175 198 0
173 197 0
173 197 0
173 197 0
173 197 0
174 198 0
175 198 0
175 198 0
173 197 0
174 197 0
174 198 0
173 197 0
174 197 0
173 197 0
174 197 0
175 198 0
173 197 0
174 197 0
174 197 0
175 198 0
174 198 0
174 196 0
174 197 0
174 198 0
175 198 0
174 198 0
175 198 0
173 197 0
174 197 0
174 197 0
173 197 0
173 197 0
174 198 0
173 197 0
174 197 0
173 197 0
174 198 0
173 197 0
175 198 0
176 198 0
175 198 0
174 197 0
175 198 0
175 198 0
175 198 0
174 198 0
177 199 0
175 198 0
174 197 0
175 198 0
174 197 0
175 198 0
176 198 0
173 197 0
174 197 0
174 197 0
174 197 0
174 197 0
174 197 0
173 197 0
174 197 0
175 198 0
172 196 0
173 197 0
171 196 0
176 199 0
175 198 0
173 197 0
175 198 0
171 196 0
172 196 0
174 198 0
174 198 0
175 198 0
173 197 0
174 198 0
175 198 0
174 198 0
174 198 0
171 195 0
173 197 0
175 198 0
175 198 0
175 198 0
174 197 0
174 197 0
173 197 0
175 198 0
172 196 0
175 198 0
174 197 0
172 196 0
175 198 0
175 198 0
173 197 0
173 197 0
174 198 0
173 197 0
174 198 0
174 198 0
174 198 0
175 198 0
175 198 0
174 198 0
174 198 0
172 196 0
174 198 0
173 196 0
174 197 0
174 197 0
172 197 0
174 197 0
172 196 0
173 197 0
174 198 0
174 198 0
172 196 0
173 197 0
173 197 0
174 198 0
175 198 0
173 197 0
173 197 0
173 197 0
173 197 0
175 198 0
172 195 0
174 197 0
175 198 0
172 195 0
173 197 0
174 197 0
175 198 0
172 196 0
173 197 0
174 197 0
175 198 0
173 197 0
174 197 0
174 197 0
174 197 0
173 197 0
174 198 0
174 197 0
173 197 0
174 198 0
173 196 0
173 196 0
175 198 0
174 198 0
171 195 0
173 197 0
174 197 0
175 198 0
173 197 0
173 197 0
173 197 0
172 196 0
174 197 0
172 195 0
173 197 0
175 197 0
172 196 0
174 197 0
172 195 0
174 197 0
174 197 0
173 197 0
174 197 0
171 196 0
174 196 0
174 197 0
173 197 0
173 197 0
174 198 0
173 197 0
174 198 0
173 197 0
174 197 0
174 198 0
172 195 0
174 197 0
172 196 0
173 196 0
173 197 0
174 197 0
173 197 0
173 197 0
174 198 0
175 198 0
171 195 0
174 198 0
171 195 0
173 197 0
173 197 0
174 197 0
171 195 0
172 195 0
173 196 0
173 196 0
172 196 0
173 196 0
171 195 0
174 197 0
174 197 0
173 197 0
172 195 0
173 197 0
175 197 0
172 196 0
174 198 0
174 197 0
173 196 0
173 196 0
173 197 0
174 198 0
174 197 0
175 198 0
172 196 0
171 194 0
172 196 0
174 197 0
171 194 0
174 197 0
173 197 0
174 197 0
173 196 0
175 198 0
172 195 0
173 197 0
172 194 0
173 196 0
173 196 0
173 197 0
174 197 0
175 198 0
175 198 0
172 196 0
174 196 0
173 196 0
175 198 0
173 196 0
174 197 0
173 197 0
170 194 0
174 197 0
174 197 0
174 198 0
175 198 0
173 197 0
172 196 0
172 196 0
171 194 0
173 197 0
173 197 0
173 196 0
172 196 0
173 197 0
172 196 0
175 198 0
171 195 0
176 198 0
175 198 0
173 197 0
174 198 0
174 198 0
171 195 0
173 197 0
173 196 0
173 197 0
174 197 0
171 196 0
174 197 0
173 197 0
173 197 0
174 197 0
176 199 0
173 196 0
174 197 0
171 195 0
172 195 0
172 196 0
173 197 0
174 198 0
174 197 0
174 197 0
175 198 0
171 195 0
174 197 0
172 196 0
173 197 0
172 196 0
173 197 0
174 198 0
175 198 0
173 197 0
172 196 0
175 198 0
174 198 0
174 197 0
174 197 0
173 197 0
174 197 0
174 198 0
175 198 0
175 198 0
174 197 0
171 194 0
173 197 0
173 197 0
172 197 0
175 198 0
174 197 0
172 196 0
173 197 0
173 197 0
173 197 0
173 196 0
175 198 0
174 198 0
173 197 0
174 197 0
173 197 0
172 196 0
174 198 0
173 197 0
175 198 0
174 197 0
176 199 0
175 198 0
174 197 0
174 197 0
173 197 0
173 197 0
172 196 0
174 198 0
175 197 0
174 198 0
173 196 0
173 197 0
176 199 0
174 198 0
176 198 0
174 197 0
175 198 0
174 197 0
174 198 0
173 197 0
174 197 0
172 196 0
175 198 0
175 198 0
173 196 0
174 197 0
174 198 0
174 197 0
176 198 0
175 198 0
174 197 0
175 198 0
173 197 0
176 198 0
173 197 0
174 198 0
174 197 0
173 197 0
173 197 0
175 198 0
173 197 0
175 198 0
172 196 0
174 197 0
175 198 0
175 197 0
175 198 0
173 197 0
175 198 0
174 197 0
174 197 0
175 198 0
174 197 0
173 197 0
175 197 0
173 196 0
174 197 0
172 196 0
174 198 0
176 199 0
176 198 0
175 198 0
176 199 0
174 197 0
173 197 0
174 198 0
174 198 0
175 198 0
173 197 0
175 198 0
175 198 0
174 198 0
174 197 0
174 197 0
176 198 0
172 196 0
175 198 0
172 196 0
176 198 0
173 197 0
176 198 0
173 197 0
175 198 0
173 197 0
175 198 0
173 197 0
175 198 0
173 197 0
173 196 0
173 197 0
175 198 0
175 198 0
174 198 0
174 197 0
174 198 0
174 198 0
176 198 0
174 198 0
175 198 0
175 198 0
175 198 0
176 199 0
173 197 0
173 197 0
173 196 0
174 198 0
174 198 0
174 198 0
174 198 0
173 197 0
172 196 0
175 198 0
174 197 0
176 198 0
176 199 0
174 198 0
175 198 0
175 198 0
175 198 0
175 198 0
174 198 0
173 197 0
175 198 0
174 198 0
175 198 0
175 198 0
175 198 0
173 197 0
173 197 0
174 198 0
175 198 0
176 198 0
174 198 0
174 198 0
173 197 0
175 198 0
175 198 0
174 198 0
175 198 0
175 198 0
175 198 0
173 197 0
174 198 0
175 198 0
176 198 0
174 198 0
173 197 0
174 197 0
174 198 0
173 196 0
174 197 0
174 198 0
175 198 0
174 197 0
174 197 0
174 198 0
172 197 0
175 198 0
173 197 0
174 198 0
173 197 0
175 198 0
175 198 0
174 198 0
174 198 0
174 198 0
175 198 0
173 197 0
174 197 0
172 196 0
174 197 0
173 197 0
173 197 0
174 198 0
175 198 0
174 197 0
174 197 0
174 197 0
175 198 0
173 196 0
175 198 0
173 197 0
175 198 0
175 198 0
174 197 0
174 197 0
171 196 0
174 198 0
174 197 0
175 198 0
174 198 0
174 197 0
175 197 0
176 199 0
174 197 0
175 198 0
173 197 0
173 196 0
174 198 0
174 198 0
171 195 0
175 198 0
172 196 0
174 198 0
174 198 0
173 197 0
173 197 0
173 197 0
175 198 0
173 196 0
173 197 0
173 197 0
175 198 0
174 196 0
175 198 0
174 198 0
174 197 0
173 197 0
173 197 0
177 199 0
174 197 0
173 197 0
173 196 0
173 197 0
175 198 0
172 196 0
174 198 0
175 198 0
175 198 0
173 197 0
174 198 0
173 196 0
175 198 0
172 196 0
172 196 0
173 197 0
174 197 0
171 194 0
174 197 0
174 198 0
174 197 0
174 197 0
174 197 0
173 197 0
173 197 0
171 195 0
173 196 0
173 197 0
172 196 0
174 197 0
175 198 0
170 195 0
173 196 0
175 198 0
174 197 0
174 197 0
173 197 0
174 198 0
174 197 0
174 197 0
172 196 0
174 197 0
175 198 0
172 195 0
173 196 0
174 197 0
174 198 0
173 196 0
172 196 0
173 197 0
173 197 0
174 197 0
173 197 0
173 196 0
174 196 0
175 198 0
171 195 0
175 198 0
170 194 0
174 197 0
174 197 0
173 196 0
172 197 0
174 197 0
174 197 0
174 197 0
174 198 0
173 196 0
171 196 0
174 198 0
173 197 0
173 197 0
175 198 0
174 197 0
174 197 0
173 196 0
174 197 0
172 196 0
175 198 0
174 198 0
173 197 0
174 197 0
173 196 0
175 198 0
173 196 0
174 197 0
176 198 0
174 197 0
172 196 0
173 197 0
173 196 0
172 195 0
175 198 0
176 199 0
174 197 0
176 198 0
171 195 0
172 196 0
173 196 0
174 198 0
174 198 0
172 196 0
172 195 0
173 196 0
171 195 0
173 196 0
177 199 0
172 196 0
173 196 0
171 195 0
174 197 0
174 197 0
173 197 0
175 198 0
173 196 0
174 198 0
172 196 0
173 197 0
173 197 0
172 196 0
173 197 0
174 197 0
171 195 0
174 197 0
173 196 0
175 198 0
174 197 0
173 196 0
172 196 0
172 196 0
174 197 0
174 197 0
172 196 0
174 197 0
172 196 0
173 197 0
173 197 0
173 196 0
172 197 0
174 197 0
173 196 0
171 194 0
172 196 0
173 197 0
174 198 0
172 195 0
175 198 0
176 199 0
174 197 0
174 196 0
174 197 0
172 196 0
172 196 0
176 198 0
174 197 0
173 197 0
173 196 0
174 197 0
173 197 0
176 199 0
174 197 0
175 198 0
174 197 0
172 196 0
173 197 0
174 197 0
173 197 0
176 199 0
173 197 0
174 198 0
172 195 0
173 196 0
175 198 0
173 196 0
176 198 0
175 197 0
174 198 0
173 197 0
174 196 0
174 198 0
175 198 0
174 198 0
174 197 0
172 196 0
172 196 0
174 197 0
174 198 0
175 198 0
175 198 0
174 197 0
173 196 0
173 197 0
172 196 0
174 198 0
174 197 0
173 197 0
173 197 0
174 198 0
174 198 0
175 198 0
175 198 0
175 198 0
174 197 0
174 198 0
175 198 0
176 198 0
172 196 0
175 198 0
174 197 0
173 197 0
175 198 0
174 198 0
172 196 0
174 198 0
174 197 0
175 198 0
175 198 0
173 196 0
173 196 0
173 196 0
176 198 0
174 197 0
173 196 0
175 198 0
175 198 0
174 197 0
174 197 0
175 198 0
175 198 0
174 198 0
175 198 0
174 196 0
172 196 0
174 198 0
173 197 0
176 198 0
174 198 0
176 198 0
174 198 0
173 197 0
175 198 0
175 198 0
174 197 0
172 195 0
175 198 0
172 196 0
174 197 0
174 197 0
176 199 0
173 197 0
174 198 0
174 198 0
175 197 0
173 196 0
176 199 0
174 198 0
174 197 0
173 197 0
174 198 0
175 198 0
175 198 0
174 197 0
174 198 0
175 198 0
175 198 0
174 198 0
176 199 0
172 197 0
174 197 0
174 198 0
174 198 0
173 197 0
175 198 0
174 197 0
175 198 0
175 198 0
175 198 0
174 197 0
174 197 0
172 196 0
175 198 0
173 197 0
175 198 0
175 198 0
174 197 0
175 198 0
174 198 0
174 197 0
174 197 0
175 198 0
174 197 0
175 198 0
176 199 0
174 197 0
173 197 0
174 197 0
174 198 0
173 196 0
173 197 0
174 198 0
174 197 0
174 197 0
174 198 0
173 197 0
175 198 0
173 197 0
174 197 0
174 198 0
174 198 0
175 198 0
173 197 0
175 198 0
174 198 0
176 198 0
175 198 0
173 197 0
174 197 0
174 198 0
173 197 0
174 198 0
173 197 0
175 198 0
174 198 0
174 197 0
173 197 0
174 198 0
175 198 0
172 196 0
175 198 0
174 197 0
175 198 0
175 198 0
173 197 0
175 198 0
175 198 0
173 197 0
174 197 0
174 198 0
174 198 0
175 198 0
173 197 0
174 197 0
174 198 0
174 198 0
174 198 0
175 198 0
175 198 0
174 198 0
175 198 0
175 198 0
174 197 0
173 197 0
174 198 0
175 198 0
174 197 0
175 198 0
173 197 0
175 198 0
173 197 0
174 198 0
175 198 0
172 197 0
172 197 0
175 198 0
175 198 0
174 198 0
174 198 0
172 196 0
174 198 0
176 198 0
174 197 0
173 197 0
174 197 0
173 197 0
174 197 0
175 198 0
175 198 0
174 197 0
172 196 0
172 196 0
173 197 0
175 198 0
174 198 0
173 197 0
176 198 0
175 198 0
172 196 0
172 196 0
174 197 0
174 197 0
174 198 0
174 197 0
175 198 0
174 197 0
175 197 0
174 198 0
172 195 0
172 196 0
173 197 0
174 197 0
173 197 0
175 198 0
174 197 0
174 198 0
172 197 0
172 197 0
173 197 0
174 197 0
174 198 0
174 198 0
174 198 0
174 197 0
174 197 0
175 198 0
175 198 0
173 196 0
174 198 0
173 197 0
172 196 0
174 197 0
174 198 0
174 198 0
175 198 0
173 196 0
173 197 0
172 196 0
175 198 0
172 195 0
172 196 0
175 198 0
173 197 0
172 196 0
174 198 0
175 198 0
173 197 0
173 196 0
172 197 0
176 199 0
171 195 0
172 196 0
172 196 0
169 193 0
174 198 0
171 195 0
173 196 0
173 197 0
175 198 0
174 197 0
177 199 0
173 197 0
173 197 0
175 198 0
173 197 0
172 196 0
172 196 0
172 196 0
173 197 0
170 193 0
174 197 0
173 197 0
173 196 0
174 197 0
174 197 0
172 196 0
175 198 0
175 198 0
172 196 0
173 196 0
174 197 0
172 196 0
174 197 0
174 198 0
173 197 0
172 196 0
175 198 0
173 197 0
175 197 0
173 196 0
174 198 0
173 196 0
172 194 0
174 197 0
175 198 0
173 197 0
173 197 0
173 196 0
173 197 0
172 196 0
173 197 0
173 196 0
172 196 0
175 197 0
174 197 0
174 197 0
174 197 0
174 197 0
172 196 0
174 197 0
173 196 0
174 198 0
173 197 0
174 198 0
171 195 0
174 197 0
172 196 0
174 197 0
171 195 0
173 196 0
174 198 0
172 196 0
172 196 0
172 195 0
173 196 0
173 196 0
173 197 0
173 197 0
173 197 0
173 197 0
175 198 0
173 197 0
175 198 0
174 197 0
174 198 0
171 195 0
172 197 0
174 197 0
174 197 0
175 198 0
174 197 0
172 196 0
174 197 0
173 197 0
174 197 0
173 196 0
174 198 0
173 197 0
173 197 0
174 198 0
174 197 0
174 197 0
174 197 0
173 197 0
173 197 0
175 198 0
173 197 0
175 198 0
172 196 0
173 196 0
173 197 0
174 198 0
174 197 0
172 196 0
174 197 0
173 197 0
174 197 0
173 197 0
175 198 0
173 197 0
176 199 0
175 198 0
174 197 0
175 198 0
173 197 0
174 197 0
175 198 0
174 197 0
173 197 0
175 198 0
175 198 0
174 198 0
175 198 0
174 197 0
173 197 0
174 197 0
173 197 0
173 197 0
174 197 0
173 196 0
174 197 0
173 197 0
173 197 0
171 195 0
174 198 0
174 198 0
174 197 0
175 198 0
174 197 0
173 197 0
174 198 0
175 198 0
173 197 0
173 197 0
174 197 0
175 198 0
176 199 0
177 199 0
174 197 0
174 198 0
174 197 0
175 198 0
174 197 0
176 198 0
172 195 0
175 198 0
174 198 0
175 198 0
172 196 0
173 197 0
176 198 0
175 198 0
175 198 0
173 197 0
174 197 0
174 198 0
173 196 0
173 197 0
174 198 0
173 197 0
174 198 0
173 197 0
176 198 0
174 198 0
174 198 0
174 197 0
174 198 0
173 197 0
175 198 0
176 198 0
173 197 0
174 197 0
174 198 0
175 198 0
174 198 0
174 198 0
175 198 0
174 197 0
174 197 0
173 197 0
174 197 0
174 197 0
175 198 0
174 198 0
173 196 0
175 198 0
175 198 0
174 198 0
174 197 0
173 197 0
174 197 0
174 197 0
173 197 0
174 198 0
173 197 0
173 197 0
175 198 0
175 198 0
173 196 0
175 198 0
175 198 0
173 197 0
175 198 0
174 197 0
176 198 0
172 196 0
175 198 0
174 198 0
175 198 0
175 198 0
173 196 0
173 197 0
175 198 0
174 198 0
172 196 0
173 197 0
174 197 0
175 198 0
176 199 0
177 199 0
173 197 0
174 197 0
176 198 0
175 198 0
173 197 0
175 198 0
175 198 0
174 197 0
175 198 0
175 198 0
173 197 0
175 198 0
173 197 0
175 198 0
176 199 0
173 197 0
175 198 0
174 198 0
175 198 0
172 196 0
174 197 0
173 196 0
174 198 0
175 198 0
174 197 0
175 198 0
174 198 0
175 198 0
174 197 0
175 198 0
174 198 0
172 197 0
175 198 0
174 198 0
175 198 0
173 197 0
173 197 0
174 198 0
174 197 0
175 198 0
175 198 0
174 197 0
175 198 0
176 198 0
175 198 0
175 198 0
174 198 0
174 198 0
176 199 0
175 198 0
172 196 0
175 198 0
174 197 0
173 197 0
174 198 0
175 198 0
175 198 0
175 198 0
173 197 0
174 198 0
173 197 0
175 198 0
173 197 0
176 199 0
173 197 0
175 198 0
173 197 0
173 196 0
174 197 0
175 197 0
174 198 0
174 197 0
174 198 0
173 196 0
173 196 0
175 198 0
174 197 0
172 196 0
173 197 0
175 198 0
174 197 0
174 197 0
174 197 0
175 198 0
174 198 0
174 197 0
175 198 0
174 198 0
176 199 0
173 197 0
174 198 0
174 197 0
174 198 0
174 196 0
173 197 0
172 197 0
173 197 0
174 198 0
174 198 0
174 197 0
174 197 0
175 198 0
173 197 0
176 198 0
174 198 0
173 197 0
173 196 0
174 197 0
175 198 0
176 198 0
174 197 0
174 198 0
175 198 0
175 197 0
175 198 0
173 197 0
173 196 0
173 197 0
174 198 0
174 197 0
174 198 0
173 197 0
173 196 0
175 198 0
174 198 0
173 196 0
173 197 0
173 197 0
173 197 0
172 196 0
176 198 0
174 198 0
174 198 0
171 194 0
174 197 0
175 198 0
173 197 0
174 197 0
174 197 0
174 198 0
174 197 0
173 197 0
175 198 0
174 198 0
172 195 0
173 197 0
174 198 0
174 197 0
173 197 0
172 197 0
173 196 0
174 197 0
172 196 0
174 197 0
173 197 0
175 198 0
174 198 0
174 198 0
173 197 0
172 196 0
172 196 0
174 197 0
172 196 0
174 198 0
173 197 0
172 196 0
173 196 0
174 197 0
174 197 0
175 198 0
174 197 0
174 197 0
174 197 0
175 197 0
173 197 0
176 198 0
174 197 0
172 196 0
174 197 0
174 198 0
174 198 0
171 195 0
175 198 0
173 196 0
174 198 0
171 194 0
174 197 0
175 198 0
173 197 0
172 196 0
174 197 0
171 194 0
173 196 0
173 197 0
172 196 0
174 197 0
173 196 0
172 197 0
173 197 0
173 196 0
172 196 0
175 198 0
171 195 0
174 197 0
173 197 0
173 197 0
172 196 0
172 196 0
175 198 0
174 198 0
174 197 0
173 197 0
173 197 0
173 196 0
173 197 0
174 198 0
175 198 0
173 196 0
174 197 0
172 196 0
172 196 0
172 196 0
174 197 0
173 196 0
172 196 0
173 197 0
174 197 0
175 198 0
174 197 0
172 196 0
174 197 0
174 198 0
173 197 0
173 196 0
173 197 0
175 198 0
174 198 0
173 197 0
174 198 0
174 197 0
171 194 0
173 197 0
175 198 0
172 196 0
173 196 0
174 197 0
172 195 0
174 197 0
172 196 0
173 197 0
173 197 0
175 198 0
173 197 0
174 197 0
174 197 0
173 197 0
173 197 0
171 195 0
173 196 0
173 197 0
175 197 0
172 196 0
172 197 0
173 197 0
173 197 0
175 198 0
174 197 0
174 197 0
173 196 0
176 199 0
175 197 0
174 197 0
175 197 0
174 197 0
173 196 0
175 198 0
173 197 0
174 198 0
175 198 0
171 195 0
172 196 0
173 197 0
176 199 0
173 196 0
173 195 0
172 196 0
175 198 0
176 198 0
174 197 0
175 198 0
174 198 0
174 197 0
175 198 0
173 196 0
174 198 0
173 196 0
173 196 0
174 198 0
174 197 0
173 197 0
173 197 0
173 197 0
174 197 0
175 198 0
173 197 0
173 197 0
174 197 0
174 198 0
173 196 0
174 198 0
173 196 0
174 197 0
172 195 0
174 197 0
174 197 0
173 197 0
175 198 0
173 197 0
175 198 0
173 197 0
175 198 0
177 199 0
174 197 0
175 198 0
176 198 0
174 198 0
174 197 0
173 197 0
174 197 0
176 198 0
175 198 0
173 197 0
176 199 0
173 197 0
175 198 0
174 197 0
173 196 0
174 197 0
174 197 0
175 198 0
173 197 0
173 197 0
173 197 0
173 196 0
173 197 0
173 196 0
172 196 0
174 198 0
175 198 0
174 197 0
174 197 0
174 197 0
175 198 0
174 197 0
172 196 0
174 198 0
175 198 0
174 198 0
175 198 0
174 197 0
174 198 0
174 198 0
173 197 0
175 198 0
175 198 0
175 198 0
173 196 0
175 198 0
175 198 0
173 196 0
174 198 0
173 197 0
174 198 0
172 196 0
175 198 0
174 197 0
175 198 0
175 198 0
173 197 0
173 197 0
175 198 0
176 198 0
175 198 0
175 198 0
173 197 0
173 197 0
174 198 0
176 198 0
174 198 0
174 198 0
176 199 0
176 199 0
173 197 0
175 198 0
174 197 0
171 196 0
175 198 0
174 198 0
174 198 0
175 198 0
175 198 0
175 198 0
174 198 0
173 196 0
175 198 0
174 197 0
174 198 0
174 198 0
173 197 0
175 198 0
174 198 0
174 197 0
175 198 0
173 197 0
174 198 0
175 198 0
174 197 0
175 198 0
175 198 0
174 197 0
174 198 0
176 199 0
175 198 0
174 197 0
173 197 0
176 199 0
175 198 0
175 198 0
174 197 0
172 196 0
174 198 0
173 197 0
175 198 0
175 198 0
174 197 0
172 196 0
174 198 0
174 198 0
174 198 0
172 196 0
173 197 0
173 197 0
175 198 0
176 199 0
174 198 0
174 198 0
174 198 0
174 197 0
175 198 0
173 197 0
175 198 0
173 197 0
173 197 0
174 198 0
175 198 0
174 197 0
174 198 0
174 197 0
174 198 0
176 199 0
174 198 0
174 197 0
171 195 0
173 197 0
175 198 0
174 198 0
174 197 0
172 197 0
173 197 0
175 198 0
174 198 0
173 197 0
174 198 0
174 197 0
175 198 0
174 197 0
173 196 0
174 197 0
173 197 0
174 198 0
172 196 0
173 197 0
174 197 0
173 196 0
173 197 0
174 197 0
174 198 0
174 197 0
173 197 0
175 198 0
174 198 0
173 197 0
174 197 0
174 198 0
175 198 0
173 197 0
172 196 0
174 198 0
174 197 0
174 197 0
174 198 0
174 198 0
174 198 0
175 197 0
175 198 0
174 197 0
171 196 0
174 197 0
174 197 0
174 198 0
171 195 0
175 198 0
174 197 0
175 198 0
175 198 0
172 196 0
174 198 0
174 197 0
175 198 0
175 198 0
174 198 0
174 198 0
172 196 0
172 196 0
170 195 0
174 198 0
174 198 0
175 198 0
174 198 0
172 196 0
174 198 0
175 198 0
175 198 0
173 197 0
175 198 0
174 197 0
173 196 0
173 197 0
173 196 0
174 197 0
174 198 0
172 195 0
173 197 0
173 197 0
174 197 0
173 196 0
173 197 0
174 197 0
174 197 0
171 195 0
173 197 0
174 198 0
174 198 0
173 196 0
174 197 0
173 196 0
174 198 0
174 197 0
173 197 0
173 197 0
173 196 0
173 197 0
171 195 0
174 197 0
175 197 0
173 197 0
175 198 0
175 198 0
173 197 0
174 197 0
174 197 0
173 196 0
172 196 0
174 198 0
174 197 0
173 197 0
173 197 0
172 196 0
172 196 0
172 196 0
173 197 0
172 196 0
175 197 0
172 195 0
174 197 0
170 194 0
173 197 0
174 197 0
171 195 0
174 198 0
173 197 0
173 196 0
174 197 0
173 196 0
173 196 0
174 197 0
175 198 0
173 196 0
172 195 0
175 197 0
173 197 0
174 197 0
174 198 0
173 196 0
173 197 0
173 196 0
172 196 0
172 196 0
171 195 0
174 197 0
174 197 0
174 198 0
173 196 0
173 196 0
172 196 0
172 196 0
174 197 0
175 197 0
173 197 0
174 197 0
171 194 0
175 198 0
173 197 0
171 195 0
172 195 0
173 197 0
172 195 0
172 196 0
174 197 0
173 196 0
172 196 0
169 192 0
174 197 0
174 197 0
174 196 0
174 197 0
175 198 0
173 196 0
171 194 0
173 197 0
174 197 0
174 197 0
174 197 0
174 197 0
173 197 0
174 197 0
174 198 0
171 195 0
173 197 0
173 197 0
174 197 0
172 196 0
174 198 0
175 198 0
173 196 0
175 197 0
174 198 0
171 195 0
173 195 0
171 194 0
172 195 0
176 199 0
173 196 0
174 197 0
174 197 0
173 196 0
175 198 0
174 198 0
173 196 0
175 198 0
173 197 0
175 198 0
174 197 0
174 197 0
175 197 0
174 197 0
174 198 0
174 198 0
175 198 0
174 198 0
174 197 0
173 196 0
174 197 0
175 198 0
175 197 0
173 197 0
172 196 0
171 194 0
172 196 0
176 198 0
174 197 0
176 198 0
173 197 0
171 194 0
173 197 0
176 198 0
173 196 0
174 198 0
173 197 0
174 198 0
174 198 0
175 198 0
175 198 0
174 197 0
173 197 0
175 198 0
175 198 0
173 197 0
175 198 0
174 198 0
174 198 0
172 197 0
174 197 0
174 197 0
175 198 0
173 196 0
173 196 0
174 197 0
176 198 0
174 198 0
175 198 0
174 198 0
174 197 0
173 196 0
173 197 0
173 197 0
173 197 0
173 196 0
175 198 0
173 197 0
173 196 0
173 197 0
173 197 0
172 195 0
174 198 0
174 198 0
173 197 0
175 198 0
175 198 0
171 196 0
175 198 0
173 197 0
173 196 0
174 198 0
173 196 0
173 197 0
174 198 0
173 196 0
174 197 0
173 197 0
174 197 0
173 197 0
175 198 0
175 197 0
174 197 0
173 197 0
174 197 0
174 198 0
177 199 0
175 198 0
174 198 0
173 197 0
174 197 0
173 197 0
174 198 0
174 198 0
173 197 0
175 198 0
176 198 0
175 198 0
173 197 0
174 198 0
175 198 0
175 198 0
174 197 0
175 198 0
175 198 0
175 198 0
173 197 0
174 198 0
172 194 0
173 197 0
175 198 0
174 198 0
174 197 0
175 198 0
172 196 0
174 197 0
174 198 0
176 199 0
177 199 0
173 197 0
173 197 0
176 199 0
175 198 0
175 198 0
175 198 0
174 198 0
174 198 0
174 197 0
174 198 0
175 198 0
175 198 0
173 197 0
175 198 0
174 197 0
175 198 0
172 197 0
174 197 0
175 198 0
173 197 0
174 198 0
175 198 0
177 199 0
175 198 0
174 198 0
174 198 0
175 198 0
175 198 0
173 196 0
176 198 0
174 198 0
172 196 0
173 197 0
175 198 0
174 198 0
174 198 0
175 198 0
174 198 0
175 198 0
173 197 0
174 198 0
174 197 0
174 197 0
173 197 0
175 198 0
174 197 0
173 197 0
174 198 0
174 197 0
174 198 0
174 198 0
172 196 0
174 197 0
175 198 0
175 198 0
175 198 0
174 198 0
175 198 0
173 197 0
174 197 0
175 198 0
173 197 0
173 197 0
174 197 0
175 198 0
174 198 0
172 196 0
173 196 0
175 198 0
174 198 0
173 197 0
176 199 0
176 199 0
174 198 0
175 198 0
172 196 0
173 197 0
174 198 0
172 196 0
173 197 0
173 196 0
172 196 0
174 198 0
174 198 0
173 197 0
174 197 0
175 198 0
173 197 0
173 197 0
174 198 0
174 198 0
175 198 0
173 196 0
174 197 0
174 197 0
175 198 0
173 197 0
173 196 0
173 197 0
174 198 0
173 197 0
174 197 0
175 198 0
174 198 0
175 198 0
174 197 0
173 197 0
174 197 0
174 197 0
174 197 0
173 197 0
174 198 0
173 197 0
174 197 0
175 198 0
172 196 0
173 196 0
173 196 0
174 197 0
173 197 0
172 196 0
173 197 0
172 195 0
176 199 0
173 197 0
173 197 0
174 197 0
174 197 0
172 196 0
175 198 0
172 196 0
174 197 0
172 195 0
173 197 0
174 197 0
175 198 0
173 197 0
175 198 0
175 198 0
173 197 0
175 198 0
175 198 0
173 197 0
173 196 0
173 196 0
173 197 0
173 196 0
174 198 0
175 198 0
173 197 0
172 196 0
174 198 0
173 197 0
175 198 0
174 198 0
174 198 0
174 197 0
172 195 0
174 197 0
174 198 0
173 197 0
174 198 0
172 195 0
175 198 0
174 197 0
173 197 0
173 197 0
172 196 0
173 197 0
173 197 0
172 196 0
174 197 0
173 196 0
174 197 0
174 198 0
172 195 0
172 196 0
174 198 0
173 197 0
171 196 0
174 198 0
176 198 0
173 197 0
173 197 0
173 196 0
172 195 0
174 197 0
172 196 0
174 197 0
174 197 0
173 196 0
175 198 0
173 197 0
172 196 0
172 195 0
175 198 0
172 196 0
174 197 0
173 197 0
174 198 0
175 198 0
173 197 0
175 198 0
174 197 0
172 195 0
172 196 0
176 198 0
174 198 0
175 198 0
171 195 0
176 199 0
174 197 0
171 195 0
172 195 0
173 197 0
173 196 0
174 197 0
174 198 0
173 197 0
173 196 0
174 197 0
174 197 0
174 197 0
173 197 0
174 197 0
174 198 0
171 195 0
173 197 0
173 197 0
173 197 0
172 196 0
174 197 0
173 197 0
174 197 0
172 196 0
174 197 0
174 197 0
172 196 0
175 197 0
172 196 0
173 197 0
173 197 0
173 197 0
174 197 0
175 198 0
174 197 0
172 196 0
174 196 0
174 197 0
173 197 0
174 197 0
174 197 0
173 197 0
174 197 0
171 195 0
175 198 0
173 197 0
175 198 0
174 197 0
174 196 0
174 197 0
172 196 0
174 197 0
173 196 0
175 198 0
172 195 0
171 195 0
174 198 0
172 196 0
173 197 0
173 197 0
173 196 0
176 199 0
173 197 0
172 196 0
172 197 0
175 198 0
176 199 0
175 198 0
172 195 0
173 196 0
174 197 0
172 196 0
173 196 0
173 197 0
174 197 0
174 197 0
174 198 0
174 198 0
174 196 0
173 197 0
174 198 0
174 198 0
173 196 0
173 197 0
176 198 0
174 197 0
175 198 0
174 197 0
175 198 0
173 196 0
175 198 0
173 197 0
174 197 0
175 198 0
172 196 0
174 197 0
173 197 0
174 197 0
175 198 0
172 197 0
172 196 0
174 198 0
174 197 0
174 198 0
174 197 0
174 198 0
173 197 0
174 197 0
176 198 0
173 197 0
173 197 0
175 198 0
173 197 0
173 197 0
175 198 0
174 198 0
174 197 0
173 197 0
173 197 0
173 197 0
175 197 0
173 196 0
173 197 0
174 197 0
174 198 0
174 198 0
175 198 0
175 198 0
174 197 0
175 197 0
171 195 0
174 198 0
175 198 0
175 198 0
174 198 0
174 197 0
174 197 0
173 197 0
172 196 0
176 198 0
174 198 0
173 197 0
175 198 0
173 197 0
176 198 0
173 197 0
175 198 0
173 197 0
173 197 0
175 198 0
176 198 0
173 197 0
174 197 0
174 198 0
175 198 0
174 197 0
175 198 0
175 198 0
174 197 0
174 198 0
172 196 0
172 196 0
174 198 0
175 198 0
174 197 0
174 198 0
173 197 0
174 198 0
174 198 0
174 198 0
172 196 0
174 198 0
174 198 0
174 198 0
174 198 0
173 197 0
174 197 0
175 197 0
174 198 0
174 198 0
173 197 0
174 198 0
174 198 0
174 198 0
173 197 0
175 198 0
174 198 0
175 198 0
175 198 0
173 197 0
176 199 0
173 197 0
174 197 0
174 197 0
173 197 0
175 198 0
174 198 0
174 198 0
175 197 0
173 197 0
174 197 0
175 198 0
176 199 0
176 199 0
174 198 0
173 196 0
174 198 0
174 198 0
174 197 0
175 198 0
174 197 0
174 198 0
175 198 0
174 197 0
173 197 0
173 197 0
174 197 0
174 198 0
174 198 0
175 198 0
172 196 0
173 197 0
174 197 0
173 197 0
175 198 0
174 198 0
174 197 0
175 198 0
174 198 0
174 198 0
175 198 0
173 196 0
173 197 0
175 198 0
174 198 0
175 198 0
175 198 0
174 198 0
174 198 0
173 197 0
176 199 0
174 198 0
174 198 0
173 197 0
176 199 0
175 198 0
174 198 0
173 197 0
175 198 0
176 198 0
173 197 0
174 197 0
173 197 0
172 196 0
174 198 0
176 199 0
174 197 0
175 198 0
173 197 0
175 198 0
175 198 0
174 197 0
174 197 0
172 196 0
174 198 0
174 197 0
175 198 0
174 197 0
175 198 0
174 197 0
173 197 0
172 196 0
174 198 0
175 198 0
175 198 0
174 197 0
175 198 0
174 198 0
173 197 0
174 198 0
173 197 0
173 196 0
175 198 0
174 198 0
173 197 0
173 197 0
174 197 0
174 198 0
173 197 0
174 198 0
172 196 0
175 198 0
174 197 0
175 198 0
173 197 0
173 196 0
176 198 0
174 198 0
172 196 0
173 197 0
170 195 0
172 197 0
175 198 0
174 197 0
172 196 0
175 198 0
176 199 0
174 198 0
174 198 0
172 197 0
176 199 0
174 197 0
175 198 0
173 197 0
174 197 0
173 197 0
173 197 0
174 198 0
173 196 0
172 196 0
174 197 0
174 197 0
174 198 0
175 198 0
173 197 0
175 198 0
174 198 0
172 195 0
174 197 0
171 196 0
173 197 0
173 197 0
173 197 0
172 197 0
173 197 0
173 197 0
172 196 0
172 195 0
173 196 0
170 195 0
174 197 0
176 198 0
173 197 0
173 196 0
174 197 0
172 196 0
172 195 0
173 197 0
173 196 0
172 197 0
174 197 0
174 197 0
173 197 0
173 196 0
174 198 0
173 196 0
173 196 0
174 197 0
173 197 0
173 196 0
175 198 0
173 197 0
172 195 0
175 198 0
174 198 0
175 198 0
173 197 0
173 196 0
173 197 0
174 197 0
174 198 0
173 196 0
172 196 0
174 197 0
174 198 0
172 196 0
173 196 0
172 195 0
173 196 0
174 198 0
172 196 0
174 198 0
173 197 0
173 197 0
172 196 0
174 198 0
174 197 0
173 197 0
174 197 0
172 196 0
171 195 0
173 197 0
174 198 0
172 195 0
172 196 0
173 196 0
173 196 0
175 198 0
175 198 0
173 196 0
173 197 0
174 198 0
174 198 0
172 196 0
175 198 0
173 197 0
173 196 0
174 198 0
173 196 0
172 195 0
173 196 0
174 197 0
172 195 0
173 197 0
174 197 0
174 198 0
175 198 0
174 197 0
173 197 0
173 196 0
175 198 0
176 198 0
173 197 0
173 196 0
173 196 0
175 198 0
173 197 0
174 197 0
172 196 0
173 197 0
173 197 0
173 197 0
174 197 0
173 197 0
175 198 0
173 196 0
175 198 0
175 198 0
176 198 0
174 197 0
172 196 0
173 196 0
173 197 0
176 199 0
174 198 0
175 198 0
174 197 0
171 195 0
173 197 0
174 197 0
173 197 0
172 196 0
175 198 0
172 195 0
173 197 0
175 198 0
172 197 0
175 198 0
174 198 0
174 197 0
174 197 0
171 194 0
175 198 0
172 195 0
175 198 0
174 197 0
172 196 0
174 197 0
173 196 0
173 196 0
174 197 0
176 198 0
174 198 0
173 197 0
174 197 0
174 197 0
174 197 0
174 197 0
175 198 0
174 197 0
174 197 0
174 197 0
174 197 0
172 196 0
174 197 0
173 197 0
175 198 0
174 197 0
174 197 0
175 198 0
174 198 0
176 198 0
174 197 0
173 197 0
174 197 0
174 198 0
173 197 0
174 197 0
174 198 0
174 197 0
172 196 0
174 197 0
175 198 0
174 198 0
174 197 0
173 196 0
174 197 0
174 198 0
175 198 0
173 197 0
175 198 0
174 197 0
173 197 0
174 198 0
174 196 0
174 197 0
174 196 0
174 198 0
175 198 0
174 198 0
173 197 0
174 197 0
172 196 0
172 197 0
172 196 0
175 198 0
173 196 0
173 197 0
175 198 0
173 196 0
174 197 0
173 197 0
175 198 0
173 197 0
175 198 0
175 198 0
172 197 0
176 198 0
173 196 0
174 198 0
173 197 0
175 198 0
175 198 0
175 198 0
175 198 0
173 197 0
174 198 0
174 198 0
174 198 0
174 197 0
175 198 0
174 197 0
174 198 0
174 197 0
175 198 0
172 196 0
173 197 0
174 198 0
175 198 0
176 199 0
173 197 0
174 197 0
176 198 0
174 198 0
175 198 0
172 196 0
175 198 0
171 196 0
175 198 0
175 198 0
173 197 0
173 196 0
174 198 0
173 197 0
175 198 0
173 197 0
174 197 0
175 198 0
173 197 0
174 198 0
176 198 0
174 197 0
174 197 0
174 198 0
175 198 0
175 198 0
175 198 0
174 198 0
175 198 0
173 197 0
173 197 0
172 197 0
174 197 0
174 198 0
175 198 0
173 197 0
175 198 0
174 198 0
175 198 0
173 196 0
174 198 0
174 198 0
174 198 0
175 198 0
174 198 0
174 198 0
174 197 0
174 198 0
175 198 0
174 197 0
176 199 0
172 197 0
173 197 0
175 198 0
174 197 0
174 198 0
174 197 0
176 199 0
172 197 0
174 197 0
173 197 0
174 197 0
172 196 0
173 197 0
172 196 0
174 197 0
174 198 0
172 196 0
175 197 0
174 198 0
175 198 0
173 197 0
174 197 0
174 197 0
174 197 0
175 198 0
174 197 0
174 198 0
174 197 0
174 197 0
174 198 0
175 198 0
174 197 0
174 198 0
174 198 0
175 198 0
175 198 0
172 197 0
175 198 0
174 197 0
174 197 0
174 197 0
175 198 0
176 198 0
175 198 0
175 198 0
174 198 0
173 197 0
174 197 0
175 198 0
174 198 0
174 197 0
174 198 0
174 198 0
177 199 0
173 197 0
174 198 0
174 197 0
173 197 0
174 198 0
174 197 0
174 198 0
172 196 0
173 197 0
175 198 0
175 198 0
175 198 0
173 197 0
174 198 0
176 198 0
174 197 0
174 197 0
174 198 0
172 196 0
173 196 0
174 196 0
174 197 0
172 196 0
174 198 0
174 197 0
175 198 0
175 198 0
176 199 0
174 198 0
174 198 0
173 197 0
175 198 0
175 198 0
176 198 0
176 199 0
175 198 0
175 198 0
174 198 0
175 198 0
175 198 0
173 196 0
174 197 0
174 197 0
172 196 0
174 198 0
174 198 0
175 198 0
173 197 0
173 197 0
174 197 0
174 197 0
174 197 0
174 197 0
174 197 0
176 199 0
175 197 0
176 198 0
174 197 0
175 198 0
175 198 0
172 196 0
174 197 0
173 196 0
172 196 0
172 196 0
174 197 0
174 198 0
173 197 0
174 198 0
174 197 0
173 197 0
173 197 0
173 197 0
173 196 0
174 198 0
175 198 0
171 194 0
174 197 0
174 198 0
174 196 0
171 195 0
175 197 0
173 197 0
173 197 0
174 198 0
176 198 0
173 196 0
174 197 0
174 197 0
173 197 0
172 196 0
171 195 0
174 198 0
173 197 0
172 196 0
173 197 0
172 196 0
174 197 0
172 196 0
174 197 0
175 198 0
172 195 0
172 196 0
174 198 0
172 196 0
169 194 0
172 196 0
173 196 0
174 197 0
169 192 0
172 196 0
174 197 0
174 198 0
175 198 0
173 197 0
171 194 0
176 199 0
172 196 0
173 196 0
175 198 0
175 198 0
173 197 0
175 198 0
174 197 0
174 197 0
171 195 0
173 197 0
173 196 0
174 198 0
170 194 0
174 197 0
172 196 0
175 198 0
173 196 0
174 198 0
173 197 0
171 196 0
174 198 0
171 194 0
172 196 0
173 197 0
174 197 0
175 198 0
173 197 0
172 196 0
172 196 0
174 197 0
175 198 0
172 196 0
173 196 0
173 196 0
174 197 0
172 195 0
172 195 0
173 197 0
174 197 0
175 197 0
172 196 0
172 196 0
174 198 0
173 197 0
176 198 0
174 197 0
175 198 0
172 197 0
174 197 0
173 196 0
174 197 0
173 197 0
175 198 0
174 196 0
175 198 0
174 197 0
174 197 0
172 196 0
175 198 0
175 198 0
173 197 0
175 198 0
174 197 0
173 197 0
173 197 0
175 198 0
174 197 0
174 197 0
172 197 0
173 196 0
174 198 0
175 198 0
174 197 0
174 197 0
173 197 0
173 196 0
174 197 0
173 196 0
173 197 0
173 197 0
174 197 0
172 196 0
171 195 0
173 197 0
174 198 0
176 198 0
174 198 0
174 197 0
174 197 0
175 197 0
174 198 0
174 197 0
173 196 0
174 197 0
175 198 0
175 198 0
176 199 0
172 196 0
174 198 0
172 196 0
174 197 0
174 197 0
175 198 0
173 196 0
175 198 0
174 197 0
174 198 0
174 197 0
173 197 0
175 198 0
173 197 0
173 197 0
175 198 0
173 197 0
174 197 0
175 198 0
174 197 0
173 197 0
173 196 0
174 198 0
175 198 0
174 197 0
173 197 0
175 198 0
174 197 0
173 196 0
173 197 0
174 197 0
174 197 0
172 196 0
173 197 0
171 195 0
172 196 0
173 196 0
173 196 0
173 197 0
173 196 0
173 197 0
174 197 0
174 197 0
175 198 0
174 198 0
174 198 0
175 198 0
174 197 0
173 196 0
175 198 0
173 197 0
175 198 0
175 198 0
173 197 0
173 196 0
174 197 0
173 197 0
174 198 0
174 198 0
174 198 0
174 198 0
174 198 0
172 196 0
175 198 0
174 197 0
174 197 0
173 197 0
172 195 0
175 198 0
176 198 0
171 196 0
175 198 0
173 197 0
174 198 0
173 197 0
173 197 0
175 198 0
175 198 0
173 197 0
173 197 0
173 197 0
175 198 0
174 197 0
174 198 0
174 197 0
173 196 0
176 198 0
176 199 0
173 197 0
175 198 0
174 197 0
174 198 0
173 197 0
173 197 0
172 197 0
175 198 0
174 197 0
173 197 0
174 197 0
175 198 0
174 198 0
175 198 0
176 199 0
174 197 0
174 198 0
176 198 0
176 198 0
174 198 0
174 198 0
175 198 0
173 197 0
173 197 0
174 197 0
173 196 0
174 197 0
176 199 0
172 197 0
174 197 0
173 197 0
175 197 0
174 198 0
176 198 0
174 197 0
172 196 0
174 198 0
174 198 0
175 198 0
174 198 0
176 199 0
172 197 0
175 198 0
175 198 0
175 198 0
174 197 0
174 197 0
173 197 0
175 198 0
173 197 0
174 198 0
174 198 0
174 197 0
175 198 0
175 198 0
174 198 0
172 197 0
175 198 0
174 198 0
174 197 0
173 197 0
176 199 0
175 198 0
175 198 0
174 198 0
173 197 0
175 197 0
174 198 0
174 198 0
176 198 0
174 198 0
173 197 0
174 197 0
173 197 0
175 198 0
174 197 0
174 198 0
176 199 0
176 198 0
174 197 0
174 197 0
176 198 0
174 198 0
174 197 0
173 197 0
173 197 0
172 197 0
174 198 0
173 197 0
173 197 0
173 197 0
172 197 0
173 197 0
175 198 0
175 198 0
175 198 0
175 198 0
173 197 0
174 197 0
174 197 0
173 197 0
175 198 0
173 197 0
174 197 0
174 197 0
174 197 0
175 198 0
174 197 0
175 198 0
173 197 0
174 198 0
174 197 0
174 197 0
174 197 0
175 198 0
174 198 0
172 197 0
173 197 0
175 198 0
173 196 0
174 198 0
175 198 0
174 198 0
175 198 0
174 198 0
174 198 0
175 198 0
174 197 0
172 196 0
174 197 0
174 198 0
175 198 0
170 195 0
174 198 0
174 197 0
175 198 0
174 198 0
173 197 0
174 198 0
173 197 0
174 197 0
172 196 0
173 197 0
174 197 0
173 195 0
175 198 0
175 198 0
173 197 0
175 198 0
174 198 0
174 197 0
174 197 0
174 198 0
173 197 0
174 198 0
174 198 0
175 198 0
174 197 0
175 198 0
173 197 0
173 197 0
174 198 0
172 195 0
174 197 0
173 197 0
172 196 0
172 195 0
175 198 0
175 198 0
173 196 0
174 197 0
176 198 0
175 198 0
174 198 0
174 198 0
173 196 0
175 198 0
173 197 0
176 199 0
174 198 0
173 197 0
174 197 0
175 198 0
175 198 0
174 198 0
175 198 0
176 198 0
174 197 0
173 197 0
174 197 0
173 197 0
172 196 0
175 198 0
174 198 0
172 196 0
174 197 0
171 194 0
173 196 0
171 195 0
174 197 0
174 197 0
173 197 0
174 197 0
174 197 0
171 195 0
172 196 0
174 198 0
174 197 0
173 196 0
173 197 0
173 197 0
173 197 0
174 197 0
172 196 0
173 196 0
175 198 0
173 197 0
170 194 0
176 198 0
172 197 0
173 197 0
173 196 0
173 197 0
173 196 0
173 197 0
176 198 0
174 197 0
174 197 0
174 197 0
174 198 0
172 196 0
173 197 0
175 197 0
172 197 0
173 197 0
173 197 0
172 196 0
174 197 0
171 195 0
173 196 0
172 196 0
173 196 0
173 196 0
174 198 0
174 197 0
174 198 0
172 196 0
175 198 0
173 196 0
171 195 0
177 199 0
174 197 0
172 196 0
174 198 0
173 197 0
172 195 0
171 195 0
173 196 0
173 197 0
175 198 0
173 197 0
169 193 0
175 198 0
175 198 0
173 196 0
174 196 0
173 196 0
173 197 0
173 196 0
172 195 0
172 195 0
173 196 0
174 198 0
173 197 0
173 197 0
175 198 0
176 198 0
174 197 0
173 197 0
173 197 0
173 197 0
174 197 0
175 198 0
175 198 0
173 196 0
174 197 0
174 197 0
175 198 0
173 197 0
173 197 0
174 198 0
172 195 0
173 197 0
175 198 0
173 197 0
173 197 0
173 197 0
172 196 0
173 196 0
174 197 0
173 196 0
176 199 0
175 198 0
174 198 0
175 198 0
173 197 0
174 197 0
174 198 0
174 198 0
174 197 0
174 198 0
174 197 0
175 198 0
175 198 0
175 198 0
174 197 0
175 198 0
174 197 0
174 198 0
174 198 0
176 198 0
176 198 0
174 197 0
173 197 0
174 198 0
173 196 0
173 197 0
174 197 0
173 197 0
174 198 0
173 197 0
175 198 0
173 197 0
174 198 0
174 197 0
173 197 0
175 198 0
171 195 0
174 198 0
175 198 0
174 197 0
175 198 0
173 196 0
172 195 0
173 197 0
173 196 0
172 196 0
172 196 0
173 197 0
175 198 0
175 198 0
174 198 0
172 196 0
173 196 0
172 196 0
175 198 0
174 198 0
174 197 0
174 198 0
174 197 0
175 198 0
174 198 0
173 196 0
174 197 0
177 199 0
173 197 0
175 198 0
175 198 0
174 197 0
173 197 0
175 198 0
174 198 0
175 198 0
174 198 0
174 197 0
176 199 0
171 195 0
173 197 0
174 198 0
174 197 0
175 198 0
174 198 0
175 198 0
174 198 0
175 198 0
174 197 0
173 197 0
174 198 0
172 196 0
174 198 0
173 197 0
175 198 0
175 198 0
174 197 0
175 198 0
175 198 0
175 198 0
173 197 0
173 197 0
174 198 0
175 198 0
174 197 0
174 197 0
174 197 0
172 197 0
174 198 0
174 198 0
174 198 0
175 198 0
173 197 0
173 197 0
176 199 0
174 198 0
173 197 0
175 198 0
175 198 0
174 197 0
173 197 0
173 197 0
174 198 0
173 197 0
173 197 0
175 198 0
174 198 0
175 198 0
174 198 0
174 198 0
174 198 0
175 198 0
175 198 0
173 197 0
173 197 0
173 197 0
176 198 0
173 197 0
175 198 0
175 198 0
174 198 0
174 198 0
174 197 0
174 198 0
175 198 0
174 197 0
174 197 0
174 197 0
176 199 0
175 198 0
175 198 0
173 197 0
173 197 0
176 199 0
174 198 0
173 197 0
173 196 0
174 197 0
174 198 0
173 197 0
175 198 0
173 196 0
176 198 0
174 198 0
174 198 0
173 197 0
175 198 0
174 198 0
175 198 0
175 198 0
176 199 0
172 196 0
172 196 0
174 197 0
174 198 0
174 198 0
174 197 0
174 198 0
174 198 0
172 197 0
174 198 0
173 197 0
171 196 0
174 198 0
173 197 0
174 198 0
175 198 0
173 197 0
174 198 0
175 198 0
175 198 0
174 197 0
173 197 0
173 197 0
173 197 0
175 198 0
173 196 0
174 198 0
176 199 0
175 198 0
174 197 0
175 198 0
175 198 0
175 198 0
174 198 0
174 197 0
176 199 0
173 197 0
174 197 0
175 198 0
175 198 0
174 198 0
173 197 0
174 197 0
175 198 0
175 198 0
173 196 0
176 199 0
173 196 0
175 198 0
174 198 0
175 198 0
174 198 0
175 198 0
174 197 0
175 198 0
174 197 0
175 198 0
175 198 0
174 197 0
173 197 0
173 197 0
176 198 0
174 197 0
173 197 0
174 198 0
175 198 0
175 198 0
173 197 0
174 197 0
174 197 0
174 197 0
174 197 0
174 197 0
174 198 0
173 197 0
175 197 0
171 195 0
175 198 0
172 196 0
173 196 0
173 197 0
173 197 0
172 196 0
174 197 0
174 197 0
173 196 0
172 196 0
173 196 0
175 198 0
176 198 0
174 198 0
174 198 0
174 198 0
174 197 0
175 198 0
174 198 0
171 195 0
174 197 0
174 197 0
172 196 0
173 196 0
175 198 0
174 197 0
173 197 0
174 197 0
172 196 0
173 197 0
174 198 0
174 197 0
172 196 0
169 193 0
173 197 0
174 197 0
175 198 0
173 197 0
173 196 0
173 196 0
174 197 0
173 197 0
176 199 0
174 197 0
174 197 0
173 197 0
174 198 0
175 198 0
175 198 0
174 197 0
173 197 0
175 198 0
171 194 0
174 197 0
172 196 0
172 196 0
172 196 0
175 198 0
171 196 0
173 197 0
172 196 0
174 197 0
174 197 0
172 196 0
174 197 0
172 196 0
173 196 0
174 197 0
173 196 0
171 195 0
174 197 0
174 197 0
174 197 0
172 196 0
174 198 0
173 197 0
174 198 0
173 196 0
173 196 0
174 198 0
172 196 0
172 196 0
173 197 0
175 198 0
172 196 0
172 196 0
173 197 0
171 195 0
174 197 0
172 196 0
174 197 0
175 198 0
171 195 0
173 197 0
175 198 0
173 197 0
174 198 0
174 197 0
173 197 0
173 197 0
174 198 0
172 196 0
174 197 0
175 198 0
172 196 0
173 197 0
177 199 0
172 195 0
173 196 0
173 196 0
176 198 0
175 198 0
172 197 0
173 197 0
173 197 0
173 196 0
175 198 0
172 195 0
173 196 0
175 198 0
173 197 0
175 197 0
172 196 0
173 196 0
173 197 0
173 197 0
172 195 0
173 197 0
174 197 0
174 198 0
174 196 0
174 198 0
171 194 0
173 197 0
172 196 0
174 198 0
174 198 0
173 197 0
176 199 0
171 195 0
175 197 0
174 197 0
174 198 0
174 198 0
172 196 0
174 197 0
173 196 0
172 195 0
174 197 0
176 199 0
174 197 0
174 197 0
172 195 0
173 196 0
174 197 0
174 198 0
176 199 0
174 197 0
174 198 0
175 198 0
174 197 0
172 197 0
172 196 0
175 198 0
172 196 0
173 196 0
174 198 0
173 197 0
173 197 0
175 198 0
172 197 0
174 197 0
173 196 0
175 198 0
174 197 0
171 195 0
173 196 0
174 198 0
173 197 0
171 195 0
174 198 0
176 199 0
174 197 0
173 197 0
173 197 0
174 197 0
173 197 0
174 197 0
173 197 0
174 197 0
175 198 0
174 198 0
174 198 0
172 195 0
175 198 0
174 197 0
171 195 0
176 198 0
174 196 0
173 197 0
175 198 0
174 197 0
176 198 0
173 197 0
174 198 0
176 198 0
174 197 0
174 198 0
174 197 0
174 197 0
174 198 0
174 197 0
174 198 0
173 197 0
173 197 0
173 197 0
174 198 0
174 198 0
174 198 0
176 199 0
174 198 0
174 198 0
173 196 0
175 198 0
175 198 0
175 198 0
173 196 0
176 199 0
174 198 0
174 197 0
173 196 0
174 197 0
173 197 0
174 197 0
173 197 0
173 197 0
174 198 0
173 197 0
174 197 0
174 197 0
174 197 0
174 198 0
174 198 0
174 197 0
175 198 0
173 197 0
174 198 0
173 197 0
174 197 0
176 199 0
174 198 0
176 198 0
176 198 0
173 197 0
175 198 0
174 197 0
175 197 0
174 198 0
176 199 0
174 198 0
174 197 0
174 198 0
175 198 0
173 197 0
175 198 0
175 198 0
174 197 0
175 198 0
174 198 0
174 198 0
175 198 0
175 198 0
174 198 0
172 196 0
173 196 0
175 198 0
175 198 0
173 197 0
173 197 0
174 198 0
175 198 0
175 198 0
175 198 0
175 198 0
174 198 0
171 195 0
173 197 0
173 197 0
174 198 0
174 197 0
174 197 0
174 198 0
174 198 0
175 198 0
174 197 0
174 198 0
175 198 0
176 199 0
175 198 0
175 198 0
175 198 0
173 197 0
175 198 0
174 198 0
175 198 0
173 196 0
174 197 0
175 198 0
175 198 0
173 197 0
174 198 0
175 198 0
174 198 0
173 197 0
174 198 0
174 198 0
172 196 0
175 198 0
176 199 0
175 198 0
174 197 0
176 198 0
176 199 0
174 198 0
175 198 0
176 198 0
175 198 0
174 197 0
176 199 0
175 197 0
174 197 0
175 198 0
174 198 0
174 198 0
174 198 0
174 197 0
173 197 0
176 198 0
176 199 0
174 197 0
174 197 0
176 198 0
175 198 0
173 197 0
175 198 0
173 197 0
174 197 0
175 198 0
175 198 0
176 199 0
175 198 0
173 197 0
174 198 0
174 197 0
175 198 0
174 198 0
176 198 0
172 196 0
174 197 0
176 198 0
174 197 0
174 197 0
175 198 0
175 198 0
173 197 0
175 198 0
175 198 0
173 197 0
174 197 0
175 198 0
173 197 0
174 197 0
173 197 0
174 198 0
174 198 0
171 195 0
174 197 0
175 198 0
173 196 0
172 196 0
174 197 0
171 196 0
173 197 0
173 197 0
175 198 0
173 197 0
174 197 0
173 197 0
174 197 0
174 197 0
174 198 0
174 198 0
174 198 0
174 198 0
173 197 0
175 198 0
173 197 0
174 198 0
173 197 0
175 198 0
172 196 0
175 198 0
174 198 0
173 196 0
175 198 0
176 199 0
174 197 0
174 198 0
174 197 0
174 198 0
175 198 0
172 196 0
174 197 0
174 197 0
174 197 0
174 197 0
174 197 0
175 197 0
174 198 0
173 196 0
173 196 0
174 198 0
171 195 0
174 197 0
174 198 0
173 197 0
175 198 0
172 195 0
175 198 0
172 196 0
175 198 0
173 197 0
172 196 0
172 196 0
173 197 0
175 198 0
172 195 0
175 197 0
173 197 0
173 196 0
173 196 0
173 197 0
172 196 0
174 197 0
173 197 0
174 198 0
175 198 0
172 196 0
173 196 0
174 198 0
175 198 0
173 197 0
173 197 0
175 198 0
174 197 0
174 198 0
173 197 0
174 198 0
174 197 0
175 198 0
174 197 0
174 196 0
174 197 0
174 198 0
174 197 0
172 196 0
175 198 0
172 196 0
172 195 0
172 195 0
175 198 0
171 194 0
172 196 0
172 196 0
175 198 0
174 198 0
173 197 0
171 195 0
174 197 0
175 198 0
172 195 0
173 196 0
171 195 0
173 197 0
174 198 0
173 197 0
175 198 0
173 197 0
172 196 0
174 197 0
173 196 0
173 197 0
174 197 0
173 196 0
172 196 0
172 195 0
173 197 0
175 198 0
171 195 0
175 198 0
174 197 0
174 197 0
173 196 0
174 198 0
173 197 0
175 198 0
173 197 0
173 196 0
172 196 0
174 197 0
174 197 0
173 197 0
173 197 0
174 197 0
173 196 0
173 197 0
174 197 0
173 196 0
172 196 0
173 197 0
175 198 0
173 197 0
174 198 0
174 197 0
176 199 0
174 197 0
172 196 0
173 197 0
174 197 0
172 196 0
173 197 0
174 197 0
175 198 0
174 197 0
175 197 0
174 198 0
172 196 0
175 198 0
173 196 0
174 197 0
173 197 0
173 197 0
175 198 0
174 197 0
173 197 0
175 198 0
174 197 0
175 198 0
175 198 0
174 197 0
174 197 0
173 197 0
175 198 0
173 197 0
175 198 0
173 197 0
173 197 0
174 197 0
173 196 0
174 198 0
174 198 0
175 198 0
172 196 0
173 196 0
174 197 0
172 196 0
173 197 0
175 198 0
171 194 0
172 196 0
174 198 0
175 197 0
174 196 0
173 197 0
175 198 0
172 196 0
175 198 0
174 198 0
174 197 0
172 195 0
173 197 0
172 196 0
172 196 0
172 197 0
174 197 0
172 196 0
174 197 0
174 197 0
171 195 0
172 196 0
174 197 0
175 197 0
172 195 0
173 196 0
175 198 0
173 197 0
175 198 0
175 198 0
174 198 0
176 199 0
174 198 0
173 197 0
173 197 0
175 198 0
174 197 0
175 198 0
174 198 0
176 198 0
173 196 0
174 198 0
174 197 0
175 198 0
173 197 0
173 196 0
174 197 0
175 198 0
174 198 0
174 197 0
173 197 0
174 197 0
175 198 0
174 197 0
174 198 0
174 197 0
173 197 0
173 197 0
176 198 0
174 198 0
173 197 0
174 198 0
172 196 0
174 197 0
172 195 0
174 198 0
175 198 0
173 197 0
174 198 0
175 198 0
175 198 0
174 197 0
174 198 0
173 197 0
175 198 0
174 197 0
174 198 0
176 199 0
175 198 0
176 198 0
173 196 0
175 198 0
174 198 0
172 196 0
174 198 0
176 198 0
173 197 0
174 198 0
175 198 0
175 198 0
176 198 0
174 197 0
174 198 0
175 198 0
175 198 0
174 198 0
173 196 0
176 199 0
173 197 0
172 196 0
173 197 0
175 198 0
174 197 0
175 198 0
174 197 0
175 198 0
172 197 0
174 198 0
174 198 0
175 198 0
176 198 0
174 197 0
174 198 0
175 198 0
176 199 0
175 198 0
173 197 0
172 196 0
174 198 0
174 198 0
175 198 0
174 198 0
174 198 0
174 197 0
173 197 0
172 196 0
175 198 0
174 198 0
173 196 0
176 198 0
174 198 0
175 198 0
174 198 0
174 197 0
173 197 0
174 198 0
174 197 0
175 198 0
175 198 0
172 196 0
174 197 0
175 198 0
174 197 0
173 197 0
173 197 0
176 199 0
173 197 0
176 199 0
174 198 0
175 198 0
175 198 0
175 198 0
174 197 0
175 198 0
175 198 0
174 198 0
175 198 0
176 199 0
173 197 0
174 197 0
174 198 0
174 197 0
173 197 0
173 197 0
173 197 0
175 198 0
176 198 0
175 198 0
175 198 0
175 198 0
176 199 0
173 197 0
173 197 0
173 197 0
175 198 0
173 197 0
175 198 0
173 197 0
174 198 0
176 199 0
174 198 0
173 196 0
175 198 0
175 198 0
176 198 0
173 197 0
174 198 0
173 197 0
175 198 0
174 198 0
175 198 0
173 196 0
175 198 0
175 198 0
174 197 0
175 198 0
173 197 0
174 198 0
174 198 0
174 198 0
172 196 0
174 197 0
173 197 0
173 197 0
174 197 0
173 197 0
174 197 0
175 198 0
174 198 0
175 198 0
175 198 0
173 197 0
173 197 0
174 197 0
174 197 0
176 199 0
174 197 0
174 197 0
174 197 0
174 197 0
174 198 0
174 197 0
174 198 0
175 198 0
174 198 0
172 197 0
175 198 0
173 197 0
174 197 0
173 196 0
175 197 0
172 196 0
173 197 0
174 197 0
174 197 0
175 198 0
174 197 0
174 198 0
174 198 0
173 196 0
172 196 0
174 197 0
172 196 0
175 198 0
174 197 0
174 198 0
173 197 0
173 197 0
173 196 0
174 197 0
175 198 0
172 197 0
175 197 0
173 197 0
174 197 0
176 199 0
173 197 0
172 196 0
172 196 0
173 196 0
175 198 0
173 196 0
172 196 0
174 196 0
174 198 0
174 198 0
172 196 0
174 198 0
173 197 0
174 197 0
174 197 0
174 198 0
173 197 0
175 198 0
173 196 0
173 197 0
173 197 0
173 197 0
172 196 0
173 197 0
175 197 0
175 198 0
174 198 0
175 198 0
174 197 0
173 196 0
173 197 0
174 197 0
172 196 0
173 196 0
174 197 0
172 196 0
173 197 0
171 196 0
173 197 0
172 196 0
175 198 0
176 198 0
173 196 0
171 195 0
172 195 0
173 197 0
175 198 0
171 195 0
171 195 0
172 196 0
172 196 0
174 197 0
174 198 0
176 198 0
175 198 0
173 196 0
172 196 0
175 197 0
173 196 0
172 196 0
173 197 0
172 196 0
174 196 0
173 197 0
173 196 0
172 195 0
172 196 0
175 198 0
176 198 0
174 198 0
173 197 0
174 197 0
174 197 0
171 194 0
172 195 0
172 196 0
173 197 0
174 197 0
170 194 0
173 197 0
176 198 0
174 196 0
173 197 0
173 197 0
174 198 0
173 196 0
173 197 0
174 198 0
174 197 0
173 197 0
173 197 0
174 197 0
175 198 0
173 197 0
171 195 0
174 197 0
172 196 0
174 197 0
171 194 0
172 196 0
173 197 0
175 197 0
173 197 0
172 196 0
174 197 0
172 196 0
175 198 0
172 196 0
176 198 0
175 198 0
174 197 0
173 197 0
174 198 0
173 197 0
172 196 0
174 198 0
173 196 0
171 195 0
175 198 0
175 198 0
173 197 0
175 198 0
176 199 0
174 197 0
174 198 0
175 198 0
175 198 0
173 197 0
175 198 0
175 198 0
173 197 0
175 198 0
174 196 0
173 196 0
173 197 0
171 195 0
176 198 0
171 195 0
176 199 0
171 195 0
176 198 0
173 197 0
174 197 0
174 197 0
175 198 0
174 197 0
173 197 0
174 198 0
171 195 0
173 196 0
173 197 0
174 198 0
173 197 0
174 198 0
174 198 0
172 196 0
174 197 0
173 196 0
173 197 0
173 197 0
177 199 0
173 196 0
174 198 0
172 195 0
174 197 0
174 198 0
173 197 0
174 197 0
172 196 0
174 197 0
175 198 0
175 197 0
174 197 0
173 197 0
172 195 0
174 198 0
173 197 0
171 195 0
174 198 0
174 197 0
174 197 0
173 197 0
174 197 0
175 198 0
174 197 0
173 197 0
174 197 0
174 197 0
174 198 0
173 197 0
174 198 0
174 198 0
174 197 0
174 198 0
174 196 0
175 198 0
173 197 0
175 198 0
174 198 0
174 197 0
173 197 0
175 198 0
175 198 0
174 198 0
174 198 0
175 198 0
176 199 0
174 198 0
176 199 0
173 197 0
174 198 0
173 197 0
174 197 0
175 198 0
173 197 0
174 198 0
173 197 0
175 198 0
175 198 0
176 199 0
174 198 0
174 198 0
173 197 0
176 199 0
175 198 0
174 198 0
176 199 0
173 197 0
174 197 0
174 198 0
173 197 0
174 198 0
174 198 0
174 197 0
174 198 0
174 198 0
174 197 0
174 197 0
175 198 0
174 198 0
173 197 0
175 198 0
172 196 0
174 197 0
175 198 0
173 197 0
175 198 0
175 198 0
175 198 0
174 197 0
173 197 0
174 197 0
174 197 0
174 198 0
175 198 0
174 198 0
174 197 0
175 198 0
174 197 0
174 198 0
171 195 0
172 196 0
174 198 0
174 197 0
175 197 0
175 198 0
175 198 0
173 197 0
173 197 0
174 197 0
175 198 0
175 198 0
174 198 0
174 197 0
175 198 0
174 197 0
174 197 0
174 197 0
173 197 0
173 197 0
173 197 0
176 199 0
176 199 0
174 198 0
174 198 0
174 198 0
174 197 0
175 198 0
174 198 0
174 198 0
174 197 0
172 196 0
174 197 0
174 198 0
174 198 0
174 197 0
175 198 0
174 197 0
175 198 0
174 198 0
173 197 0
171 196 0
175 198 0
173 197 0
175 198 0
172 196 0
174 198 0
176 199 0
175 198 0
174 197 0
175 198 0
174 197 0
174 198 0
175 198 0
175 198 0
175 198 0
174 198 0
174 198 0
173 197 0
175 198 0
175 198 0
176 199 0
175 198 0
176 199 0
174 197 0
174 198 0
175 198 0
173 196 0
174 198 0
175 198 0
175 198 0
172 196 0
175 198 0
174 197 0
174 197 0
173 197 0
174 197 0
174 197 0
176 198 0
176 198 0
173 197 0
174 197 0
173 196 0
172 196 0
172 196 0
173 197 0
173 197 0
173 196 0
175 198 0
173 197 0
175 198 0
174 197 0
175 198 0
174 197 0
174 198 0
172 196 0
173 197 0
176 198 0
174 198 0
175 198 0
174 198 0
173 197 0
172 196 0
174 198 0
175 198 0
175 198 0
175 198 0
174 198 0
173 197 0
175 198 0
174 197 0
173 197 0
174 198 0
173 197 0
173 196 0
174 198 0
173 197 0
174 197 0
173 196 0
174 197 0
174 198 0
176 199 0
172 196 0
174 197 0
175 198 0
174 198 0
171 195 0
173 197 0
176 199 0
174 198 0
173 197 0
172 196 0
175 198 0
174 197 0
173 197 0
174 197 0
174 198 0
174 197 0
174 198 0
176 198 0
175 198 0
175 198 0
174 198 0
173 196 0
173 196 0
175 197 0
173 197 0
174 198 0
175 198 0
173 196 0
173 196 0
174 197 0
173 197 0
174 198 0
174 198 0
174 197 0
171 195 0
175 197 0
173 197 0
173 197 0
175 198 0
174 198 0
174 197 0
172 195 0
174 197 0
174 198 0
172 196 0
174 198 0
172 196 0
174 197 0
173 197 0
175 197 0
173 196 0
175 197 0
175 198 0
174 197 0
173 196 0
174 198 0
174 197 0
173 197 0
175 198 0
173 197 0
171 195 0
174 198 0
174 197 0
173 197 0
171 196 0
173 197 0
176 198 0
174 198 0
173 196 0
173 196 0
173 196 0
175 197 0
173 196 0
173 197 0
174 197 0
175 197 0
176 199 0
174 197 0
169 194 0
174 197 0
176 199 0
173 197 0
174 197 0
173 196 0
174 198 0
175 198 0
173 196 0
173 196 0
173 196 0
173 197 0
172 196 0
174 197 0
173 197 0
171 194 0
173 196 0
172 196 0
174 197 0
173 197 0
172 196 0
174 198 0
172 196 0
175 198 0
172 196 0
174 198 0
173 196 0
174 197 0
174 197 0
175 198 0
174 197 0
172 195 0
172 195 0
175 198 0
173 197 0
176 198 0
175 198 0
173 197 0
174 197 0
172 196 0
172 195 0
173 197 0
174 197 0
174 197 0
172 196 0
173 197 0
175 198 0
172 196 0
175 198 0
174 197 0
174 197 0
173 197 0
173 197 0
174 198 0
175 197 0
174 198 0
175 198 0
175 198 0
173 196 0
172 196 0
171 194 0
172 196 0
173 197 0
174 198 0
174 197 0
172 196 0
173 196 0
174 197 0
174 197 0
173 197 0
174 198 0
175 198 0
175 198 0
173 196 0
175 198 0
173 197 0
175 198 0
173 196 0
175 198 0
174 197 0
175 198 0
175 198 0
173 196 0
175 198 0
174 198 0
174 197 0
175 198 0
174 197 0
173 196 0
175 198 0
174 198 0
174 197 0
174 197 0
172 196 0
174 197 0
173 196 0
174 197 0
173 197 0
174 197 0
173 197 0
174 198 0
174 198 0
174 198 0
170 194 0
174 197 0
174 198 0
173 197 0
173 197 0
174 197 0
174 198 0
174 197 0
174 197 0
175 198 0
175 198 0
174 198 0
175 198 0
176 199 0
172 197 0
175 198 0
172 196 0
175 198 0
174 197 0
173 196 0
174 197 0
174 198 0
175 198 0
174 198 0
174 197 0
175 198 0
174 197 0
172 196 0
174 197 0
173 197 0
173 197 0
173 196 0
174 198 0
175 198 0
173 197 0
173 196 0
173 196 0
174 197 0
176 198 0
174 197 0
174 198 0
175 198 0
174 197 0
173 197 0
175 198 0
174 197 0
174 198 0
173 196 0
175 198 0
174 197 0
175 198 0
174 198 0
174 197 0
174 197 0
174 197 0
175 198 0
174 197 0
174 198 0
174 197 0
175 198 0
175 198 0
172 195 0
173 197 0
175 198 0
174 198 0
175 198 0
173 196 0
173 197 0
175 198 0
175 198 0
174 197 0
175 198 0
175 198 0
175 198 0
174 198 0
173 197 0
175 198 0
173 197 0
173 197 0
174 197 0
172 196 0
174 198 0
173 197 0
174 197 0
172 196 0
175 198 0
174 197 0
173 197 0
175 198 0
174 197 0
174 197 0
174 197 0
174 198 0
176 199 0
177 199 0
172 197 0
173 197 0
174 198 0
173 197 0
174 197 0
176 198 0
175 198 0
174 198 0
173 197 0
174 197 0
172 197 0
173 197 0
174 197 0
173 196 0
175 198 0
177 199 0
175 198 0
174 197 0
172 196 0
174 197 0
172 196 0
173 197 0
173 197 0
173 197 0
173 197 0
175 198 0
175 198 0
174 197 0
173 197 0
175 198 0
175 198 0
175 198 0
173 197 0
174 197 0
172 197 0
174 198 0
176 199 0
172 197 0
175 198 0
175 198 0
173 197 0
175 198 0
174 198 0
174 198 0
175 198 0
176 198 0
173 196 0
175 198 0
174 198 0
174 197 0
174 197 0
174 198 0
174 198 0
174 197 0
173 197 0
175 197 0
174 198 0
175 198 0
174 197 0
175 198 0
172 197 0
175 198 0
174 197 0
173 197 0
172 196 0
174 198 0
174 198 0
174 198 0
174 197 0
176 199 0
174 198 0
174 197 0
174 197 0
176 198 0
174 197 0
175 198 0
175 198 0
175 198 0
175 198 0
175 197 0
175 198 0
173 197 0
172 196 0
173 197 0
174 197 0
175 198 0
173 197 0
175 198 0
176 198 0
175 198 0
174 197 0
173 197 0
174 198 0
174 197 0
174 198 0
173 197 0
175 198 0
176 199 0
173 197 0
175 198 0
173 196 0
174 198 0
174 197 0
175 198 0
172 195 0
173 197 0
175 198 0
175 198 0
176 199 0
175 198 0
175 198 0
173 197 0
175 198 0
173 197 0
174 198 0
174 198 0
174 198 0
175 198 0
173 197 0
174 198 0
173 197 0
175 198 0
174 197 0
174 198 0
175 198 0
175 198 0
175 198 0
174 197 0
174 197 0
173 197 0
172 196 0
175 198 0
173 196 0
173 197 0
173 196 0
172 196 0
175 198 0
173 196 0
173 196 0
175 198 0
175 198 0
174 197 0
175 198 0
173 197 0
174 197 0
173 197 0
173 197 0
174 197 0
174 198 0
175 198 0
175 198 0
174 198 0
172 196 0
172 196 0
174 198 0
175 198 0
174 197 0
173 196 0
172 197 0
173 197 0
174 198 0
172 196 0
175 198 0
174 197 0
173 196 0
172 196 0
173 197 0
173 197 0
174 198 0
172 196 0
174 197 0
174 197 0
171 195 0
174 197 0
174 197 0
174 197 0
174 198 0
174 197 0
173 196 0
174 198 0
173 197 0
171 196 0
173 197 0
171 195 0
172 196 0
174 197 0
175 198 0
173 196 0
174 197 0
173 196 0
173 197 0
175 198 0
173 196 0
173 197 0
172 196 0
175 198 0
173 197 0
173 196 0
173 197 0
171 195 0
175 198 0
175 198 0
175 198 0
172 196 0
174 197 0
175 198 0
176 198 0
174 198 0
174 197 0
173 197 0
174 197 0
173 197 0
171 194 0
175 198 0
175 197 0
172 196 0
174 198 0
174 197 0
173 197 0
172 196 0
174 197 0
174 197 0
174 198 0
172 196 0
171 195 0
175 198 0
174 196 0
173 197 0
174 198 0
173 197 0
174 197 0
174 197 0
174 197 0
172 196 0
174 197 0
175 198 0
174 197 0
174 197 0
175 198 0
172 196 0
175 198 0
173 196 0
173 197 0
172 195 0
172 196 0
173 196 0
172 196 0
173 197 0
176 198 0
171 195 0
174 197 0
173 197 0
174 197 0
174 197 0
174 197 0
174 197 0
174 197 0
174 198 0
174 198 0
173 197 0
173 197 0
172 196 0
174 197 0
172 195 0
173 196 0
175 198 0
173 196 0
174 196 0
174 197 0
173 197 0
173 196 0
175 198 0
171 195 0
173 196 0
172 196 0
173 197 0
174 197 0
173 197 0
172 197 0
175 198 0
172 196 0
172 196 0
173 197 0
175 197 0
174 198 0
175 198 0
172 196 0
175 198 0
176 199 0
173 197 0
173 197 0
172 196 0
173 197 0
174 198 0
172 196 0
174 197 0
173 196 0
175 198 0
172 196 0
171 195 0
173 197 0
175 198 0
174 197 0
173 196 0
174 198 0
174 197 0
172 196 0
174 198 0
174 198 0
172 196 0
175 198 0
175 198 0
175 198 0
173 197 0
174 197 0
173 196 0
173 197 0
173 196 0
175 198 0
174 198 0
174 197 0
174 197 0
173 197 0
172 196 0
173 196 0
176 199 0
175 198 0
173 197 0
174 198 0
175 198 0
173 197 0
173 197 0
173 196 0
174 198 0
174 197 0
173 197 0
175 198 0
172 196 0
173 197 0
175 198 0
175 198 0
173 197 0
171 195 0
174 197 0
174 197 0
173 197 0
175 198 0
176 199 0
173 197 0
173 197 0
174 197 0
175 198 0
175 198 0
174 197 0
173 197 0
172 197 0
174 198 0
174 197 0
175 198 0
175 198 0
175 198 0
171 194 0
175 198 0
174 198 0
174 198 0
173 196 0
174 197 0
174 198 0
174 197 0
174 198 0
175 198 0
175 198 0
175 198 0
173 196 0
172 196 0
172 196 0
173 197 0
174 198 0
173 197 0
172 197 0
173 197 0
174 196 0
173 197 0
172 196 0
175 198 0
174 198 0
175 198 0
175 198 0
174 197 0
173 197 0
174 197 0
173 196 0
174 197 0
173 197 0
174 197 0
175 198 0
174 197 0
172 197 0
175 198 0
175 198 0
176 199 0
175 198 0
175 198 0
173 197 0
175 198 0
175 198 0
176 198 0
175 198 0
175 198 0
174 198 0
175 198 0
174 197 0
174 198 0
174 198 0
175 198 0
175 198 0
175 198 0
174 198 0
174 197 0
175 198 0
175 198 0
174 198 0
174 198 0
173 197 0
174 198 0
173 197 0
173 196 0
175 198 0
175 198 0
175 198 0
174 198 0
174 198 0
174 197 0
174 198 0
175 198 0
174 197 0
174 197 0
175 198 0
175 198 0
172 195 0
175 198 0
174 198 0
175 198 0
174 198 0
173 197 0
174 197 0
175 198 0
176 198 0
174 197 0
175 198 0
173 197 0
174 197 0
174 197 0
172 196 0
175 198 0
175 198 0
173 197 0
174 198 0
175 198 0
173 197 0
176 199 0
175 198 0
173 197 0
174 198 0
174 197 0
174 198 0
175 198 0
174 198 0
174 198 0
174 198 0
175 198 0
175 198 0
173 197 0
174 198 0
173 197 0
173 197 0
173 196 0
173 197 0
173 197 0
174 198 0
173 197 0
172 196 0
174 198 0
171 195 0
174 198 0
175 198 0
173 196 0
175 198 0
176 199 0
173 196 0
174 198 0
172 196 0
173 197 0
176 199 0
174 198 0
173 196 0
173 197 0
175 198 0
172 196 0
172 196 0
173 196 0
174 198 0
175 198 0
173 197 0
173 197 0
174 198 0
173 197 0
175 198 0
174 197 0
174 198 0
175 198 0
175 198 0
174 197 0
172 196 0
174 198 0
173 197 0
174 197 0
175 198 0
173 197 0
176 198 0
173 197 0
174 198 0
174 197 0
173 197 0
174 197 0
174 197 0
175 198 0
175 198 0
173 197 0
173 197 0
173 197 0
173 197 0
173 197 0
175 198 0
173 196 0
174 198 0
175 197 0
174 198 0
174 197 0
172 197 0
177 199 0
172 196 0
175 198 0
174 198 0
172 196 0
173 197 0
175 198 0
173 196 0
172 196 0
173 196 0
170 194 0
172 197 0
174 198 0
174 198 0
175 198 0
171 195 0
174 198 0
175 198 0
173 197 0
173 196 0
175 198 0
174 198 0
175 198 0
173 197 0
172 196 0
172 196 0
175 198 0
172 195 0
173 197 0
174 198 0
174 198 0
173 196 0
175 198 0
173 197 0
174 198 0
174 197 0
173 196 0
175 198 0
173 196 0
174 198 0
172 196 0
174 197 0
172 195 0
172 196 0
173 197 0
174 198 0
174 198 0
174 197 0
170 193 0
174 197 0
173 197 0
174 198 0
176 198 0
172 195 0
173 197 0
173 196 0
173 197 0
173 196 0
174 198 0
172 195 0
174 198 0
174 197 0
175 198 0
172 195 0
173 196 0
172 196 0
174 197 0
174 198 0
173 196 0
172 196 0
174 198 0
174 197 0
174 197 0
174 197 0
172 196 0
175 198 0
175 198 0
175 198 0
173 197 0
174 197 0
173 197 0
174 197 0
175 197 0
174 198 0
174 197 0
173 197 0
174 198 0
175 198 0
173 196 0
174 198 0
174 198 0
173 197 0
175 198 0
175 198 0
172 196 0
175 198 0
173 196 0
175 198 0
173 196 0
172 196 0
172 196 0
175 198 0
173 197 0
171 195 0
174 197 0
175 198 0
176 199 0
173 197 0
175 198 0
174 197 0
173 196 0
174 197 0
173 196 0
175 198 0
170 195 0
173 197 0
177 199 0
174 197 0
175 198 0
174 197 0
174 198 0
173 196 0
173 197 0
173 197 0
173 197 0
175 198 0
176 199 0
173 196 0
172 196 0
174 197 0
174 197 0
174 197 0
173 197 0
174 197 0
172 196 0
175 198 0
173 197 0
171 194 0
172 195 0
173 197 0
175 198 0
176 198 0
172 196 0
175 198 0
173 196 0
173 196 0
175 198 0
175 198 0
174 197 0
176 198 0
175 198 0
175 198 0
173 196 0
175 198 0
172 196 0
175 198 0
175 198 0
175 198 0
174 197 0
173 197 0
173 197 0
174 198 0
174 197 0
174 197 0
174 197 0
173 197 0
176 198 0
174 197 0
174 198 0
175 198 0
175 198 0
175 198 0
174 197 0
172 196 0
172 195 0
176 199 0
174 197 0
175 198 0
174 198 0
174 197 0
174 197 0
174 198 0
174 197 0
175 198 0
173 197 0
175 198 0
174 197 0
175 198 0
173 196 0
174 198 0
172 196 0
174 197 0
174 197 0
173 197 0
174 197 0
173 197 0
173 197 0
175 198 0
174 197 0
173 196 0
173 197 0
172 195 0
173 197 0
176 198 0
173 197 0
174 198 0
174 198 0
175 198 0
175 198 0
175 198 0
173 197 0
175 198 0
174 197 0
173 196 0
172 196 0
173 197 0
174 198 0
174 197 0
174 198 0
174 198 0
172 196 0
172 196 0
173 197 0
174 197 0
175 198 0
175 198 0
174 197 0
174 198 0
175 198 0
174 198 0
173 197 0
173 197 0
177 199 0
175 198 0
172 196 0
174 198 0
176 198 0
175 198 0
174 197 0
175 198 0
173 197 0
174 197 0
175 198 0
175 198 0
174 198 0
174 197 0
175 198 0
172 196 0
175 197 0
176 198 0
173 197 0
176 198 0
173 196 0
172 196 0
174 197 0
175 198 0
175 198 0
173 197 0
175 198 0
173 197 0
174 198 0
173 196 0
175 198 0
174 198 0
173 197 0
173 197 0
174 197 0
175 198 0
174 198 0
173 197 0
175 198 0
173 197 0
173 196 0
174 197 0
174 197 0
174 197 0
173 197 0
175 198 0
174 198 0
172 197 0
174 198 0
174 198 0
173 197 0
174 197 0
174 197 0
175 198 0
174 198 0
174 198 0
173 197 0
173 196 0
174 198 0
174 198 0
172 196 0
174 198 0
175 198 0
176 199 0
174 198 0
173 196 0
175 198 0
174 198 0
175 198 0
173 197 0
174 197 0
175 198 0
174 197 0
174 197 0
174 198 0
173 197 0
175 198 0
174 198 0
174 198 0
173 197 0
174 197 0
174 197 0
173 197 0
172 196 0
174 197 0
175 198 0
174 197 0
174 198 0
174 198 0
174 197 0
173 197 0
174 198 0
173 197 0
174 198 0
174 197 0
175 198 0
173 197 0
174 197 0
174 197 0
174 198 0
174 198 0
175 198 0
174 197 0
174 198 0
175 198 0
174 197 0
176 198 0
175 198 0
172 196 0
173 197 0
173 197 0
174 198 0
172 197 0
174 197 0
174 198 0
174 198 0
172 196 0
174 198 0
174 197 0
174 197 0
174 198 0
173 197 0
174 198 0
173 196 0
174 197 0
174 198 0
175 198 0
173 197 0
174 198 0
175 198 0
174 198 0
172 196 0
174 197 0
176 198 0
174 197 0
173 197 0
173 197 0
176 199 0
175 198 0
174 198 0
174 197 0
174 197 0
174 198 0
174 197 0
173 197 0
174 198 0
174 197 0
173 197 0
172 196 0
175 198 0
173 196 0
172 196 0
174 198 0
173 197 0
174 197 0
175 198 0
174 197 0
173 197 0
173 197 0
175 198 0
176 198 0
174 197 0
172 196 0
174 197 0
175 198 0
173 197 0
174 197 0
175 198 0
172 196 0
174 198 0
174 198 0
174 197 0
173 197 0
173 197 0
174 198 0
173 196 0
173 196 0
174 197 0
173 197 0
174 197 0
172 197 0
173 196 0
174 198 0
174 197 0
173 197 0
172 196 0
175 198 0
175 198 0
174 198 0
173 197 0
173 196 0
173 197 0
173 197 0
173 197 0
175 198 0
175 198 0
175 198 0
173 196 0
175 197 0
173 197 0
173 195 0
171 195 0
172 195 0
174 198 0
173 197 0
172 196 0
173 197 0
174 198 0
176 198 0
173 197 0
171 196 0
173 197 0
174 198 0
173 196 0
174 197 0
174 197 0
172 197 0
176 199 0
172 196 0
172 196 0
171 195 0
173 196 0
172 196 0
172 195 0
173 196 0
174 198 0
173 197 0
174 198 0
174 197 0
174 197 0
172 196 0
173 196 0
174 197 0
174 197 0
171 195 0
173 197 0
174 198 0
172 196 0
172 196 0
173 197 0
173 196 0
174 197 0
174 198 0
172 196 0
173 196 0
173 197 0
174 197 0
173 197 0
171 196 0
175 198 0
174 197 0
172 196 0
174 197 0
172 196 0
174 198 0
175 198 0
173 196 0
173 197 0
173 196 0
175 198 0
172 196 0
173 196 0
175 198 0
174 197 0
174 197 0
172 195 0
174 197 0
174 198 0
173 197 0
174 197 0
171 194 0
172 195 0
176 198 0
174 198 0
174 198 0
172 197 0
172 196 0
173 197 0
175 198 0
174 197 0
174 198 0
174 197 0
173 196 0
174 197 0
173 197 0
174 198 0
174 198 0
172 196 0
174 197 0
173 197 0
174 198 0
173 196 0
175 198 0
173 197 0
173 197 0
175 198 0
175 198 0
173 196 0
175 198 0
174 197 0
174 198 0
174 197 0
174 198 0
171 196 0
175 198 0
174 197 0
175 198 0
173 197 0
174 198 0
173 197 0
172 196 0
174 198 0
175 198 0
172 196 0
175 198 0
174 197 0
175 198 0
175 198 0
174 198 0
173 196 0
174 197 0
173 197 0
175 198 0
174 198 0
174 198 0
175 198 0
171 196 0
175 198 0
175 198 0
174 197 0
174 198 0
172 196 0
173 197 0
175 198 0
173 197 0
173 196 0
173 197 0
174 197 0
171 196 0
173 196 0
175 198 0
174 197 0
171 195 0
174 197 0
174 198 0
171 195 0
172 196 0
174 197 0
176 199 0
173 197 0
172 196 0
177 199 0
175 198 0
174 197 0
173 197 0
174 198 0
174 198 0
172 196 0
173 197 0
173 196 0
175 198 0
174 198 0
173 197 0
174 198 0
174 197 0
174 197 0
173 197 0
172 196 0
175 198 0
173 197 0
173 197 0
174 197 0
174 198 0
174 198 0
174 198 0
175 198 0
174 197 0
173 197 0
174 198 0
173 197 0
173 196 0
172 196 0
175 198 0
174 197 0
173 197 0
173 197 0
173 197 0
176 199 0
174 197 0
176 198 0
176 198 0
173 196 0
173 197 0
173 195 0
174 198 0
174 198 0
174 198 0
174 198 0
175 198 0
173 196 0
174 197 0
176 198 0
175 198 0
176 198 0
174 198 0
174 197 0
175 198 0
175 198 0
175 198 0
176 198 0
175 198 0
174 198 0
173 197 0
174 197 0
175 198 0
175 198 0
173 197 0
173 197 0
175 198 0
175 198 0
174 198 0
175 198 0
174 197 0
175 198 0
173 197 0
174 198 0
174 198 0
174 198 0
174 197 0
174 197 0
177 199 0
174 198 0
174 197 0
173 197 0
174 197 0
175 198 0
174 197 0
173 196 0
174 197 0
173 197 0
174 197 0
175 198 0
173 196 0
172 196 0
174 197 0
175 198 0
174 198 0
175 198 0
174 198 0
174 198 0
175 198 0
173 197 0
175 198 0
175 198 0
174 198 0
175 198 0
173 197 0
174 197 0
176 198 0
175 198 0
173 197 0
173 197 0
175 198 0
174 197 0
175 198 0
173 197 0
175 198 0
173 197 0
174 197 0
172 196 0
174 198 0
174 197 0
173 197 0
174 197 0
173 197 0
173 197 0
173 197 0
174 198 0
176 198 0
174 198 0
174 198 0
175 198 0
173 197 0
173 197 0
175 198 0
174 198 0
173 197 0
173 197 0
173 197 0
175 198 0
174 197 0
174 197 0
174 197 0
174 198 0
174 198 0
174 198 0
174 198 0
173 197 0
174 198 0
175 198 0
174 197 0
173 197 0
175 198 0
173 196 0
173 197 0
175 198 0
174 197 0
175 198 0
175 198 0
174 198 0
175 197 0
174 197 0
174 197 0
174 198 0
174 197 0
173 197 0
175 198 0
173 197 0
173 197 0
174 198 0
174 197 0
175 198 0
174 197 0
174 198 0
176 199 0
173 196 0
171 196 0
173 196 0
176 199 0
173 197 0
172 196 0
174 197 0
174 198 0
174 198 0
172 196 0
174 198 0
174 197 0
175 198 0
174 198 0
174 198 0
173 197 0
175 198 0
175 198 0
172 196 0
174 198 0
174 198 0
174 198 0
175 198 0
175 197 0
174 197 0
175 198 0
174 198 0
177 199 0
172 196 0
173 197 0
174 197 0
174 198 0
174 198 0
174 197 0
173 197 0
173 197 0
173 197 0
176 198 0
173 197 0
175 198 0
174 197 0
174 197 0
173 197 0
173 196 0
175 198 0
175 198 0
172 196 0
173 197 0
174 198 0
175 198 0
173 196 0
174 197 0
173 197 0
173 197 0
173 197 0
171 195 0
175 198 0
173 196 0
174 197 0
175 198 0
173 196 0
173 197 0
173 196 0
175 198 0
174 197 0
174 198 0
176 198 0
173 197 0
174 197 0
172 196 0
174 197 0
175 198 0
174 198 0
174 198 0
173 196 0
176 198 0
174 197 0
173 197 0
173 196 0
174 198 0
174 197 0
174 197 0
173 197 0
173 197 0
170 194 0
172 195 0
173 196 0
174 197 0
173 197 0
172 196 0
174 198 0
173 196 0
174 197 0
173 197 0
175 198 0
173 196 0
173 197 0
173 196 0
174 196 0
173 197 0
175 198 0
173 197 0
173 197 0
174 198 0
173 197 0
172 196 0
173 197 0
171 195 0
175 198 0
173 197 0
173 197 0
172 196 0
173 195 0
175 198 0
171 195 0
173 196 0
172 196 0
173 196 0
174 197 0
173 196 0
174 197 0
173 197 0
172 196 0
176 199 0
174 198 0
173 197 0
172 195 0
173 196 0
173 197 0
175 198 0
172 195 0
174 198 0
175 198 0
172 196 0
173 197 0
172 195 0
173 197 0
174 198 0
175 198 0
173 197 0
173 197 0
172 196 0
174 198 0
173 197 0
173 197 0
171 195 0
174 197 0
173 196 0
173 196 0
174 198 0
174 197 0
175 198 0
174 197 0
172 195 0
172 196 0
176 199 0
174 197 0
175 198 0
172 194 0
174 197 0
175 198 0
174 197 0
173 197 0
173 197 0
172 196 0
173 196 0
172 196 0
171 195 0
172 196 0
173 196 0
173 197 0
171 195 0
174 197 0
174 197 0
175 198 0
175 197 0
172 196 0
174 198 0
173 197 0
174 197 0
172 196 0
174 198 0
175 198 0
172 195 0
175 198 0
173 197 0
173 197 0
176 198 0
173 197 0
175 198 0
173 196 0
173 197 0
174 197 0
172 195 0
172 196 0
175 198 0
174 198 0
174 198 0
173 197 0
173 197 0
173 196 0
174 197 0
174 198 0
174 198 0
173 197 0
174 198 0
176 198 0
175 198 0
172 194 0
173 197 0
175 198 0
173 196 0
175 198 0
175 198 0
174 197 0
173 197 0
171 194 0
175 198 0
175 197 0
172 196 0
173 196 0
173 197 0
174 198 0
174 198 0
173 197 0
170 193 0
174 197 0
176 198 0
173 197 0
175 198 0
174 198 0
174 198 0
175 198 0
174 198 0
174 198 0
174 198 0
174 197 0
172 196 0
174 197 0
174 198 0
173 197 0
174 197 0
175 198 0
175 198 0
174 197 0
175 198 0
175 198 0
175 198 0
173 197 0
174 197 0
175 198 0
173 197 0
174 198 0
174 198 0
174 198 0
174 197 0
174 197 0
175 198 0
174 198 0
174 197 0
175 198 0
174 197 0
173 197 0
176 198 0
172 196 0
173 197 0
175 198 0
173 197 0
171 196 0
174 197 0
173 197 0
174 198 0
175 198 0
173 197 0
173 196 0
173 197 0
176 199 0
175 198 0
175 198 0
174 197 0
174 197 0
174 197 0
175 198 0
174 197 0
174 198 0
174 198 0
174 198 0
174 197 0
176 198 0
175 198 0
175 198 0
176 199 0
175 198 0
173 197 0
175 198 0
175 198 0
175 198 0
172 196 0
173 197 0
174 198 0
175 198 0
173 197 0
175 198 0
174 197 0
174 198 0
174 197 0
177 199 0
175 198 0
173 197 0
175 198 0
175 198 0
174 197 0
175 198 0
174 197 0
176 198 0
173 196 0
175 198 0
175 197 0
174 198 0
175 198 0
175 198 0
172 196 0
174 197 0
173 197 0
174 197 0
174 197 0
173 197 0
175 198 0
173 197 0
172 196 0
173 197 0
175 198 0
175 198 0
173 197 0
174 198 0
176 199 0
174 198 0
175 198 0
174 197 0
175 198 0
174 198 0
173 196 0
174 198 0
176 199 0
174 198 0
174 197 0
175 198 0
174 198 0
176 199 0
175 198 0
171 196 0
173 197 0
175 198 0
175 198 0
173 197 0
174 198 0
172 197 0
174 198 0
175 198 0
174 197 0
173 197 0
174 198 0
175 198 0
175 198 0
176 198 0
174 198 0
173 197 0
174 197 0
174 197 0
174 197 0
173 197 0
175 198 0
172 195 0
174 197 0
177 199 0
174 197 0
175 198 0
174 197 0
174 197 0
174 198 0
175 198 0
174 198 0
173 197 0
173 197 0
173 197 0
174 198 0
175 198 0
173 196 0
173 196 0
174 197 0
174 198 0
172 196 0
174 197 0
173 197 0
176 198 0
174 198 0
175 198 0
175 198 0
174 198 0
175 198 0
174 197 0
174 197 0
175 198 0
174 198 0
173 197 0
174 197 0
173 196 0
174 197 0
174 197 0
174 198 0
174 198 0
174 198 0
175 198 0
174 198 0
174 198 0
174 198 0
174 197 0
174 198 0
175 198 0
175 198 0
176 199 0
175 198 0
174 198 0
174 198 0
174 197 0
173 197 0
174 198 0
175 198 0
172 195 0
172 196 0
172 196 0
173 197 0
174 198 0
174 197 0
173 197 0
175 198 0
174 197 0
173 197 0
174 198 0
173 197 0
175 198 0
176 198 0
175 198 0
176 198 0
174 197 0
174 197 0
174 197 0
172 195 0
173 196 0
174 197 0
175 198 0
172 196 0
172 196 0
174 197 0
174 198 0
175 198 0
170 193 0
175 198 0
173 197 0
174 197 0
174 197 0
174 197 0
173 196 0
174 198 0
173 197 0
172 196 0
174 197 0
173 197 0
173 197 0
175 197 0
172 197 0
172 196 0
174 198 0
174 197 0
173 196 0
174 197 0
173 197 0
173 197 0
174 198 0
173 196 0
173 197 0
174 198 0
171 195 0
174 198 0
174 197 0
174 197 0
172 196 0
174 198 0
173 197 0
175 198 0
172 196 0
174 197 0
172 197 0
175 198 0
173 197 0
174 197 0
173 197 0
174 197 0
174 197 0
175 198 0
173 197 0
175 198 0
174 197 0
172 195 0
173 197 0
174 197 0
176 199 0
171 195 0
173 197 0
173 197 0
174 197 0
172 196 0
174 198 0
173 197 0
173 197 0
172 196 0
173 197 0
174 196 0
174 197 0
173 197 0
173 196 0
174 197 0
172 196 0
174 197 0
173 196 0
175 197 0
174 197 0
174 197 0
175 198 0
174 197 0
171 195 0
174 198 0
173 197 0
174 197 0
174 197 0
173 197 0
174 196 0
174 197 0
174 198 0
176 198 0
174 198 0
174 197 0
173 196 0
174 198 0
173 197 0
173 197 0
173 197 0
172 196 0
173 196 0
174 197 0
174 196 0
174 197 0
173 197 0
172 196 0
176 199 0
173 197 0
175 198 0
174 198 0
173 197 0
173 196 0
172 196 0
174 197 0
173 197 0
175 198 0
175 197 0
174 198 0
174 197 0
174 198 0
174 197 0
174 197 0
175 198 0
172 196 0
174 198 0
176 198 0
175 198 0
172 196 0
174 198 0
173 196 0
174 198 0
173 197 0
175 198 0
173 197 0
173 197 0
175 198 0
174 197 0
174 198 0
173 197 0
176 198 0
173 197 0
175 198 0
173 197 0
174 198 0
174 197 0
175 198 0
172 196 0
175 198 0
172 196 0
172 196 0
173 197 0
174 197 0
175 198 0
174 198 0
174 197 0
174 197 0
172 196 0
174 198 0
173 197 0
175 198 0
174 197 0
174 197 0
174 197 0
173 196 0
173 197 0
174 198 0
173 197 0
173 197 0
175 198 0
175 198 0
173 197 0
175 198 0
174 198 0
173 197 0
175 198 0
175 197 0
175 198 0
174 197 0
174 198 0
175 198 0
173 197 0
177 199 0
175 198 0
176 199 0
174 197 0
173 197 0
173 196 0
174 197 0
173 196 0
175 198 0
175 198 0
175 198 0
173 197 0
173 197 0
174 197 0
175 198 0
173 197 0
173 197 0
176 198 0
174 198 0
173 196 0
173 197 0
174 197 0
175 198 0
174 198 0
174 197 0
175 198 0
175 198 0
174 198 0
175 198 0
173 196 0
175 198 0
173 197 0
175 198 0
174 197 0
174 198 0
173 197 0
174 198 0
174 198 0
174 197 0
175 198 0
174 198 0
173 197 0
174 198 0
174 198 0
173 197 0
173 197 0
173 197 0
174 197 0
174 198 0
175 198 0
174 197 0
174 198 0
174 197 0
175 198 0
176 198 0
175 198 0
175 198 0
175 198 0
175 198 0
176 198 0
173 197 0
175 198 0
174 198 0
175 197 0
174 198 0
174 197 0
175 198 0
174 198 0
174 197 0
173 197 0
175 198 0
172 196 0
175 198 0
173 197 0
175 198 0
175 198 0
173 197 0
174 197 0
174 198 0
174 198 0
173 197 0
175 198 0
174 197 0
174 198 0
174 198 0
175 198 0
175 198 0
174 198 0
173 196 0
172 196 0
176 199 0
176 199 0
174 198 0
175 198 0
174 197 0
175 198 0
172 196 0
173 197 0
174 198 0
173 197 0
173 197 0
174 197 0
174 197 0
174 198 0
174 198 0
173 197 0
175 198 0
173 197 0
174 197 0
174 198 0
174 197 0
173 197 0
173 197 0
173 197 0
174 198 0
174 197 0
174 198 0
174 198 0
174 198 0
175 198 0
173 197 0
174 198 0
174 198 0
174 198 0
174 198 0
173 197 0
174 198 0
173 197 0
174 197 0
174 197 0
174 197 0
176 199 0
174 198 0
173 197 0
174 197 0
175 198 0
173 197 0
174 197 0
172 196 0
174 198 0
173 197 0
172 197 0
175 198 0
175 198 0
174 198 0
173 197 0
176 198 0
174 197 0
174 197 0
172 197 0
175 198 0
173 197 0
174 198 0
173 197 0
173 197 0
172 197 0
172 197 0
174 198 0
174 197 0
174 198 0
174 198 0
173 197 0
174 197 0
175 198 0
174 197 0
173 197 0
174 198 0
174 198 0
174 197 0
173 197 0
175 198 0
174 197 0
176 199 0
174 197 0
173 197 0
174 197 0
174 197 0
174 197 0
174 197 0
173 197 0
174 198 0
176 199 0
174 198 0
172 197 0
174 197 0
174 198 0
174 197 0
173 196 0
175 198 0
173 196 0
174 198 0
175 198 0
173 196 0
175 198 0
174 197 0
174 197 0
174 197 0
175 198 0
175 198 0
173 197 0
173 196 0
175 198 0
173 197 0
174 198 0
173 196 0
174 197 0
173 197 0
172 196 0
173 197 0
177 199 0
173 197 0
175 198 0
174 197 0
174 197 0
173 197 0
174 198 0
174 197 0
174 197 0
173 196 0
173 197 0
175 198 0
172 195 0
172 196 0
174 198 0
176 199 0
174 197 0
175 198 0
173 197 0
173 197 0
174 197 0
173 197 0
173 197 0
173 197 0
175 198 0
172 196 0
173 197 0
173 196 0
173 197 0
174 198 0
174 197 0
173 196 0
173 197 0
173 196 0
171 195 0
175 198 0
171 195 0
173 197 0
170 194 0
174 198 0
175 198 0
172 196 0
173 197 0
173 196 0
173 196 0
174 198 0
172 195 0
176 199 0
177 199 0
173 196 0
173 197 0
174 198 0
174 198 0
172 196 0
172 196 0
175 198 0
174 198 0
174 197 0
174 197 0
176 198 0
174 197 0
175 198 0
173 196 0
174 197 0
174 197 0
172 195 0
173 197 0
174 197 0
173 197 0
173 197 0
173 197 0
173 197 0
171 194 0
172 196 0
174 197 0
172 195 0
174 196 0
172 196 0
172 196 0
174 197 0
173 197 0
173 196 0
176 199 0
175 198 0
174 197 0
173 196 0
174 197 0
173 196 0
173 197 0
175 197 0
171 194 0
173 196 0
174 197 0
174 197 0
174 198 0
173 197 0
173 197 0
173 196 0
174 198 0
173 196 0
173 196 0
175 198 0
175 198 0
173 197 0
172 196 0
175 198 0
174 197 0
175 198 0
175 198 0
174 198 0
173 196 0
174 197 0
173 197 0
173 197 0
171 195 0
174 198 0
173 196 0
173 197 0
173 196 0
173 197 0
173 197 0
171 196 0
173 196 0
173 196 0
173 197 0
173 197 0
170 194 0
173 196 0
174 197 0
173 197 0
173 196 0
173 197 0
172 196 0
176 198 0
175 198 0
174 197 0
175 198 0
176 199 0
174 197 0
172 195 0
174 197 0
174 197 0
176 199 0
175 198 0
173 197 0
172 197 0
175 198 0
173 197 0
174 197 0
173 197 0
174 197 0
174 197 0
172 197 0
174 197 0
174 197 0
173 197 0
172 196 0
172 196 0
174 197 0
174 197 0
172 196 0
174 198 0
173 196 0
174 198 0
174 198 0
176 199 0
173 196 0
172 196 0
174 198 0
175 198 0
173 197 0
174 198 0
174 198 0
172 195 0
174 197 0
175 198 0
173 197 0
174 198 0
174 197 0
173 196 0
174 197 0
175 198 0
172 195 0
175 198 0
176 198 0
175 198 0
174 198 0
175 198 0
176 199 0
172 196 0
175 198 0
175 198 0
175 198 0
174 198 0
174 198 0
173 197 0
173 197 0
175 198 0
175 198 0
175 198 0
174 198 0
173 197 0
174 197 0
174 197 0
173 196 0
174 197 0
175 198 0
175 198 0
174 198 0
173 197 0
174 197 0
174 198 0
174 197 0
175 198 0
174 198 0
173 197 0
174 198 0
173 197 0
173 197 0
174 198 0
173 197 0
173 197 0
174 198 0
173 197 0
173 196 0
177 199 0
175 198 0
176 199 0
175 197 0
175 198 0
176 199 0
174 198 0
174 198 0
175 198 0
173 197 0
173 197 0
174 197 0
172 197 0
175 198 0
174 197 0
174 197 0
174 197 0
174 197 0
175 198 0
174 197 0
175 198 0
174 198 0
175 198 0
175 198 0
173 197 0
175 198 0
174 198 0
174 198 0
174 198 0
172 197 0
175 198 0
175 198 0
175 198 0
