P3
400 224
255
204 226 255
204 226 255
204 226 255
204 226 255
204 226 255
204 226 255
204 226 255
204 226 255
204 226 255
204 226 255
204 226 255
204 226 255
204 226 255
204 226 255
204 226 255
204 226 255
203 226 255
203 226 255
203 226 255
203 226 255
203 226 255
203 226 255
203 226 255
203 226 255
203 225 255
203 225 255
203 225 255
203 225 255
203 225 255
203 225 255
203 225 255
203 225 255
203 225 255
202 225 255
202 225 255
202 225 255
202 225 255
202 225 255
202 225 255
202 225 255
202 225 255
202 225 255
202 225 255
202 225 255
202 225 255
202 225 255
202 225 255
202 225 255
202 225 255
201 225 255
201 225 255
201 225 255
201 225 255
201 224 255
201 224 255
201 224 255
201 224 255
201 224 255
201 224 255
201 224 255
201 224 255
201 224 255
201 224 255
201 224 255
200 224 255
200 224 255
200 224 255
200 224 255
200 224 255
200 224 255
200 224 255
200 224 255
200 224 255
200 224 255
200 224 255
200 224 255
200 224 255
200 224 255
199 224 255
199 224 255
199 223 255
199 223 255
199 223 255
199 223 255
199 223 255
199 223 255
199 223 255
199 223 255
199 223 255
199 223 255
199 223 255
199 223 255
198 223 255
198 223 255
198 223 255
198 223 255
198 223 255
198 223 255
198 223 255
198 223 255
198 223 255
198 223 255
198 223 255
198 223 255
198 223 255
198 223 255
198 223 255
197 222 255
197 222 255
197 222 255
197 222 255
197 222 255
197 222 255
197 222 255
197 222 255
197 222 255
197 222 255
197 222 255
197 222 255
197 222 255
197 222 255
196 222 255
196 222 255
196 222 255
196 222 255
196 222 255
196 222 255
196 222 255
196 222 255
196 222 255
196 222 255
196 222 255
196 222 255
196 222 255
196 222 255
196 221 255
196 221 255
195 221 255
195 221 255
195 221 255
195 221 255
195 221 255
195 221 255
195 221 255
195 221 255
195 221 255
195 221 255
195 221 255
195 221 255
195 221 255
195 221 255
195 221 255
195 221 255
195 221 255
195 221 255
195 221 255
194 221 255
194 221 255
194 221 255
194 221 255
194 221 255
194 221 255
194 221 255
194 221 255
194 221 255
194 221 255
194 221 255
194 221 255
194 221 255
194 221 255
194 221 255
194 221 255
194 221 255
194 221 255
194 221 255
194 221 255
194 221 255
194 220 255
194 220 255
194 220 255
194 220 255
194 220 255
194 220 255
194 220 255
194 220 255
194 220 255
193 220 255
193 220 255
193 220 255
193 220 255
193 220 255
193 220 255
193 220 255
193 220 255
193 220 255
193 220 255
193 220 255
193 220 255
193 220 255
193 220 255
193 220 255
193 220 255
193 220 255
193 220 255
193 220 255
193 220 255
193 220 255
193 220 255
193 220 255
193 220 255
193 220 255
193 220 255
193 220 255
193 220 255
194 220 255
194 220 255
194 220 255
194 220 255
194 220 255
194 220 255
194 220 255
194 220 255
194 220 255
194 221 255
194 221 255
194 221 255
194 221 255
194 221 255
194 221 255
194 221 255
194 221 255
194 221 255
194 221 255
194 221 255
194 221 255
194 221 255
194 221 255
194 221 255
194 221 255
194 221 255
194 221 255
194 221 255
194 221 255
194 221 255
195 221 255
195 221 255
195 221 255
195 221 255
195 221 255
195 221 255
195 221 255
195 221 255
195 221 255
195 221 255
195 221 255
195 221 255
195 221 255
195 221 255
195 221 255
195 221 255
195 221 255
195 221 255
195 221 255
196 221 255
196 221 255
196 222 255
196 222 255
196 222 255
196 222 255
196 222 255
196 222 255
196 222 255
196 222 255
196 222 255
196 222 255
196 222 255
196 222 255
196 222 255
196 222 255
197 222 255
197 222 255
197 222 255
197 222 255
197 222 255
197 222 255
197 222 255
197 222 255
197 222 255
197 222 255
197 222 255
197 222 255
197 222 255
197 222 255
198 223 255
198 223 255
198 223 255
198 223 255
198 223 255
198 223 255
198 223 255
198 223 255
198 223 255
198 223 255
198 223 255
198 223 255
198 223 255
198 223 255
198 223 255
199 223 255
199 223 255
199 223 255
199 223 255
199 223 255
199 223 255
199 223 255
199 223 255
199 223 255
199 223 255
199 223 255
199 223 255
199 224 255
199 224 255
200 224 255
200 224 255
200 224 255
200 224 255
200 224 255
200 224 255
200 224 255
200 224 255
200 224 255
200 224 255
200 224 255
200 224 255
200 224 255
200 224 255
201 224 255
201 224 255
201 224 255
201 224 255
201 224 255
201 224 255
201 224 255
201 224 255
201 224 255
201 224 255
201 224 255
201 225 255
201 225 255
201 225 255
201 225 255
201 225 255
202 225 255
202 225 255
202 225 255
202 225 255
202 225 255
202 225 255
202 225 255
202 225 255
202 225 255
202 225 255
202 225 255
202 225 255
202 225 255
202 225 255
202 225 255
203 225 255
203 225 255
203 225 255
203 225 255
203 225 255
203 225 255
203 225 255
203 225 255
203 225 255
203 226 255
203 226 255
203 226 255
203 226 255
203 226 255
203 226 255
203 226 255
203 226 255
204 226 255
204 226 255
204 226 255
204 226 255
204 226 255
204 226 255
204 226 255
204 226 255
204 226 255
204 226 255
204 226 255
204 226 255
204 226 255
204 226 255
204 226 255
204 226 255
205 226 255
204 226 255
204 226 255
204 226 255
204 226 255
204 226 255
204 226 255
204 226 255
204 226 255
204 226 255
204 226 255
204 226 255
204 226 255
204 226 255
204 226 255
204 226 255
204 226 255
204 226 255
203 226 255
203 226 255
203 226 255
203 226 255
203 226 255
203 226 255
203 226 255
203 226 255
203 225 255
203 225 255
203 225 255
203 225 255
203 225 255
203 225 255
203 225 255
203 225 255
203 225 255
202 225 255
202 225 255
202 225 255
202 225 255
202 225 255
202 225 255
202 225 255
202 225 255
202 225 255
202 225 255
202 225 255
202 225 255
202 225 255
202 225 255
202 225 255
202 225 255
201 225 255
201 225 255
201 225 255
201 225 255
201 224 255
201 224 255
201 224 255
201 224 255
201 224 255
201 224 255
201 224 255
201 224 255
201 224 255
201 224 255
201 224 255
200 224 255
200 224 255
200 224 255
200 224 255
200 224 255
200 224 255
200 224 255
200 224 255
200 224 255
200 224 255
200 224 255
200 224 255
200 224 255
200 224 255
199 224 255
199 224 255
199 223 255
199 223 255
199 223 255
199 223 255
199 223 255
199 223 255
199 223 255
199 223 255
199 223 255
199 223 255
199 223 255
199 223 255
198 223 255
198 223 255
198 223 255
198 223 255
198 223 255
198 223 255
198 223 255
198 223 255
198 223 255
198 223 255
198 223 255
198 223 255
198 223 255
198 223 255
198 223 255
197 222 255
197 222 255
197 222 255
197 222 255
197 222 255
197 222 255
197 222 255
197 222 255
197 222 255
197 222 255
197 222 255
197 222 255
197 222 255
197 222 255
196 222 255
196 222 255
196 222 255
196 222 255
196 222 255
196 222 255
196 222 255
196 222 255
196 222 255
196 222 255
196 222 255
196 222 255
196 222 255
196 222 255
196 222 255
196 221 255
195 221 255
195 221 255
195 221 255
195 221 255
195 221 255
195 221 255
195 221 255
195 221 255
195 221 255
195 221 255
195 221 255
195 221 255
195 221 255
195 221 255
195 221 255
195 221 255
195 221 255
195 221 255
195 221 255
194 221 255
194 221 255
194 221 255
194 221 255
194 221 255
194 221 255
194 221 255
194 221 255
194 221 255
194 221 255
194 221 255
194 221 255
194 221 255
194 221 255
194 221 255
194 221 255
194 221 255
194 221 255
194 221 255
194 221 255
194 221 255
194 221 255
194 221 255
194 221 255
194 221 255
194 220 255
194 220 255
194 220 255
194 220 255
194 220 255
194 220 255
194 220 255
194 220 255
194 220 255
194 220 255
194 220 255
194 220 255
194 220 255
194 220 255
194 220 255
194 220 255
194 220 255
194 220 255
194 220 255
194 220 255
194 220 255
194 220 255
194 220 255
194 220 255
194 220 255
194 220 255
194 220 255
194 220 255
194 220 255
194 220 255
194 220 255
194 220 255
194 220 255
194 220 255
194 221 255
194 221 255
194 221 255
194 221 255
194 221 255
194 221 255
194 221 255
194 221 255
194 221 255
194 221 255
194 221 255
194 221 255
194 221 255
194 221 255
194 221 255
194 221 255
194 221 255
194 221 255
194 221 255
194 221 255
194 221 255
194 221 255
194 221 255
194 221 255
195 221 255
195 221 255
195 221 255
195 221 255
195 221 255
195 221 255
195 221 255
195 221 255
195 221 255
195 221 255
195 221 255
195 221 255
195 221 255
195 221 255
195 221 255
195 221 255
195 221 255
195 221 255
195 221 255
195 221 255
196 221 255
196 222 255
196 222 255
196 222 255
196 222 255
196 222 255
196 222 255
196 222 255
196 222 255
196 222 255
196 222 255
196 222 255
196 222 255
196 222 255
196 222 255
196 222 255
197 222 255
197 222 255
197 222 255
197 222 255
197 222 255
197 222 255
197 222 255
197 222 255
197 222 255
197 222 255
197 222 255
197 222 255
197 222 255
197 222 255
198 223 255
198 223 255
198 223 255
198 223 255
198 223 255
198 223 255
198 223 255
198 223 255
198 223 255
198 223 255
198 223 255
198 223 255
198 223 255
198 223 255
198 223 255
199 223 255
199 223 255
199 223 255
199 223 255
199 223 255
199 223 255
199 223 255
199 223 255
199 223 255
199 223 255
199 223 255
199 223 255
199 224 255
199 224 255
200 224 255
200 224 255
200 224 255
200 224 255
200 224 255
200 224 255
200 224 255
200 224 255
200 224 255
200 224 255
200 224 255
200 224 255
200 224 255
200 224 255
201 224 255
201 224 255
201 224 255
201 224 255
201 224 255
201 224 255
201 224 255
201 224 255
201 224 255
201 224 255
201 224 255
201 225 255
201 225 255
201 225 255
201 225 255
202 225 255
202 225 255
202 225 255
202 225 255
202 225 255
202 225 255
202 225 255
202 225 255
202 225 255
202 225 255
202 225 255
202 225 255
202 225 255
202 225 255
202 225 255
202 225 255
203 225 255
203 225 255
203 225 255
203 225 255
203 225 255
203 225 255
203 225 255
203 225 255
203 225 255
203 226 255
203 226 255
203 226 255
203 226 255
203 226 255
203 226 255
203 226 255
204 226 255
204 226 255
204 226 255
204 226 255
204 226 255
204 226 255
204 226 255
204 226 255
204 226 255
204 226 255
204 226 255
204 226 255
204 226 255
204 226 255
204 226 255
204 226 255
204 226 255
204 226 255
205 226 255
205 226 255
205 226 255
205 226 255
204 226 255
204 226 255
204 226 255
204 226 255
204 226 255
204 226 255
204 226 255
204 226 255
204 226 255
204 226 255
204 226 255
204 226 255
204 226 255
204 226 255
204 226 255
204 226 255
204 226 255
204 226 255
203 226 255
203 226 255
203 226 255
203 226 255
203 226 255
203 226 255
203 226 255
203 225 255
203 225 255
203 225 255
203 225 255
203 225 255
203 225 255
203 225 255
203 225 255
203 225 255
202 225 255
202 225 255
202 225 255
202 225 255
202 225 255
202 225 255
202 225 255
202 225 255
202 225 255
202 225 255
202 225 255
202 225 255
202 225 255
202 225 255
202 225 255
202 225 255
201 225 255
201 225 255
201 225 255
201 225 255
201 224 255
201 224 255
201 224 255
201 224 255
201 224 255
201 224 255
201 224 255
201 224 255
201 224 255
201 224 255
201 224 255
200 224 255
200 224 255
200 224 255
200 224 255
200 224 255
200 224 255
200 224 255
200 224 255
200 224 255
200 224 255
200 224 255
200 224 255
200 224 255
200 224 255
199 224 255
199 224 255
199 223 255
199 223 255
199 223 255
199 223 255
199 223 255
199 223 255
199 223 255
199 223 255
199 223 255
199 223 255
199 223 255
199 223 255
198 223 255
198 223 255
198 223 255
198 223 255
198 223 255
198 223 255
198 223 255
198 223 255
198 223 255
198 223 255
198 223 255
198 223 255
198 223 255
198 223 255
198 223 255
197 222 255
197 222 255
197 222 255
197 222 255
197 222 255
197 222 255
197 222 255
197 222 255
197 222 255
197 222 255
197 222 255
197 222 255
197 222 255
197 222 255
197 222 255
196 222 255
196 222 255
196 222 255
196 222 255
196 222 255
196 222 255
196 222 255
196 222 255
196 222 255
196 222 255
196 222 255
196 222 255
196 222 255
196 222 255
196 221 255
196 221 255
195 221 255
195 221 255
195 221 255
195 221 255
195 221 255
195 221 255
195 221 255
195 221 255
195 221 255
195 221 255
195 221 255
195 221 255
195 221 255
195 221 255
195 221 255
195 221 255
195 221 255
195 221 255
195 221 255
195 221 255
194 221 255
194 221 255
194 221 255
194 221 255
194 221 255
194 221 255
194 221 255
194 221 255
194 221 255
194 221 255
194 221 255
194 221 255
194 221 255
194 221 255
194 221 255
194 221 255
194 221 255
194 221 255
194 221 255
194 221 255
194 221 255
194 221 255
194 221 255
194 221 255
194 221 255
194 221 255
194 221 255
194 221 255
194 221 255
194 221 255
194 221 255
194 220 255
194 220 255
194 220 255
194 220 255
194 220 255
194 220 255
194 220 255
194 220 255
194 220 255
194 220 255
194 220 255
194 220 255
194 220 255
194 220 255
194 220 255
194 221 255
194 221 255
194 221 255
194 221 255
194 221 255
194 221 255
194 221 255
194 221 255
194 221 255
194 221 255
194 221 255
194 221 255
194 221 255
194 221 255
194 221 255
194 221 255
194 221 255
194 221 255
194 221 255
194 221 255
194 221 255
194 221 255
194 221 255
194 221 255
194 221 255
194 221 255
194 221 255
194 221 255
194 221 255
194 221 255
195 221 255
195 221 255
195 221 255
195 221 255
195 221 255
195 221 255
195 221 255
195 221 255
195 221 255
195 221 255
195 221 255
195 221 255
195 221 255
195 221 255
195 221 255
195 221 255
195 221 255
195 221 255
195 221 255
195 221 255
196 221 255
196 221 255
196 222 255
196 222 255
196 222 255
196 222 255
196 222 255
196 222 255
196 222 255
196 222 255
196 222 255
196 222 255
196 222 255
196 222 255
196 222 255
196 222 255
196 222 255
197 222 255
197 222 255
197 222 255
197 222 255
197 222 255
197 222 255
197 222 255
197 222 255
197 222 255
197 222 255
197 222 255
197 222 255
197 222 255
197 222 255
198 223 255
198 223 255
198 223 255
198 223 255
198 223 255
198 223 255
198 223 255
198 223 255
198 223 255
198 223 255
198 223 255
198 223 255
198 223 255
198 223 255
198 223 255
199 223 255
199 223 255
199 223 255
199 223 255
199 223 255
199 223 255
199 223 255
199 223 255
199 223 255
199 223 255
199 223 255
199 223 255
199 224 255
199 224 255
200 224 255
200 224 255
200 224 255
200 224 255
200 224 255
200 224 255
200 224 255
200 224 255
200 224 255
200 224 255
200 224 255
200 224 255
200 224 255
200 224 255
201 224 255
201 224 255
201 224 255
201 224 255
201 224 255
201 224 255
201 224 255
201 224 255
201 224 255
201 224 255
201 224 255
201 225 255
201 225 255
201 225 255
201 225 255
202 225 255
202 225 255
202 225 255
202 225 255
202 225 255
202 225 255
202 225 255
202 225 255
202 225 255
202 225 255
202 225 255
202 225 255
202 225 255
202 225 255
202 225 255
202 225 255
203 225 255
203 225 255
203 225 255
203 225 255
203 225 255
203 225 255
203 225 255
203 225 255
203 225 255
203 226 255
203 226 255
203 226 255
203 226 255
203 226 255
203 226 255
203 226 255
204 226 255
204 226 255
204 226 255
204 226 255
204 226 255
204 226 255
204 226 255
204 226 255
204 226 255
204 226 255
204 226 255
204 226 255
204 226 255
204 226 255
204 226 255
204 226 255
204 226 255
204 226 255
205 226 255
205 226 255
205 226 255
205 226 255
205 226 255
205 226 255
205 226 255
205 226 255
204 226 255
204 226 255
204 226 255
204 226 255
204 226 255
204 226 255
204 226 255
204 226 255
204 226 255
204 226 255
204 226 255
204 226 255
204 226 255
204 226 255
204 226 255
204 226 255
204 226 255
204 226 255
203 226 255
203 226 255
203 226 255
203 226 255
203 226 255
203 226 255
203 226 255
203 225 255
203 225 255
203 225 255
203 225 255
203 225 255
203 225 255
203 225 255
203 225 255
203 225 255
203 225 255
202 225 255
202 225 255
202 225 255
202 225 255
202 225 255
202 225 255
202 225 255
202 225 255
202 225 255
202 225 255
202 225 255
202 225 255
202 225 255
202 225 255
202 225 255
201 225 255
201 225 255
201 225 255
201 225 255
201 224 255
201 224 255
201 224 255
201 224 255
201 224 255
201 224 255
201 224 255
201 224 255
201 224 255
201 224 255
201 224 255
200 224 255
200 224 255
200 224 255
200 224 255
200 224 255
200 224 255
200 224 255
200 224 255
200 224 255
200 224 255
200 224 255
200 224 255
200 224 255
200 224 255
199 224 255
199 224 255
199 224 255
199 223 255
199 223 255
199 223 255
199 223 255
199 223 255
199 223 255
199 223 255
199 223 255
199 223 255
199 223 255
199 223 255
198 223 255
198 223 255
198 223 255
198 223 255
198 223 255
198 223 255
198 223 255
198 223 255
198 223 255
198 223 255
198 223 255
198 223 255
198 223 255
198 223 255
198 223 255
197 222 255
197 222 255
197 222 255
197 222 255
197 222 255
197 222 255
197 222 255
197 222 255
197 222 255
197 222 255
197 222 255
197 222 255
197 222 255
197 222 255
197 222 255
196 222 255
196 222 255
196 222 255
196 222 255
196 222 255
196 222 255
196 222 255
196 222 255
196 222 255
196 222 255
196 222 255
196 222 255
196 222 255
196 222 255
196 222 255
196 221 255
195 221 255
195 221 255
195 221 255
195 221 255
195 221 255
195 221 255
195 221 255
195 221 255
195 221 255
195 221 255
195 221 255
195 221 255
195 221 255
195 221 255
195 221 255
195 221 255
195 221 255
195 221 255
195 221 255
195 221 255
195 221 255
194 221 255
194 221 255
194 221 255
194 221 255
194 221 255
194 221 255
194 221 255
194 221 255
194 221 255
194 221 255
194 221 255
194 221 255
194 221 255
194 221 255
194 221 255
194 221 255
194 221 255
194 221 255
194 221 255
194 221 255
194 221 255
194 221 255
194 221 255
194 221 255
194 221 255
194 221 255
194 221 255
194 221 255
194 221 255
194 221 255
194 221 255
194 221 255
194 221 255
194 221 255
194 221 255
194 221 255
194 221 255
194 221 255
194 221 255
194 221 255
194 221 255
194 221 255
194 221 255
194 221 255
194 221 255
194 221 255
194 221 255
194 221 255
194 221 255
194 221 255
194 221 255
194 221 255
194 221 255
194 221 255
194 221 255
194 221 255
194 221 255
194 221 255
194 221 255
194 221 255
194 221 255
194 221 255
194 221 255
194 221 255
194 221 255
194 221 255
194 221 255
194 221 255
194 221 255
194 221 255
195 221 255
195 221 255
195 221 255
195 221 255
195 221 255
195 221 255
195 221 255
195 221 255
195 221 255
195 221 255
195 221 255
195 221 255
195 221 255
195 221 255
195 221 255
195 221 255
195 221 255
195 221 255
195 221 255
195 221 255
195 221 255
196 221 255
196 222 255
196 222 255
196 222 255
196 222 255
196 222 255
196 222 255
196 222 255
196 222 255
196 222 255
196 222 255
196 222 255
196 222 255
196 222 255
196 222 255
196 222 255
197 222 255
197 222 255
197 222 255
197 222 255
197 222 255
197 222 255
197 222 255
197 222 255
197 222 255
197 222 255
197 222 255
197 222 255
197 222 255
197 222 255
197 222 255
198 223 255
198 223 255
198 223 255
198 223 255
198 223 255
198 223 255
198 223 255
198 223 255
198 223 255
198 223 255
198 223 255
198 223 255
198 223 255
198 223 255
198 223 255
199 223 255
199 223 255
199 223 255
199 223 255
199 223 255
199 223 255
199 223 255
199 223 255
199 223 255
199 223 255
199 223 255
199 223 255
199 224 255
199 224 255
200 224 255
200 224 255
200 224 255
200 224 255
200 224 255
200 224 255
200 224 255
200 224 255
200 224 255
200 224 255
200 224 255
200 224 255
200 224 255
200 224 255
201 224 255
201 224 255
201 224 255
201 224 255
201 224 255
201 224 255
201 224 255
201 224 255
201 224 255
201 224 255
201 225 255
201 225 255
201 225 255
201 225 255
201 225 255
202 225 255
202 225 255
202 225 255
202 225 255
202 225 255
202 225 255
202 225 255
202 225 255
202 225 255
202 225 255
202 225 255
202 225 255
202 225 255
202 225 255
202 225 255
202 225 255
203 225 255
203 225 255
203 225 255
203 225 255
203 225 255
203 225 255
203 225 255
203 225 255
203 225 255
203 226 255
203 226 255
203 226 255
203 226 255
203 226 255
203 226 255
203 226 255
204 226 255
204 226 255
204 226 255
204 226 255
204 226 255
204 226 255
204 226 255
204 226 255
204 226 255
204 226 255
204 226 255
204 226 255
204 226 255
204 226 255
204 226 255
204 226 255
204 226 255
204 226 255
205 226 255
205 226 255
205 226 255
205 226 255
205 226 255
205 226 255
205 226 255
205 226 255
205 226 255
205 226 255
205 226 255
205 226 255
205 226 255
204 226 255
204 226 255
204 226 255
204 226 255
204 226 255
204 226 255
204 226 255
204 226 255
204 226 255
204 226 255
204 226 255
204 226 255
204 226 255
204 226 255
204 226 255
204 226 255
204 226 255
203 226 255
203 226 255
203 226 255
203 226 255
203 226 255
203 226 255
203 226 255
203 226 255
203 225 255
203 225 255
203 225 255
203 225 255
203 225 255
203 225 255
203 225 255
203 225 255
203 225 255
202 225 255
202 225 255
202 225 255
202 225 255
202 225 255
202 225 255
202 225 255
202 225 255
202 225 255
202 225 255
202 225 255
202 225 255
202 225 255
202 225 255
202 225 255
201 225 255
201 225 255
201 225 255
201 225 255
201 225 255
201 224 255
201 224 255
201 224 255
201 224 255
201 224 255
201 224 255
201 224 255
201 224 255
201 224 255
201 224 255
200 224 255
200 224 255
200 224 255
200 224 255
200 224 255
200 224 255
200 224 255
200 224 255
200 224 255
200 224 255
200 224 255
200 224 255
200 224 255
200 224 255
199 224 255
199 224 255
199 224 255
199 223 255
199 223 255
199 223 255
199 223 255
199 223 255
199 223 255
199 223 255
199 223 255
199 223 255
199 223 255
199 223 255
198 223 255
198 223 255
198 223 255
198 223 255
198 223 255
198 223 255
198 223 255
198 223 255
198 223 255
198 223 255
198 223 255
198 223 255
198 223 255
198 223 255
198 223 255
197 222 255
197 222 255
197 222 255
197 222 255
197 222 255
197 222 255
197 222 255
197 222 255
197 222 255
197 222 255
197 222 255
197 222 255
197 222 255
197 222 255
197 222 255
196 222 255
196 222 255
196 222 255
196 222 255
196 222 255
196 222 255
196 222 255
196 222 255
196 222 255
196 222 255
196 222 255
196 222 255
196 222 255
196 222 255
196 222 255
196 221 255
196 221 255
195 221 255
195 221 255
195 221 255
195 221 255
195 221 255
195 221 255
195 221 255
195 221 255
195 221 255
195 221 255
195 221 255
195 221 255
195 221 255
195 221 255
195 221 255
195 221 255
195 221 255
195 221 255
195 221 255
195 221 255
195 221 255
195 221 255
194 221 255
194 221 255
194 221 255
194 221 255
194 221 255
194 221 255
194 221 255
194 221 255
194 221 255
194 221 255
194 221 255
194 221 255
194 221 255
194 221 255
194 221 255
194 221 255
194 221 255
194 221 255
194 221 255
194 221 255
194 221 255
194 221 255
194 221 255
194 221 255
194 221 255
194 221 255
194 221 255
194 221 255
194 221 255
194 221 255
194 221 255
194 221 255
194 221 255
194 221 255
194 221 255
194 221 255
194 221 255
194 221 255
194 221 255
194 221 255
194 221 255
194 221 255
194 221 255
194 221 255
194 221 255
194 221 255
194 221 255
194 221 255
194 221 255
194 221 255
194 221 255
194 221 255
194 221 255
194 221 255
194 221 255
194 221 255
194 221 255
194 221 255
194 221 255
194 221 255
194 221 255
194 221 255
195 221 255
195 221 255
195 221 255
195 221 255
195 221 255
195 221 255
195 221 255
195 221 255
195 221 255
195 221 255
195 221 255
195 221 255
195 221 255
195 221 255
195 221 255
195 221 255
195 221 255
195 221 255
195 221 255
195 221 255
195 221 255
195 221 255
196 221 255
196 222 255
196 222 255
196 222 255
196 222 255
196 222 255
196 222 255
196 222 255
196 222 255
196 222 255
196 222 255
196 222 255
196 222 255
196 222 255
196 222 255
196 222 255
196 222 255
197 222 255
197 222 255
197 222 255
197 222 255
197 222 255
197 222 255
197 222 255
197 222 255
197 222 255
197 222 255
197 222 255
197 222 255
197 222 255
197 222 255
197 222 255
198 223 255
198 223 255
198 223 255
198 223 255
198 223 255
198 223 255
198 223 255
198 223 255
198 223 255
198 223 255
198 223 255
198 223 255
198 223 255
198 223 255
198 223 255
199 223 255
199 223 255
199 223 255
199 223 255
199 223 255
199 223 255
199 223 255
199 223 255
199 223 255
199 223 255
199 223 255
199 223 255
199 224 255
199 224 255
200 224 255
200 224 255
200 224 255
200 224 255
200 224 255
200 224 255
200 224 255
200 224 255
200 224 255
200 224 255
200 224 255
200 224 255
200 224 255
200 224 255
201 224 255
201 224 255
201 224 255
201 224 255
201 224 255
201 224 255
201 224 255
201 224 255
201 224 255
201 224 255
201 225 255
201 225 255
201 225 255
201 225 255
201 225 255
202 225 255
202 225 255
202 225 255
202 225 255
202 225 255
202 225 255
202 225 255
202 225 255
202 225 255
202 225 255
202 225 255
202 225 255
202 225 255
202 225 255
202 225 255
203 225 255
203 225 255
203 225 255
203 225 255
203 225 255
203 225 255
203 225 255
203 225 255
203 225 255
203 225 255
203 226 255
203 226 255
203 226 255
203 226 255
203 226 255
203 226 255
203 226 255
204 226 255
204 226 255
204 226 255
204 226 255
204 226 255
204 226 255
204 226 255
204 226 255
204 226 255
204 226 255
204 226 255
204 226 255
204 226 255
204 226 255
204 226 255
204 226 255
204 226 255
205 226 255
205 226 255
205 226 255
205 226 255
205 226 255
205 226 255
205 226 255
205 226 255
205 227 255
205 227 255
205 227 255
205 226 255
205 226 255
205 226 255
205 226 255
205 226 255
205 226 255
205 226 255
204 226 255
204 226 255
204 226 255
204 226 255
204 226 255
204 226 255
204 226 255
204 226 255
204 226 255
204 226 255
204 226 255
204 226 255
204 226 255
204 226 255
204 226 255
204 226 255
204 226 255
204 226 255
203 226 255
203 226 255
203 226 255
203 226 255
203 226 255
203 226 255
203 226 255
203 225 255
203 225 255
203 225 255
203 225 255
203 225 255
203 225 255
203 225 255
203 225 255
203 225 255
202 225 255
202 225 255
202 225 255
202 225 255
202 225 255
202 225 255
202 225 255
202 225 255
202 225 255
202 225 255
202 225 255
202 225 255
202 225 255
202 225 255
202 225 255
201 225 255
201 225 255
201 225 255
201 225 255
201 225 255
201 224 255
201 224 255
201 224 255
201 224 255
201 224 255
201 224 255
201 224 255
201 224 255
201 224 255
201 224 255
200 224 255
200 224 255
200 224 255
200 224 255
200 224 255
200 224 255
200 224 255
200 224 255
200 224 255
200 224 255
200 224 255
200 224 255
200 224 255
200 224 255
199 224 255
199 224 255
199 224 255
199 223 255
199 223 255
199 223 255
199 223 255
199 223 255
199 223 255
199 223 255
199 223 255
199 223 255
199 223 255
199 223 255
199 223 255
198 223 255
198 223 255
198 223 255
198 223 255
198 223 255
198 223 255
198 223 255
198 223 255
198 223 255
198 223 255
198 223 255
198 223 255
198 223 255
198 223 255
197 222 255
197 222 255
197 222 255
197 222 255
197 222 255
197 222 255
197 222 255
197 222 255
197 222 255
197 222 255
197 222 255
197 222 255
197 222 255
197 222 255
197 222 255
196 222 255
196 222 255
196 222 255
196 222 255
196 222 255
196 222 255
196 222 255
196 222 255
196 222 255
196 222 255
196 222 255
196 222 255
196 222 255
196 222 255
196 222 255
196 222 255
196 221 255
196 221 255
195 221 255
195 221 255
195 221 255
195 221 255
195 221 255
195 221 255
195 221 255
195 221 255
195 221 255
195 221 255
195 221 255
195 221 255
195 221 255
195 221 255
195 221 255
195 221 255
195 221 255
195 221 255
195 221 255
195 221 255
195 221 255
195 221 255
195 221 255
195 221 255
194 221 255
194 221 255
194 221 255
194 221 255
194 221 255
194 221 255
194 221 255
194 221 255
194 221 255
194 221 255
194 221 255
194 221 255
194 221 255
194 221 255
194 221 255
194 221 255
194 221 255
194 221 255
194 221 255
194 221 255
194 221 255
194 221 255
194 221 255
194 221 255
194 221 255
194 221 255
194 221 255
194 221 255
194 221 255
194 221 255
194 221 255
194 221 255
194 221 255
194 221 255
194 221 255
194 221 255
194 221 255
194 221 255
194 221 255
194 221 255
194 221 255
194 221 255
194 221 255
194 221 255
194 221 255
194 221 255
194 221 255
194 221 255
194 221 255
194 221 255
194 221 255
194 221 255
195 221 255
195 221 255
195 221 255
195 221 255
195 221 255
195 221 255
195 221 255
195 221 255
195 221 255
195 221 255
195 221 255
195 221 255
195 221 255
195 221 255
195 221 255
195 221 255
195 221 255
195 221 255
195 221 255
195 221 255
195 221 255
195 221 255
195 221 255
195 221 255
196 221 255
196 221 255
196 222 255
196 222 255
196 222 255
196 222 255
196 222 255
196 222 255
196 222 255
196 222 255
196 222 255
196 222 255
196 222 255
196 222 255
196 222 255
196 222 255
196 222 255
196 222 255
197 222 255
197 222 255
197 222 255
197 222 255
197 222 255
197 222 255
197 222 255
197 222 255
197 222 255
197 222 255
197 222 255
197 222 255
197 222 255
197 222 255
197 223 255
198 223 255
198 223 255
198 223 255
198 223 255
198 223 255
198 223 255
198 223 255
198 223 255
198 223 255
198 223 255
198 223 255
198 223 255
198 223 255
198 223 255
199 223 255
199 223 255
199 223 255
199 223 255
199 223 255
199 223 255
199 223 255
199 223 255
199 223 255
199 223 255
199 223 255
199 223 255
199 224 255
199 224 255
199 224 255
200 224 255
200 224 255
200 224 255
200 224 255
200 224 255
200 224 255
200 224 255
200 224 255
200 224 255
200 224 255
200 224 255
200 224 255
200 224 255
200 224 255
201 224 255
201 224 255
201 224 255
201 224 255
201 224 255
201 224 255
201 224 255
201 224 255
201 224 255
201 224 255
201 225 255
201 225 255
201 225 255
201 225 255
201 225 255
202 225 255
202 225 255
202 225 255
202 225 255
202 225 255
202 225 255
202 225 255
202 225 255
202 225 255
202 225 255
202 225 255
202 225 255
202 225 255
202 225 255
202 225 255
203 225 255
203 225 255
203 225 255
203 225 255
203 225 255
203 225 255
203 225 255
203 225 255
203 225 255
203 226 255
203 226 255
203 226 255
203 226 255
203 226 255
203 226 255
203 226 255
203 226 255
204 226 255
204 226 255
204 226 255
204 226 255
204 226 255
204 226 255
204 226 255
204 226 255
204 226 255
204 226 255
204 226 255
204 226 255
204 226 255
204 226 255
204 226 255
204 226 255
204 226 255
205 226 255
205 226 255
205 226 255
205 226 255
205 226 255
205 226 255
205 226 255
205 227 255
205 227 255
205 227 255
205 227 255
205 227 255
205 227 255
205 227 255
205 227 255
205 226 255
205 226 255
205 226 255
205 226 255
205 226 255
205 226 255
205 226 255
204 226 255
204 226 255
204 226 255
204 226 255
204 226 255
204 226 255
204 226 255
204 226 255
204 226 255
204 226 255
204 226 255
204 226 255
204 226 255
204 226 255
204 226 255
204 226 255
204 226 255
204 226 255
203 226 255
203 226 255
203 226 255
203 226 255
203 226 255
203 226 255
203 226 255
203 225 255
203 225 255
203 225 255
203 225 255
203 225 255
203 225 255
203 225 255
203 225 255
203 225 255
202 225 255
202 225 255
202 225 255
202 225 255
202 225 255
202 225 255
202 225 255
202 225 255
202 225 255
202 225 255
202 225 255
202 225 255
202 225 255
202 225 255
202 225 255
202 225 255
201 225 255
201 225 255
201 225 255
201 225 255
201 224 255
201 224 255
201 224 255
201 224 255
201 224 255
201 224 255
201 224 255
201 224 255
201 224 255
201 224 255
200 224 255
200 224 255
200 224 255
200 224 255
200 224 255
200 224 255
200 224 255
200 224 255
200 224 255
200 224 255
200 224 255
200 224 255
200 224 255
200 224 255
200 224 255
199 224 255
199 224 255
199 223 255
199 223 255
199 223 255
199 223 255
199 223 255
199 223 255
199 223 255
199 223 255
199 223 255
199 223 255
199 223 255
199 223 255
198 223 255
198 223 255
198 223 255
198 223 255
198 223 255
198 223 255
198 223 255
198 223 255
198 223 255
198 223 255
198 223 255
198 223 255
198 223 255
198 223 255
197 223 255
197 222 255
197 222 255
197 222 255
197 222 255
197 222 255
197 222 255
197 222 255
197 222 255
197 222 255
197 222 255
197 222 255
197 222 255
197 222 255
197 222 255
197 222 255
196 222 255
196 222 255
196 222 255
196 222 255
196 222 255
196 222 255
196 222 255
196 222 255
196 222 255
196 222 255
196 222 255
196 222 255
196 222 255
196 222 255
196 222 255
196 222 255
196 221 255
196 221 255
195 221 255
195 221 255
195 221 255
195 221 255
195 221 255
195 221 255
195 221 255
195 221 255
195 221 255
195 221 255
195 221 255
195 221 255
195 221 255
195 221 255
195 221 255
195 221 255
195 221 255
195 221 255
195 221 255
195 221 255
195 221 255
195 221 255
195 221 255
195 221 255
195 221 255
195 221 255
194 221 255
194 221 255
194 221 255
194 221 255
194 221 255
194 221 255
194 221 255
194 221 255
194 221 255
194 221 255
194 221 255
194 221 255
194 221 255
194 221 255
194 221 255
194 221 255
194 221 255
194 221 255
194 221 255
194 221 255
194 221 255
194 221 255
194 221 255
194 221 255
194 221 255
194 221 255
194 221 255
194 221 255
194 221 255
194 221 255
194 221 255
194 221 255
194 221 255
194 221 255
194 221 255
194 221 255
194 221 255
194 221 255
194 221 255
194 221 255
194 221 255
194 221 255
195 221 255
195 221 255
195 221 255
195 221 255
195 221 255
195 221 255
195 221 255
195 221 255
195 221 255
195 221 255
195 221 255
195 221 255
195 221 255
195 221 255
195 221 255
195 221 255
195 221 255
195 221 255
195 221 255
195 221 255
195 221 255
195 221 255
195 221 255
195 221 255
195 221 255
195 221 255
196 221 255
196 221 255
196 222 255
196 222 255
196 222 255
196 222 255
196 222 255
196 222 255
196 222 255
196 222 255
196 222 255
196 222 255
196 222 255
196 222 255
196 222 255
196 222 255
196 222 255
196 222 255
197 222 255
197 222 255
197 222 255
197 222 255
197 222 255
197 222 255
197 222 255
197 222 255
197 222 255
197 222 255
197 222 255
197 222 255
197 222 255
197 222 255
197 222 255
197 223 255
198 223 255
198 223 255
198 223 255
198 223 255
198 223 255
198 223 255
198 223 255
198 223 255
198 223 255
198 223 255
198 223 255
198 223 255
198 223 255
198 223 255
199 223 255
199 223 255
199 223 255
199 223 255
199 223 255
199 223 255
199 223 255
199 223 255
199 223 255
199 223 255
199 223 255
199 223 255
199 224 255
199 224 255
199 224 255
200 224 255
200 224 255
200 224 255
200 224 255
200 224 255
200 224 255
200 224 255
200 224 255
200 224 255
200 224 255
200 224 255
200 224 255
200 224 255
200 224 255
201 224 255
201 224 255
201 224 255
201 224 255
201 224 255
201 224 255
201 224 255
201 224 255
201 224 255
201 224 255
201 225 255
201 225 255
201 225 255
201 225 255
201 225 255
202 225 255
202 225 255
202 225 255
202 225 255
202 225 255
202 225 255
202 225 255
202 225 255
202 225 255
202 225 255
202 225 255
202 225 255
202 225 255
202 225 255
202 225 255
203 225 255
203 225 255
203 225 255
203 225 255
203 225 255
203 225 255
203 225 255
203 225 255
203 225 255
203 226 255
203 226 255
203 226 255
203 226 255
203 226 255
203 226 255
203 226 255
204 226 255
204 226 255
204 226 255
204 226 255
204 226 255
204 226 255
204 226 255
204 226 255
204 226 255
204 226 255
204 226 255
204 226 255
204 226 255
204 226 255
204 226 255
204 226 255
204 226 255
205 226 255
205 226 255
205 226 255
205 226 255
205 226 255
205 226 255
205 226 255
205 226 255
205 227 255
205 227 255
205 227 255
205 227 255
205 227 255
205 227 255
205 227 255
205 227 255
205 227 255
205 227 255
205 227 255
205 227 255
205 227 255
205 226 255
205 226 255
205 226 255
205 226 255
205 226 255
205 226 255
205 226 255
204 226 255
204 226 255
204 226 255
204 226 255
204 226 255
204 226 255
204 226 255
204 226 255
204 226 255
204 226 255
204 226 255
204 226 255
204 226 255
204 226 255
204 226 255
204 226 255
204 226 255
203 226 255
203 226 255
203 226 255
203 226 255
203 226 255
203 226 255
203 226 255
203 225 255
203 225 255
203 225 255
203 225 255
203 225 255
203 225 255
203 225 255
203 225 255
203 225 255
202 225 255
202 225 255
202 225 255
202 225 255
202 225 255
202 225 255
202 225 255
202 225 255
202 225 255
202 225 255
202 225 255
202 225 255
202 225 255
202 225 255
202 225 255
202 225 255
201 225 255
201 225 255
201 225 255
201 225 255
201 224 255
201 224 255
201 224 255
201 224 255
201 224 255
201 224 255
201 224 255
201 224 255
201 224 255
201 224 255
200 224 255
200 224 255
200 224 255
200 224 255
200 224 255
200 224 255
200 224 255
200 224 255
200 224 255
200 224 255
200 224 255
200 224 255
200 224 255
200 224 255
200 224 255
199 224 255
199 224 255
199 223 255
199 223 255
199 223 255
199 223 255
199 223 255
199 223 255
199 223 255
199 223 255
199 223 255
199 223 255
199 223 255
199 223 255
198 223 255
198 223 255
198 223 255
198 223 255
198 223 255
198 223 255
198 223 255
198 223 255
198 223 255
198 223 255
198 223 255
198 223 255
198 223 255
198 223 255
198 223 255
197 222 255
197 222 255
197 222 255
197 222 255
197 222 255
197 222 255
197 222 255
197 222 255
197 222 255
197 222 255
197 222 255
197 222 255
197 222 255
197 222 255
197 222 255
196 222 255
196 222 255
196 222 255
196 222 255
196 222 255
196 222 255
196 222 255
196 222 255
196 222 255
196 222 255
196 222 255
196 222 255
196 222 255
196 222 255
196 222 255
196 222 255
196 222 255
196 221 255
196 221 255
195 221 255
195 221 255
195 221 255
195 221 255
195 221 255
195 221 255
195 221 255
195 221 255
195 221 255
195 221 255
195 221 255
195 221 255
195 221 255
195 221 255
195 221 255
195 221 255
195 221 255
195 221 255
195 221 255
195 221 255
195 221 255
195 221 255
195 221 255
195 221 255
195 221 255
195 221 255
195 221 255
195 221 255
195 221 255
194 221 255
194 221 255
194 221 255
194 221 255
194 221 255
194 221 255
194 221 255
194 221 255
194 221 255
194 221 255
194 221 255
194 221 255
194 221 255
194 221 255
194 221 255
194 221 255
194 221 255
194 221 255
194 221 255
194 221 255
194 221 255
194 221 255
194 221 255
194 221 255
194 221 255
194 221 255
194 221 255
194 221 255
194 221 255
195 221 255
195 221 255
195 221 255
195 221 255
195 221 255
195 221 255
195 221 255
195 221 255
195 221 255
195 221 255
195 221 255
195 221 255
195 221 255
195 221 255
195 221 255
195 221 255
195 221 255
195 221 255
195 221 255
195 221 255
195 221 255
195 221 255
195 221 255
195 221 255
195 221 255
195 221 255
195 221 255
195 221 255
195 221 255
195 221 255
196 221 255
196 221 255
196 222 255
196 222 255
196 222 255
196 222 255
196 222 255
196 222 255
196 222 255
196 222 255
196 222 255
196 222 255
196 222 255
196 222 255
196 222 255
196 222 255
196 222 255
196 222 255
196 222 255
197 222 255
197 222 255
197 222 255
197 222 255
197 222 255
197 222 255
197 222 255
197 222 255
197 222 255
197 222 255
197 222 255
197 222 255
197 222 255
197 222 255
197 222 255
198 223 255
198 223 255
198 223 255
198 223 255
198 223 255
198 223 255
198 223 255
198 223 255
198 223 255
198 223 255
198 223 255
198 223 255
198 223 255
198 223 255
198 223 255
199 223 255
199 223 255
199 223 255
199 223 255
199 223 255
199 223 255
199 223 255
199 223 255
199 223 255
199 223 255
199 223 255
199 223 255
199 224 255
199 224 255
200 224 255
200 224 255
200 224 255
200 224 255
200 224 255
200 224 255
200 224 255
200 224 255
200 224 255
200 224 255
200 224 255
200 224 255
200 224 255
200 224 255
200 224 255
201 224 255
201 224 255
201 224 255
201 224 255
201 224 255
201 224 255
201 224 255
201 224 255
201 224 255
201 224 255
201 225 255
201 225 255
201 225 255
201 225 255
202 225 255
202 225 255
202 225 255
202 225 255
202 225 255
202 225 255
202 225 255
202 225 255
202 225 255
202 225 255
202 225 255
202 225 255
202 225 255
202 225 255
202 225 255
202 225 255
203 225 255
203 225 255
203 225 255
203 225 255
203 225 255
203 225 255
203 225 255
203 225 255
203 225 255
203 226 255
203 226 255
203 226 255
203 226 255
203 226 255
203 226 255
203 226 255
204 226 255
204 226 255
204 226 255
204 226 255
204 226 255
204 226 255
204 226 255
204 226 255
204 226 255
204 226 255
204 226 255
204 226 255
204 226 255
204 226 255
204 226 255
204 226 255
204 226 255
205 226 255
205 226 255
205 226 255
205 226 255
205 226 255
205 226 255
205 226 255
205 227 255
205 227 255
205 227 255
205 227 255
205 227 255
205 227 255
205 227 255
205 227 255
205 227 255
205 227 255
205 227 255
205 227 255
205 227 255
205 227 255
205 227 255
205 227 255
205 227 255
205 227 255
205 226 255
205 226 255
205 226 255
205 226 255
205 226 255
205 226 255
205 226 255
204 226 255
204 226 255
204 226 255
204 226 255
204 226 255
204 226 255
204 226 255
204 226 255
204 226 255
204 226 255
204 226 255
204 226 255
204 226 255
204 226 255
204 226 255
204 226 255
204 226 255
203 226 255
203 226 255
203 226 255
203 226 255
203 226 255
203 226 255
203 226 255
203 226 255
203 225 255
203 225 255
203 225 255
203 225 255
203 225 255
203 225 255
203 225 255
203 225 255
202 225 255
202 225 255
202 225 255
202 225 255
202 225 255
202 225 255
202 225 255
202 225 255
202 225 255
202 225 255
202 225 255
202 225 255
202 225 255
202 225 255
202 225 255
202 225 255
201 225 255
201 225 255
201 225 255
201 225 255
201 224 255
201 224 255
201 224 255
201 224 255
201 224 255
201 224 255
201 224 255
201 224 255
201 224 255
201 224 255
200 224 255
200 224 255
200 224 255
200 224 255
200 224 255
200 224 255
200 224 255
200 224 255
200 224 255
200 224 255
200 224 255
200 224 255
200 224 255
200 224 255
200 224 255
199 224 255
199 224 255
199 223 255
199 223 255
199 223 255
199 223 255
199 223 255
199 223 255
199 223 255
199 223 255
199 223 255
199 223 255
199 223 255
199 223 255
198 223 255
198 223 255
198 223 255
198 223 255
198 223 255
198 223 255
198 223 255
198 223 255
198 223 255
198 223 255
198 223 255
198 223 255
198 223 255
198 223 255
198 223 255
197 222 255
197 222 255
197 222 255
197 222 255
197 222 255
197 222 255
197 222 255
197 222 255
197 222 255
197 222 255
197 222 255
197 222 255
197 222 255
197 222 255
197 222 255
197 222 255
196 222 255
196 222 255
196 222 255
196 222 255
196 222 255
196 222 255
196 222 255
196 222 255
196 222 255
196 222 255
196 222 255
196 222 255
196 222 255
196 222 255
196 222 255
196 222 255
196 222 255
196 221 255
196 221 255
195 221 255
195 221 255
195 221 255
195 221 255
195 221 255
195 221 255
195 221 255
195 221 255
195 221 255
195 221 255
195 221 255
195 221 255
195 221 255
195 221 255
195 221 255
195 221 255
195 221 255
195 221 255
195 221 255
195 221 255
195 221 255
195 221 255
195 221 255
195 221 255
195 221 255
195 221 255
195 221 255
195 221 255
195 221 255
195 221 255
195 221 255
195 221 255
195 221 255
195 221 255
195 221 255
195 221 255
195 221 255
195 221 255
195 221 255
195 221 255
195 221 255
195 221 255
195 221 255
195 221 255
195 221 255
195 221 255
195 221 255
195 221 255
195 221 255
195 221 255
195 221 255
195 221 255
195 221 255
195 221 255
195 221 255
195 221 255
195 221 255
195 221 255
195 221 255
195 221 255
195 221 255
195 221 255
195 221 255
195 221 255
195 221 255
195 221 255
195 221 255
195 221 255
195 221 255
195 221 255
195 221 255
195 221 255
195 221 255
195 221 255
195 221 255
195 221 255
195 221 255
195 221 255
195 221 255
195 221 255
195 221 255
195 221 255
196 221 255
196 221 255
196 222 255
196 222 255
196 222 255
196 222 255
196 222 255
196 222 255
196 222 255
196 222 255
196 222 255
196 222 255
196 222 255
196 222 255
196 222 255
196 222 255
196 222 255
196 222 255
196 222 255
197 222 255
197 222 255
197 222 255
197 222 255
197 222 255
197 222 255
197 222 255
197 222 255
197 222 255
197 222 255
197 222 255
197 222 255
197 222 255
197 222 255
197 222 255
197 222 255
198 223 255
198 223 255
198 223 255
198 223 255
198 223 255
198 223 255
198 223 255
198 223 255
198 223 255
198 223 255
198 223 255
198 223 255
198 223 255
198 223 255
198 223 255
199 223 255
199 223 255
199 223 255
199 223 255
199 223 255
199 223 255
199 223 255
199 223 255
199 223 255
199 223 255
199 223 255
199 223 255
199 224 255
199 224 255
200 224 255
200 224 255
200 224 255
200 224 255
200 224 255
200 224 255
200 224 255
200 224 255
200 224 255
200 224 255
200 224 255
200 224 255
200 224 255
200 224 255
200 224 255
201 224 255
201 224 255
201 224 255
201 224 255
201 224 255
201 224 255
201 224 255
201 224 255
201 224 255
201 224 255
201 225 255
201 225 255
201 225 255
201 225 255
202 225 255
202 225 255
202 225 255
202 225 255
202 225 255
202 225 255
202 225 255
202 225 255
202 225 255
202 225 255
202 225 255
202 225 255
202 225 255
202 225 255
202 225 255
203 225 255
203 225 255
203 225 255
203 225 255
203 225 255
203 225 255
203 225 255
203 225 255
203 225 255
203 226 255
203 226 255
203 226 255
203 226 255
203 226 255
203 226 255
203 226 255
203 226 255
204 226 255
204 226 255
204 226 255
204 226 255
204 226 255
204 226 255
204 226 255
204 226 255
204 226 255
204 226 255
204 226 255
204 226 255
204 226 255
204 226 255
204 226 255
204 226 255
204 226 255
205 226 255
205 226 255
205 226 255
205 226 255
205 226 255
205 226 255
205 226 255
205 227 255
205 227 255
205 227 255
205 227 255
205 227 255
205 227 255
205 227 255
205 227 255
205 227 255
205 227 255
206 227 255
205 227 255
205 227 255
205 227 255
205 227 255
205 227 255
205 227 255
205 227 255
205 227 255
205 227 255
205 227 255
205 227 255
205 226 255
205 226 255
205 226 255
205 226 255
205 226 255
205 226 255
205 226 255
205 226 255
204 226 255
204 226 255
204 226 255
204 226 255
204 226 255
204 226 255
204 226 255
204 226 255
204 226 255
204 226 255
204 226 255
204 226 255
204 226 255
204 226 255
204 226 255
204 226 255
204 226 255
203 226 255
203 226 255
203 226 255
203 226 255
203 226 255
203 226 255
203 226 255
203 225 255
203 225 255
203 225 255
203 225 255
203 225 255
203 225 255
203 225 255
203 225 255
203 225 255
202 225 255
202 225 255
202 225 255
202 225 255
202 225 255
202 225 255
202 225 255
202 225 255
202 225 255
202 225 255
202 225 255
202 225 255
202 225 255
202 225 255
202 225 255
201 225 255
201 225 255
201 225 255
201 225 255
201 224 255
201 224 255
201 224 255
201 224 255
201 224 255
201 224 255
201 224 255
201 224 255
201 224 255
201 224 255
201 224 255
200 224 255
200 224 255
200 224 255
200 224 255
200 224 255
200 224 255
200 224 255
200 224 255
200 224 255
200 224 255
200 224 255
200 224 255
200 224 255
200 224 255
199 224 255
199 224 255
199 223 255
199 223 255
199 223 255
199 223 255
199 223 255
199 223 255
199 223 255
199 223 255
199 223 255
199 223 255
199 223 255
199 223 255
198 223 255
198 223 255
198 223 255
198 223 255
198 223 255
198 223 255
198 223 255
198 223 255
198 223 255
198 223 255
198 223 255
198 223 255
198 223 255
198 223 255
198 223 255
197 223 255
197 222 255
197 222 255
197 222 255
197 222 255
197 222 255
197 222 255
197 222 255
197 222 255
197 222 255
197 222 255
197 222 255
197 222 255
197 222 255
197 222 255
197 222 255
196 222 255
196 222 255
196 222 255
196 222 255
196 222 255
196 222 255
196 222 255
196 222 255
196 222 255
196 222 255
196 222 255
196 222 255
196 222 255
196 222 255
196 222 255
196 222 255
196 222 255
196 222 255
196 221 255
196 221 255
195 221 255
195 221 255
195 221 255
195 221 255
195 221 255
195 221 255
195 221 255
195 221 255
195 221 255
195 221 255
195 221 255
195 221 255
195 221 255
195 221 255
195 221 255
195 221 255
195 221 255
195 221 255
195 221 255
195 221 255
195 221 255
195 221 255
195 221 255
195 221 255
195 221 255
195 221 255
195 221 255
195 221 255
195 221 255
195 221 255
195 221 255
195 221 255
195 221 255
195 221 255
195 221 255
195 221 255
195 221 255
195 221 255
195 221 255
195 221 255
195 221 255
195 221 255
195 221 255
195 221 255
195 221 255
195 221 255
195 221 255
195 221 255
195 221 255
195 221 255
195 221 255
195 221 255
195 221 255
195 221 255
195 221 255
195 221 255
195 221 255
195 221 255
195 221 255
195 221 255
195 221 255
195 221 255
195 221 255
195 221 255
195 221 255
195 221 255
195 221 255
195 221 255
195 221 255
195 221 255
195 221 255
195 221 255
195 221 255
195 221 255
195 221 255
195 221 255
196 221 255
196 221 255
196 222 255
196 222 255
196 222 255
196 222 255
196 222 255
196 222 255
196 222 255
196 222 255
196 222 255
196 222 255
196 222 255
196 222 255
196 222 255
196 222 255
196 222 255
196 222 255
196 222 255
197 222 255
197 222 255
197 222 255
197 222 255
197 222 255
197 222 255
197 222 255
197 222 255
197 222 255
197 222 255
197 222 255
197 222 255
197 222 255
197 222 255
197 222 255
197 222 255
197 223 255
198 223 255
198 223 255
198 223 255
198 223 255
198 223 255
198 223 255
198 223 255
198 223 255
198 223 255
198 223 255
198 223 255
198 223 255
198 223 255
198 223 255
198 223 255
199 223 255
199 223 255
199 223 255
199 223 255
199 223 255
199 223 255
199 223 255
199 223 255
199 223 255
199 223 255
199 223 255
199 223 255
199 224 255
199 224 255
200 224 255
200 224 255
200 224 255
200 224 255
200 224 255
200 224 255
200 224 255
200 224 255
200 224 255
200 224 255
200 224 255
200 224 255
200 224 255
200 224 255
201 224 255
201 224 255
201 224 255
201 224 255
201 224 255
201 224 255
201 224 255
201 224 255
201 224 255
201 224 255
201 224 255
201 225 255
201 225 255
201 225 255
201 225 255
202 225 255
202 225 255
202 225 255
202 225 255
202 225 255
202 225 255
202 225 255
202 225 255
202 225 255
202 225 255
202 225 255
202 225 255
202 225 255
202 225 255
202 225 255
203 225 255
203 225 255
203 225 255
203 225 255
203 225 255
203 225 255
203 225 255
203 225 255
203 225 255
203 226 255
203 226 255
203 226 255
203 226 255
203 226 255
203 226 255
203 226 255
204 226 255
204 226 255
204 226 255
204 226 255
204 226 255
204 226 255
204 226 255
204 226 255
204 226 255
204 226 255
204 226 255
204 226 255
204 226 255
204 226 255
204 226 255
204 226 255
204 226 255
205 226 255
205 226 255
205 226 255
205 226 255
205 226 255
205 226 255
205 226 255
205 227 255
205 227 255
205 227 255
205 227 255
205 227 255
205 227 255
205 227 255
205 227 255
205 227 255
205 227 255
205 227 255
205 227 255
206 227 255
206 227 255
206 227 255
206 227 255
206 227 255
205 227 255
205 227 255
205 227 255
205 227 255
205 227 255
205 227 255
205 227 255
205 227 255
205 227 255
205 227 255
205 227 255
205 226 255
205 226 255
205 226 255
205 226 255
205 226 255
205 226 255
205 226 255
204 226 255
204 226 255
204 226 255
204 226 255
204 226 255
204 226 255
204 226 255
204 226 255
204 226 255
204 226 255
204 226 255
204 226 255
204 226 255
204 226 255
204 226 255
204 226 255
204 226 255
203 226 255
203 226 255
203 226 255
203 226 255
203 226 255
203 226 255
203 226 255
203 225 255
203 225 255
203 225 255
203 225 255
203 225 255
203 225 255
203 225 255
203 225 255
203 225 255
202 225 255
202 225 255
202 225 255
202 225 255
202 225 255
202 225 255
202 225 255
202 225 255
202 225 255
202 225 255
202 225 255
202 225 255
202 225 255
202 225 255
202 225 255
201 225 255
201 225 255
201 225 255
201 225 255
201 225 255
201 224 255
201 224 255
201 224 255
201 224 255
201 224 255
201 224 255
201 224 255
201 224 255
201 224 255
201 224 255
200 224 255
200 224 255
200 224 255
200 224 255
200 224 255
200 224 255
200 224 255
200 224 255
200 224 255
200 224 255
200 224 255
200 224 255
200 224 255
200 224 255
199 224 255
199 224 255
199 223 255
199 223 255
199 223 255
199 223 255
199 223 255
199 223 255
199 223 255
199 223 255
199 223 255
199 223 255
199 223 255
199 223 255
199 223 255
198 223 255
198 223 255
198 223 255
198 223 255
198 223 255
198 223 255
198 223 255
198 223 255
198 223 255
198 223 255
198 223 255
198 223 255
198 223 255
198 223 255
198 223 255
197 222 255
197 222 255
197 222 255
197 222 255
197 222 255
197 222 255
197 222 255
197 222 255
197 222 255
197 222 255
197 222 255
197 222 255
197 222 255
197 222 255
197 222 255
197 222 255
196 222 255
196 222 255
196 222 255
196 222 255
196 222 255
196 222 255
196 222 255
196 222 255
196 222 255
196 222 255
196 222 255
196 222 255
196 222 255
196 222 255
196 222 255
196 222 255
196 222 255
196 222 255
196 222 255
196 221 255
196 221 255
195 221 255
195 221 255
195 221 255
195 221 255
195 221 255
195 221 255
195 221 255
195 221 255
195 221 255
195 221 255
195 221 255
195 221 255
195 221 255
195 221 255
195 221 255
195 221 255
195 221 255
195 221 255
195 221 255
195 221 255
195 221 255
195 221 255
195 221 255
195 221 255
195 221 255
195 221 255
195 221 255
195 221 255
195 221 255
195 221 255
195 221 255
195 221 255
195 221 255
195 221 255
195 221 255
195 221 255
195 221 255
195 221 255
195 221 255
195 221 255
195 221 255
195 221 255
195 221 255
195 221 255
195 221 255
195 221 255
195 221 255
195 221 255
195 221 255
195 221 255
195 221 255
195 221 255
195 221 255
195 221 255
195 221 255
195 221 255
195 221 255
195 221 255
195 221 255
195 221 255
195 221 255
195 221 255
195 221 255
195 221 255
195 221 255
195 221 255
195 221 255
195 221 255
196 221 255
196 221 255
196 222 255
196 222 255
196 222 255
196 222 255
196 222 255
196 222 255
196 222 255
196 222 255
196 222 255
196 222 255
196 222 255
196 222 255
196 222 255
196 222 255
196 222 255
196 222 255
196 222 255
196 222 255
196 222 255
197 222 255
197 222 255
197 222 255
197 222 255
197 222 255
197 222 255
197 222 255
197 222 255
197 222 255
197 222 255
197 222 255
197 222 255
197 222 255
197 222 255
197 222 255
197 222 255
198 223 255
198 223 255
198 223 255
198 223 255
198 223 255
198 223 255
198 223 255
198 223 255
198 223 255
198 223 255
198 223 255
198 223 255
198 223 255
198 223 255
198 223 255
199 223 255
199 223 255
199 223 255
199 223 255
199 223 255
199 223 255
199 223 255
199 223 255
199 223 255
199 223 255
199 223 255
199 223 255
199 223 255
199 224 255
199 224 255
200 224 255
200 224 255
200 224 255
200 224 255
200 224 255
200 224 255
200 224 255
200 224 255
200 224 255
200 224 255
200 224 255
200 224 255
200 224 255
200 224 255
201 224 255
201 224 255
201 224 255
201 224 255
201 224 255
201 224 255
201 224 255
201 224 255
201 224 255
201 224 255
201 225 255
201 225 255
201 225 255
201 225 255
201 225 255
202 225 255
202 225 255
202 225 255
202 225 255
202 225 255
202 225 255
202 225 255
202 225 255
202 225 255
202 225 255
202 225 255
202 225 255
202 225 255
202 225 255
202 225 255
203 225 255
203 225 255
203 225 255
203 225 255
203 225 255
203 225 255
203 225 255
203 225 255
203 225 255
203 226 255
203 226 255
203 226 255
203 226 255
203 226 255
203 226 255
203 226 255
204 226 255
204 226 255
204 226 255
204 226 255
204 226 255
204 226 255
204 226 255
204 226 255
204 226 255
204 226 255
204 226 255
204 226 255
204 226 255
204 226 255
204 226 255
204 226 255
204 226 255
205 226 255
205 226 255
205 226 255
205 226 255
205 226 255
205 226 255
205 226 255
205 227 255
205 227 255
205 227 255
205 227 255
205 227 255
205 227 255
205 227 255
205 227 255
205 227 255
205 227 255
205 227 255
206 227 255
206 227 255
206 227 255
206 227 255
206 227 255
206 227 255
206 227 255
206 227 255
206 227 255
206 227 255
205 227 255
205 227 255
205 227 255
205 227 255
205 227 255
205 227 255
205 227 255
205 227 255
205 227 255
205 227 255
205 227 255
205 227 255
205 226 255
205 226 255
205 226 255
205 226 255
205 226 255
205 226 255
205 226 255
204 226 255
204 226 255
204 226 255
204 226 255
204 226 255
204 226 255
204 226 255
204 226 255
204 226 255
204 226 255
204 226 255
204 226 255
204 226 255
204 226 255
204 226 255
204 226 255
204 226 255
203 226 255
203 226 255
203 226 255
203 226 255
203 226 255
203 226 255
203 226 255
203 225 255
203 225 255
203 225 255
203 225 255
203 225 255
203 225 255
203 225 255
203 225 255
202 225 255
202 225 255
202 225 255
202 225 255
202 225 255
202 225 255
202 225 255
202 225 255
202 225 255
202 225 255
202 225 255
202 225 255
202 225 255
202 225 255
202 225 255
202 225 255
201 225 255
201 225 255
201 225 255
201 225 255
201 224 255
201 224 255
201 224 255
201 224 255
201 224 255
201 224 255
201 224 255
201 224 255
201 224 255
201 224 255
200 224 255
200 224 255
200 224 255
200 224 255
200 224 255
200 224 255
200 224 255
200 224 255
200 224 255
200 224 255
200 224 255
200 224 255
200 224 255
200 224 255
199 224 255
199 224 255
199 224 255
199 223 255
199 223 255
199 223 255
199 223 255
199 223 255
199 223 255
199 223 255
199 223 255
199 223 255
199 223 255
199 223 255
199 223 255
198 223 255
198 223 255
198 223 255
198 223 255
198 223 255
198 223 255
198 223 255
198 223 255
198 223 255
198 223 255
198 223 255
198 223 255
198 223 255
198 223 255
198 223 255
197 223 255
197 222 255
197 222 255
197 222 255
197 222 255
197 222 255
197 222 255
197 222 255
197 222 255
197 222 255
197 222 255
197 222 255
197 222 255
197 222 255
197 222 255
197 222 255
197 222 255
196 222 255
196 222 255
196 222 255
196 222 255
196 222 255
196 222 255
196 222 255
196 222 255
196 222 255
196 222 255
196 222 255
196 222 255
196 222 255
196 222 255
196 222 255
196 222 255
196 222 255
196 222 255
196 222 255
196 222 255
196 221 255
196 221 255
195 221 255
195 221 255
195 221 255
195 221 255
195 221 255
195 221 255
195 221 255
195 221 255
195 221 255
195 221 255
195 221 255
195 221 255
195 221 255
195 221 255
195 221 255
195 221 255
195 221 255
195 221 255
195 221 255
195 221 255
195 221 255
195 221 255
195 221 255
195 221 255
195 221 255
195 221 255
195 221 255
195 221 255
195 221 255
195 221 255
195 221 255
195 221 255
195 221 255
195 221 255
195 221 255
195 221 255
195 221 255
195 221 255
195 221 255
195 221 255
195 221 255
195 221 255
195 221 255
195 221 255
195 221 255
195 221 255
195 221 255
195 221 255
195 221 255
195 221 255
195 221 255
195 221 255
195 221 255
195 221 255
195 221 255
195 221 255
195 221 255
195 221 255
195 221 255
195 221 255
196 221 255
196 221 255
196 222 255
196 222 255
196 222 255
196 222 255
196 222 255
196 222 255
196 222 255
196 222 255
196 222 255
196 222 255
196 222 255
196 222 255
196 222 255
196 222 255
196 222 255
196 222 255
196 222 255
196 222 255
196 222 255
196 222 255
197 222 255
197 222 255
197 222 255
197 222 255
197 222 255
197 222 255
197 222 255
197 222 255
197 222 255
197 222 255
197 222 255
197 222 255
197 222 255
197 222 255
197 222 255
197 222 255
197 222 255
198 223 255
198 223 255
198 223 255
198 223 255
198 223 255
198 223 255
198 223 255
198 223 255
198 223 255
198 223 255
198 223 255
198 223 255
198 223 255
198 223 255
198 223 255
199 223 255
199 223 255
199 223 255
199 223 255
199 223 255
199 223 255
199 223 255
199 223 255
199 223 255
199 223 255
199 223 255
199 223 255
199 224 255
199 224 255
199 224 255
200 224 255
200 224 255
200 224 255
200 224 255
200 224 255
200 224 255
200 224 255
200 224 255
200 224 255
200 224 255
200 224 255
200 224 255
200 224 255
200 224 255
201 224 255
201 224 255
201 224 255
201 224 255
201 224 255
201 224 255
201 224 255
201 224 255
201 224 255
201 224 255
201 225 255
201 225 255
201 225 255
201 225 255
201 225 255
202 225 255
202 225 255
202 225 255
202 225 255
202 225 255
202 225 255
202 225 255
202 225 255
202 225 255
202 225 255
202 225 255
202 225 255
202 225 255
202 225 255
202 225 255
203 225 255
203 225 255
203 225 255
203 225 255
203 225 255
203 225 255
203 225 255
203 225 255
203 226 255
203 226 255
203 226 255
203 226 255
203 226 255
203 226 255
203 226 255
204 226 255
204 226 255
204 226 255
204 226 255
204 226 255
204 226 255
204 226 255
204 226 255
204 226 255
204 226 255
204 226 255
204 226 255
204 226 255
204 226 255
204 226 255
204 226 255
204 226 255
205 226 255
205 226 255
205 226 255
205 226 255
205 226 255
205 226 255
205 226 255
205 226 255
205 227 255
205 227 255
205 227 255
205 227 255
205 227 255
205 227 255
205 227 255
205 227 255
205 227 255
205 227 255
205 227 255
206 227 255
206 227 255
206 227 255
206 227 255
206 227 255
206 227 255
206 227 255
206 227 255
206 227 255
206 227 255
206 227 255
206 227 255
206 227 255
206 227 255
206 227 255
205 227 255
205 227 255
205 227 255
205 227 255
205 227 255
205 227 255
205 227 255
205 227 255
205 227 255
205 227 255
205 227 255
205 226 255
205 226 255
205 226 255
205 226 255
205 226 255
205 226 255
205 226 255
204 226 255
204 226 255
204 226 255
204 226 255
204 226 255
204 226 255
204 226 255
204 226 255
204 226 255
204 226 255
204 226 255
204 226 255
204 226 255
204 226 255
204 226 255
204 226 255
204 226 255
203 226 255
203 226 255
203 226 255
203 226 255
203 226 255
203 226 255
203 226 255
203 225 255
203 225 255
203 225 255
203 225 255
203 225 255
203 225 255
203 225 255
203 225 255
203 225 255
202 225 255
202 225 255
202 225 255
202 225 255
202 225 255
202 225 255
202 225 255
202 225 255
202 225 255
202 225 255
202 225 255
202 225 255
202 225 255
202 225 255
202 225 255
201 225 255
201 225 255
201 225 255
201 225 255
201 224 255
201 224 255
201 224 255
201 224 255
201 224 255
201 224 255
201 224 255
201 224 255
201 224 255
201 224 255
200 224 255
200 224 255
200 224 255
200 224 255
200 224 255
200 224 255
200 224 255
200 224 255
200 224 255
200 224 255
200 224 255
200 224 255
200 224 255
200 224 255
200 224 255
199 224 255
199 224 255
199 223 255
199 223 255
199 223 255
199 223 255
199 223 255
199 223 255
199 223 255
199 223 255
199 223 255
199 223 255
199 223 255
199 223 255
198 223 255
198 223 255
198 223 255
198 223 255
198 223 255
198 223 255
198 223 255
198 223 255
198 223 255
198 223 255
198 223 255
198 223 255
198 223 255
198 223 255
198 223 255
198 223 255
197 222 255
197 222 255
197 222 255
197 222 255
197 222 255
197 222 255
197 222 255
197 222 255
197 222 255
197 222 255
197 222 255
197 222 255
197 222 255
197 222 255
197 222 255
197 222 255
197 222 255
196 222 255
196 222 255
196 222 255
196 222 255
196 222 255
196 222 255
196 222 255
196 222 255
196 222 255
196 222 255
196 222 255
196 222 255
196 222 255
196 222 255
196 222 255
196 222 255
196 222 255
196 222 255
196 222 255
196 222 255
196 222 255
196 221 255
196 221 255
196 221 255
195 221 255
195 221 255
195 221 255
195 221 255
195 221 255
195 221 255
195 221 255
195 221 255
195 221 255
195 221 255
195 221 255
195 221 255
195 221 255
195 221 255
195 221 255
195 221 255
195 221 255
195 221 255
195 221 255
195 221 255
195 221 255
195 221 255
195 221 255
195 221 255
195 221 255
195 221 255
195 221 255
195 221 255
195 221 255
195 221 255
195 221 255
195 221 255
195 221 255
195 221 255
195 221 255
195 221 255
195 221 255
195 221 255
195 221 255
195 221 255
195 221 255
195 221 255
195 221 255
195 221 255
195 221 255
195 221 255
195 221 255
195 221 255
195 221 255
195 221 255
196 221 255
196 221 255
196 221 255
196 222 255
196 222 255
196 222 255
196 222 255
196 222 255
196 222 255
196 222 255
196 222 255
196 222 255
196 222 255
196 222 255
196 222 255
196 222 255
196 222 255
196 222 255
196 222 255
196 222 255
196 222 255
196 222 255
196 222 255
196 222 255
197 222 255
197 222 255
197 222 255
197 222 255
197 222 255
197 222 255
197 222 255
197 222 255
197 222 255
197 222 255
197 222 255
197 222 255
197 222 255
197 222 255
197 222 255
197 222 255
197 222 255
198 223 255
198 223 255
198 223 255
198 223 255
198 223 255
198 223 255
198 223 255
198 223 255
198 223 255
198 223 255
198 223 255
198 223 255
198 223 255
198 223 255
198 223 255
198 223 255
199 223 255
199 223 255
199 223 255
199 223 255
199 223 255
199 223 255
199 223 255
199 223 255
199 223 255
199 223 255
199 223 255
199 223 255
199 224 255
199 224 255
200 224 255
200 224 255
200 224 255
200 224 255
200 224 255
200 224 255
200 224 255
200 224 255
200 224 255
200 224 255
200 224 255
200 224 255
200 224 255
200 224 255
200 224 255
201 224 255
201 224 255
201 224 255
201 224 255
201 224 255
201 224 255
201 224 255
201 224 255
201 224 255
201 224 255
201 225 255
201 225 255
201 225 255
201 225 255
202 225 255
202 225 255
202 225 255
202 225 255
202 225 255
202 225 255
202 225 255
202 225 255
202 225 255
202 225 255
202 225 255
202 225 255
202 225 255
202 225 255
202 225 255
203 225 255
203 225 255
203 225 255
203 225 255
203 225 255
203 225 255
203 225 255
203 225 255
203 225 255
203 226 255
203 226 255
203 226 255
203 226 255
203 226 255
203 226 255
203 226 255
204 226 255
204 226 255
204 226 255
204 226 255
204 226 255
204 226 255
204 226 255
204 226 255
204 226 255
204 226 255
204 226 255
204 226 255
204 226 255
204 226 255
204 226 255
204 226 255
204 226 255
205 226 255
205 226 255
205 226 255
205 226 255
205 226 255
205 226 255
205 226 255
205 227 255
205 227 255
205 227 255
205 227 255
205 227 255
205 227 255
205 227 255
205 227 255
205 227 255
205 227 255
205 227 255
206 227 255
206 227 255
206 227 255
206 227 255
206 227 255
206 227 255
206 227 255
206 227 255
206 227 255
206 227 255
206 227 255
206 227 255
206 227 255
206 227 255
206 227 255
206 227 255
206 227 255
206 227 255
206 227 255
206 227 255
206 227 255
205 227 255
205 227 255
205 227 255
205 227 255
205 227 255
205 227 255
205 227 255
205 227 255
205 227 255
205 227 255
205 226 255
205 226 255
205 226 255
205 226 255
205 226 255
205 226 255
205 226 255
205 226 255
204 226 255
204 226 255
204 226 255
204 226 255
204 226 255
204 226 255
204 226 255
204 226 255
204 226 255
204 226 255
204 226 255
204 226 255
204 226 255
204 226 255
204 226 255
204 226 255
203 226 255
203 226 255
203 226 255
203 226 255
203 226 255
203 226 255
203 226 255
203 225 255
203 225 255
203 225 255
203 225 255
203 225 255
203 225 255
203 225 255
203 225 255
203 225 255
202 225 255
202 225 255
202 225 255
202 225 255
202 225 255
202 225 255
202 225 255
202 225 255
202 225 255
202 225 255
202 225 255
202 225 255
202 225 255
202 225 255
202 225 255
201 225 255
201 225 255
201 225 255
201 225 255
201 224 255
201 224 255
201 224 255
201 224 255
201 224 255
201 224 255
201 224 255
201 224 255
201 224 255
201 224 255
200 224 255
200 224 255
200 224 255
200 224 255
200 224 255
200 224 255
200 224 255
200 224 255
200 224 255
200 224 255
200 224 255
200 224 255
200 224 255
200 224 255
200 224 255
199 224 255
199 224 255
199 223 255
199 223 255
199 223 255
199 223 255
199 223 255
199 223 255
199 223 255
199 223 255
199 223 255
199 223 255
199 223 255
199 223 255
199 223 255
198 223 255
198 223 255
198 223 255
198 223 255
198 223 255
198 223 255
198 223 255
198 223 255
198 223 255
198 223 255
198 223 255
198 223 255
198 223 255
198 223 255
198 223 255
197 223 255
197 222 255
197 222 255
197 222 255
197 222 255
197 222 255
197 222 255
197 222 255
197 222 255
197 222 255
197 222 255
197 222 255
197 222 255
197 222 255
197 222 255
197 222 255
197 222 255
197 222 255
196 222 255
196 222 255
196 222 255
196 222 255
196 222 255
196 222 255
196 222 255
196 222 255
196 222 255
196 222 255
196 222 255
196 222 255
196 222 255
196 222 255
196 222 255
196 222 255
196 222 255
196 222 255
196 222 255
196 222 255
196 222 255
196 222 255
196 222 255
196 222 255
196 221 255
196 221 255
196 221 255
196 221 255
195 221 255
195 221 255
195 221 255
195 221 255
195 221 255
195 221 255
195 221 255
195 221 255
195 221 255
195 221 255
195 221 255
195 221 255
195 221 255
195 221 255
195 221 255
195 221 255
195 221 255
195 221 255
195 221 255
195 221 255
195 221 255
195 221 255
195 221 255
195 221 255
195 221 255
195 221 255
195 221 255
195 221 255
195 221 255
195 221 255
195 221 255
195 221 255
195 221 255
195 221 255
195 221 255
195 221 255
195 221 255
196 221 255
196 221 255
196 221 255
196 222 255
196 222 255
196 222 255
196 222 255
196 222 255
196 222 255
196 222 255
196 222 255
196 222 255
196 222 255
196 222 255
196 222 255
196 222 255
196 222 255
196 222 255
196 222 255
196 222 255
196 222 255
196 222 255
196 222 255
196 222 255
196 222 255
196 222 255
196 222 255
197 222 255
197 222 255
197 222 255
197 222 255
197 222 255
197 222 255
197 222 255
197 222 255
197 222 255
197 222 255
197 222 255
197 222 255
197 222 255
197 222 255
197 222 255
197 222 255
197 222 255
197 223 255
198 223 255
198 223 255
198 223 255
198 223 255
198 223 255
198 223 255
198 223 255
198 223 255
198 223 255
198 223 255
198 223 255
198 223 255
198 223 255
198 223 255
198 223 255
199 223 255
199 223 255
199 223 255
199 223 255
199 223 255
199 223 255
199 223 255
199 223 255
199 223 255
199 223 255
199 223 255
199 223 255
199 223 255
199 224 255
199 224 255
200 224 255
200 224 255
200 224 255
200 224 255
200 224 255
200 224 255
200 224 255
200 224 255
200 224 255
200 224 255
200 224 255
200 224 255
200 224 255
200 224 255
201 224 255
201 224 255
201 224 255
201 224 255
201 224 255
201 224 255
201 224 255
201 224 255
201 224 255
201 224 255
201 224 255
201 225 255
201 225 255
201 225 255
201 225 255
202 225 255
202 225 255
202 225 255
202 225 255
202 225 255
202 225 255
202 225 255
202 225 255
202 225 255
202 225 255
202 225 255
202 225 255
202 225 255
202 225 255
202 225 255
203 225 255
203 225 255
203 225 255
203 225 255
203 225 255
203 225 255
203 225 255
203 225 255
203 225 255
203 226 255
203 226 255
203 226 255
203 226 255
203 226 255
203 226 255
203 226 255
204 226 255
204 226 255
204 226 255
204 226 255
204 226 255
204 226 255
204 226 255
204 226 255
204 226 255
204 226 255
204 226 255
204 226 255
204 226 255
204 226 255
204 226 255
204 226 255
205 226 255
205 226 255
205 226 255
205 226 255
205 226 255
205 226 255
205 226 255
205 227 255
205 227 255
205 227 255
205 227 255
205 227 255
205 227 255
205 227 255
205 227 255
205 227 255
205 227 255
205 227 255
206 227 255
206 227 255
206 227 255
206 227 255
206 227 255
206 227 255
206 227 255
206 227 255
206 227 255
206 227 255
206 227 255
206 227 255
206 227 255
206 227 255
206 227 255
206 227 255
206 227 255
206 227 255
206 227 255
206 227 255
206 227 255
206 227 255
206 227 255
206 227 255
206 227 255
206 227 255
205 227 255
205 227 255
205 227 255
205 227 255
205 227 255
205 227 255
205 227 255
205 227 255
205 227 255
205 227 255
205 227 255
205 226 255
205 226 255
205 226 255
205 226 255
205 226 255
205 226 255
205 226 255
204 226 255
204 226 255
204 226 255
204 226 255
204 226 255
204 226 255
204 226 255
204 226 255
204 226 255
204 226 255
204 226 255
204 226 255
204 226 255
204 226 255
204 226 255
204 226 255
204 226 255
203 226 255
203 226 255
203 226 255
203 226 255
203 226 255
203 226 255
203 226 255
203 225 255
203 225 255
203 225 255
203 225 255
203 225 255
203 225 255
203 225 255
203 225 255
202 225 255
202 225 255
202 225 255
202 225 255
202 225 255
202 225 255
202 225 255
202 225 255
202 225 255
202 225 255
202 225 255
202 225 255
202 225 255
202 225 255
202 225 255
201 225 255
201 225 255
201 225 255
201 225 255
201 225 255
201 224 255
201 224 255
201 224 255
201 224 255
201 224 255
201 224 255
201 224 255
201 224 255
201 224 255
201 224 255
200 224 255
200 224 255
200 224 255
200 224 255
200 224 255
200 224 255
200 224 255
200 224 255
200 224 255
200 224 255
200 224 255
200 224 255
200 224 255
200 224 255
199 224 255
199 224 255
199 224 255
199 223 255
199 223 255
199 223 255
199 223 255
199 223 255
199 223 255
199 223 255
199 223 255
199 223 255
199 223 255
199 223 255
199 223 255
198 223 255
198 223 255
198 223 255
198 223 255
198 223 255
198 223 255
198 223 255
198 223 255
198 223 255
198 223 255
198 223 255
198 223 255
198 223 255
198 223 255
198 223 255
198 223 255
197 222 255
197 222 255
197 222 255
197 222 255
197 222 255
197 222 255
197 222 255
197 222 255
197 222 255
197 222 255
197 222 255
197 222 255
197 222 255
197 222 255
197 222 255
197 222 255
197 222 255
197 222 255
197 222 255
196 222 255
196 222 255
196 222 255
196 222 255
196 222 255
196 222 255
196 222 255
196 222 255
196 222 255
196 222 255
196 222 255
196 222 255
196 222 255
196 222 255
196 222 255
196 222 255
196 222 255
196 222 255
196 222 255
196 222 255
196 222 255
196 222 255
196 222 255
196 222 255
196 222 255
196 222 255
196 222 255
196 221 255
196 221 255
196 221 255
196 221 255
196 221 255
196 221 255
195 221 255
195 221 255
195 221 255
195 221 255
195 221 255
195 221 255
195 221 255
195 221 255
195 221 255
195 221 255
195 221 255
195 221 255
195 221 255
195 221 255
195 221 255
195 221 255
195 221 255
195 221 255
195 221 255
196 221 255
196 221 255
196 221 255
196 221 255
196 221 255
196 221 255
196 222 255
196 222 255
196 222 255
196 222 255
196 222 255
196 222 255
196 222 255
196 222 255
196 222 255
196 222 255
196 222 255
196 222 255
196 222 255
196 222 255
196 222 255
196 222 255
196 222 255
196 222 255
196 222 255
196 222 255
196 222 255
196 222 255
196 222 255
196 222 255
196 222 255
196 222 255
197 222 255
197 222 255
197 222 255
197 222 255
197 222 255
197 222 255
197 222 255
197 222 255
197 222 255
197 222 255
197 222 255
197 222 255
197 222 255
197 222 255
197 222 255
197 222 255
197 222 255
197 222 255
197 222 255
198 223 255
198 223 255
198 223 255
198 223 255
198 223 255
198 223 255
198 223 255
198 223 255
198 223 255
198 223 255
198 223 255
198 223 255
198 223 255
198 223 255
198 223 255
198 223 255
199 223 255
199 223 255
199 223 255
199 223 255
199 223 255
199 223 255
199 223 255
199 223 255
199 223 255
199 223 255
199 223 255
199 223 255
199 223 255
199 224 255
199 224 255
200 224 255
200 224 255
200 224 255
200 224 255
200 224 255
200 224 255
200 224 255
200 224 255
200 224 255
200 224 255
200 224 255
200 224 255
200 224 255
200 224 255
201 224 255
201 224 255
201 224 255
201 224 255
201 224 255
201 224 255
201 224 255
201 224 255
201 224 255
201 224 255
201 225 255
201 225 255
201 225 255
201 225 255
201 225 255
202 225 255
202 225 255
202 225 255
202 225 255
202 225 255
202 225 255
202 225 255
202 225 255
202 225 255
202 225 255
202 225 255
202 225 255
202 225 255
202 225 255
202 225 255
203 225 255
203 225 255
203 225 255
203 225 255
203 225 255
203 225 255
203 225 255
203 225 255
203 226 255
203 226 255
203 226 255
203 226 255
203 226 255
203 226 255
203 226 255
204 226 255
204 226 255
204 226 255
204 226 255
204 226 255
204 226 255
204 226 255
204 226 255
204 226 255
204 226 255
204 226 255
204 226 255
204 226 255
204 226 255
204 226 255
204 226 255
204 226 255
205 226 255
205 226 255
205 226 255
205 226 255
205 226 255
205 226 255
205 226 255
205 227 255
205 227 255
205 227 255
205 227 255
205 227 255
205 227 255
205 227 255
205 227 255
205 227 255
205 227 255
205 227 255
206 227 255
206 227 255
206 227 255
206 227 255
206 227 255
206 227 255
206 227 255
206 227 255
206 227 255
206 227 255
206 227 255
206 227 255
206 227 255
206 227 255
206 227 255
206 227 255
206 227 255
206 227 255
206 227 255
206 227 255
206 227 255
206 227 255
206 227 255
206 227 255
206 227 255
206 227 255
206 227 255
206 227 255
206 227 255
206 227 255
206 227 255
205 227 255
205 227 255
205 227 255
205 227 255
205 227 255
205 227 255
205 227 255
205 227 255
205 227 255
205 227 255
205 226 255
205 226 255
205 226 255
205 226 255
205 226 255
205 226 255
205 226 255
205 226 255
204 226 255
204 226 255
204 226 255
204 226 255
204 226 255
204 226 255
204 226 255
204 226 255
204 226 255
204 226 255
204 226 255
204 226 255
204 226 255
204 226 255
204 226 255
204 226 255
203 226 255
203 226 255
203 226 255
203 226 255
203 226 255
203 226 255
203 226 255
203 225 255
203 225 255
203 225 255
203 225 255
203 225 255
203 225 255
203 225 255
203 225 255
203 225 255
202 225 255
202 225 255
202 225 255
202 225 255
202 225 255
202 225 255
202 225 255
202 225 255
202 225 255
202 225 255
202 225 255
202 225 255
202 225 255
202 225 255
202 225 255
201 225 255
201 225 255
201 225 255
201 225 255
201 224 255
201 224 255
201 224 255
201 224 255
201 224 255
201 224 255
201 224 255
201 224 255
201 224 255
201 224 255
200 224 255
200 224 255
200 224 255
200 224 255
200 224 255
200 224 255
200 224 255
200 224 255
200 224 255
200 224 255
200 224 255
200 224 255
200 224 255
200 224 255
200 224 255
199 224 255
199 224 255
199 223 255
199 223 255
199 223 255
199 223 255
199 223 255
199 223 255
199 223 255
199 223 255
199 223 255
199 223 255
199 223 255
199 223 255
198 223 255
198 223 255
198 223 255
198 223 255
198 223 255
198 223 255
198 223 255
198 223 255
198 223 255
198 223 255
198 223 255
198 223 255
198 223 255
198 223 255
198 223 255
198 223 255
198 223 255
197 222 255
197 222 255
197 222 255
197 222 255
197 222 255
197 222 255
197 222 255
197 222 255
197 222 255
197 222 255
197 222 255
197 222 255
197 222 255
197 222 255
197 222 255
197 222 255
197 222 255
197 222 255
197 222 255
196 222 255
196 222 255
196 222 255
196 222 255
196 222 255
196 222 255
196 222 255
196 222 255
196 222 255
196 222 255
196 222 255
196 222 255
196 222 255
196 222 255
196 222 255
196 222 255
196 222 255
196 222 255
196 222 255
196 222 255
196 222 255
196 222 255
196 222 255
196 222 255
196 222 255
196 222 255
196 222 255
196 222 255
196 222 255
196 222 255
196 222 255
196 222 255
196 222 255
196 222 255
196 222 255
196 222 255
196 222 255
196 222 255
196 222 255
196 222 255
196 222 255
196 222 255
196 222 255
196 222 255
196 222 255
196 222 255
196 222 255
196 222 255
196 222 255
196 222 255
196 222 255
196 222 255
196 222 255
196 222 255
196 222 255
196 222 255
196 222 255
196 222 255
196 222 255
196 222 255
196 222 255
196 222 255
196 222 255
196 222 255
196 222 255
196 222 255
196 222 255
196 222 255
196 222 255
196 222 255
196 222 255
196 222 255
196 222 255
196 222 255
196 222 255
196 222 255
196 222 255
196 222 255
197 222 255
197 222 255
197 222 255
197 222 255
197 222 255
197 222 255
197 222 255
197 222 255
197 222 255
197 222 255
197 222 255
197 222 255
197 222 255
197 222 255
197 222 255
197 222 255
197 222 255
197 222 255
197 222 255
198 223 255
198 223 255
198 223 255
198 223 255
198 223 255
198 223 255
198 223 255
198 223 255
198 223 255
198 223 255
198 223 255
198 223 255
198 223 255
198 223 255
198 223 255
198 223 255
198 223 255
199 223 255
199 223 255
199 223 255
199 223 255
199 223 255
199 223 255
199 223 255
199 223 255
199 223 255
199 223 255
199 223 255
199 223 255
199 224 255
199 224 255
200 224 255
200 224 255
200 224 255
200 224 255
200 224 255
200 224 255
200 224 255
200 224 255
200 224 255
200 224 255
200 224 255
200 224 255
200 224 255
200 224 255
200 224 255
201 224 255
201 224 255
201 224 255
201 224 255
201 224 255
201 224 255
201 224 255
201 224 255
201 224 255
201 224 255
201 225 255
201 225 255
201 225 255
201 225 255
202 225 255
202 225 255
202 225 255
202 225 255
202 225 255
202 225 255
202 225 255
202 225 255
202 225 255
202 225 255
202 225 255
202 225 255
202 225 255
202 225 255
202 225 255
203 225 255
203 225 255
203 225 255
203 225 255
203 225 255
203 225 255
203 225 255
203 225 255
203 225 255
203 226 255
203 226 255
203 226 255
203 226 255
203 226 255
203 226 255
203 226 255
204 226 255
204 226 255
204 226 255
204 226 255
204 226 255
204 226 255
204 226 255
204 226 255
204 226 255
204 226 255
204 226 255
204 226 255
204 226 255
204 226 255
204 226 255
204 226 255
205 226 255
205 226 255
205 226 255
205 226 255
205 226 255
205 226 255
205 226 255
205 227 255
205 227 255
205 227 255
205 227 255
205 227 255
205 227 255
205 227 255
205 227 255
205 227 255
205 227 255
205 227 255
206 227 255
206 227 255
206 227 255
206 227 255
206 227 255
206 227 255
206 227 255
206 227 255
206 227 255
206 227 255
206 227 255
206 227 255
206 227 255
206 227 255
206 227 255
206 227 255
206 227 255
206 227 255
206 227 255
206 227 255
206 227 255
206 227 255
206 227 255
206 227 255
206 227 255
206 227 255
206 227 255
206 227 255
206 227 255
206 227 255
206 227 255
206 227 255
206 227 255
206 227 255
206 227 255
206 227 255
205 227 255
205 227 255
205 227 255
205 227 255
205 227 255
205 227 255
205 227 255
205 227 255
205 227 255
205 227 255
205 227 255
205 226 255
205 226 255
205 226 255
205 226 255
205 226 255
205 226 255
205 226 255
204 226 255
204 226 255
204 226 255
204 226 255
204 226 255
204 226 255
204 226 255
204 226 255
204 226 255
204 226 255
204 226 255
204 226 255
204 226 255
204 226 255
204 226 255
204 226 255
204 226 255
203 226 255
203 226 255
203 226 255
203 226 255
203 226 255
203 226 255
203 226 255
203 225 255
203 225 255
203 225 255
203 225 255
203 225 255
203 225 255
203 225 255
203 225 255
202 225 255
202 225 255
202 225 255
202 225 255
202 225 255
202 225 255
202 225 255
202 225 255
202 225 255
202 225 255
202 225 255
202 225 255
202 225 255
202 225 255
202 225 255
201 225 255
201 225 255
201 225 255
201 225 255
201 224 255
201 224 255
201 224 255
201 224 255
201 224 255
201 224 255
201 224 255
201 224 255
201 224 255
201 224 255
200 224 255
200 224 255
200 224 255
200 224 255
200 224 255
200 224 255
200 224 255
200 224 255
200 224 255
200 224 255
200 224 255
200 224 255
200 224 255
200 224 255
200 224 255
199 224 255
199 224 255
199 223 255
199 223 255
199 223 255
199 223 255
199 223 255
199 223 255
199 223 255
199 223 255
199 223 255
199 223 255
199 223 255
199 223 255
199 223 255
198 223 255
198 223 255
198 223 255
198 223 255
198 223 255
198 223 255
198 223 255
198 223 255
198 223 255
198 223 255
198 223 255
198 223 255
198 223 255
198 223 255
198 223 255
198 223 255
198 223 255
197 222 255
197 222 255
197 222 255
197 222 255
197 222 255
197 222 255
197 222 255
197 222 255
197 222 255
197 222 255
197 222 255
197 222 255
197 222 255
197 222 255
197 222 255
197 222 255
197 222 255
197 222 255
197 222 255
197 222 255
196 222 255
196 222 255
196 222 255
196 222 255
196 222 255
196 222 255
196 222 255
196 222 255
196 222 255
196 222 255
196 222 255
196 222 255
196 222 255
196 222 255
196 222 255
196 222 255
196 222 255
196 222 255
196 222 255
196 222 255
196 222 255
196 222 255
196 222 255
196 222 255
196 222 255
196 222 255
196 222 255
196 222 255
196 222 255
196 222 255
196 222 255
196 222 255
196 222 255
196 222 255
196 222 255
196 222 255
196 222 255
196 222 255
196 222 255
196 222 255
196 222 255
196 222 255
196 222 255
196 222 255
196 222 255
196 222 255
196 222 255
196 222 255
196 222 255
196 222 255
196 222 255
196 222 255
196 222 255
196 222 255
196 222 255
196 222 255
196 222 255
196 222 255
196 222 255
196 222 255
196 222 255
196 222 255
196 222 255
196 222 255
196 222 255
196 222 255
196 222 255
196 222 255
196 222 255
196 222 255
197 222 255
197 222 255
197 222 255
197 222 255
197 222 255
197 222 255
197 222 255
197 222 255
197 222 255
197 222 255
197 222 255
197 222 255
197 222 255
197 222 255
197 222 255
197 222 255
197 222 255
197 222 255
197 222 255
197 222 255
198 223 255
198 223 255
198 223 255
198 223 255
198 223 255
198 223 255
198 223 255
198 223 255
198 223 255
198 223 255
198 223 255
198 223 255
198 223 255
198 223 255
198 223 255
198 223 255
198 223 255
199 223 255
199 223 255
199 223 255
199 223 255
199 223 255
199 223 255
199 223 255
199 223 255
199 223 255
199 223 255
199 223 255
199 223 255
199 223 255
199 224 255
199 224 255
200 224 255
200 224 255
200 224 255
200 224 255
200 224 255
200 224 255
200 224 255
200 224 255
200 224 255
200 224 255
200 224 255
200 224 255
200 224 255
200 224 255
200 224 255
201 224 255
201 224 255
201 224 255
201 224 255
201 224 255
201 224 255
201 224 255
201 224 255
201 224 255
201 224 255
201 225 255
201 225 255
201 225 255
201 225 255
202 225 255
202 225 255
202 225 255
202 225 255
202 225 255
202 225 255
202 225 255
202 225 255
202 225 255
202 225 255
202 225 255
202 225 255
202 225 255
202 225 255
202 225 255
203 225 255
203 225 255
203 225 255
203 225 255
203 225 255
203 225 255
203 225 255
203 225 255
203 226 255
203 226 255
203 226 255
203 226 255
203 226 255
203 226 255
203 226 255
204 226 255
204 226 255
204 226 255
204 226 255
204 226 255
204 226 255
204 226 255
204 226 255
204 226 255
204 226 255
204 226 255
204 226 255
204 226 255
204 226 255
204 226 255
204 226 255
204 226 255
205 226 255
205 226 255
205 226 255
205 226 255
205 226 255
205 226 255
205 226 255
205 227 255
205 227 255
205 227 255
205 227 255
205 227 255
205 227 255
205 227 255
205 227 255
205 227 255
205 227 255
205 227 255
206 227 255
206 227 255
206 227 255
206 227 255
206 227 255
206 227 255
206 227 255
206 227 255
206 227 255
206 227 255
206 227 255
206 227 255
206 227 255
206 227 255
206 227 255
206 227 255
206 227 255
206 227 255
206 227 255
207 227 255
207 227 255
207 227 255
206 227 255
206 227 255
206 227 255
206 227 255
206 227 255
206 227 255
206 227 255
206 227 255
206 227 255
206 227 255
206 227 255
206 227 255
206 227 255
206 227 255
206 227 255
206 227 255
206 227 255
206 227 255
206 227 255
205 227 255
205 227 255
205 227 255
205 227 255
205 227 255
205 227 255
205 227 255
205 227 255
205 227 255
205 227 255
205 227 255
205 226 255
205 226 255
205 226 255
205 226 255
205 226 255
205 226 255
205 226 255
204 226 255
204 226 255
204 226 255
204 226 255
204 226 255
204 226 255
204 226 255
204 226 255
204 226 255
204 226 255
204 226 255
204 226 255
204 226 255
204 226 255
204 226 255
204 226 255
203 226 255
203 226 255
203 226 255
203 226 255
203 226 255
203 226 255
203 226 255
203 225 255
203 225 255
203 225 255
203 225 255
203 225 255
203 225 255
203 225 255
203 225 255
202 225 255
202 225 255
202 225 255
202 225 255
202 225 255
202 225 255
202 225 255
202 225 255
202 225 255
202 225 255
202 225 255
202 225 255
202 225 255
202 225 255
202 225 255
201 225 255
201 225 255
201 225 255
201 225 255
201 225 255
201 224 255
201 224 255
201 224 255
201 224 255
201 224 255
201 224 255
201 224 255
201 224 255
201 224 255
201 224 255
200 224 255
200 224 255
200 224 255
200 224 255
200 224 255
200 224 255
200 224 255
200 224 255
200 224 255
200 224 255
200 224 255
200 224 255
200 224 255
200 224 255
200 224 255
199 224 255
199 224 255
199 223 255
199 223 255
199 223 255
199 223 255
199 223 255
199 223 255
199 223 255
199 223 255
199 223 255
199 223 255
199 223 255
199 223 255
199 223 255
198 223 255
198 223 255
198 223 255
198 223 255
198 223 255
198 223 255
198 223 255
198 223 255
198 223 255
198 223 255
198 223 255
198 223 255
198 223 255
198 223 255
198 223 255
198 223 255
198 223 255
197 222 255
197 222 255
197 222 255
197 222 255
197 222 255
197 222 255
197 222 255
197 222 255
197 222 255
197 222 255
197 222 255
197 222 255
197 222 255
197 222 255
197 222 255
197 222 255
197 222 255
197 222 255
197 222 255
197 222 255
197 222 255
197 222 255
196 222 255
196 222 255
196 222 255
196 222 255
196 222 255
196 222 255
196 222 255
196 222 255
196 222 255
196 222 255
196 222 255
196 222 255
196 222 255
196 222 255
196 222 255
196 222 255
196 222 255
196 222 255
196 222 255
196 222 255
196 222 255
196 222 255
196 222 255
196 222 255
196 222 255
196 222 255
196 222 255
196 222 255
196 222 255
196 222 255
196 222 255
196 222 255
196 222 255
196 222 255
196 222 255
196 222 255
196 222 255
196 222 255
196 222 255
196 222 255
196 222 255
196 222 255
196 222 255
196 222 255
196 222 255
196 222 255
196 222 255
196 222 255
196 222 255
196 222 255
196 222 255
196 222 255
196 222 255
196 222 255
196 222 255
196 222 255
196 222 255
196 222 255
196 222 255
196 222 255
197 222 255
197 222 255
197 222 255
197 222 255
197 222 255
197 222 255
197 222 255
197 222 255
197 222 255
197 222 255
197 222 255
197 222 255
197 222 255
197 222 255
197 222 255
197 222 255
197 222 255
197 222 255
197 222 255
197 222 255
197 222 255
197 222 255
198 223 255
198 223 255
198 223 255
198 223 255
198 223 255
198 223 255
198 223 255
198 223 255
198 223 255
198 223 255
198 223 255
198 223 255
198 223 255
198 223 255
198 223 255
198 223 255
198 223 255
199 223 255
199 223 255
199 223 255
199 223 255
199 223 255
199 223 255
199 223 255
199 223 255
199 223 255
199 223 255
199 223 255
199 223 255
199 223 255
199 224 255
199 224 255
200 224 255
200 224 255
200 224 255
200 224 255
200 224 255
200 224 255
200 224 255
200 224 255
200 224 255
200 224 255
200 224 255
200 224 255
200 224 255
200 224 255
200 224 255
201 224 255
201 224 255
201 224 255
201 224 255
201 224 255
201 224 255
201 224 255
201 224 255
201 224 255
201 224 255
201 225 255
201 225 255
201 225 255
201 225 255
201 225 255
202 225 255
202 225 255
202 225 255
202 225 255
202 225 255
202 225 255
202 225 255
202 225 255
202 225 255
202 225 255
202 225 255
202 225 255
202 225 255
202 225 255
203 225 255
203 225 255
203 225 255
203 225 255
203 225 255
203 225 255
203 225 255
203 225 255
203 225 255
203 226 255
203 226 255
203 226 255
203 226 255
203 226 255
203 226 255
203 226 255
204 226 255
204 226 255
204 226 255
204 226 255
204 226 255
204 226 255
204 226 255
204 226 255
204 226 255
204 226 255
204 226 255
204 226 255
204 226 255
204 226 255
204 226 255
204 226 255
205 226 255
205 226 255
205 226 255
205 226 255
205 226 255
205 226 255
205 226 255
205 227 255
205 227 255
205 227 255
205 227 255
205 227 255
205 227 255
205 227 255
205 227 255
205 227 255
205 227 255
205 227 255
206 227 255
206 227 255
206 227 255
206 227 255
206 227 255
206 227 255
206 227 255
206 227 255
206 227 255
206 227 255
206 227 255
206 227 255
206 227 255
206 227 255
206 227 255
206 227 255
206 227 255
206 227 255
206 227 255
207 227 255
207 227 255
207 227 255
207 228 255
207 227 255
207 227 255
207 227 255
207 227 255
207 227 255
206 227 255
206 227 255
206 227 255
206 227 255
206 227 255
206 227 255
206 227 255
206 227 255
206 227 255
206 227 255
206 227 255
206 227 255
206 227 255
206 227 255
206 227 255
206 227 255
206 227 255
206 227 255
206 227 255
205 227 255
205 227 255
205 227 255
205 227 255
205 227 255
205 227 255
205 227 255
205 227 255
205 227 255
205 227 255
205 226 255
205 226 255
205 226 255
205 226 255
205 226 255
205 226 255
205 226 255
204 226 255
204 226 255
204 226 255
204 226 255
204 226 255
204 226 255
204 226 255
204 226 255
204 226 255
204 226 255
204 226 255
204 226 255
204 226 255
204 226 255
204 226 255
204 226 255
204 226 255
203 226 255
203 226 255
203 226 255
203 226 255
203 226 255
203 226 255
203 225 255
203 225 255
203 225 255
203 225 255
203 225 255
203 225 255
203 225 255
203 225 255
203 225 255
202 225 255
202 225 255
202 225 255
202 225 255
202 225 255
202 225 255
202 225 255
202 225 255
202 225 255
202 225 255
202 225 255
202 225 255
202 225 255
202 225 255
202 225 255
201 225 255
201 225 255
201 225 255
201 225 255
201 224 255
201 224 255
201 224 255
201 224 255
201 224 255
201 224 255
201 224 255
201 224 255
201 224 255
201 224 255
200 224 255
200 224 255
200 224 255
200 224 255
200 224 255
200 224 255
200 224 255
200 224 255
200 224 255
200 224 255
200 224 255
200 224 255
200 224 255
200 224 255
200 224 255
199 224 255
199 224 255
199 223 255
199 223 255
199 223 255
199 223 255
199 223 255
199 223 255
199 223 255
199 223 255
199 223 255
199 223 255
199 223 255
199 223 255
199 223 255
198 223 255
198 223 255
198 223 255
198 223 255
198 223 255
198 223 255
198 223 255
198 223 255
198 223 255
198 223 255
198 223 255
198 223 255
198 223 255
198 223 255
198 223 255
198 223 255
198 223 255
198 223 255
197 222 255
197 222 255
197 222 255
197 222 255
197 222 255
197 222 255
197 222 255
197 222 255
197 222 255
197 222 255
197 222 255
197 222 255
197 222 255
197 222 255
197 222 255
197 222 255
197 222 255
197 222 255
197 222 255
197 222 255
197 222 255
197 222 255
197 222 255
196 222 255
196 222 255
196 222 255
196 222 255
196 222 255
196 222 255
196 222 255
196 222 255
196 222 255
196 222 255
196 222 255
196 222 255
196 222 255
196 222 255
196 222 255
196 222 255
196 222 255
196 222 255
196 222 255
196 222 255
196 222 255
196 222 255
196 222 255
196 222 255
196 222 255
196 222 255
196 222 255
196 222 255
196 222 255
196 222 255
196 222 255
196 222 255
196 222 255
196 222 255
196 222 255
196 222 255
196 222 255
196 222 255
196 222 255
196 222 255
196 222 255
196 222 255
196 222 255
196 222 255
196 222 255
196 222 255
196 222 255
196 222 255
196 222 255
196 222 255
196 222 255
196 222 255
197 222 255
197 222 255
197 222 255
197 222 255
197 222 255
197 222 255
197 222 255
197 222 255
197 222 255
197 222 255
197 222 255
197 222 255
197 222 255
197 222 255
197 222 255
197 222 255
197 222 255
197 222 255
197 222 255
197 222 255
197 222 255
197 222 255
197 222 255
198 223 255
198 223 255
198 223 255
198 223 255
198 223 255
198 223 255
198 223 255
198 223 255
198 223 255
198 223 255
198 223 255
198 223 255
198 223 255
198 223 255
198 223 255
198 223 255
198 223 255
198 223 255
199 223 255
199 223 255
199 223 255
199 223 255
199 223 255
199 223 255
199 223 255
199 223 255
199 223 255
199 223 255
199 223 255
199 223 255
199 223 255
199 224 255
199 224 255
200 224 255
200 224 255
200 224 255
200 224 255
200 224 255
200 224 255
200 224 255
200 224 255
200 224 255
200 224 255
200 224 255
200 224 255
200 224 255
200 224 255
200 224 255
201 224 255
201 224 255
201 224 255
201 224 255
201 224 255
201 224 255
201 224 255
201 224 255
201 224 255
201 224 255
201 225 255
201 225 255
201 225 255
201 225 255
202 225 255
202 225 255
202 225 255
202 225 255
202 225 255
202 225 255
202 225 255
202 225 255
202 225 255
202 225 255
202 225 255
202 225 255
202 225 255
202 225 255
202 225 255
203 225 255
203 225 255
203 225 255
203 225 255
203 225 255
203 225 255
203 225 255
203 225 255
203 225 255
203 226 255
203 226 255
203 226 255
203 226 255
203 226 255
203 226 255
203 226 255
204 226 255
204 226 255
204 226 255
204 226 255
204 226 255
204 226 255
204 226 255
204 226 255
204 226 255
204 226 255
204 226 255
204 226 255
204 226 255
204 226 255
204 226 255
204 226 255
205 226 255
205 226 255
205 226 255
205 226 255
205 226 255
205 226 255
205 226 255
205 227 255
205 227 255
205 227 255
205 227 255
205 227 255
205 227 255
205 227 255
205 227 255
205 227 255
205 227 255
206 227 255
206 227 255
206 227 255
206 227 255
206 227 255
206 227 255
206 227 255
206 227 255
206 227 255
206 227 255
206 227 255
206 227 255
206 227 255
206 227 255
206 227 255
206 227 255
206 227 255
206 227 255
206 227 255
207 227 255
207 227 255
207 227 255
207 227 255
207 227 255
207 228 255
207 228 255
207 228 255
207 228 255
207 227 255
207 227 255
207 227 255
207 227 255
207 227 255
206 227 255
206 227 255
206 227 255
206 227 255
206 227 255
206 227 255
206 227 255
206 227 255
206 227 255
206 227 255
206 227 255
206 227 255
206 227 255
206 227 255
206 227 255
206 227 255
206 227 255
206 227 255
206 227 255
205 227 255
205 227 255
205 227 255
205 227 255
205 227 255
205 227 255
205 227 255
205 227 255
205 227 255
205 227 255
205 227 255
205 226 255
205 226 255
205 226 255
205 226 255
205 226 255
205 226 255
205 226 255
204 226 255
204 226 255
204 226 255
204 226 255
204 226 255
204 226 255
204 226 255
204 226 255
204 226 255
204 226 255
204 226 255
204 226 255
204 226 255
204 226 255
204 226 255
204 226 255
203 226 255
203 226 255
203 226 255
203 226 255
203 226 255
203 226 255
203 226 255
203 225 255
203 225 255
203 225 255
203 225 255
203 225 255
203 225 255
203 225 255
203 225 255
202 225 255
202 225 255
202 225 255
202 225 255
202 225 255
202 225 255
202 225 255
202 225 255
202 225 255
202 225 255
202 225 255
202 225 255
202 225 255
202 225 255
202 225 255
201 225 255
201 225 255
201 225 255
201 225 255
201 224 255
201 224 255
201 224 255
201 224 255
201 224 255
201 224 255
201 224 255
201 224 255
201 224 255
201 224 255
201 224 255
200 224 255
200 224 255
200 224 255
200 224 255
200 224 255
200 224 255
200 224 255
200 224 255
200 224 255
200 224 255
200 224 255
200 224 255
200 224 255
200 224 255
199 224 255
199 224 255
199 224 255
199 223 255
199 223 255
199 223 255
199 223 255
199 223 255
199 223 255
199 223 255
199 223 255
199 223 255
199 223 255
199 223 255
199 223 255
199 223 255
198 223 255
198 223 255
198 223 255
198 223 255
198 223 255
198 223 255
198 223 255
198 223 255
198 223 255
198 223 255
198 223 255
198 223 255
198 223 255
198 223 255
198 223 255
198 223 255
198 223 255
198 223 255
197 223 255
197 222 255
197 222 255
197 222 255
197 222 255
197 222 255
197 222 255
197 222 255
197 222 255
197 222 255
197 222 255
197 222 255
197 222 255
197 222 255
197 222 255
197 222 255
197 222 255
197 222 255
197 222 255
197 222 255
197 222 255
197 222 255
197 222 255
197 222 255
197 222 255
197 222 255
197 222 255
196 222 255
196 222 255
196 222 255
196 222 255
196 222 255
196 222 255
196 222 255
196 222 255
196 222 255
196 222 255
196 222 255
196 222 255
196 222 255
196 222 255
196 222 255
196 222 255
196 222 255
196 222 255
196 222 255
196 222 255
196 222 255
196 222 255
196 222 255
196 222 255
196 222 255
196 222 255
196 222 255
196 222 255
196 222 255
196 222 255
196 222 255
196 222 255
196 222 255
196 222 255
196 222 255
196 222 255
196 222 255
196 222 255
197 222 255
197 222 255
197 222 255
197 222 255
197 222 255
197 222 255
197 222 255
197 222 255
197 222 255
197 222 255
197 222 255
197 222 255
197 222 255
197 222 255
197 222 255
197 222 255
197 222 255
197 222 255
197 222 255
197 222 255
197 222 255
197 222 255
197 222 255
197 222 255
197 222 255
197 222 255
197 223 255
198 223 255
198 223 255
198 223 255
198 223 255
198 223 255
198 223 255
198 223 255
198 223 255
198 223 255
198 223 255
198 223 255
198 223 255
198 223 255
198 223 255
198 223 255
198 223 255
198 223 255
198 223 255
199 223 255
199 223 255
199 223 255
199 223 255
199 223 255
199 223 255
199 223 255
199 223 255
199 223 255
199 223 255
199 223 255
199 223 255
199 223 255
199 224 255
199 224 255
200 224 255
200 224 255
200 224 255
200 224 255
200 224 255
200 224 255
200 224 255
200 224 255
200 224 255
200 224 255
200 224 255
200 224 255
200 224 255
200 224 255
200 224 255
201 224 255
201 224 255
201 224 255
201 224 255
201 224 255
201 224 255
201 224 255
201 224 255
201 224 255
201 224 255
201 224 255
201 225 255
201 225 255
201 225 255
201 225 255
202 225 255
202 225 255
202 225 255
202 225 255
202 225 255
202 225 255
202 225 255
202 225 255
202 225 255
202 225 255
202 225 255
202 225 255
202 225 255
202 225 255
202 225 255
203 225 255
203 225 255
203 225 255
203 225 255
203 225 255
203 225 255
203 225 255
203 225 255
203 226 255
203 226 255
203 226 255
203 226 255
203 226 255
203 226 255
203 226 255
204 226 255
204 226 255
204 226 255
204 226 255
204 226 255
204 226 255
204 226 255
204 226 255
204 226 255
204 226 255
204 226 255
204 226 255
204 226 255
204 226 255
204 226 255
204 226 255
205 226 255
205 226 255
205 226 255
205 226 255
205 226 255
205 226 255
205 226 255
205 227 255
205 227 255
205 227 255
205 227 255
205 227 255
205 227 255
205 227 255
205 227 255
205 227 255
205 227 255
205 227 255
206 227 255
206 227 255
206 227 255
206 227 255
206 227 255
206 227 255
206 227 255
206 227 255
206 227 255
206 227 255
206 227 255
206 227 255
206 227 255
206 227 255
206 227 255
206 227 255
206 227 255
206 227 255
206 227 255
207 227 255
207 227 255
207 227 255
207 227 255
207 227 255
207 228 255
207 228 255
207 228 255
207 228 255
207 228 255
207 228 255
207 228 255
207 228 255
207 228 255
207 227 255
207 227 255
207 227 255
207 227 255
207 227 255
206 227 255
206 227 255
206 227 255
206 227 255
206 227 255
206 227 255
206 227 255
206 227 255
206 227 255
206 227 255
206 227 255
206 227 255
206 227 255
206 227 255
206 227 255
206 227 255
206 227 255
206 227 255
206 227 255
205 227 255
205 227 255
205 227 255
205 227 255
205 227 255
205 227 255
205 227 255
205 227 255
205 227 255
205 227 255
205 226 255
205 226 255
205 226 255
205 226 255
205 226 255
205 226 255
205 226 255
204 226 255
204 226 255
204 226 255
204 226 255
204 226 255
204 226 255
204 226 255
204 226 255
204 226 255
204 226 255
204 226 255
204 226 255
204 226 255
204 226 255
204 226 255
204 226 255
203 226 255
203 226 255
203 226 255
203 226 255
203 226 255
203 226 255
203 226 255
203 225 255
203 225 255
203 225 255
203 225 255
203 225 255
203 225 255
203 225 255
203 225 255
203 225 255
202 225 255
202 225 255
202 225 255
202 225 255
202 225 255
202 225 255
202 225 255
202 225 255
202 225 255
202 225 255
202 225 255
202 225 255
202 225 255
202 225 255
201 225 255
201 225 255
201 225 255
201 225 255
201 225 255
201 224 255
201 224 255
201 224 255
201 224 255
201 224 255
201 224 255
201 224 255
201 224 255
201 224 255
201 224 255
200 224 255
200 224 255
200 224 255
200 224 255
200 224 255
200 224 255
200 224 255
200 224 255
200 224 255
200 224 255
200 224 255
200 224 255
200 224 255
200 224 255
200 224 255
199 224 255
199 224 255
199 223 255
199 223 255
199 223 255
199 223 255
199 223 255
199 223 255
199 223 255
199 223 255
199 223 255
199 223 255
199 223 255
199 223 255
199 223 255
199 223 255
198 223 255
198 223 255
198 223 255
198 223 255
198 223 255
198 223 255
198 223 255
198 223 255
198 223 255
198 223 255
198 223 255
198 223 255
198 223 255
198 223 255
198 223 255
198 223 255
198 223 255
198 223 255
198 223 255
197 222 255
197 222 255
197 222 255
197 222 255
197 222 255
197 222 255
197 222 255
197 222 255
197 222 255
197 222 255
197 222 255
197 222 255
197 222 255
197 222 255
197 222 255
197 222 255
197 222 255
197 222 255
197 222 255
197 222 255
197 222 255
197 222 255
197 222 255
197 222 255
197 222 255
197 222 255
197 222 255
197 222 255
197 222 255
197 222 255
197 222 255
197 222 255
196 222 255
196 222 255
196 222 255
196 222 255
196 222 255
196 222 255
196 222 255
196 222 255
196 222 255
196 222 255
196 222 255
196 222 255
196 222 255
196 222 255
196 222 255
196 222 255
196 222 255
196 222 255
196 222 255
197 222 255
197 222 255
197 222 255
197 222 255
197 222 255
197 222 255
197 222 255
197 222 255
197 222 255
197 222 255
197 222 255
197 222 255
197 222 255
197 222 255
197 222 255
197 222 255
197 222 255
197 222 255
197 222 255
197 222 255
197 222 255
197 222 255
197 222 255
197 222 255
197 222 255
197 222 255
197 222 255
197 222 255
197 222 255
197 222 255
197 222 255
197 222 255
197 222 255
197 223 255
198 223 255
198 223 255
198 223 255
198 223 255
198 223 255
198 223 255
198 223 255
198 223 255
198 223 255
198 223 255
198 223 255
198 223 255
198 223 255
198 223 255
198 223 255
198 223 255
198 223 255
198 223 255
199 223 255
199 223 255
199 223 255
199 223 255
199 223 255
199 223 255
199 223 255
199 223 255
199 223 255
199 223 255
199 223 255
199 223 255
199 223 255
199 223 255
199 224 255
199 224 255
200 224 255
200 224 255
200 224 255
200 224 255
200 224 255
200 224 255
200 224 255
200 224 255
200 224 255
200 224 255
200 224 255
200 224 255
200 224 255
200 224 255
200 224 255
201 224 255
201 224 255
201 224 255
201 224 255
201 224 255
201 224 255
201 224 255
201 224 255
201 224 255
201 224 255
201 225 255
201 225 255
201 225 255
201 225 255
202 225 255
202 225 255
202 225 255
202 225 255
202 225 255
202 225 255
202 225 255
202 225 255
202 225 255
202 225 255
202 225 255
202 225 255
202 225 255
202 225 255
202 225 255
203 225 255
203 225 255
203 225 255
203 225 255
203 225 255
203 225 255
203 225 255
203 225 255
203 225 255
203 226 255
203 226 255
203 226 255
203 226 255
203 226 255
203 226 255
203 226 255
204 226 255
204 226 255
204 226 255
204 226 255
204 226 255
204 226 255
204 226 255
204 226 255
204 226 255
204 226 255
204 226 255
204 226 255
204 226 255
204 226 255
204 226 255
204 226 255
205 226 255
205 226 255
205 226 255
205 226 255
205 226 255
205 226 255
205 226 255
205 227 255
205 227 255
205 227 255
205 227 255
205 227 255
205 227 255
205 227 255
205 227 255
205 227 255
205 227 255
206 227 255
206 227 255
206 227 255
206 227 255
206 227 255
206 227 255
206 227 255
206 227 255
206 227 255
206 227 255
206 227 255
206 227 255
206 227 255
206 227 255
206 227 255
206 227 255
206 227 255
206 227 255
206 227 255
207 227 255
207 227 255
207 227 255
207 227 255
207 227 255
207 228 255
207 228 255
207 228 255
207 228 255
207 228 255
207 228 255
207 228 255
207 228 255
207 228 255
207 228 255
207 228 255
207 228 255
207 228 255
207 228 255
207 228 255
207 227 255
207 227 255
207 227 255
207 227 255
207 227 255
206 227 255
206 227 255
206 227 255
206 227 255
206 227 255
206 227 255
206 227 255
206 227 255
206 227 255
206 227 255
206 227 255
206 227 255
206 227 255
206 227 255
206 227 255
206 227 255
206 227 255
206 227 255
206 227 255
205 227 255
205 227 255
205 227 255
205 227 255
205 227 255
205 227 255
205 227 255
205 227 255
205 227 255
205 227 255
205 226 255
205 226 255
205 226 255
205 226 255
205 226 255
205 226 255
205 226 255
204 226 255
204 226 255
204 226 255
204 226 255
204 226 255
204 226 255
204 226 255
204 226 255
204 226 255
204 226 255
204 226 255
204 226 255
204 226 255
204 226 255
204 226 255
204 226 255
203 226 255
203 226 255
203 226 255
203 226 255
203 226 255
203 226 255
203 226 255
203 225 255
203 225 255
203 225 255
203 225 255
203 225 255
203 225 255
203 225 255
203 225 255
202 225 255
202 225 255
202 225 255
202 225 255
202 225 255
202 225 255
202 225 255
202 225 255
202 225 255
202 225 255
202 225 255
202 225 255
202 225 255
202 225 255
202 225 255
201 225 255
201 225 255
201 225 255
201 225 255
201 224 255
201 224 255
201 224 255
201 224 255
201 224 255
201 224 255
201 224 255
201 224 255
201 224 255
201 224 255
201 224 255
200 224 255
200 224 255
200 224 255
200 224 255
200 224 255
200 224 255
200 224 255
200 224 255
200 224 255
200 224 255
200 224 255
200 224 255
200 224 255
200 224 255
200 224 255
199 224 255
199 224 255
199 223 255
199 223 255
199 223 255
199 223 255
199 223 255
199 223 255
199 223 255
199 223 255
199 223 255
199 223 255
199 223 255
199 223 255
199 223 255
199 223 255
198 223 255
198 223 255
198 223 255
198 223 255
198 223 255
198 223 255
198 223 255
198 223 255
198 223 255
198 223 255
198 223 255
198 223 255
198 223 255
198 223 255
198 223 255
198 223 255
198 223 255
198 223 255
198 223 255
197 223 255
197 222 255
197 222 255
197 222 255
197 222 255
197 222 255
197 222 255
197 222 255
197 222 255
197 222 255
197 222 255
197 222 255
197 222 255
197 222 255
197 222 255
197 222 255
197 222 255
197 222 255
197 222 255
197 222 255
197 222 255
197 222 255
197 222 255
197 222 255
197 222 255
197 222 255
197 222 255
197 222 255
197 222 255
197 222 255
197 222 255
197 222 255
197 222 255
197 222 255
197 222 255
197 222 255
197 222 255
197 222 255
197 222 255
197 222 255
197 222 255
197 222 255
197 222 255
197 222 255
197 222 255
197 222 255
197 222 255
197 222 255
197 222 255
197 222 255
197 222 255
197 222 255
197 222 255
197 222 255
197 222 255
197 222 255
197 222 255
197 222 255
197 222 255
197 222 255
197 222 255
197 222 255
197 222 255
197 222 255
197 222 255
197 222 255
197 222 255
197 222 255
197 222 255
197 222 255
197 222 255
197 222 255
197 222 255
197 222 255
197 222 255
197 222 255
197 222 255
198 223 255
198 223 255
198 223 255
198 223 255
198 223 255
198 223 255
198 223 255
198 223 255
198 223 255
198 223 255
198 223 255
198 223 255
198 223 255
198 223 255
198 223 255
198 223 255
198 223 255
198 223 255
198 223 255
198 223 255
199 223 255
199 223 255
199 223 255
199 223 255
199 223 255
199 223 255
199 223 255
199 223 255
199 223 255
199 223 255
199 223 255
199 223 255
199 223 255
199 223 255
199 224 255
199 224 255
200 224 255
200 224 255
200 224 255
200 224 255
200 224 255
200 224 255
200 224 255
200 224 255
200 224 255
200 224 255
200 224 255
200 224 255
200 224 255
200 224 255
200 224 255
201 224 255
201 224 255
201 224 255
201 224 255
201 224 255
201 224 255
201 224 255
201 224 255
201 224 255
201 224 255
201 224 255
201 225 255
201 225 255
201 225 255
201 225 255
202 225 255
202 225 255
202 225 255
202 225 255
202 225 255
202 225 255
202 225 255
202 225 255
202 225 255
202 225 255
202 225 255
202 225 255
202 225 255
202 225 255
202 225 255
203 225 255
203 225 255
203 225 255
203 225 255
203 225 255
203 225 255
203 225 255
203 225 255
203 226 255
203 226 255
203 226 255
203 226 255
203 226 255
203 226 255
203 226 255
204 226 255
204 226 255
204 226 255
204 226 255
204 226 255
204 226 255
204 226 255
204 226 255
204 226 255
204 226 255
204 226 255
204 226 255
204 226 255
204 226 255
204 226 255
204 226 255
205 226 255
205 226 255
205 226 255
205 226 255
205 226 255
205 226 255
205 226 255
205 227 255
205 227 255
205 227 255
205 227 255
205 227 255
205 227 255
205 227 255
205 227 255
205 227 255
205 227 255
205 227 255
206 227 255
206 227 255
206 227 255
206 227 255
206 227 255
206 227 255
206 227 255
206 227 255
206 227 255
206 227 255
206 227 255
206 227 255
206 227 255
206 227 255
206 227 255
206 227 255
206 227 255
206 227 255
207 227 255
207 227 255
207 227 255
207 227 255
207 227 255
207 228 255
207 228 255
207 228 255
207 228 255
207 228 255
207 228 255
207 228 255
207 228 255
207 228 255
207 228 255
207 228 255
207 228 255
207 228 255
207 228 255
207 228 255
207 228 255
207 228 255
207 228 255
207 228 255
207 228 255
207 228 255
207 227 255
207 227 255
207 227 255
207 227 255
207 227 255
206 227 255
206 227 255
206 227 255
206 227 255
206 227 255
206 227 255
206 227 255
206 227 255
206 227 255
206 227 255
206 227 255
206 227 255
206 227 255
206 227 255
206 227 255
206 227 255
206 227 255
206 227 255
205 227 255
205 227 255
205 227 255
205 227 255
205 227 255
205 227 255
205 227 255
205 227 255
205 227 255
205 227 255
205 227 255
205 226 255
205 226 255
205 226 255
205 226 255
205 226 255
205 226 255
205 226 255
204 226 255
204 226 255
204 226 255
204 226 255
204 226 255
204 226 255
204 226 255
204 226 255
204 226 255
204 226 255
204 226 255
204 226 255
204 226 255
204 226 255
204 226 255
204 226 255
203 226 255
203 226 255
203 226 255
203 226 255
203 226 255
203 226 255
203 225 255
203 225 255
203 225 255
203 225 255
203 225 255
203 225 255
203 225 255
203 225 255
203 225 255
202 225 255
202 225 255
202 225 255
202 225 255
202 225 255
202 225 255
202 225 255
202 225 255
202 225 255
202 225 255
202 225 255
202 225 255
202 225 255
202 225 255
201 225 255
201 225 255
201 225 255
201 225 255
201 225 255
201 224 255
201 224 255
201 224 255
201 224 255
201 224 255
201 224 255
201 224 255
201 224 255
201 224 255
201 224 255
200 224 255
200 224 255
200 224 255
200 224 255
200 224 255
200 224 255
200 224 255
200 224 255
200 224 255
200 224 255
200 224 255
200 224 255
200 224 255
200 224 255
200 224 255
199 224 255
199 224 255
199 224 255
199 223 255
199 223 255
199 223 255
199 223 255
199 223 255
199 223 255
199 223 255
199 223 255
199 223 255
199 223 255
199 223 255
199 223 255
199 223 255
199 223 255
198 223 255
198 223 255
198 223 255
198 223 255
198 223 255
198 223 255
198 223 255
198 223 255
198 223 255
198 223 255
198 223 255
198 223 255
198 223 255
198 223 255
198 223 255
198 223 255
198 223 255
198 223 255
198 223 255
198 223 255
198 223 255
197 223 255
197 222 255
197 222 255
197 222 255
197 222 255
197 222 255
197 222 255
197 222 255
197 222 255
197 222 255
197 222 255
197 222 255
197 222 255
197 222 255
197 222 255
197 222 255
197 222 255
197 222 255
197 222 255
197 222 255
197 222 255
197 222 255
197 222 255
197 222 255
197 222 255
197 222 255
197 222 255
197 222 255
197 222 255
197 222 255
197 222 255
197 222 255
197 222 255
197 222 255
197 222 255
197 222 255
197 222 255
197 222 255
197 222 255
197 222 255
197 222 255
197 222 255
197 222 255
197 222 255
197 222 255
197 222 255
197 222 255
197 222 255
197 222 255
197 222 255
197 222 255
197 222 255
197 222 255
197 222 255
197 222 255
197 222 255
197 222 255
197 222 255
197 222 255
197 222 255
197 222 255
197 222 255
197 222 255
197 222 255
197 222 255
197 222 255
197 222 255
197 222 255
198 223 255
198 223 255
198 223 255
198 223 255
198 223 255
198 223 255
198 223 255
198 223 255
198 223 255
198 223 255
198 223 255
198 223 255
198 223 255
198 223 255
198 223 255
198 223 255
198 223 255
198 223 255
198 223 255
198 223 255
198 223 255
199 223 255
199 223 255
199 223 255
199 223 255
199 223 255
199 223 255
199 223 255
199 223 255
199 223 255
199 223 255
199 223 255
199 223 255
199 223 255
199 223 255
199 224 255
199 224 255
199 224 255
200 224 255
200 224 255
200 224 255
200 224 255
200 224 255
200 224 255
200 224 255
200 224 255
200 224 255
200 224 255
200 224 255
200 224 255
200 224 255
200 224 255
200 224 255
201 224 255
201 224 255
201 224 255
201 224 255
201 224 255
201 224 255
201 224 255
201 224 255
201 224 255
201 224 255
201 225 255
201 225 255
201 225 255
201 225 255
202 225 255
202 225 255
202 225 255
202 225 255
202 225 255
202 225 255
202 225 255
202 225 255
202 225 255
202 225 255
202 225 255
202 225 255
202 225 255
202 225 255
202 225 255
203 225 255
203 225 255
203 225 255
203 225 255
203 225 255
203 225 255
203 225 255
203 225 255
203 225 255
203 226 255
203 226 255
203 226 255
203 226 255
203 226 255
203 226 255
204 226 255
204 226 255
204 226 255
204 226 255
204 226 255
204 226 255
204 226 255
204 226 255
204 226 255
204 226 255
204 226 255
204 226 255
204 226 255
204 226 255
204 226 255
204 226 255
204 226 255
205 226 255
205 226 255
205 226 255
205 226 255
205 226 255
205 226 255
205 227 255
205 227 255
205 227 255
205 227 255
205 227 255
205 227 255
205 227 255
205 227 255
205 227 255
205 227 255
205 227 255
206 227 255
206 227 255
206 227 255
206 227 255
206 227 255
206 227 255
206 227 255
206 227 255
206 227 255
206 227 255
206 227 255
206 227 255
206 227 255
206 227 255
206 227 255
206 227 255
206 227 255
206 227 255
207 227 255
207 227 255
207 227 255
207 227 255
207 227 255
207 228 255
207 228 255
207 228 255
207 228 255
207 228 255
207 228 255
207 228 255
207 228 255
207 228 255
207 228 255
207 228 255
207 228 255
207 228 255
207 228 255
207 228 255
207 228 255
207 228 255
207 228 255
207 228 255
207 228 255
207 228 255
207 228 255
207 228 255
207 228 255
207 228 255
207 228 255
207 228 255
207 227 255
207 227 255
207 227 255
207 227 255
207 227 255
206 227 255
206 227 255
206 227 255
206 227 255
206 227 255
206 227 255
206 227 255
206 227 255
206 227 255
206 227 255
206 227 255
206 227 255
206 227 255
206 227 255
206 227 255
206 227 255
206 227 255
206 227 255
205 227 255
205 227 255
205 227 255
205 227 255
205 227 255
205 227 255
205 227 255
205 227 255
205 227 255
205 227 255
205 226 255
205 226 255
205 226 255
205 226 255
205 226 255
205 226 255
205 226 255
204 226 255
204 226 255
204 226 255
204 226 255
204 226 255
204 226 255
204 226 255
204 226 255
204 226 255
204 226 255
204 226 255
204 226 255
204 226 255
204 226 255
204 226 255
204 226 255
203 226 255
203 226 255
203 226 255
203 226 255
203 226 255
203 226 255
203 226 255
203 225 255
203 225 255
203 225 255
203 225 255
203 225 255
203 225 255
203 225 255
203 225 255
202 225 255
202 225 255
202 225 255
202 225 255
202 225 255
202 225 255
202 225 255
202 225 255
202 225 255
202 225 255
202 225 255
202 225 255
202 225 255
202 225 255
202 225 255
201 225 255
201 225 255
201 225 255
201 225 255
201 224 255
201 224 255
201 224 255
201 224 255
201 224 255
201 224 255
201 224 255
201 224 255
201 224 255
201 224 255
201 224 255
200 224 255
200 224 255
200 224 255
200 224 255
200 224 255
200 224 255
200 224 255
200 224 255
200 224 255
200 224 255
200 224 255
200 224 255
200 224 255
200 224 255
200 224 255
199 224 255
199 224 255
199 224 255
199 223 255
199 223 255
199 223 255
199 223 255
199 223 255
199 223 255
199 223 255
199 223 255
199 223 255
199 223 255
199 223 255
199 223 255
199 223 255
199 223 255
198 223 255
198 223 255
198 223 255
198 223 255
198 223 255
198 223 255
198 223 255
198 223 255
198 223 255
198 223 255
198 223 255
198 223 255
198 223 255
198 223 255
198 223 255
198 223 255
198 223 255
198 223 255
198 223 255
198 223 255
198 223 255
198 223 255
197 223 255
197 223 255
197 222 255
197 222 255
197 222 255
197 222 255
197 222 255
197 222 255
197 222 255
197 222 255
197 222 255
197 222 255
197 222 255
197 222 255
197 222 255
197 222 255
197 222 255
197 222 255
197 222 255
197 222 255
197 222 255
197 222 255
197 222 255
197 222 255
197 222 255
197 222 255
197 222 255
197 222 255
197 222 255
197 222 255
197 222 255
197 222 255
197 222 255
197 222 255
197 222 255
197 222 255
197 222 255
197 222 255
197 222 255
197 222 255
197 222 255
197 222 255
197 222 255
197 222 255
197 222 255
197 222 255
197 222 255
197 222 255
197 222 255
197 222 255
197 222 255
197 222 255
197 222 255
197 222 255
197 222 255
197 222 255
197 222 255
197 222 255
197 222 255
198 223 255
198 223 255
198 223 255
198 223 255
198 223 255
198 223 255
198 223 255
198 223 255
198 223 255
198 223 255
198 223 255
198 223 255
198 223 255
198 223 255
198 223 255
198 223 255
198 223 255
198 223 255
198 223 255
198 223 255
198 223 255
198 223 255
198 223 255
199 223 255
199 223 255
199 223 255
199 223 255
199 223 255
199 223 255
199 223 255
199 223 255
199 223 255
199 223 255
199 223 255
199 223 255
199 223 255
199 223 255
199 224 255
199 224 255
199 224 255
200 224 255
200 224 255
200 224 255
200 224 255
200 224 255
200 224 255
200 224 255
200 224 255
200 224 255
200 224 255
200 224 255
200 224 255
200 224 255
200 224 255
200 224 255
201 224 255
201 224 255
201 224 255
201 224 255
201 224 255
201 224 255
201 224 255
201 224 255
201 224 255
201 224 255
201 224 255
201 225 255
201 225 255
201 225 255
201 225 255
202 225 255
202 225 255
202 225 255
202 225 255
202 225 255
202 225 255
202 225 255
202 225 255
202 225 255
202 225 255
202 225 255
202 225 255
202 225 255
202 225 255
202 225 255
203 225 255
203 225 255
203 225 255
203 225 255
203 225 255
203 225 255
203 225 255
203 225 255
203 226 255
203 226 255
203 226 255
203 226 255
203 226 255
203 226 255
203 226 255
204 226 255
204 226 255
204 226 255
204 226 255
204 226 255
204 226 255
204 226 255
204 226 255
204 226 255
204 226 255
204 226 255
204 226 255
204 226 255
204 226 255
204 226 255
204 226 255
205 226 255
205 226 255
205 226 255
205 226 255
205 226 255
205 226 255
205 226 255
205 227 255
205 227 255
205 227 255
205 227 255
205 227 255
205 227 255
205 227 255
205 227 255
205 227 255
205 227 255
206 227 255
206 227 255
206 227 255
206 227 255
206 227 255
206 227 255
206 227 255
206 227 255
206 227 255
206 227 255
206 227 255
206 227 255
206 227 255
206 227 255
206 227 255
206 227 255
206 227 255
206 227 255
207 227 255
207 227 255
207 227 255
207 227 255
207 227 255
207 228 255
207 228 255
207 228 255
207 228 255
207 228 255
207 228 255
207 228 255
207 228 255
207 228 255
207 228 255
207 228 255
207 228 255
207 228 255
207 228 255
207 228 255
208 228 255
208 228 255
207 228 255
207 228 255
207 228 255
207 228 255
207 228 255
207 228 255
207 228 255
207 228 255
207 228 255
207 228 255
207 228 255
207 228 255
207 228 255
207 228 255
207 228 255
207 228 255
207 227 255
207 227 255
207 227 255
207 227 255
206 227 255
206 227 255
206 227 255
206 227 255
206 227 255
206 227 255
206 227 255
206 227 255
206 227 255
206 227 255
206 227 255
206 227 255
206 227 255
206 227 255
206 227 255
206 227 255
206 227 255
206 227 255
206 227 255
205 227 255
205 227 255
205 227 255
205 227 255
205 227 255
205 227 255
205 227 255
205 227 255
205 227 255
205 227 255
205 226 255
205 226 255
205 226 255
205 226 255
205 226 255
205 226 255
205 226 255
204 226 255
204 226 255
204 226 255
204 226 255
204 226 255
204 226 255
204 226 255
204 226 255
204 226 255
204 226 255
204 226 255
204 226 255
204 226 255
204 226 255
204 226 255
204 226 255
203 226 255
203 226 255
203 226 255
203 226 255
203 226 255
203 226 255
203 225 255
203 225 255
203 225 255
203 225 255
203 225 255
203 225 255
203 225 255
203 225 255
203 225 255
202 225 255
202 225 255
202 225 255
202 225 255
202 225 255
202 225 255
202 225 255
202 225 255
202 225 255
202 225 255
202 225 255
202 225 255
202 225 255
202 225 255
202 225 255
201 225 255
201 225 255
201 225 255
201 225 255
201 224 255
201 224 255
201 224 255
201 224 255
201 224 255
201 224 255
201 224 255
201 224 255
201 224 255
201 224 255
200 224 255
200 224 255
200 224 255
200 224 255
200 224 255
200 224 255
200 224 255
200 224 255
200 224 255
200 224 255
200 224 255
200 224 255
200 224 255
200 224 255
200 224 255
200 224 255
199 224 255
199 224 255
199 224 255
199 223 255
199 223 255
199 223 255
199 223 255
199 223 255
199 223 255
199 223 255
199 223 255
199 223 255
199 223 255
199 223 255
199 223 255
199 223 255
199 223 255
199 223 255
198 223 255
198 223 255
198 223 255
198 223 255
198 223 255
198 223 255
198 223 255
198 223 255
198 223 255
198 223 255
198 223 255
198 223 255
198 223 255
198 223 255
198 223 255
198 223 255
198 223 255
198 223 255
198 223 255
198 223 255
198 223 255
198 223 255
198 223 255
198 223 255
197 223 255
197 222 255
197 222 255
197 222 255
197 222 255
197 222 255
197 222 255
197 222 255
197 222 255
197 222 255
197 222 255
197 222 255
197 222 255
197 222 255
197 222 255
197 222 255
197 222 255
197 222 255
197 222 255
197 222 255
197 222 255
197 222 255
197 222 255
197 222 255
197 222 255
197 222 255
197 222 255
197 222 255
197 222 255
197 222 255
197 222 255
197 222 255
197 222 255
197 222 255
197 222 255
197 222 255
197 222 255
197 222 255
197 222 255
197 222 255
197 222 255
197 222 255
197 222 255
197 222 255
197 222 255
197 222 255
197 223 255
197 223 255
198 223 255
198 223 255
198 223 255
198 223 255
198 223 255
198 223 255
198 223 255
198 223 255
198 223 255
198 223 255
198 223 255
198 223 255
198 223 255
198 223 255
198 223 255
198 223 255
198 223 255
198 223 255
198 223 255
198 223 255
198 223 255
198 223 255
198 223 255
198 223 255
198 223 255
199 223 255
199 223 255
199 223 255
199 223 255
199 223 255
199 223 255
199 223 255
199 223 255
199 223 255
199 223 255
199 223 255
199 223 255
199 223 255
199 223 255
199 224 255
199 224 255
199 224 255
200 224 255
200 224 255
200 224 255
200 224 255
200 224 255
200 224 255
200 224 255
200 224 255
200 224 255
200 224 255
200 224 255
200 224 255
200 224 255
200 224 255
200 224 255
200 224 255
201 224 255
201 224 255
201 224 255
201 224 255
201 224 255
201 224 255
201 224 255
201 224 255
201 224 255
201 224 255
201 225 255
201 225 255
201 225 255
201 225 255
201 225 255
202 225 255
202 225 255
202 225 255
202 225 255
202 225 255
202 225 255
202 225 255
202 225 255
202 225 255
202 225 255
202 225 255
202 225 255
202 225 255
202 225 255
203 225 255
203 225 255
203 225 255
203 225 255
203 225 255
203 225 255
203 225 255
203 225 255
203 225 255
203 226 255
203 226 255
203 226 255
203 226 255
203 226 255
203 226 255
204 226 255
204 226 255
204 226 255
204 226 255
204 226 255
204 226 255
204 226 255
204 226 255
204 226 255
204 226 255
204 226 255
204 226 255
204 226 255
204 226 255
204 226 255
204 226 255
205 226 255
205 226 255
205 226 255
205 226 255
205 226 255
205 226 255
205 226 255
205 227 255
205 227 255
205 227 255
205 227 255
205 227 255
205 227 255
205 227 255
205 227 255
205 227 255
205 227 255
206 227 255
206 227 255
206 227 255
206 227 255
206 227 255
206 227 255
206 227 255
206 227 255
206 227 255
206 227 255
206 227 255
206 227 255
206 227 255
206 227 255
206 227 255
206 227 255
206 227 255
206 227 255
206 227 255
207 227 255
207 227 255
207 227 255
207 227 255
207 228 255
207 228 255
207 228 255
207 228 255
207 228 255
207 228 255
207 228 255
207 228 255
207 228 255
207 228 255
207 228 255
207 228 255
207 228 255
207 228 255
207 228 255
207 228 255
208 228 255
208 228 255
208 228 255
208 228 255
208 228 255
208 228 255
208 228 255
207 228 255
207 228 255
207 228 255
207 228 255
207 228 255
207 228 255
207 228 255
207 228 255
207 228 255
207 228 255
207 228 255
207 228 255
207 228 255
207 228 255
207 228 255
207 227 255
207 227 255
207 227 255
207 227 255
207 227 255
206 227 255
206 227 255
206 227 255
206 227 255
206 227 255
206 227 255
206 227 255
206 227 255
206 227 255
206 227 255
206 227 255
206 227 255
206 227 255
206 227 255
206 227 255
206 227 255
206 227 255
206 227 255
205 227 255
205 227 255
205 227 255
205 227 255
205 227 255
205 227 255
205 227 255
205 227 255
205 227 255
205 227 255
205 227 255
205 226 255
205 226 255
205 226 255
205 226 255
205 226 255
205 226 255
204 226 255
204 226 255
204 226 255
204 226 255
204 226 255
204 226 255
204 226 255
204 226 255
204 226 255
204 226 255
204 226 255
204 226 255
204 226 255
204 226 255
204 226 255
204 226 255
203 226 255
203 226 255
203 226 255
203 226 255
203 226 255
203 226 255
203 226 255
203 225 255
203 225 255
203 225 255
203 225 255
203 225 255
203 225 255
203 225 255
203 225 255
202 225 255
202 225 255
202 225 255
202 225 255
202 225 255
202 225 255
202 225 255
202 225 255
202 225 255
202 225 255
202 225 255
202 225 255
202 225 255
202 225 255
202 225 255
201 225 255
201 225 255
201 225 255
201 225 255
201 225 255
201 224 255
201 224 255
201 224 255
201 224 255
201 224 255
201 224 255
201 224 255
201 224 255
201 224 255
201 224 255
200 224 255
200 224 255
200 224 255
200 224 255
200 224 255
200 224 255
200 224 255
200 224 255
200 224 255
200 224 255
200 224 255
200 224 255
200 224 255
200 224 255
200 224 255
200 224 255
199 224 255
199 224 255
199 224 255
199 223 255
199 223 255
199 223 255
199 223 255
199 223 255
199 223 255
199 223 255
199 223 255
199 223 255
199 223 255
199 223 255
199 223 255
199 223 255
199 223 255
199 223 255
198 223 255
198 223 255
198 223 255
198 223 255
198 223 255
198 223 255
198 223 255
198 223 255
198 223 255
198 223 255
198 223 255
198 223 255
198 223 255
198 223 255
198 223 255
198 223 255
198 223 255
198 223 255
198 223 255
198 223 255
198 223 255
198 223 255
198 223 255
198 223 255
198 223 255
198 223 255
198 223 255
198 223 255
198 223 255
197 223 255
197 222 255
197 222 255
197 222 255
197 222 255
197 222 255
197 222 255
197 222 255
197 222 255
197 222 255
197 222 255
197 222 255
197 222 255
197 222 255
197 222 255
197 222 255
197 222 255
197 222 255
197 222 255
197 222 255
197 222 255
197 222 255
197 222 255
197 222 255
197 222 255
197 222 255
197 222 255
197 222 255
197 222 255
197 222 255
197 222 255
197 223 255
198 223 255
198 223 255
198 223 255
198 223 255
198 223 255
198 223 255
198 223 255
198 223 255
198 223 255
198 223 255
198 223 255
198 223 255
198 223 255
198 223 255
198 223 255
198 223 255
198 223 255
198 223 255
198 223 255
198 223 255
198 223 255
198 223 255
198 223 255
198 223 255
198 223 255
198 223 255
198 223 255
198 223 255
198 223 255
199 223 255
199 223 255
199 223 255
199 223 255
199 223 255
199 223 255
199 223 255
199 223 255
199 223 255
199 223 255
199 223 255
199 223 255
199 223 255
199 223 255
199 223 255
199 224 255
199 224 255
199 224 255
200 224 255
200 224 255
200 224 255
200 224 255
200 224 255
200 224 255
200 224 255
200 224 255
200 224 255
200 224 255
200 224 255
200 224 255
200 224 255
200 224 255
200 224 255
200 224 255
201 224 255
201 224 255
201 224 255
201 224 255
201 224 255
201 224 255
201 224 255
201 224 255
201 224 255
201 224 255
201 225 255
201 225 255
201 225 255
201 225 255
201 225 255
202 225 255
202 225 255
202 225 255
202 225 255
202 225 255
202 225 255
202 225 255
202 225 255
202 225 255
202 225 255
202 225 255
202 225 255
202 225 255
202 225 255
202 225 255
203 225 255
203 225 255
203 225 255
203 225 255
203 225 255
203 225 255
203 225 255
203 225 255
203 226 255
203 226 255
203 226 255
203 226 255
203 226 255
203 226 255
203 226 255
204 226 255
204 226 255
204 226 255
204 226 255
204 226 255
204 226 255
204 226 255
204 226 255
204 226 255
204 226 255
204 226 255
204 226 255
204 226 255
204 226 255
204 226 255
204 226 255
205 226 255
205 226 255
205 226 255
205 226 255
205 226 255
205 226 255
205 227 255
205 227 255
205 227 255
205 227 255
205 227 255
205 227 255
205 227 255
205 227 255
205 227 255
205 227 255
205 227 255
206 227 255
206 227 255
206 227 255
206 227 255
206 227 255
206 227 255
206 227 255
206 227 255
206 227 255
206 227 255
206 227 255
206 227 255
206 227 255
206 227 255
206 227 255
206 227 255
206 227 255
206 227 255
207 227 255
207 227 255
207 227 255
207 227 255
207 228 255
207 228 255
207 228 255
207 228 255
207 228 255
207 228 255
207 228 255
207 228 255
207 228 255
207 228 255
207 228 255
207 228 255
207 228 255
207 228 255
207 228 255
207 228 255
208 228 255
208 228 255
208 228 255
208 228 255
208 228 255
208 228 255
208 228 255
208 228 255
208 228 255
208 228 255
208 228 255
208 228 255
208 228 255
207 228 255
207 228 255
207 228 255
207 228 255
207 228 255
207 228 255
207 228 255
207 228 255
207 228 255
207 228 255
207 228 255
207 228 255
207 228 255
207 228 255
207 228 255
207 228 255
207 227 255
207 227 255
207 227 255
207 227 255
206 227 255
206 227 255
206 227 255
206 227 255
206 227 255
206 227 255
206 227 255
206 227 255
206 227 255
206 227 255
206 227 255
206 227 255
206 227 255
206 227 255
206 227 255
206 227 255
206 227 255
206 227 255
205 227 255
205 227 255
205 227 255
205 227 255
205 227 255
205 227 255
205 227 255
205 227 255
205 227 255
205 227 255
205 226 255
205 226 255
205 226 255
205 226 255
205 226 255
205 226 255
205 226 255
204 226 255
204 226 255
204 226 255
204 226 255
204 226 255
204 226 255
204 226 255
204 226 255
204 226 255
204 226 255
204 226 255
204 226 255
204 226 255
204 226 255
204 226 255
204 226 255
203 226 255
203 226 255
203 226 255
203 226 255
203 226 255
203 226 255
203 225 255
203 225 255
203 225 255
203 225 255
203 225 255
203 225 255
203 225 255
203 225 255
203 225 255
202 225 255
202 225 255
202 225 255
202 225 255
202 225 255
202 225 255
202 225 255
202 225 255
202 225 255
202 225 255
202 225 255
202 225 255
202 225 255
202 225 255
202 225 255
201 225 255
201 225 255
201 225 255
201 225 255
201 224 255
201 224 255
201 224 255
201 224 255
201 224 255
201 224 255
201 224 255
201 224 255
201 224 255
201 224 255
201 224 255
200 224 255
200 224 255
200 224 255
200 224 255
200 224 255
200 224 255
200 224 255
200 224 255
200 224 255
200 224 255
200 224 255
200 224 255
200 224 255
200 224 255
200 224 255
200 224 255
199 224 255
199 224 255
199 224 255
199 223 255
199 223 255
199 223 255
199 223 255
199 223 255
199 223 255
199 223 255
199 223 255
199 223 255
199 223 255
199 223 255
199 223 255
199 223 255
199 223 255
199 223 255
199 223 255
198 223 255
198 223 255
198 223 255
198 223 255
198 223 255
198 223 255
198 223 255
198 223 255
198 223 255
198 223 255
198 223 255
198 223 255
198 223 255
198 223 255
198 223 255
198 223 255
198 223 255
198 223 255
198 223 255
198 223 255
198 223 255
198 223 255
198 223 255
198 223 255
198 223 255
198 223 255
198 223 255
198 223 255
198 223 255
198 223 255
198 223 255
198 223 255
198 223 255
198 223 255
198 223 255
198 223 255
198 223 255
198 223 255
198 223 255
198 223 255
198 223 255
198 223 255
198 223 255
198 223 255
198 223 255
198 223 255
198 223 255
198 223 255
198 223 255
198 223 255
198 223 255
198 223 255
198 223 255
198 223 255
198 223 255
198 223 255
198 223 255
198 223 255
198 223 255
198 223 255
198 223 255
198 223 255
198 223 255
198 223 255
198 223 255
198 223 255
198 223 255
198 223 255
198 223 255
198 223 255
198 223 255
198 223 255
198 223 255
198 223 255
198 223 255
198 223 255
198 223 255
198 223 255
198 223 255
198 223 255
198 223 255
198 223 255
199 223 255
199 223 255
199 223 255
199 223 255
199 223 255
199 223 255
199 223 255
199 223 255
199 223 255
199 223 255
199 223 255
199 223 255
199 223 255
199 223 255
199 223 255
199 223 255
199 224 255
199 224 255
199 224 255
200 224 255
200 224 255
200 224 255
200 224 255
200 224 255
200 224 255
200 224 255
200 224 255
200 224 255
200 224 255
200 224 255
200 224 255
200 224 255
200 224 255
200 224 255
200 224 255
201 224 255
201 224 255
201 224 255
201 224 255
201 224 255
201 224 255
201 224 255
201 224 255
201 224 255
201 224 255
201 224 255
201 225 255
201 225 255
201 225 255
201 225 255
202 225 255
202 225 255
202 225 255
202 225 255
202 225 255
202 225 255
202 225 255
202 225 255
202 225 255
202 225 255
202 225 255
202 225 255
202 225 255
202 225 255
202 225 255
203 225 255
203 225 255
203 225 255
203 225 255
203 225 255
203 225 255
203 225 255
203 225 255
203 226 255
203 226 255
203 226 255
203 226 255
203 226 255
203 226 255
203 226 255
204 226 255
204 226 255
204 226 255
204 226 255
204 226 255
204 226 255
204 226 255
204 226 255
204 226 255
204 226 255
204 226 255
204 226 255
204 226 255
204 226 255
204 226 255
204 226 255
205 226 255
205 226 255
205 226 255
205 226 255
205 226 255
205 226 255
205 226 255
205 227 255
205 227 255
205 227 255
205 227 255
205 227 255
205 227 255
205 227 255
205 227 255
205 227 255
205 227 255
206 227 255
206 227 255
206 227 255
206 227 255
206 227 255
206 227 255
206 227 255
206 227 255
206 227 255
206 227 255
206 227 255
206 227 255
206 227 255
206 227 255
206 227 255
206 227 255
206 227 255
206 227 255
207 227 255
207 227 255
207 227 255
207 227 255
207 227 255
207 228 255
207 228 255
207 228 255
207 228 255
207 228 255
207 228 255
207 228 255
207 228 255
207 228 255
207 228 255
207 228 255
207 228 255
207 228 255
207 228 255
207 228 255
208 228 255
208 228 255
208 228 255
208 228 255
208 228 255
208 228 255
208 228 255
208 228 255
208 228 255
208 228 255
208 228 255
208 228 255
208 228 255
208 228 255
208 228 255
208 228 255
208 228 255
208 228 255
208 228 255
207 228 255
207 228 255
207 228 255
207 228 255
207 228 255
207 228 255
207 228 255
207 228 255
207 228 255
207 228 255
207 228 255
207 228 255
207 228 255
207 228 255
207 228 255
207 227 255
207 227 255
207 227 255
207 227 255
207 227 255
206 227 255
206 227 255
206 227 255
206 227 255
206 227 255
206 227 255
206 227 255
206 227 255
206 227 255
206 227 255
206 227 255
206 227 255
206 227 255
206 227 255
206 227 255
206 227 255
206 227 255
206 227 255
205 227 255
205 227 255
205 227 255
205 227 255
205 227 255
205 227 255
205 227 255
205 227 255
205 227 255
205 227 255
205 226 255
205 226 255
205 226 255
205 226 255
205 226 255
205 226 255
205 226 255
204 226 255
204 226 255
204 226 255
204 226 255
204 226 255
204 226 255
204 226 255
204 226 255
204 226 255
204 226 255
204 226 255
204 226 255
204 226 255
204 226 255
204 226 255
203 226 255
203 226 255
203 226 255
203 226 255
203 226 255
203 226 255
203 226 255
203 225 255
203 225 255
203 225 255
203 225 255
203 225 255
203 225 255
203 225 255
203 225 255
203 225 255
202 225 255
202 225 255
202 225 255
202 225 255
202 225 255
202 225 255
202 225 255
202 225 255
202 225 255
202 225 255
202 225 255
202 225 255
202 225 255
202 225 255
201 225 255
201 225 255
201 225 255
201 225 255
201 225 255
201 224 255
201 224 255
201 224 255
201 224 255
201 224 255
201 224 255
201 224 255
201 224 255
201 224 255
201 224 255
201 224 255
200 224 255
200 224 255
200 224 255
200 224 255
200 224 255
200 224 255
200 224 255
200 224 255
200 224 255
200 224 255
200 224 255
200 224 255
200 224 255
200 224 255
200 224 255
200 224 255
199 224 255
199 224 255
199 224 255
199 223 255
199 223 255
199 223 255
199 223 255
199 223 255
199 223 255
199 223 255
199 223 255
199 223 255
199 223 255
199 223 255
199 223 255
199 223 255
199 223 255
199 223 255
199 223 255
199 223 255
199 223 255
198 223 255
198 223 255
198 223 255
198 223 255
198 223 255
198 223 255
198 223 255
198 223 255
198 223 255
198 223 255
198 223 255
198 223 255
198 223 255
198 223 255
198 223 255
198 223 255
198 223 255
198 223 255
198 223 255
198 223 255
198 223 255
198 223 255
198 223 255
198 223 255
198 223 255
198 223 255
198 223 255
198 223 255
198 223 255
198 223 255
198 223 255
198 223 255
198 223 255
198 223 255
198 223 255
198 223 255
198 223 255
198 223 255
198 223 255
198 223 255
198 223 255
198 223 255
198 223 255
198 223 255
198 223 255
198 223 255
198 223 255
198 223 255
198 223 255
198 223 255
198 223 255
198 223 255
198 223 255
198 223 255
198 223 255
198 223 255
198 223 255
198 223 255
198 223 255
198 223 255
198 223 255
198 223 255
198 223 255
198 223 255
198 223 255
198 223 255
198 223 255
198 223 255
198 223 255
198 223 255
198 223 255
198 223 255
198 223 255
199 223 255
199 223 255
199 223 255
199 223 255
199 223 255
199 223 255
199 223 255
199 223 255
199 223 255
199 223 255
199 223 255
199 223 255
199 223 255
199 223 255
199 223 255
199 223 255
199 223 255
199 224 255
199 224 255
199 224 255
200 224 255
200 224 255
200 224 255
200 224 255
200 224 255
200 224 255
200 224 255
200 224 255
200 224 255
200 224 255
200 224 255
200 224 255
200 224 255
200 224 255
200 224 255
200 224 255
201 224 255
201 224 255
201 224 255
201 224 255
201 224 255
201 224 255
201 224 255
201 224 255
201 224 255
201 224 255
201 224 255
201 225 255
201 225 255
201 225 255
201 225 255
202 225 255
202 225 255
202 225 255
202 225 255
202 225 255
202 225 255
202 225 255
202 225 255
202 225 255
202 225 255
202 225 255
202 225 255
202 225 255
202 225 255
202 225 255
203 225 255
203 225 255
203 225 255
203 225 255
203 225 255
203 225 255
203 225 255
203 225 255
203 225 255
203 226 255
203 226 255
203 226 255
203 226 255
203 226 255
203 226 255
203 226 255
204 226 255
204 226 255
204 226 255
204 226 255
204 226 255
204 226 255
204 226 255
204 226 255
204 226 255
204 226 255
204 226 255
204 226 255
204 226 255
204 226 255
204 226 255
205 226 255
205 226 255
205 226 255
205 226 255
205 226 255
205 226 255
205 226 255
205 227 255
205 227 255
205 227 255
205 227 255
205 227 255
205 227 255
205 227 255
205 227 255
205 227 255
205 227 255
206 227 255
206 227 255
206 227 255
206 227 255
206 227 255
206 227 255
206 227 255
206 227 255
206 227 255
206 227 255
206 227 255
206 227 255
206 227 255
206 227 255
206 227 255
206 227 255
206 227 255
206 227 255
207 227 255
207 227 255
207 227 255
207 227 255
207 227 255
207 228 255
207 228 255
207 228 255
207 228 255
207 228 255
207 228 255
207 228 255
207 228 255
207 228 255
207 228 255
207 228 255
207 228 255
207 228 255
207 228 255
207 228 255
208 228 255
208 228 255
208 228 255
208 228 255
208 228 255
208 228 255
208 228 255
208 228 255
208 228 255
208 228 255
208 228 255
208 228 255
208 228 255
208 228 255
208 228 255
208 228 255
208 228 255
208 228 255
208 228 255
208 228 255
208 228 255
208 228 255
208 228 255
208 228 255
208 228 255
207 228 255
207 228 255
207 228 255
207 228 255
207 228 255
207 228 255
207 228 255
207 228 255
207 228 255
207 228 255
207 228 255
207 228 255
207 228 255
207 228 255
207 228 255
207 227 255
207 227 255
207 227 255
207 227 255
207 227 255
206 227 255
206 227 255
206 227 255
206 227 255
206 227 255
206 227 255
206 227 255
206 227 255
206 227 255
206 227 255
206 227 255
206 227 255
206 227 255
206 227 255
206 227 255
206 227 255
206 227 255
206 227 255
205 227 255
205 227 255
205 227 255
205 227 255
205 227 255
205 227 255
205 227 255
205 227 255
205 227 255
205 227 255
205 226 255
205 226 255
205 226 255
205 226 255
205 226 255
205 226 255
204 226 255
204 226 255
204 226 255
204 226 255
204 226 255
204 226 255
204 226 255
204 226 255
204 226 255
204 226 255
204 226 255
204 226 255
204 226 255
204 226 255
204 226 255
204 226 255
203 226 255
203 226 255
203 226 255
203 226 255
203 226 255
203 226 255
203 226 255
203 225 255
203 225 255
203 225 255
203 225 255
203 225 255
203 225 255
203 225 255
203 225 255
202 225 255
202 225 255
202 225 255
202 225 255
202 225 255
202 225 255
202 225 255
202 225 255
202 225 255
202 225 255
202 225 255
202 225 255
202 225 255
202 225 255
202 225 255
201 225 255
201 225 255
201 225 255
201 225 255
201 225 255
201 224 255
201 224 255
201 224 255
201 224 255
201 224 255
201 224 255
201 224 255
201 224 255
201 224 255
201 224 255
201 224 255
200 224 255
200 224 255
200 224 255
200 224 255
200 224 255
200 224 255
200 224 255
200 224 255
200 224 255
200 224 255
200 224 255
200 224 255
200 224 255
200 224 255
200 224 255
200 224 255
200 224 255
199 224 255
199 224 255
199 224 255
199 223 255
199 223 255
199 223 255
199 223 255
199 223 255
199 223 255
199 223 255
199 223 255
199 223 255
199 223 255
199 223 255
199 223 255
199 223 255
199 223 255
199 223 255
199 223 255
199 223 255
199 223 255
198 223 255
198 223 255
198 223 255
198 223 255
198 223 255
198 223 255
198 223 255
198 223 255
198 223 255
198 223 255
198 223 255
198 223 255
198 223 255
198 223 255
198 223 255
198 223 255
198 223 255
198 223 255
198 223 255
198 223 255
198 223 255
198 223 255
198 223 255
198 223 255
198 223 255
198 223 255
198 223 255
198 223 255
198 223 255
198 223 255
198 223 255
198 223 255
198 223 255
198 223 255
198 223 255
198 223 255
198 223 255
198 223 255
198 223 255
198 223 255
198 223 255
198 223 255
198 223 255
198 223 255
198 223 255
198 223 255
198 223 255
198 223 255
198 223 255
198 223 255
198 223 255
198 223 255
198 223 255
198 223 255
198 223 255
198 223 255
198 223 255
198 223 255
198 223 255
198 223 255
198 223 255
198 223 255
198 223 255
198 223 255
199 223 255
199 223 255
199 223 255
199 223 255
199 223 255
199 223 255
199 223 255
199 223 255
199 223 255
199 223 255
199 223 255
199 223 255
199 223 255
199 223 255
199 223 255
199 223 255
199 223 255
199 223 255
199 224 255
199 224 255
199 224 255
200 224 255
200 224 255
200 224 255
200 224 255
200 224 255
200 224 255
200 224 255
200 224 255
200 224 255
200 224 255
200 224 255
200 224 255
200 224 255
200 224 255
200 224 255
200 224 255
200 224 255
201 224 255
201 224 255
201 224 255
201 224 255
201 224 255
201 224 255
201 224 255
201 224 255
201 224 255
201 224 255
201 224 255
201 225 255
201 225 255
201 225 255
201 225 255
201 225 255
202 225 255
202 225 255
202 225 255
202 225 255
202 225 255
202 225 255
202 225 255
202 225 255
202 225 255
202 225 255
202 225 255
202 225 255
202 225 255
202 225 255
202 225 255
203 225 255
203 225 255
203 225 255
203 225 255
203 225 255
203 225 255
203 225 255
203 225 255
203 226 255
203 226 255
203 226 255
203 226 255
203 226 255
203 226 255
203 226 255
204 226 255
204 226 255
204 226 255
204 226 255
204 226 255
204 226 255
204 226 255
204 226 255
204 226 255
204 226 255
204 226 255
204 226 255
204 226 255
204 226 255
204 226 255
204 226 255
205 226 255
205 226 255
205 226 255
205 226 255
205 226 255
205 226 255
205 227 255
205 227 255
205 227 255
205 227 255
205 227 255
205 227 255
205 227 255
205 227 255
205 227 255
205 227 255
206 227 255
206 227 255
206 227 255
206 227 255
206 227 255
206 227 255
206 227 255
206 227 255
206 227 255
206 227 255
206 227 255
206 227 255
206 227 255
206 227 255
206 227 255
206 227 255
206 227 255
206 227 255
207 227 255
207 227 255
207 227 255
207 227 255
207 227 255
207 228 255
207 228 255
207 228 255
207 228 255
207 228 255
207 228 255
207 228 255
207 228 255
207 228 255
207 228 255
207 228 255
207 228 255
207 228 255
207 228 255
207 228 255
208 228 255
208 228 255
208 228 255
208 228 255
208 228 255
208 228 255
208 228 255
208 228 255
208 228 255
208 228 255
208 228 255
208 228 255
208 228 255
208 228 255
208 228 255
208 228 255
208 228 255
208 228 255
208 228 255
208 228 255
208 228 255
208 228 255
208 228 255
208 228 255
208 228 255
208 228 255
208 228 255
208 228 255
208 228 255
208 228 255
208 228 255
207 228 255
207 228 255
207 228 255
207 228 255
207 228 255
207 228 255
207 228 255
207 228 255
207 228 255
207 228 255
207 228 255
207 228 255
207 228 255
207 228 255
207 228 255
207 227 255
207 227 255
207 227 255
207 227 255
207 227 255
206 227 255
206 227 255
206 227 255
206 227 255
206 227 255
206 227 255
206 227 255
206 227 255
206 227 255
206 227 255
206 227 255
206 227 255
206 227 255
206 227 255
206 227 255
206 227 255
206 227 255
206 227 255
205 227 255
205 227 255
205 227 255
205 227 255
205 227 255
205 227 255
205 227 255
205 227 255
205 227 255
205 227 255
205 226 255
205 226 255
205 226 255
205 226 255
205 226 255
205 226 255
204 226 255
204 226 255
204 226 255
204 226 255
204 226 255
204 226 255
204 226 255
204 226 255
204 226 255
204 226 255
204 226 255
204 226 255
204 226 255
204 226 255
204 226 255
204 226 255
203 226 255
203 226 255
203 226 255
203 226 255
203 226 255
203 226 255
203 225 255
203 225 255
203 225 255
203 225 255
203 225 255
203 225 255
203 225 255
203 225 255
203 225 255
202 225 255
202 225 255
202 225 255
202 225 255
202 225 255
202 225 255
202 225 255
202 225 255
202 225 255
202 225 255
202 225 255
202 225 255
202 225 255
202 225 255
202 225 255
201 225 255
201 225 255
201 225 255
201 225 255
201 225 255
201 224 255
201 224 255
201 224 255
201 224 255
201 224 255
201 224 255
201 224 255
201 224 255
201 224 255
201 224 255
201 224 255
200 224 255
200 224 255
200 224 255
200 224 255
200 224 255
200 224 255
200 224 255
200 224 255
200 224 255
200 224 255
200 224 255
200 224 255
200 224 255
200 224 255
200 224 255
200 224 255
200 224 255
199 224 255
199 224 255
199 224 255
199 224 255
199 223 255
199 223 255
199 223 255
199 223 255
199 223 255
199 223 255
199 223 255
199 223 255
199 223 255
199 223 255
199 223 255
199 223 255
199 223 255
199 223 255
199 223 255
199 223 255
199 223 255
199 223 255
199 223 255
199 223 255
198 223 255
198 223 255
198 223 255
198 223 255
198 223 255
198 223 255
198 223 255
198 223 255
198 223 255
198 223 255
198 223 255
198 223 255
198 223 255
198 223 255
198 223 255
198 223 255
198 223 255
198 223 255
198 223 255
198 223 255
198 223 255
198 223 255
198 223 255
198 223 255
198 223 255
198 223 255
198 223 255
198 223 255
198 223 255
198 223 255
198 223 255
198 223 255
198 223 255
198 223 255
198 223 255
198 223 255
198 223 255
198 223 255
198 223 255
198 223 255
198 223 255
198 223 255
198 223 255
198 223 255
198 223 255
198 223 255
198 223 255
198 223 255
198 223 255
198 223 255
198 223 255
198 223 255
199 223 255
199 223 255
199 223 255
199 223 255
199 223 255
199 223 255
199 223 255
199 223 255
199 223 255
199 223 255
199 223 255
199 223 255
199 223 255
199 223 255
199 223 255
199 223 255
199 223 255
199 223 255
199 223 255
199 223 255
199 224 255
199 224 255
199 224 255
199 224 255
200 224 255
200 224 255
200 224 255
200 224 255
200 224 255
200 224 255
200 224 255
200 224 255
200 224 255
200 224 255
200 224 255
200 224 255
200 224 255
200 224 255
200 224 255
200 224 255
200 224 255
201 224 255
201 224 255
201 224 255
201 224 255
201 224 255
201 224 255
201 224 255
201 224 255
201 224 255
201 224 255
201 224 255
201 225 255
201 225 255
201 225 255
201 225 255
201 225 255
202 225 255
202 225 255
202 225 255
202 225 255
202 225 255
202 225 255
202 225 255
202 225 255
202 225 255
202 225 255
202 225 255
202 225 255
202 225 255
202 225 255
202 225 255
203 225 255
203 225 255
203 225 255
203 225 255
203 225 255
203 225 255
203 225 255
203 225 255
203 226 255
203 226 255
203 226 255
203 226 255
203 226 255
203 226 255
203 226 255
204 226 255
204 226 255
204 226 255
204 226 255
204 226 255
204 226 255
204 226 255
204 226 255
204 226 255
204 226 255
204 226 255
204 226 255
204 226 255
204 226 255
204 226 255
204 226 255
205 226 255
205 226 255
205 226 255
205 226 255
205 226 255
205 226 255
205 227 255
205 227 255
205 227 255
205 227 255
205 227 255
205 227 255
205 227 255
205 227 255
205 227 255
205 227 255
206 227 255
206 227 255
206 227 255
206 227 255
206 227 255
206 227 255
206 227 255
206 227 255
206 227 255
206 227 255
206 227 255
206 227 255
206 227 255
206 227 255
206 227 255
206 227 255
206 227 255
206 227 255
207 227 255
207 227 255
207 227 255
207 227 255
207 227 255
207 228 255
207 228 255
207 228 255
207 228 255
207 228 255
207 228 255
207 228 255
207 228 255
207 228 255
207 228 255
207 228 255
207 228 255
207 228 255
207 228 255
207 228 255
208 228 255
208 228 255
208 228 255
208 228 255
208 228 255
208 228 255
208 228 255
208 228 255
208 228 255
208 228 255
208 228 255
208 228 255
208 228 255
208 228 255
208 228 255
208 228 255
208 228 255
208 228 255
208 228 255
208 228 255
208 228 255
208 228 255
208 228 255
208 228 255
208 228 255
208 228 255
208 228 255
208 228 255
208 228 255
208 228 255
208 228 255
208 228 255
208 228 255
208 228 255
208 228 255
208 228 255
208 228 255
207 228 255
207 228 255
207 228 255
207 228 255
207 228 255
207 228 255
207 228 255
207 228 255
207 228 255
207 228 255
207 228 255
207 228 255
207 228 255
207 228 255
207 228 255
207 227 255
207 227 255
207 227 255
207 227 255
207 227 255
206 227 255
206 227 255
206 227 255
206 227 255
206 227 255
206 227 255
206 227 255
206 227 255
206 227 255
206 227 255
206 227 255
206 227 255
206 227 255
206 227 255
206 227 255
206 227 255
206 227 255
205 227 255
205 227 255
205 227 255
205 227 255
205 227 255
205 227 255
205 227 255
205 227 255
205 227 255
205 227 255
205 226 255
205 226 255
205 226 255
205 226 255
205 226 255
205 226 255
205 226 255
204 226 255
204 226 255
204 226 255
204 226 255
204 226 255
204 226 255
204 226 255
204 226 255
204 226 255
204 226 255
204 226 255
204 226 255
204 226 255
204 226 255
204 226 255
203 226 255
203 226 255
203 226 255
203 226 255
203 226 255
203 226 255
203 226 255
203 225 255
203 225 255
203 225 255
203 225 255
203 225 255
203 225 255
203 225 255
203 225 255
203 225 255
202 225 255
202 225 255
202 225 255
202 225 255
202 225 255
202 225 255
202 225 255
202 225 255
202 225 255
202 225 255
202 225 255
202 225 255
202 225 255
202 225 255
202 225 255
201 225 255
201 225 255
201 225 255
201 225 255
201 225 255
201 224 255
201 224 255
201 224 255
201 224 255
201 224 255
201 224 255
201 224 255
201 224 255
201 224 255
201 224 255
201 224 255
200 224 255
200 224 255
200 224 255
200 224 255
200 224 255
200 224 255
200 224 255
200 224 255
200 224 255
200 224 255
200 224 255
200 224 255
200 224 255
200 224 255
200 224 255
200 224 255
200 224 255
200 224 255
199 224 255
199 224 255
199 224 255
199 224 255
199 223 255
199 223 255
199 223 255
199 223 255
199 223 255
199 223 255
199 223 255
199 223 255
199 223 255
199 223 255
199 223 255
199 223 255
199 223 255
199 223 255
199 223 255
199 223 255
199 223 255
199 223 255
199 223 255
199 223 255
199 223 255
199 223 255
199 223 255
198 223 255
198 223 255
198 223 255
198 223 255
198 223 255
198 223 255
198 223 255
198 223 255
198 223 255
198 223 255
198 223 255
198 223 255
198 223 255
198 223 255
198 223 255
198 223 255
198 223 255
198 223 255
198 223 255
198 223 255
198 223 255
198 223 255
198 223 255
198 223 255
198 223 255
198 223 255
198 223 255
198 223 255
198 223 255
198 223 255
198 223 255
198 223 255
198 223 255
198 223 255
198 223 255
198 223 255
198 223 255
198 223 255
199 223 255
199 223 255
199 223 255
199 223 255
199 223 255
199 223 255
199 223 255
199 223 255
199 223 255
199 223 255
199 223 255
199 223 255
199 223 255
199 223 255
199 223 255
199 223 255
199 223 255
199 223 255
199 223 255
199 223 255
199 223 255
199 223 255
199 223 255
199 224 255
199 224 255
199 224 255
199 224 255
200 224 255
200 224 255
200 224 255
200 224 255
200 224 255
200 224 255
200 224 255
200 224 255
200 224 255
200 224 255
200 224 255
200 224 255
200 224 255
200 224 255
200 224 255
200 224 255
200 224 255
200 224 255
201 224 255
201 224 255
201 224 255
201 224 255
201 224 255
201 224 255
201 224 255
201 224 255
201 224 255
201 224 255
201 224 255
201 225 255
201 225 255
201 225 255
201 225 255
201 225 255
202 225 255
202 225 255
202 225 255
202 225 255
202 225 255
202 225 255
202 225 255
202 225 255
202 225 255
202 225 255
202 225 255
202 225 255
202 225 255
202 225 255
202 225 255
203 225 255
203 225 255
203 225 255
203 225 255
203 225 255
203 225 255
203 225 255
203 225 255
203 225 255
203 226 255
203 226 255
203 226 255
203 226 255
203 226 255
203 226 255
204 226 255
204 226 255
204 226 255
204 226 255
204 226 255
204 226 255
204 226 255
204 226 255
204 226 255
204 226 255
204 226 255
204 226 255
204 226 255
204 226 255
204 226 255
204 226 255
205 226 255
205 226 255
205 226 255
205 226 255
205 226 255
205 226 255
205 226 255
205 227 255
205 227 255
205 227 255
205 227 255
205 227 255
205 227 255
205 227 255
205 227 255
205 227 255
205 227 255
206 227 255
206 227 255
206 227 255
206 227 255
206 227 255
206 227 255
206 227 255
206 227 255
206 227 255
206 227 255
206 227 255
206 227 255
206 227 255
206 227 255
206 227 255
206 227 255
206 227 255
207 227 255
207 227 255
207 227 255
207 227 255
207 227 255
207 228 255
207 228 255
207 228 255
207 228 255
207 228 255
207 228 255
207 228 255
207 228 255
207 228 255
207 228 255
207 228 255
207 228 255
207 228 255
207 228 255
207 228 255
208 228 255
208 228 255
208 228 255
208 228 255
208 228 255
208 228 255
208 228 255
208 228 255
208 228 255
208 228 255
208 228 255
208 228 255
208 228 255
208 228 255
208 228 255
208 228 255
208 228 255
208 228 255
208 228 255
208 228 255
209 229 255
209 228 255
208 228 255
208 228 255
208 228 255
208 228 255
208 228 255
208 228 255
208 228 255
208 228 255
208 228 255
208 228 255
208 228 255
208 228 255
208 228 255
208 228 255
208 228 255
208 228 255
208 228 255
208 228 255
208 228 255
208 228 255
208 228 255
207 228 255
207 228 255
207 228 255
207 228 255
207 228 255
207 228 255
207 228 255
207 228 255
207 228 255
207 228 255
207 228 255
207 228 255
207 228 255
207 228 255
207 228 255
207 227 255
207 227 255
207 227 255
207 227 255
207 227 255
206 227 255
206 227 255
206 227 255
206 227 255
206 227 255
206 227 255
206 227 255
206 227 255
206 227 255
206 227 255
206 227 255
206 227 255
206 227 255
206 227 255
206 227 255
206 227 255
206 227 255
205 227 255
205 227 255
205 227 255
205 227 255
205 227 255
205 227 255
205 227 255
205 227 255
205 227 255
205 227 255
205 226 255
205 226 255
205 226 255
205 226 255
205 226 255
205 226 255
205 226 255
204 226 255
204 226 255
204 226 255
204 226 255
204 226 255
204 226 255
204 226 255
204 226 255
204 226 255
204 226 255
204 226 255
204 226 255
204 226 255
204 226 255
204 226 255
203 226 255
203 226 255
203 226 255
203 226 255
203 226 255
203 226 255
203 226 255
203 225 255
203 225 255
203 225 255
203 225 255
203 225 255
203 225 255
203 225 255
203 225 255
203 225 255
202 225 255
202 225 255
202 225 255
202 225 255
202 225 255
202 225 255
202 225 255
202 225 255
202 225 255
202 225 255
202 225 255
202 225 255
202 225 255
202 225 255
202 225 255
201 225 255
201 225 255
201 225 255
201 225 255
201 225 255
201 224 255
201 224 255
201 224 255
201 224 255
201 224 255
201 224 255
201 224 255
201 224 255
201 224 255
201 224 255
201 224 255
200 224 255
200 224 255
200 224 255
200 224 255
200 224 255
200 224 255
200 224 255
200 224 255
200 224 255
200 224 255
200 224 255
200 224 255
200 224 255
200 224 255
200 224 255
200 224 255
200 224 255
200 224 255
200 224 255
199 224 255
199 224 255
199 224 255
199 224 255
199 223 255
199 223 255
199 223 255
199 223 255
199 223 255
199 223 255
199 223 255
199 223 255
199 223 255
199 223 255
199 223 255
199 223 255
199 223 255
199 223 255
199 223 255
199 223 255
199 223 255
199 223 255
199 223 255
199 223 255
199 223 255
199 223 255
199 223 255
199 223 255
199 223 255
199 223 255
199 223 255
199 223 255
199 223 255
199 223 255
199 223 255
199 223 255
198 223 255
198 223 255
198 223 255
198 223 255
198 223 255
198 223 255
198 223 255
198 223 255
198 223 255
198 223 255
198 223 255
198 223 255
198 223 255
199 223 255
199 223 255
199 223 255
199 223 255
199 223 255
199 223 255
199 223 255
199 223 255
199 223 255
199 223 255
199 223 255
199 223 255
199 223 255
199 223 255
199 223 255
199 223 255
199 223 255
199 223 255
199 223 255
199 223 255
199 223 255
199 223 255
199 223 255
199 223 255
199 223 255
199 223 255
199 223 255
199 223 255
199 223 255
199 223 255
199 223 255
199 224 255
199 224 255
199 224 255
199 224 255
200 224 255
200 224 255
200 224 255
200 224 255
200 224 255
200 224 255
200 224 255
200 224 255
200 224 255
200 224 255
200 224 255
200 224 255
200 224 255
200 224 255
200 224 255
200 224 255
200 224 255
200 224 255
200 224 255
201 224 255
201 224 255
201 224 255
201 224 255
201 224 255
201 224 255
201 224 255
201 224 255
201 224 255
201 224 255
201 224 255
201 225 255
201 225 255
201 225 255
201 225 255
201 225 255
202 225 255
202 225 255
202 225 255
202 225 255
202 225 255
202 225 255
202 225 255
202 225 255
202 225 255
202 225 255
202 225 255
202 225 255
202 225 255
202 225 255
202 225 255
203 225 255
203 225 255
203 225 255
203 225 255
203 225 255
203 225 255
203 225 255
203 225 255
203 225 255
203 226 255
203 226 255
203 226 255
203 226 255
203 226 255
203 226 255
203 226 255
204 226 255
204 226 255
204 226 255
204 226 255
204 226 255
204 226 255
204 226 255
204 226 255
204 226 255
204 226 255
204 226 255
204 226 255
204 226 255
204 226 255
204 226 255
205 226 255
205 226 255
205 226 255
205 226 255
205 226 255
205 226 255
205 226 255
205 227 255
205 227 255
205 227 255
205 227 255
205 227 255
205 227 255
205 227 255
205 227 255
205 227 255
205 227 255
206 227 255
206 227 255
206 227 255
206 227 255
206 227 255
206 227 255
206 227 255
206 227 255
206 227 255
206 227 255
206 227 255
206 227 255
206 227 255
206 227 255
206 227 255
206 227 255
206 227 255
207 227 255
207 227 255
207 227 255
207 227 255
207 227 255
207 228 255
207 228 255
207 228 255
207 228 255
207 228 255
207 228 255
207 228 255
207 228 255
207 228 255
207 228 255
207 228 255
207 228 255
207 228 255
207 228 255
207 228 255
208 228 255
208 228 255
208 228 255
208 228 255
208 228 255
208 228 255
208 228 255
208 228 255
208 228 255
208 228 255
208 228 255
208 228 255
208 228 255
208 228 255
208 228 255
208 228 255
208 228 255
208 228 255
208 228 255
208 228 255
208 228 255
209 228 255
209 229 255
209 229 255
209 229 255
209 229 255
209 229 255
209 228 255
208 228 255
208 228 255
208 228 255
208 228 255
208 228 255
208 228 255
208 228 255
208 228 255
208 228 255
208 228 255
208 228 255
208 228 255
208 228 255
208 228 255
208 228 255
208 228 255
208 228 255
208 228 255
208 228 255
208 228 255
208 228 255
208 228 255
207 228 255
207 228 255
207 228 255
207 228 255
207 228 255
207 228 255
207 228 255
207 228 255
207 228 255
207 228 255
207 228 255
207 228 255
207 228 255
207 228 255
207 227 255
207 227 255
207 227 255
207 227 255
207 227 255
206 227 255
206 227 255
206 227 255
206 227 255
206 227 255
206 227 255
206 227 255
206 227 255
206 227 255
206 227 255
206 227 255
206 227 255
206 227 255
206 227 255
206 227 255
206 227 255
206 227 255
205 227 255
205 227 255
205 227 255
205 227 255
205 227 255
205 227 255
205 227 255
205 227 255
205 227 255
205 227 255
205 226 255
205 226 255
205 226 255
205 226 255
205 226 255
205 226 255
205 226 255
204 226 255
204 226 255
204 226 255
204 226 255
204 226 255
204 226 255
204 226 255
204 226 255
204 226 255
204 226 255
204 226 255
204 226 255
204 226 255
204 226 255
204 226 255
203 226 255
203 226 255
203 226 255
203 226 255
203 226 255
203 226 255
203 226 255
203 225 255
203 225 255
203 225 255
203 225 255
203 225 255
203 225 255
203 225 255
203 225 255
202 225 255
202 225 255
202 225 255
202 225 255
202 225 255
202 225 255
202 225 255
202 225 255
202 225 255
202 225 255
202 225 255
202 225 255
202 225 255
202 225 255
202 225 255
202 225 255
201 225 255
201 225 255
201 225 255
201 225 255
201 225 255
201 224 255
201 224 255
201 224 255
201 224 255
201 224 255
201 224 255
201 224 255
201 224 255
201 224 255
201 224 255
201 224 255
201 224 255
200 224 255
200 224 255
200 224 255
200 224 255
200 224 255
200 224 255
200 224 255
200 224 255
200 224 255
200 224 255
200 224 255
200 224 255
200 224 255
200 224 255
200 224 255
200 224 255
200 224 255
200 224 255
200 224 255
200 224 255
199 224 255
199 224 255
199 224 255
199 224 255
199 223 255
199 223 255
199 223 255
199 223 255
199 223 255
199 223 255
199 223 255
199 223 255
199 223 255
199 223 255
199 223 255
199 223 255
199 223 255
199 223 255
199 223 255
199 223 255
199 223 255
199 223 255
199 223 255
199 223 255
199 223 255
199 223 255
199 223 255
199 223 255
199 223 255
199 223 255
199 223 255
199 223 255
199 223 255
199 223 255
199 223 255
199 223 255
199 223 255
199 223 255
199 223 255
199 223 255
199 223 255
199 223 255
199 223 255
199 223 255
199 223 255
199 223 255
199 223 255
199 223 255
199 223 255
199 223 255
199 223 255
199 223 255
199 223 255
199 223 255
199 223 255
199 223 255
199 223 255
199 223 255
199 223 255
199 223 255
199 223 255
199 223 255
199 223 255
199 223 255
199 223 255
199 223 255
199 223 255
199 223 255
199 223 255
199 223 255
199 224 255
199 224 255
199 224 255
199 224 255
200 224 255
200 224 255
200 224 255
200 224 255
200 224 255
200 224 255
200 224 255
200 224 255
200 224 255
200 224 255
200 224 255
200 224 255
200 224 255
200 224 255
200 224 255
200 224 255
200 224 255
200 224 255
200 224 255
200 224 255
201 224 255
201 224 255
201 224 255
201 224 255
201 224 255
201 224 255
201 224 255
201 224 255
201 224 255
201 224 255
201 224 255
201 224 255
201 225 255
201 225 255
201 225 255
201 225 255
201 225 255
202 225 255
202 225 255
202 225 255
202 225 255
202 225 255
202 225 255
202 225 255
202 225 255
202 225 255
202 225 255
202 225 255
202 225 255
202 225 255
202 225 255
202 225 255
202 225 255
203 225 255
203 225 255
203 225 255
203 225 255
203 225 255
203 225 255
203 225 255
203 225 255
203 226 255
203 226 255
203 226 255
203 226 255
203 226 255
203 226 255
203 226 255
204 226 255
204 226 255
204 226 255
204 226 255
204 226 255
204 226 255
204 226 255
204 226 255
204 226 255
204 226 255
204 226 255
204 226 255
204 226 255
204 226 255
204 226 255
204 226 255
205 226 255
205 226 255
205 226 255
205 226 255
205 226 255
205 226 255
205 227 255
205 227 255
205 227 255
205 227 255
205 227 255
205 227 255
205 227 255
205 227 255
205 227 255
205 227 255
206 227 255
206 227 255
206 227 255
206 227 255
206 227 255
206 227 255
206 227 255
206 227 255
206 227 255
206 227 255
206 227 255
206 227 255
206 227 255
206 227 255
206 227 255
206 227 255
206 227 255
207 227 255
207 227 255
207 227 255
207 227 255
207 227 255
207 228 255
207 228 255
207 228 255
207 228 255
207 228 255
207 228 255
207 228 255
207 228 255
207 228 255
207 228 255
207 228 255
207 228 255
207 228 255
207 228 255
208 228 255
208 228 255
208 228 255
208 228 255
208 228 255
208 228 255
208 228 255
208 228 255
208 228 255
208 228 255
208 228 255
208 228 255
208 228 255
208 228 255
208 228 255
208 228 255
208 228 255
208 228 255
208 228 255
208 228 255
208 228 255
209 228 255
209 228 255
209 229 255
209 229 255
209 229 255
209 229 255
209 229 255
209 229 255
209 229 255
209 229 255
209 229 255
209 229 255
209 229 255
209 228 255
209 228 255
208 228 255
208 228 255
208 228 255
208 228 255
208 228 255
208 228 255
208 228 255
208 228 255
208 228 255
208 228 255
208 228 255
208 228 255
208 228 255
208 228 255
208 228 255
208 228 255
208 228 255
208 228 255
208 228 255
208 228 255
208 228 255
207 228 255
207 228 255
207 228 255
207 228 255
207 228 255
207 228 255
207 228 255
207 228 255
207 228 255
207 228 255
207 228 255
207 228 255
207 228 255
207 228 255
207 227 255
207 227 255
207 227 255
207 227 255
207 227 255
206 227 255
206 227 255
206 227 255
206 227 255
206 227 255
206 227 255
206 227 255
206 227 255
206 227 255
206 227 255
206 227 255
206 227 255
206 227 255
206 227 255
206 227 255
206 227 255
206 227 255
205 227 255
205 227 255
205 227 255
205 227 255
205 227 255
205 227 255
205 227 255
205 227 255
205 227 255
205 227 255
205 226 255
205 226 255
205 226 255
205 226 255
205 226 255
205 226 255
204 226 255
204 226 255
204 226 255
204 226 255
204 226 255
204 226 255
204 226 255
204 226 255
204 226 255
204 226 255
204 226 255
204 226 255
204 226 255
204 226 255
204 226 255
204 226 255
203 226 255
203 226 255
203 226 255
203 226 255
203 226 255
203 226 255
203 226 255
203 225 255
203 225 255
203 225 255
203 225 255
203 225 255
203 225 255
203 225 255
203 225 255
202 225 255
202 225 255
202 225 255
202 225 255
202 225 255
202 225 255
202 225 255
202 225 255
202 225 255
202 225 255
202 225 255
202 225 255
202 225 255
202 225 255
202 225 255
202 225 255
201 225 255
201 225 255
201 225 255
201 225 255
201 225 255
201 224 255
201 224 255
201 224 255
201 224 255
201 224 255
201 224 255
201 224 255
201 224 255
201 224 255
201 224 255
201 224 255
201 224 255
200 224 255
200 224 255
200 224 255
200 224 255
200 224 255
200 224 255
200 224 255
200 224 255
200 224 255
200 224 255
200 224 255
200 224 255
200 224 255
200 224 255
200 224 255
200 224 255
200 224 255
200 224 255
200 224 255
200 224 255
200 224 255
199 224 255
199 224 255
199 224 255
199 224 255
199 224 255
199 223 255
199 223 255
199 223 255
199 223 255
199 223 255
199 223 255
199 223 255
199 223 255
199 223 255
199 223 255
199 223 255
199 223 255
199 223 255
199 223 255
199 223 255
199 223 255
199 223 255
199 223 255
199 223 255
199 223 255
199 223 255
199 223 255
199 223 255
199 223 255
199 223 255
199 223 255
199 223 255
199 223 255
199 223 255
199 223 255
199 223 255
199 223 255
199 223 255
199 223 255
199 223 255
199 223 255
199 223 255
199 223 255
199 223 255
199 223 255
199 223 255
199 223 255
199 223 255
199 223 255
199 223 255
199 223 255
199 223 255
199 223 255
199 223 255
199 223 255
199 223 255
199 223 255
199 223 255
199 223 255
199 223 255
199 223 255
199 224 255
199 224 255
199 224 255
199 224 255
200 224 255
200 224 255
200 224 255
200 224 255
200 224 255
200 224 255
200 224 255
200 224 255
200 224 255
200 224 255
200 224 255
200 224 255
200 224 255
200 224 255
200 224 255
200 224 255
200 224 255
200 224 255
200 224 255
200 224 255
200 224 255
200 224 255
201 224 255
201 224 255
201 224 255
201 224 255
201 224 255
201 224 255
201 224 255
201 224 255
201 224 255
201 224 255
201 224 255
201 224 255
201 225 255
201 225 255
201 225 255
201 225 255
201 225 255
202 225 255
202 225 255
202 225 255
202 225 255
202 225 255
202 225 255
202 225 255
202 225 255
202 225 255
202 225 255
202 225 255
202 225 255
202 225 255
202 225 255
202 225 255
202 225 255
203 225 255
203 225 255
203 225 255
203 225 255
203 225 255
203 225 255
203 225 255
203 225 255
203 226 255
203 226 255
203 226 255
203 226 255
203 226 255
203 226 255
203 226 255
204 226 255
204 226 255
204 226 255
204 226 255
204 226 255
204 226 255
204 226 255
204 226 255
204 226 255
204 226 255
204 226 255
204 226 255
204 226 255
204 226 255
204 226 255
204 226 255
205 226 255
205 226 255
205 226 255
205 226 255
205 226 255
205 226 255
205 227 255
205 227 255
205 227 255
205 227 255
205 227 255
205 227 255
205 227 255
205 227 255
205 227 255
205 227 255
206 227 255
206 227 255
206 227 255
206 227 255
206 227 255
206 227 255
206 227 255
206 227 255
206 227 255
206 227 255
206 227 255
206 227 255
206 227 255
206 227 255
206 227 255
206 227 255
206 227 255
207 227 255
207 227 255
207 227 255
207 227 255
207 227 255
207 228 255
207 228 255
207 228 255
207 228 255
207 228 255
207 228 255
207 228 255
207 228 255
207 228 255
207 228 255
207 228 255
207 228 255
207 228 255
207 228 255
208 228 255
208 228 255
208 228 255
208 228 255
208 228 255
208 228 255
208 228 255
208 228 255
208 228 255
208 228 255
208 228 255
208 228 255
208 228 255
208 228 255
208 228 255
208 228 255
208 228 255
208 228 255
208 228 255
208 228 255
208 228 255
209 228 255
209 228 255
209 229 255
209 229 255
209 229 255
209 229 255
209 229 255
209 229 255
209 229 255
209 229 255
209 229 255
209 229 255
209 229 255
209 229 255
209 229 255
209 229 255
209 229 255
209 229 255
209 229 255
209 228 255
209 228 255
208 228 255
208 228 255
208 228 255
208 228 255
208 228 255
208 228 255
208 228 255
208 228 255
208 228 255
208 228 255
208 228 255
208 228 255
208 228 255
208 228 255
208 228 255
208 228 255
208 228 255
208 228 255
208 228 255
208 228 255
208 228 255
207 228 255
207 228 255
207 228 255
207 228 255
207 228 255
207 228 255
207 228 255
207 228 255
207 228 255
207 228 255
207 228 255
207 228 255
207 228 255
207 228 255
207 227 255
207 227 255
207 227 255
207 227 255
207 227 255
206 227 255
206 227 255
206 227 255
206 227 255
206 227 255
206 227 255
206 227 255
206 227 255
206 227 255
206 227 255
206 227 255
206 227 255
206 227 255
206 227 255
206 227 255
206 227 255
206 227 255
205 227 255
205 227 255
205 227 255
205 227 255
205 227 255
205 227 255
205 227 255
205 227 255
205 227 255
205 227 255
205 226 255
205 226 255
205 226 255
205 226 255
205 226 255
205 226 255
204 226 255
204 226 255
204 226 255
204 226 255
204 226 255
204 226 255
204 226 255
204 226 255
204 226 255
204 226 255
204 226 255
204 226 255
204 226 255
204 226 255
204 226 255
204 226 255
203 226 255
203 226 255
203 226 255
203 226 255
203 226 255
203 226 255
203 226 255
203 225 255
203 225 255
203 225 255
203 225 255
203 225 255
203 225 255
203 225 255
203 225 255
202 225 255
202 225 255
202 225 255
202 225 255
202 225 255
202 225 255
202 225 255
202 225 255
202 225 255
202 225 255
202 225 255
202 225 255
202 225 255
202 225 255
202 225 255
202 225 255
201 225 255
201 225 255
201 225 255
201 225 255
201 225 255
201 224 255
201 224 255
201 224 255
201 224 255
201 224 255
201 224 255
201 224 255
201 224 255
201 224 255
201 224 255
201 224 255
201 224 255
201 224 255
200 224 255
200 224 255
200 224 255
200 224 255
200 224 255
200 224 255
200 224 255
200 224 255
200 224 255
200 224 255
200 224 255
200 224 255
200 224 255
200 224 255
200 224 255
200 224 255
200 224 255
200 224 255
200 224 255
200 224 255
200 224 255
200 224 255
200 224 255
200 224 255
199 224 255
199 224 255
199 224 255
199 224 255
199 224 255
199 223 255
199 223 255
199 223 255
199 223 255
199 223 255
199 223 255
199 223 255
199 223 255
199 223 255
199 223 255
199 223 255
199 223 255
199 223 255
199 223 255
199 223 255
199 223 255
199 223 255
199 223 255
199 223 255
199 223 255
199 223 255
199 223 255
199 223 255
199 223 255
199 223 255
199 223 255
199 223 255
199 223 255
199 223 255
199 223 255
199 223 255
199 223 255
199 223 255
199 223 255
199 223 255
199 223 255
199 223 255
199 223 255
199 223 255
199 223 255
199 223 255
199 223 255
199 224 255
199 224 255
199 224 255
199 224 255
199 224 255
200 224 255
200 224 255
200 224 255
200 224 255
200 224 255
200 224 255
200 224 255
200 224 255
200 224 255
200 224 255
200 224 255
200 224 255
200 224 255
200 224 255
200 224 255
200 224 255
200 224 255
200 224 255
200 224 255
200 224 255
200 224 255
200 224 255
200 224 255
200 224 255
201 224 255
201 224 255
201 224 255
201 224 255
201 224 255
201 224 255
201 224 255
201 224 255
201 224 255
201 224 255
201 224 255
201 224 255
201 224 255
201 225 255
201 225 255
201 225 255
201 225 255
201 225 255
202 225 255
202 225 255
202 225 255
202 225 255
202 225 255
202 225 255
202 225 255
202 225 255
202 225 255
202 225 255
202 225 255
202 225 255
202 225 255
202 225 255
202 225 255
202 225 255
203 225 255
203 225 255
203 225 255
203 225 255
203 225 255
203 225 255
203 225 255
203 225 255
203 226 255
203 226 255
203 226 255
203 226 255
203 226 255
203 226 255
203 226 255
204 226 255
204 226 255
204 226 255
204 226 255
204 226 255
204 226 255
204 226 255
204 226 255
204 226 255
204 226 255
204 226 255
204 226 255
204 226 255
204 226 255
204 226 255
204 226 255
205 226 255
205 226 255
205 226 255
205 226 255
205 226 255
205 226 255
205 227 255
205 227 255
205 227 255
205 227 255
205 227 255
205 227 255
205 227 255
205 227 255
205 227 255
205 227 255
206 227 255
206 227 255
206 227 255
206 227 255
206 227 255
206 227 255
206 227 255
206 227 255
206 227 255
206 227 255
206 227 255
206 227 255
206 227 255
206 227 255
206 227 255
206 227 255
206 227 255
207 227 255
207 227 255
207 227 255
207 227 255
207 227 255
207 228 255
207 228 255
207 228 255
207 228 255
207 228 255
207 228 255
207 228 255
207 228 255
207 228 255
207 228 255
207 228 255
207 228 255
207 228 255
207 228 255
208 228 255
208 228 255
208 228 255
208 228 255
208 228 255
208 228 255
208 228 255
208 228 255
208 228 255
208 228 255
208 228 255
208 228 255
208 228 255
208 228 255
208 228 255
208 228 255
208 228 255
208 228 255
208 228 255
208 228 255
208 228 255
209 228 255
209 229 255
209 229 255
209 229 255
209 229 255
209 229 255
209 229 255
209 229 255
209 229 255
209 229 255
209 229 255
209 229 255
209 229 255
209 229 255
209 229 255
209 229 255
209 229 255
209 229 255
209 229 255
209 229 255
209 229 255
209 229 255
209 229 255
209 229 255
209 229 255
209 229 255
209 228 255
208 228 255
208 228 255
208 228 255
208 228 255
208 228 255
208 228 255
208 228 255
208 228 255
208 228 255
208 228 255
208 228 255
208 228 255
208 228 255
208 228 255
208 228 255
208 228 255
208 228 255
208 228 255
208 228 255
208 228 255
208 228 255
207 228 255
207 228 255
207 228 255
207 228 255
207 228 255
207 228 255
207 228 255
207 228 255
207 228 255
207 228 255
207 228 255
207 228 255
207 228 255
207 228 255
207 227 255
207 227 255
207 227 255
207 227 255
207 227 255
206 227 255
206 227 255
206 227 255
206 227 255
206 227 255
206 227 255
206 227 255
206 227 255
206 227 255
206 227 255
206 227 255
206 227 255
206 227 255
206 227 255
206 227 255
206 227 255
206 227 255
205 227 255
205 227 255
205 227 255
205 227 255
205 227 255
205 227 255
205 227 255
205 227 255
205 227 255
205 227 255
205 226 255
205 226 255
205 226 255
205 226 255
205 226 255
205 226 255
204 226 255
204 226 255
204 226 255
204 226 255
204 226 255
204 226 255
204 226 255
204 226 255
204 226 255
204 226 255
204 226 255
204 226 255
204 226 255
204 226 255
204 226 255
204 226 255
203 226 255
203 226 255
203 226 255
203 226 255
203 226 255
203 226 255
203 226 255
203 225 255
203 225 255
203 225 255
203 225 255
203 225 255
203 225 255
203 225 255
203 225 255
202 225 255
202 225 255
202 225 255
202 225 255
202 225 255
202 225 255
202 225 255
202 225 255
202 225 255
202 225 255
202 225 255
202 225 255
202 225 255
202 225 255
202 225 255
202 225 255
202 225 255
201 225 255
201 225 255
201 225 255
201 225 255
201 225 255
201 224 255
201 224 255
201 224 255
201 224 255
201 224 255
201 224 255
201 224 255
201 224 255
201 224 255
201 224 255
201 224 255
201 224 255
201 224 255
200 224 255
200 224 255
200 224 255
200 224 255
200 224 255
200 224 255
200 224 255
200 224 255
200 224 255
200 224 255
200 224 255
200 224 255
200 224 255
200 224 255
200 224 255
200 224 255
200 224 255
200 224 255
200 224 255
200 224 255
200 224 255
200 224 255
200 224 255
200 224 255
200 224 255
200 224 255
200 224 255
199 224 255
199 224 255
199 224 255
199 224 255
199 224 255
199 224 255
199 224 255
199 224 255
199 223 255
199 223 255
199 223 255
199 223 255
199 223 255
199 223 255
199 223 255
199 223 255
199 223 255
199 223 255
199 223 255
199 223 255
199 223 255
199 223 255
199 223 255
199 223 255
199 223 255
199 223 255
199 223 255
199 223 255
199 223 255
199 224 255
199 224 255
199 224 255
199 224 255
199 224 255
199 224 255
199 224 255
199 224 255
199 224 255
200 224 255
200 224 255
200 224 255
200 224 255
200 224 255
200 224 255
200 224 255
200 224 255
200 224 255
200 224 255
200 224 255
200 224 255
200 224 255
200 224 255
200 224 255
200 224 255
200 224 255
200 224 255
200 224 255
200 224 255
200 224 255
200 224 255
200 224 255
200 224 255
200 224 255
200 224 255
200 224 255
201 224 255
201 224 255
201 224 255
201 224 255
201 224 255
201 224 255
201 224 255
201 224 255
201 224 255
201 224 255
201 224 255
201 224 255
201 224 255
201 225 255
201 225 255
201 225 255
201 225 255
201 225 255
202 225 255
202 225 255
202 225 255
202 225 255
202 225 255
202 225 255
202 225 255
202 225 255
202 225 255
202 225 255
202 225 255
202 225 255
202 225 255
202 225 255
202 225 255
202 225 255
202 225 255
203 225 255
203 225 255
203 225 255
203 225 255
203 225 255
203 225 255
203 225 255
203 225 255
203 226 255
203 226 255
203 226 255
203 226 255
203 226 255
203 226 255
203 226 255
204 226 255
204 226 255
204 226 255
204 226 255
204 226 255
204 226 255
204 226 255
204 226 255
204 226 255
204 226 255
204 226 255
204 226 255
204 226 255
204 226 255
204 226 255
204 226 255
205 226 255
205 226 255
205 226 255
205 226 255
205 226 255
205 226 255
205 227 255
205 227 255
205 227 255
205 227 255
205 227 255
205 227 255
205 227 255
205 227 255
205 227 255
205 227 255
206 227 255
206 227 255
206 227 255
206 227 255
206 227 255
206 227 255
206 227 255
206 227 255
206 227 255
206 227 255
206 227 255
206 227 255
206 227 255
206 227 255
206 227 255
206 227 255
206 227 255
207 227 255
207 227 255
207 227 255
207 227 255
207 227 255
207 228 255
207 228 255
207 228 255
207 228 255
207 228 255
207 228 255
207 228 255
207 228 255
207 228 255
207 228 255
207 228 255
207 228 255
207 228 255
207 228 255
208 228 255
208 228 255
208 228 255
208 228 255
208 228 255
208 228 255
208 228 255
208 228 255
208 228 255
208 228 255
208 228 255
208 228 255
208 228 255
208 228 255
208 228 255
208 228 255
208 228 255
208 228 255
208 228 255
208 228 255
208 228 255
209 228 255
209 229 255
209 229 255
209 229 255
209 229 255
209 229 255
209 229 255
209 229 255
209 229 255
209 229 255
209 229 255
209 229 255
209 229 255
209 229 255
209 229 255
209 229 255
209 229 255
209 229 255
209 229 255
209 229 255
209 229 255
209 229 255
209 229 255
209 229 255
209 229 255
209 229 255
209 229 255
209 229 255
209 229 255
209 229 255
209 229 255
209 229 255
209 228 255
209 228 255
208 228 255
208 228 255
208 228 255
208 228 255
208 228 255
208 228 255
208 228 255
208 228 255
208 228 255
208 228 255
208 228 255
208 228 255
208 228 255
208 228 255
208 228 255
208 228 255
208 228 255
208 228 255
208 228 255
208 228 255
207 228 255
207 228 255
207 228 255
207 228 255
207 228 255
207 228 255
207 228 255
207 228 255
207 228 255
207 228 255
207 228 255
207 228 255
207 228 255
207 228 255
207 227 255
207 227 255
207 227 255
207 227 255
207 227 255
206 227 255
206 227 255
206 227 255
206 227 255
206 227 255
206 227 255
206 227 255
206 227 255
206 227 255
206 227 255
206 227 255
206 227 255
206 227 255
206 227 255
206 227 255
206 227 255
206 227 255
205 227 255
205 227 255
205 227 255
205 227 255
205 227 255
205 227 255
205 227 255
205 227 255
205 227 255
205 226 255
205 226 255
205 226 255
205 226 255
205 226 255
205 226 255
205 226 255
204 226 255
204 226 255
204 226 255
204 226 255
204 226 255
204 226 255
204 226 255
204 226 255
204 226 255
204 226 255
204 226 255
204 226 255
204 226 255
204 226 255
204 226 255
204 226 255
203 226 255
203 226 255
203 226 255
203 226 255
203 226 255
203 226 255
203 226 255
203 225 255
203 225 255
203 225 255
203 225 255
203 225 255
203 225 255
203 225 255
203 225 255
202 225 255
202 225 255
202 225 255
202 225 255
202 225 255
202 225 255
202 225 255
202 225 255
202 225 255
202 225 255
202 225 255
202 225 255
202 225 255
202 225 255
202 225 255
202 225 255
202 225 255
201 225 255
201 225 255
201 225 255
201 225 255
201 225 255
201 224 255
201 224 255
201 224 255
201 224 255
201 224 255
201 224 255
201 224 255
201 224 255
201 224 255
201 224 255
201 224 255
201 224 255
201 224 255
201 224 255
200 224 255
200 224 255
200 224 255
200 224 255
200 224 255
200 224 255
200 224 255
200 224 255
200 224 255
200 224 255
200 224 255
200 224 255
200 224 255
200 224 255
200 224 255
200 224 255
200 224 255
200 224 255
200 224 255
200 224 255
200 224 255
200 224 255
200 224 255
200 224 255
200 224 255
200 224 255
200 224 255
200 224 255
200 224 255
200 224 255
200 224 255
200 224 255
200 224 255
200 224 255
200 224 255
200 224 255
200 224 255
199 224 255
199 224 255
199 224 255
199 224 255
199 224 255
199 224 255
199 224 255
199 224 255
199 224 255
200 224 255
199 224 255
200 224 255
200 224 255
200 224 255
200 224 255
200 224 255
200 224 255
200 224 255
200 224 255
200 224 255
200 224 255
200 224 255
200 224 255
200 224 255
200 224 255
200 224 255
200 224 255
200 224 255
200 224 255
200 224 255
200 224 255
200 224 255
200 224 255
200 224 255
200 224 255
200 224 255
200 224 255
200 224 255
200 224 255
200 224 255
200 224 255
200 224 255
200 224 255
200 224 255
200 224 255
200 224 255
200 224 255
201 224 255
201 224 255
201 224 255
201 224 255
201 224 255
201 224 255
201 224 255
201 224 255
201 224 255
201 224 255
201 224 255
201 224 255
201 224 255
201 224 255
201 225 255
201 225 255
201 225 255
201 225 255
201 225 255
202 225 255
202 225 255
202 225 255
202 225 255
202 225 255
202 225 255
202 225 255
202 225 255
202 225 255
202 225 255
202 225 255
202 225 255
202 225 255
202 225 255
202 225 255
202 225 255
202 225 255
203 225 255
203 225 255
203 225 255
203 225 255
203 225 255
203 225 255
203 225 255
203 225 255
203 226 255
203 226 255
203 226 255
203 226 255
203 226 255
203 226 255
203 226 255
204 226 255
204 226 255
204 226 255
204 226 255
204 226 255
204 226 255
204 226 255
204 226 255
204 226 255
204 226 255
204 226 255
204 226 255
204 226 255
204 226 255
204 226 255
204 226 255
205 226 255
205 226 255
205 226 255
205 226 255
205 226 255
205 226 255
205 226 255
205 227 255
205 227 255
205 227 255
205 227 255
205 227 255
205 227 255
205 227 255
205 227 255
205 227 255
206 227 255
206 227 255
206 227 255
206 227 255
206 227 255
206 227 255
206 227 255
206 227 255
206 227 255
206 227 255
206 227 255
206 227 255
206 227 255
206 227 255
206 227 255
206 227 255
206 227 255
207 227 255
207 227 255
207 227 255
207 227 255
207 227 255
207 228 255
207 228 255
207 228 255
207 228 255
207 228 255
207 228 255
207 228 255
207 228 255
207 228 255
207 228 255
207 228 255
207 228 255
207 228 255
207 228 255
208 228 255
208 228 255
208 228 255
208 228 255
208 228 255
208 228 255
208 228 255
208 228 255
208 228 255
208 228 255
208 228 255
208 228 255
208 228 255
208 228 255
208 228 255
208 228 255
208 228 255
208 228 255
208 228 255
208 228 255
209 228 255
209 228 255
209 229 255
209 229 255
209 229 255
209 229 255
209 229 255
209 229 255
209 229 255
209 229 255
209 229 255
209 229 255
209 229 255
209 229 255
209 229 255
209 229 255
209 229 255
209 229 255
209 229 255
209 229 255
209 229 255
209 229 255
209 229 255
209 229 255
209 229 255
209 229 255
209 229 255
209 229 255
209 229 255
209 229 255
209 229 255
209 229 255
209 229 255
209 229 255
209 229 255
209 229 255
209 229 255
209 229 255
209 229 255
209 228 255
209 228 255
208 228 255
208 228 255
208 228 255
208 228 255
208 228 255
208 228 255
208 228 255
208 228 255
208 228 255
208 228 255
208 228 255
208 228 255
208 228 255
208 228 255
208 228 255
208 228 255
208 228 255
208 228 255
208 228 255
208 228 255
207 228 255
207 228 255
207 228 255
207 228 255
207 228 255
207 228 255
207 228 255
207 228 255
207 228 255
207 228 255
207 228 255
207 228 255
207 228 255
207 228 255
207 227 255
207 227 255
207 227 255
207 227 255
207 227 255
206 227 255
206 227 255
206 227 255
206 227 255
206 227 255
206 227 255
206 227 255
206 227 255
206 227 255
206 227 255
206 227 255
206 227 255
206 227 255
206 227 255
206 227 255
206 227 255
206 227 255
205 227 255
205 227 255
205 227 255
205 227 255
205 227 255
205 227 255
205 227 255
205 227 255
205 227 255
205 227 255
205 226 255
205 226 255
205 226 255
205 226 255
205 226 255
205 226 255
204 226 255
204 226 255
204 226 255
204 226 255
204 226 255
204 226 255
204 226 255
204 226 255
204 226 255
204 226 255
204 226 255
204 226 255
204 226 255
204 226 255
204 226 255
204 226 255
203 226 255
203 226 255
203 226 255
203 226 255
203 226 255
203 226 255
203 226 255
203 225 255
203 225 255
203 225 255
203 225 255
203 225 255
203 225 255
203 225 255
203 225 255
203 225 255
202 225 255
202 225 255
202 225 255
202 225 255
202 225 255
202 225 255
202 225 255
202 225 255
202 225 255
202 225 255
202 225 255
202 225 255
202 225 255
202 225 255
202 225 255
202 225 255
202 225 255
201 225 255
201 225 255
201 225 255
201 225 255
201 225 255
201 224 255
201 224 255
201 224 255
201 224 255
201 224 255
201 224 255
201 224 255
201 224 255
201 224 255
201 224 255
201 224 255
201 224 255
201 224 255
201 224 255
201 224 255
200 224 255
200 224 255
200 224 255
200 224 255
200 224 255
200 224 255
200 224 255
200 224 255
200 224 255
200 224 255
200 224 255
200 224 255
200 224 255
200 224 255
200 224 255
200 224 255
200 224 255
200 224 255
200 224 255
200 224 255
200 224 255
200 224 255
200 224 255
200 224 255
200 224 255
200 224 255
200 224 255
200 224 255
200 224 255
200 224 255
200 224 255
200 224 255
200 224 255
200 224 255
200 224 255
200 224 255
200 224 255
200 224 255
200 224 255
200 224 255
200 224 255
200 224 255
200 224 255
200 224 255
200 224 255
200 224 255
200 224 255
200 224 255
200 224 255
200 224 255
200 224 255
200 224 255
200 224 255
200 224 255
200 224 255
200 224 255
200 224 255
200 224 255
200 224 255
200 224 255
200 224 255
200 224 255
200 224 255
200 224 255
200 224 255
200 224 255
200 224 255
200 224 255
200 224 255
200 224 255
200 224 255
200 224 255
200 224 255
200 224 255
201 224 255
201 224 255
201 224 255
201 224 255
201 224 255
201 224 255
201 224 255
201 224 255
201 224 255
201 224 255
201 224 255
201 224 255
201 224 255
201 224 255
201 224 255
201 225 255
201 225 255
201 225 255
201 225 255
201 225 255
202 225 255
202 225 255
202 225 255
202 225 255
202 225 255
202 225 255
202 225 255
202 225 255
202 225 255
202 225 255
202 225 255
202 225 255
202 225 255
202 225 255
202 225 255
202 225 255
202 225 255
203 225 255
203 225 255
203 225 255
203 225 255
203 225 255
203 225 255
203 225 255
203 225 255
203 225 255
203 226 255
203 226 255
203 226 255
203 226 255
203 226 255
203 226 255
203 226 255
204 226 255
204 226 255
204 226 255
204 226 255
204 226 255
204 226 255
204 226 255
204 226 255
204 226 255
204 226 255
204 226 255
204 226 255
204 226 255
204 226 255
204 226 255
204 226 255
205 226 255
205 226 255
205 226 255
205 226 255
205 226 255
205 226 255
205 227 255
205 227 255
205 227 255
205 227 255
205 227 255
205 227 255
205 227 255
205 227 255
205 227 255
205 227 255
206 227 255
206 227 255
206 227 255
206 227 255
206 227 255
206 227 255
206 227 255
206 227 255
206 227 255
206 227 255
206 227 255
206 227 255
206 227 255
206 227 255
206 227 255
206 227 255
206 227 255
207 227 255
207 227 255
207 227 255
207 227 255
207 227 255
207 228 255
207 228 255
207 228 255
207 228 255
207 228 255
207 228 255
207 228 255
207 228 255
207 228 255
207 228 255
207 228 255
207 228 255
207 228 255
207 228 255
208 228 255
208 228 255
208 228 255
208 228 255
208 228 255
208 228 255
208 228 255
208 228 255
208 228 255
208 228 255
208 228 255
208 228 255
208 228 255
208 228 255
208 228 255
208 228 255
208 228 255
208 228 255
208 228 255
208 228 255
209 228 255
209 228 255
209 229 255
209 229 255
209 229 255
209 229 255
209 229 255
209 229 255
209 229 255
209 229 255
209 229 255
209 229 255
209 229 255
209 229 255
209 229 255
209 229 255
209 229 255
209 229 255
209 229 255
209 229 255
209 229 255
209 229 255
210 229 255
210 229 255
210 229 255
209 229 255
209 229 255
209 229 255
209 229 255
209 229 255
209 229 255
209 229 255
209 229 255
209 229 255
209 229 255
209 229 255
209 229 255
209 229 255
209 229 255
209 229 255
209 229 255
209 229 255
209 229 255
209 229 255
209 229 255
209 229 255
209 228 255
208 228 255
208 228 255
208 228 255
208 228 255
208 228 255
208 228 255
208 228 255
208 228 255
208 228 255
208 228 255
208 228 255
208 228 255
208 228 255
208 228 255
208 228 255
208 228 255
208 228 255
208 228 255
208 228 255
208 228 255
207 228 255
207 228 255
207 228 255
207 228 255
207 228 255
207 228 255
207 228 255
207 228 255
207 228 255
207 228 255
207 228 255
207 228 255
207 228 255
207 228 255
207 227 255
207 227 255
207 227 255
207 227 255
207 227 255
206 227 255
206 227 255
206 227 255
206 227 255
206 227 255
206 227 255
206 227 255
206 227 255
206 227 255
206 227 255
206 227 255
206 227 255
206 227 255
206 227 255
206 227 255
206 227 255
206 227 255
205 227 255
205 227 255
205 227 255
205 227 255
205 227 255
205 227 255
205 227 255
205 227 255
205 227 255
205 227 255
205 226 255
205 226 255
205 226 255
205 226 255
205 226 255
205 226 255
204 226 255
204 226 255
204 226 255
204 226 255
204 226 255
204 226 255
204 226 255
204 226 255
204 226 255
204 226 255
204 226 255
204 226 255
204 226 255
204 226 255
204 226 255
204 226 255
203 226 255
203 226 255
203 226 255
203 226 255
203 226 255
203 226 255
203 226 255
203 225 255
203 225 255
203 225 255
203 225 255
203 225 255
203 225 255
203 225 255
203 225 255
203 225 255
202 225 255
202 225 255
202 225 255
202 225 255
202 225 255
202 225 255
202 225 255
202 225 255
202 225 255
202 225 255
202 225 255
202 225 255
202 225 255
202 225 255
202 225 255
202 225 255
202 225 255
202 225 255
201 225 255
201 225 255
201 225 255
201 225 255
201 225 255
201 224 255
201 224 255
201 224 255
201 224 255
201 224 255
201 224 255
201 224 255
201 224 255
201 224 255
201 224 255
201 224 255
201 224 255
201 224 255
201 224 255
201 224 255
201 224 255
200 224 255
200 224 255
200 224 255
200 224 255
200 224 255
200 224 255
200 224 255
200 224 255
200 224 255
200 224 255
200 224 255
200 224 255
200 224 255
200 224 255
200 224 255
200 224 255
200 224 255
200 224 255
200 224 255
200 224 255
200 224 255
200 224 255
200 224 255
200 224 255
200 224 255
200 224 255
200 224 255
200 224 255
200 224 255
200 224 255
200 224 255
200 224 255
200 224 255
200 224 255
200 224 255
200 224 255
200 224 255
200 224 255
200 224 255
200 224 255
200 224 255
200 224 255
200 224 255
200 224 255
200 224 255
200 224 255
200 224 255
200 224 255
200 224 255
200 224 255
200 224 255
200 224 255
200 224 255
200 224 255
200 224 255
200 224 255
200 224 255
200 224 255
200 224 255
200 224 255
200 224 255
200 224 255
200 224 255
201 224 255
201 224 255
201 224 255
201 224 255
201 224 255
201 224 255
201 224 255
201 224 255
201 224 255
201 224 255
201 224 255
201 224 255
201 224 255
201 224 255
201 224 255
201 224 255
201 224 255
201 225 255
201 225 255
201 225 255
201 225 255
201 225 255
201 225 255
202 225 255
202 225 255
202 225 255
202 225 255
202 225 255
202 225 255
202 225 255
202 225 255
202 225 255
202 225 255
202 225 255
202 225 255
202 225 255
202 225 255
202 225 255
202 225 255
202 225 255
203 225 255
203 225 255
203 225 255
203 225 255
203 225 255
203 225 255
203 225 255
203 225 255
203 225 255
203 226 255
203 226 255
203 226 255
203 226 255
203 226 255
203 226 255
203 226 255
204 226 255
204 226 255
204 226 255
204 226 255
204 226 255
204 226 255
204 226 255
204 226 255
204 226 255
204 226 255
204 226 255
204 226 255
204 226 255
204 226 255
204 226 255
204 226 255
205 226 255
205 226 255
205 226 255
205 226 255
205 226 255
205 226 255
205 226 255
205 227 255
205 227 255
205 227 255
205 227 255
205 227 255
205 227 255
205 227 255
205 227 255
205 227 255
206 227 255
206 227 255
206 227 255
206 227 255
206 227 255
206 227 255
206 227 255
206 227 255
206 227 255
206 227 255
206 227 255
206 227 255
206 227 255
206 227 255
206 227 255
206 227 255
206 227 255
207 227 255
207 227 255
207 227 255
207 227 255
207 227 255
207 228 255
207 228 255
207 228 255
207 228 255
207 228 255
207 228 255
207 228 255
207 228 255
207 228 255
207 228 255
207 228 255
207 228 255
207 228 255
207 228 255
208 228 255
208 228 255
208 228 255
208 228 255
208 228 255
208 228 255
208 228 255
208 228 255
208 228 255
208 228 255
208 228 255
208 228 255
208 228 255
208 228 255
208 228 255
208 228 255
208 228 255
208 228 255
208 228 255
208 228 255
209 228 255
209 229 255
209 229 255
209 229 255
209 229 255
209 229 255
209 229 255
209 229 255
209 229 255
209 229 255
209 229 255
209 229 255
209 229 255
209 229 255
209 229 255
209 229 255
209 229 255
209 229 255
209 229 255
209 229 255
209 229 255
209 229 255
210 229 255
210 229 255
210 229 255
210 229 255
210 229 255
210 229 255
210 229 255
210 229 255
210 229 255
209 229 255
209 229 255
209 229 255
209 229 255
209 229 255
209 229 255
209 229 255
209 229 255
209 229 255
209 229 255
209 229 255
209 229 255
209 229 255
209 229 255
209 229 255
209 229 255
209 229 255
209 229 255
209 229 255
209 229 255
209 229 255
209 228 255
209 228 255
208 228 255
208 228 255
208 228 255
208 228 255
208 228 255
208 228 255
208 228 255
208 228 255
208 228 255
208 228 255
208 228 255
208 228 255
208 228 255
208 228 255
208 228 255
208 228 255
208 228 255
208 228 255
208 228 255
208 228 255
207 228 255
207 228 255
207 228 255
207 228 255
207 228 255
207 228 255
207 228 255
207 228 255
207 228 255
207 228 255
207 228 255
207 228 255
207 228 255
207 228 255
207 227 255
207 227 255
207 227 255
207 227 255
206 227 255
206 227 255
206 227 255
206 227 255
206 227 255
206 227 255
206 227 255
206 227 255
206 227 255
206 227 255
206 227 255
206 227 255
206 227 255
206 227 255
206 227 255
206 227 255
206 227 255
205 227 255
205 227 255
205 227 255
205 227 255
205 227 255
205 227 255
205 227 255
205 227 255
205 227 255
205 227 255
205 226 255
205 226 255
205 226 255
205 226 255
205 226 255
205 226 255
204 226 255
204 226 255
204 226 255
204 226 255
204 226 255
204 226 255
204 226 255
204 226 255
204 226 255
204 226 255
204 226 255
204 226 255
204 226 255
204 226 255
204 226 255
204 226 255
203 226 255
203 226 255
203 226 255
203 226 255
203 226 255
203 226 255
203 226 255
203 225 255
203 225 255
203 225 255
203 225 255
203 225 255
203 225 255
203 225 255
203 225 255
203 225 255
202 225 255
202 225 255
202 225 255
202 225 255
202 225 255
202 225 255
202 225 255
202 225 255
202 225 255
202 225 255
202 225 255
202 225 255
202 225 255
202 225 255
202 225 255
202 225 255
202 225 255
202 225 255
202 225 255
201 225 255
201 225 255
201 225 255
201 225 255
201 225 255
201 225 255
201 224 255
201 224 255
201 224 255
201 224 255
201 224 255
201 224 255
201 224 255
201 224 255
201 224 255
201 224 255
201 224 255
201 224 255
201 224 255
201 224 255
201 224 255
201 224 255
201 224 255
201 224 255
200 224 255
200 224 255
200 224 255
200 224 255
200 224 255
200 224 255
200 224 255
200 224 255
200 224 255
200 224 255
200 224 255
200 224 255
200 224 255
200 224 255
200 224 255
200 224 255
200 224 255
200 224 255
200 224 255
200 224 255
200 224 255
200 224 255
200 224 255
200 224 255
200 224 255
200 224 255
200 224 255
200 224 255
200 224 255
200 224 255
200 224 255
200 224 255
200 224 255
200 224 255
200 224 255
200 224 255
200 224 255
200 224 255
200 224 255
200 224 255
200 224 255
200 224 255
200 224 255
200 224 255
200 224 255
200 224 255
200 224 255
200 224 255
200 224 255
200 224 255
201 224 255
201 224 255
201 224 255
201 224 255
201 224 255
201 224 255
201 224 255
201 224 255
201 224 255
201 224 255
201 224 255
201 224 255
201 224 255
201 224 255
201 224 255
201 224 255
201 224 255
201 224 255
201 225 255
201 225 255
201 225 255
201 225 255
201 225 255
201 225 255
201 225 255
202 225 255
202 225 255
202 225 255
202 225 255
202 225 255
202 225 255
202 225 255
202 225 255
202 225 255
202 225 255
202 225 255
202 225 255
202 225 255
202 225 255
202 225 255
202 225 255
202 225 255
202 225 255
203 225 255
203 225 255
203 225 255
203 225 255
203 225 255
203 225 255
203 225 255
203 225 255
203 225 255
203 226 255
203 226 255
203 226 255
203 226 255
203 226 255
203 226 255
203 226 255
204 226 255
204 226 255
204 226 255
204 226 255
204 226 255
204 226 255
204 226 255
204 226 255
204 226 255
204 226 255
204 226 255
204 226 255
204 226 255
204 226 255
204 226 255
204 226 255
205 226 255
205 226 255
205 226 255
205 226 255
205 226 255
205 226 255
205 227 255
205 227 255
205 227 255
205 227 255
205 227 255
205 227 255
205 227 255
205 227 255
205 227 255
205 227 255
206 227 255
206 227 255
206 227 255
206 227 255
206 227 255
206 227 255
206 227 255
206 227 255
206 227 255
206 227 255
206 227 255
206 227 255
206 227 255
206 227 255
206 227 255
206 227 255
206 227 255
207 227 255
207 227 255
207 227 255
207 227 255
207 228 255
207 228 255
207 228 255
207 228 255
207 228 255
207 228 255
207 228 255
207 228 255
207 228 255
207 228 255
207 228 255
207 228 255
207 228 255
207 228 255
208 228 255
208 228 255
208 228 255
208 228 255
208 228 255
208 228 255
208 228 255
208 228 255
208 228 255
208 228 255
208 228 255
208 228 255
208 228 255
208 228 255
208 228 255
208 228 255
208 228 255
208 228 255
208 228 255
208 228 255
209 228 255
209 228 255
209 229 255
209 229 255
209 229 255
209 229 255
209 229 255
209 229 255
209 229 255
209 229 255
209 229 255
209 229 255
209 229 255
209 229 255
209 229 255
209 229 255
209 229 255
209 229 255
209 229 255
209 229 255
209 229 255
209 229 255
209 229 255
210 229 255
210 229 255
210 229 255
210 229 255
210 229 255
210 229 255
210 229 255
210 229 255
210 229 255
210 229 255
210 229 255
210 229 255
210 229 255
210 229 255
210 229 255
210 229 255
209 229 255
209 229 255
209 229 255
209 229 255
209 229 255
209 229 255
209 229 255
209 229 255
209 229 255
209 229 255
209 229 255
209 229 255
209 229 255
209 229 255
209 229 255
209 229 255
209 229 255
209 229 255
209 229 255
209 229 255
209 229 255
209 228 255
208 228 255
208 228 255
208 228 255
208 228 255
208 228 255
208 228 255
208 228 255
208 228 255
208 228 255
208 228 255
208 228 255
208 228 255
208 228 255
208 228 255
208 228 255
208 228 255
208 228 255
208 228 255
208 228 255
208 228 255
207 228 255
207 228 255
207 228 255
207 228 255
207 228 255
207 228 255
207 228 255
207 228 255
207 228 255
207 228 255
207 228 255
207 228 255
207 228 255
207 228 255
207 227 255
207 227 255
207 227 255
207 227 255
206 227 255
206 227 255
206 227 255
206 227 255
206 227 255
206 227 255
206 227 255
206 227 255
206 227 255
206 227 255
206 227 255
206 227 255
206 227 255
206 227 255
206 227 255
206 227 255
206 227 255
205 227 255
205 227 255
205 227 255
205 227 255
205 227 255
205 227 255
205 227 255
205 227 255
205 227 255
205 227 255
205 226 255
205 226 255
205 226 255
205 226 255
205 226 255
205 226 255
204 226 255
204 226 255
204 226 255
204 226 255
204 226 255
204 226 255
204 226 255
204 226 255
204 226 255
204 226 255
204 226 255
204 226 255
204 226 255
204 226 255
204 226 255
204 226 255
203 226 255
203 226 255
203 226 255
203 226 255
203 226 255
203 226 255
203 226 255
203 226 255
203 225 255
203 225 255
203 225 255
203 225 255
203 225 255
203 225 255
203 225 255
203 225 255
203 225 255
202 225 255
202 225 255
202 225 255
202 225 255
202 225 255
202 225 255
202 225 255
202 225 255
202 225 255
202 225 255
202 225 255
202 225 255
202 225 255
202 225 255
202 225 255
202 225 255
202 225 255
202 225 255
202 225 255
201 225 255
201 225 255
201 225 255
201 225 255
201 225 255
201 225 255
201 224 255
201 224 255
201 224 255
201 224 255
201 224 255
201 224 255
201 224 255
201 224 255
201 224 255
201 224 255
201 224 255
201 224 255
201 224 255
201 224 255
201 224 255
201 224 255
201 224 255
201 224 255
201 224 255
201 224 255
201 224 255
201 224 255
201 224 255
200 224 255
200 224 255
200 224 255
200 224 255
200 224 255
200 224 255
200 224 255
200 224 255
200 224 255
200 224 255
200 224 255
200 224 255
200 224 255
200 224 255
200 224 255
200 224 255
200 224 255
200 224 255
200 224 255
200 224 255
200 224 255
200 224 255
200 224 255
200 224 255
200 224 255
200 224 255
200 224 255
200 224 255
200 224 255
200 224 255
200 224 255
200 224 255
201 224 255
201 224 255
201 224 255
201 224 255
201 224 255
201 224 255
201 224 255
201 224 255
201 224 255
201 224 255
201 224 255
201 224 255
201 224 255
201 224 255
201 224 255
201 224 255
201 224 255
201 224 255
201 224 255
201 224 255
201 224 255
201 224 255
201 224 255
201 225 255
201 225 255
201 225 255
201 225 255
201 225 255
201 225 255
202 225 255
202 225 255
202 225 255
202 225 255
202 225 255
202 225 255
202 225 255
202 225 255
202 225 255
202 225 255
202 225 255
202 225 255
202 225 255
202 225 255
202 225 255
202 225 255
202 225 255
202 225 255
202 225 255
203 225 255
203 225 255
203 225 255
203 225 255
203 225 255
203 225 255
203 225 255
203 225 255
203 225 255
203 225 255
203 226 255
203 226 255
203 226 255
203 226 255
203 226 255
203 226 255
203 226 255
204 226 255
204 226 255
204 226 255
204 226 255
204 226 255
204 226 255
204 226 255
204 226 255
204 226 255
204 226 255
204 226 255
204 226 255
204 226 255
204 226 255
204 226 255
204 226 255
205 226 255
205 226 255
205 226 255
205 226 255
205 226 255
205 226 255
205 227 255
205 227 255
205 227 255
205 227 255
205 227 255
205 227 255
205 227 255
205 227 255
205 227 255
205 227 255
206 227 255
206 227 255
206 227 255
206 227 255
206 227 255
206 227 255
206 227 255
206 227 255
206 227 255
206 227 255
206 227 255
206 227 255
206 227 255
206 227 255
206 227 255
206 227 255
206 227 255
207 227 255
207 227 255
207 227 255
207 227 255
207 227 255
207 228 255
207 228 255
207 228 255
207 228 255
207 228 255
207 228 255
207 228 255
207 228 255
207 228 255
207 228 255
207 228 255
207 228 255
207 228 255
208 228 255
208 228 255
208 228 255
208 228 255
208 228 255
208 228 255
208 228 255
208 228 255
208 228 255
208 228 255
208 228 255
208 228 255
208 228 255
208 228 255
208 228 255
208 228 255
208 228 255
208 228 255
208 228 255
208 228 255
209 228 255
209 229 255
209 229 255
209 229 255
209 229 255
209 229 255
209 229 255
209 229 255
209 229 255
209 229 255
209 229 255
209 229 255
209 229 255
209 229 255
209 229 255
209 229 255
209 229 255
209 229 255
209 229 255
209 229 255
209 229 255
209 229 255
210 229 255
210 229 255
210 229 255
210 229 255
210 229 255
210 229 255
210 229 255
210 229 255
210 229 255
210 229 255
210 229 255
210 229 255
210 229 255
210 229 255
210 229 255
210 229 255
210 229 255
210 229 255
210 229 255
210 229 255
210 229 255
210 229 255
210 229 255
209 229 255
209 229 255
209 229 255
209 229 255
209 229 255
209 229 255
209 229 255
209 229 255
209 229 255
209 229 255
209 229 255
209 229 255
209 229 255
209 229 255
209 229 255
209 229 255
209 229 255
209 229 255
209 229 255
209 229 255
209 229 255
209 228 255
209 228 255
208 228 255
208 228 255
208 228 255
208 228 255
208 228 255
208 228 255
208 228 255
208 228 255
208 228 255
208 228 255
208 228 255
208 228 255
208 228 255
208 228 255
208 228 255
208 228 255
208 228 255
208 228 255
208 228 255
207 228 255
207 228 255
207 228 255
207 228 255
207 228 255
207 228 255
207 228 255
207 228 255
207 228 255
207 228 255
207 228 255
207 228 255
207 228 255
207 228 255
207 227 255
207 227 255
207 227 255
207 227 255
206 227 255
206 227 255
206 227 255
206 227 255
206 227 255
206 227 255
206 227 255
206 227 255
206 227 255
206 227 255
206 227 255
206 227 255
206 227 255
206 227 255
206 227 255
206 227 255
206 227 255
205 227 255
205 227 255
205 227 255
205 227 255
205 227 255
205 227 255
205 227 255
205 227 255
205 227 255
205 227 255
205 226 255
205 226 255
205 226 255
205 226 255
205 226 255
205 226 255
204 226 255
204 226 255
204 226 255
204 226 255
204 226 255
204 226 255
204 226 255
204 226 255
204 226 255
204 226 255
204 226 255
204 226 255
204 226 255
204 226 255
204 226 255
204 226 255
204 226 255
203 226 255
203 226 255
203 226 255
203 226 255
203 226 255
203 226 255
203 226 255
203 225 255
203 225 255
203 225 255
203 225 255
203 225 255
203 225 255
203 225 255
203 225 255
203 225 255
202 225 255
202 225 255
202 225 255
202 225 255
202 225 255
202 225 255
202 225 255
202 225 255
202 225 255
202 225 255
202 225 255
202 225 255
202 225 255
202 225 255
202 225 255
202 225 255
202 225 255
202 225 255
202 225 255
202 225 255
202 225 255
201 225 255
201 225 255
201 225 255
201 225 255
201 225 255
201 225 255
201 225 255
201 224 255
201 224 255
201 224 255
201 224 255
201 224 255
201 224 255
201 224 255
201 224 255
201 224 255
201 224 255
201 224 255
201 224 255
201 224 255
201 224 255
201 224 255
201 224 255
201 224 255
201 224 255
201 224 255
201 224 255
201 224 255
201 224 255
201 224 255
201 224 255
201 224 255
201 224 255
201 224 255
201 224 255
201 224 255
201 224 255
201 224 255
201 224 255
201 224 255
201 224 255
201 224 255
201 224 255
201 224 255
201 224 255
201 224 255
201 224 255
201 224 255
201 224 255
201 224 255
201 224 255
201 224 255
201 224 255
201 224 255
201 224 255
201 224 255
201 224 255
201 224 255
201 224 255
201 224 255
201 224 255
201 224 255
201 224 255
201 224 255
201 224 255
201 224 255
201 224 255
201 224 255
201 224 255
201 224 255
201 224 255
201 224 255
201 224 255
201 225 255
201 225 255
201 225 255
201 225 255
201 225 255
201 225 255
201 225 255
202 225 255
202 225 255
202 225 255
202 225 255
202 225 255
202 225 255
202 225 255
202 225 255
202 225 255
202 225 255
202 225 255
202 225 255
202 225 255
202 225 255
202 225 255
202 225 255
202 225 255
202 225 255
202 225 255
202 225 255
203 225 255
203 225 255
203 225 255
203 225 255
203 225 255
203 225 255
203 225 255
203 225 255
203 225 255
203 225 255
203 226 255
203 226 255
203 226 255
203 226 255
203 226 255
203 226 255
203 226 255
204 226 255
204 226 255
204 226 255
204 226 255
204 226 255
204 226 255
204 226 255
204 226 255
204 226 255
204 226 255
204 226 255
204 226 255
204 226 255
204 226 255
204 226 255
204 226 255
204 226 255
205 226 255
205 226 255
205 226 255
205 226 255
205 226 255
205 226 255
205 227 255
205 227 255
205 227 255
205 227 255
205 227 255
205 227 255
205 227 255
205 227 255
205 227 255
205 227 255
206 227 255
206 227 255
206 227 255
206 227 255
206 227 255
206 227 255
206 227 255
206 227 255
206 227 255
206 227 255
206 227 255
206 227 255
206 227 255
206 227 255
206 227 255
206 227 255
206 227 255
207 227 255
207 227 255
207 227 255
207 227 255
207 228 255
207 228 255
207 228 255
207 228 255
207 228 255
207 228 255
207 228 255
207 228 255
207 228 255
207 228 255
207 228 255
207 228 255
207 228 255
207 228 255
208 228 255
208 228 255
208 228 255
208 228 255
208 228 255
208 228 255
208 228 255
208 228 255
208 228 255
208 228 255
208 228 255
208 228 255
208 228 255
208 228 255
208 228 255
208 228 255
208 228 255
208 228 255
208 228 255
208 228 255
209 228 255
209 229 255
209 229 255
209 229 255
209 229 255
209 229 255
209 229 255
209 229 255
209 229 255
209 229 255
209 229 255
209 229 255
209 229 255
209 229 255
209 229 255
209 229 255
209 229 255
209 229 255
209 229 255
209 229 255
209 229 255
210 229 255
210 229 255
210 229 255
210 229 255
210 229 255
210 229 255
210 229 255
210 229 255
210 229 255
210 229 255
210 229 255
210 229 255
210 229 255
210 229 255
210 229 255
210 229 255
210 229 255
210 229 255
210 229 255
210 229 255
210 229 255
210 229 255
210 229 255
210 229 255
210 229 255
210 229 255
210 229 255
210 229 255
210 229 255
210 229 255
210 229 255
209 229 255
209 229 255
209 229 255
209 229 255
209 229 255
209 229 255
209 229 255
209 229 255
209 229 255
209 229 255
209 229 255
209 229 255
209 229 255
209 229 255
209 229 255
209 229 255
209 229 255
209 229 255
209 229 255
209 229 255
209 228 255
209 228 255
208 228 255
208 228 255
208 228 255
208 228 255
208 228 255
208 228 255
208 228 255
208 228 255
208 228 255
208 228 255
208 228 255
208 228 255
208 228 255
208 228 255
208 228 255
208 228 255
208 228 255
208 228 255
208 228 255
207 228 255
207 228 255
207 228 255
207 228 255
207 228 255
207 228 255
207 228 255
207 228 255
207 228 255
207 228 255
207 228 255
207 228 255
207 228 255
207 228 255
207 227 255
207 227 255
207 227 255
207 227 255
206 227 255
206 227 255
206 227 255
206 227 255
206 227 255
206 227 255
206 227 255
206 227 255
206 227 255
206 227 255
206 227 255
206 227 255
206 227 255
206 227 255
206 227 255
206 227 255
206 227 255
205 227 255
205 227 255
205 227 255
205 227 255
205 227 255
205 227 255
205 227 255
205 227 255
205 227 255
205 227 255
205 226 255
205 226 255
205 226 255
205 226 255
205 226 255
205 226 255
205 226 255
204 226 255
204 226 255
204 226 255
204 226 255
204 226 255
204 226 255
204 226 255
204 226 255
204 226 255
204 226 255
204 226 255
204 226 255
204 226 255
204 226 255
204 226 255
204 226 255
203 226 255
203 226 255
203 226 255
203 226 255
203 226 255
203 226 255
203 226 255
203 226 255
203 225 255
203 225 255
203 225 255
203 225 255
203 225 255
203 225 255
203 225 255
203 225 255
203 225 255
203 225 255
202 225 255
202 225 255
202 225 255
202 225 255
202 225 255
202 225 255
202 225 255
202 225 255
202 225 255
202 225 255
202 225 255
202 225 255
202 225 255
202 225 255
202 225 255
202 225 255
202 225 255
202 225 255
202 225 255
202 225 255
202 225 255
201 225 255
201 225 255
201 225 255
201 225 255
201 225 255
201 225 255
201 225 255
201 225 255
201 224 255
201 224 255
201 224 255
201 224 255
201 224 255
201 224 255
201 224 255
201 224 255
201 224 255
201 224 255
201 224 255
201 224 255
201 224 255
201 224 255
201 224 255
201 224 255
201 224 255
201 224 255
201 224 255
201 224 255
201 224 255
201 224 255
201 224 255
201 224 255
201 224 255
201 224 255
201 224 255
201 224 255
201 224 255
201 224 255
201 224 255
201 224 255
201 224 255
201 224 255
201 224 255
201 224 255
201 224 255
201 224 255
201 224 255
201 224 255
201 224 255
201 224 255
201 224 255
201 224 255
201 224 255
201 224 255
201 224 255
201 224 255
201 224 255
201 224 255
201 224 255
201 224 255
201 224 255
201 224 255
201 225 255
201 225 255
201 225 255
201 225 255
201 225 255
201 225 255
201 225 255
201 225 255
202 225 255
202 225 255
202 225 255
202 225 255
202 225 255
202 225 255
202 225 255
202 225 255
202 225 255
202 225 255
202 225 255
202 225 255
202 225 255
202 225 255
202 225 255
202 225 255
202 225 255
202 225 255
202 225 255
202 225 255
202 225 255
203 225 255
203 225 255
203 225 255
203 225 255
203 225 255
203 225 255
203 225 255
203 225 255
203 225 255
203 225 255
203 226 255
203 226 255
203 226 255
203 226 255
203 226 255
203 226 255
203 226 255
203 226 255
204 226 255
204 226 255
204 226 255
204 226 255
204 226 255
204 226 255
204 226 255
204 226 255
204 226 255
204 226 255
204 226 255
204 226 255
204 226 255
204 226 255
204 226 255
204 226 255
205 226 255
205 226 255
205 226 255
205 226 255
205 226 255
205 226 255
205 226 255
205 227 255
205 227 255
205 227 255
205 227 255
205 227 255
205 227 255
205 227 255
205 227 255
205 227 255
205 227 255
206 227 255
206 227 255
206 227 255
206 227 255
206 227 255
206 227 255
206 227 255
206 227 255
206 227 255
206 227 255
206 227 255
206 227 255
206 227 255
206 227 255
206 227 255
206 227 255
206 227 255
207 227 255
207 227 255
207 227 255
207 227 255
207 228 255
207 228 255
207 228 255
207 228 255
207 228 255
207 228 255
207 228 255
207 228 255
207 228 255
207 228 255
207 228 255
207 228 255
207 228 255
208 228 255
208 228 255
208 228 255
208 228 255
208 228 255
208 228 255
208 228 255
208 228 255
208 228 255
208 228 255
208 228 255
208 228 255
208 228 255
208 228 255
208 228 255
208 228 255
208 228 255
208 228 255
208 228 255
208 228 255
209 228 255
209 228 255
209 229 255
209 229 255
209 229 255
209 229 255
209 229 255
209 229 255
209 229 255
209 229 255
209 229 255
209 229 255
209 229 255
209 229 255
209 229 255
209 229 255
209 229 255
209 229 255
209 229 255
209 229 255
209 229 255
209 229 255
210 229 255
210 229 255
210 229 255
210 229 255
210 229 255
210 229 255
210 229 255
210 229 255
210 229 255
210 229 255
210 229 255
210 229 255
210 229 255
210 229 255
210 229 255
210 229 255
210 229 255
210 229 255
210 229 255
210 229 255
210 229 255
210 229 255
210 229 255
210 229 255
210 229 255
210 229 255
210 229 255
210 229 255
210 229 255
210 229 255
210 229 255
210 229 255
210 229 255
210 229 255
210 229 255
210 229 255
210 229 255
210 229 255
209 229 255
209 229 255
209 229 255
209 229 255
209 229 255
209 229 255
209 229 255
209 229 255
209 229 255
209 229 255
209 229 255
209 229 255
209 229 255
209 229 255
209 229 255
209 229 255
209 229 255
209 229 255
209 229 255
209 229 255
209 228 255
208 228 255
208 228 255
208 228 255
208 228 255
208 228 255
208 228 255
208 228 255
208 228 255
208 228 255
208 228 255
208 228 255
208 228 255
208 228 255
208 228 255
208 228 255
208 228 255
208 228 255
208 228 255
208 228 255
208 228 255
207 228 255
207 228 255
207 228 255
207 228 255
207 228 255
207 228 255
207 228 255
207 228 255
207 228 255
207 228 255
207 228 255
207 228 255
207 228 255
207 227 255
207 227 255
207 227 255
207 227 255
207 227 255
206 227 255
206 227 255
206 227 255
206 227 255
206 227 255
206 227 255
206 227 255
206 227 255
206 227 255
206 227 255
206 227 255
206 227 255
206 227 255
206 227 255
206 227 255
206 227 255
206 227 255
205 227 255
205 227 255
205 227 255
205 227 255
205 227 255
205 227 255
205 227 255
205 227 255
205 227 255
205 226 255
205 226 255
205 226 255
205 226 255
205 226 255
205 226 255
205 226 255
204 226 255
204 226 255
204 226 255
204 226 255
204 226 255
204 226 255
204 226 255
204 226 255
204 226 255
204 226 255
204 226 255
204 226 255
204 226 255
204 226 255
204 226 255
204 226 255
204 226 255
203 226 255
203 226 255
203 226 255
203 226 255
203 226 255
203 226 255
203 226 255
203 225 255
203 225 255
203 225 255
203 225 255
203 225 255
203 225 255
203 225 255
203 225 255
203 225 255
203 225 255
203 225 255
202 225 255
202 225 255
202 225 255
202 225 255
202 225 255
202 225 255
202 225 255
202 225 255
202 225 255
202 225 255
202 225 255
202 225 255
202 225 255
202 225 255
202 225 255
202 225 255
202 225 255
202 225 255
202 225 255
202 225 255
202 225 255
202 225 255
202 225 255
201 225 255
201 225 255
201 225 255
201 225 255
201 225 255
201 225 255
201 225 255
201 225 255
201 225 255
201 225 255
201 225 255
201 224 255
201 224 255
201 224 255
201 224 255
201 224 255
201 224 255
201 224 255
201 224 255
201 224 255
201 224 255
201 224 255
201 224 255
201 224 255
201 224 255
201 224 255
201 224 255
201 224 255
201 224 255
201 224 255
201 224 255
201 224 255
201 224 255
201 224 255
201 224 255
201 224 255
201 224 255
201 224 255
201 224 255
201 224 255
201 224 255
201 224 255
201 224 255
201 224 255
201 224 255
201 224 255
201 224 255
201 225 255
201 225 255
201 225 255
201 225 255
201 225 255
201 225 255
201 225 255
201 225 255
201 225 255
201 225 255
201 225 255
202 225 255
202 225 255
202 225 255
202 225 255
202 225 255
202 225 255
202 225 255
202 225 255
202 225 255
202 225 255
202 225 255
202 225 255
202 225 255
202 225 255
202 225 255
202 225 255
202 225 255
202 225 255
202 225 255
202 225 255
202 225 255
202 225 255
202 225 255
203 225 255
203 225 255
203 225 255
203 225 255
203 225 255
203 225 255
203 225 255
203 225 255
203 225 255
203 225 255
203 225 255
203 226 255
203 226 255
203 226 255
203 226 255
203 226 255
203 226 255
203 226 255
204 226 255
204 226 255
204 226 255
204 226 255
204 226 255
204 226 255
204 226 255
204 226 255
204 226 255
204 226 255
204 226 255
204 226 255
204 226 255
204 226 255
204 226 255
204 226 255
204 226 255
205 226 255
205 226 255
205 226 255
205 226 255
205 226 255
205 226 255
205 226 255
205 227 255
205 227 255
205 227 255
205 227 255
205 227 255
205 227 255
205 227 255
205 227 255
205 227 255
205 227 255
206 227 255
206 227 255
206 227 255
206 227 255
206 227 255
206 227 255
206 227 255
206 227 255
206 227 255
206 227 255
206 227 255
206 227 255
206 227 255
206 227 255
206 227 255
206 227 255
207 227 255
207 227 255
207 227 255
207 227 255
207 228 255
207 228 255
207 228 255
207 228 255
207 228 255
207 228 255
207 228 255
207 228 255
207 228 255
207 228 255
207 228 255
207 228 255
207 228 255
207 228 255
208 228 255
208 228 255
208 228 255
208 228 255
208 228 255
208 228 255
208 228 255
208 228 255
208 228 255
208 228 255
208 228 255
208 228 255
208 228 255
208 228 255
208 228 255
208 228 255
208 228 255
208 228 255
208 228 255
208 228 255
209 228 255
209 229 255
209 229 255
209 229 255
209 229 255
209 229 255
209 229 255
209 229 255
209 229 255
209 229 255
209 229 255
209 229 255
209 229 255
209 229 255
209 229 255
209 229 255
209 229 255
209 229 255
209 229 255
209 229 255
209 229 255
210 229 255
210 229 255
210 229 255
210 229 255
210 229 255
210 229 255
210 229 255
210 229 255
210 229 255
210 229 255
210 229 255
210 229 255
210 229 255
210 229 255
210 229 255
210 229 255
210 229 255
210 229 255
210 229 255
210 229 255
210 229 255
210 230 255
210 230 255
210 230 255
210 229 255
210 229 255
210 229 255
210 229 255
210 229 255
210 229 255
210 229 255
210 229 255
210 229 255
210 229 255
210 229 255
210 229 255
210 229 255
210 229 255
210 229 255
210 229 255
210 229 255
210 229 255
210 229 255
210 229 255
210 229 255
209 229 255
209 229 255
209 229 255
209 229 255
209 229 255
209 229 255
209 229 255
209 229 255
209 229 255
209 229 255
209 229 255
209 229 255
209 229 255
209 229 255
209 229 255
209 229 255
209 229 255
209 229 255
209 229 255
209 229 255
209 228 255
209 228 255
208 228 255
208 228 255
208 228 255
208 228 255
208 228 255
208 228 255
208 228 255
208 228 255
208 228 255
208 228 255
208 228 255
208 228 255
208 228 255
208 228 255
208 228 255
208 228 255
208 228 255
208 228 255
208 228 255
207 228 255
207 228 255
207 228 255
207 228 255
207 228 255
207 228 255
207 228 255
207 228 255
207 228 255
207 228 255
207 228 255
207 228 255
207 228 255
207 228 255
207 227 255
207 227 255
207 227 255
207 227 255
206 227 255
206 227 255
206 227 255
206 227 255
206 227 255
206 227 255
206 227 255
206 227 255
206 227 255
206 227 255
206 227 255
206 227 255
206 227 255
206 227 255
206 227 255
206 227 255
206 227 255
205 227 255
205 227 255
205 227 255
205 227 255
205 227 255
205 227 255
205 227 255
205 227 255
205 227 255
205 227 255
205 226 255
205 226 255
205 226 255
205 226 255
205 226 255
205 226 255
205 226 255
204 226 255
204 226 255
204 226 255
204 226 255
204 226 255
204 226 255
204 226 255
204 226 255
204 226 255
204 226 255
204 226 255
204 226 255
204 226 255
204 226 255
204 226 255
204 226 255
203 226 255
203 226 255
203 226 255
203 226 255
203 226 255
203 226 255
203 226 255
203 226 255
203 225 255
203 225 255
203 225 255
203 225 255
203 225 255
203 225 255
203 225 255
203 225 255
203 225 255
203 225 255
203 225 255
202 225 255
202 225 255
202 225 255
202 225 255
202 225 255
202 225 255
202 225 255
202 225 255
202 225 255
202 225 255
202 225 255
202 225 255
202 225 255
202 225 255
202 225 255
202 225 255
202 225 255
202 225 255
202 225 255
202 225 255
202 225 255
202 225 255
202 225 255
202 225 255
202 225 255
202 225 255
201 225 255
201 225 255
201 225 255
201 225 255
201 225 255
201 225 255
201 225 255
201 225 255
201 225 255
201 225 255
201 225 255
201 225 255
201 225 255
201 225 255
201 225 255
201 225 255
201 225 255
201 225 255
201 225 255
201 225 255
201 225 255
201 225 255
201 225 255
201 225 255
201 225 255
201 225 255
201 225 255
201 225 255
201 225 255
201 225 255
201 225 255
201 225 255
201 225 255
201 225 255
201 225 255
201 225 255
201 225 255
201 225 255
201 225 255
201 225 255
201 225 255
201 225 255
201 225 255
201 225 255
202 225 255
202 225 255
202 225 255
202 225 255
202 225 255
202 225 255
202 225 255
202 225 255
202 225 255
202 225 255
202 225 255
202 225 255
202 225 255
202 225 255
202 225 255
202 225 255
202 225 255
202 225 255
202 225 255
202 225 255
202 225 255
202 225 255
202 225 255
202 225 255
202 225 255
202 225 255
203 225 255
203 225 255
203 225 255
203 225 255
203 225 255
203 225 255
203 225 255
203 225 255
203 225 255
203 225 255
203 225 255
203 226 255
203 226 255
203 226 255
203 226 255
203 226 255
203 226 255
203 226 255
203 226 255
204 226 255
204 226 255
204 226 255
204 226 255
204 226 255
204 226 255
204 226 255
204 226 255
204 226 255
204 226 255
204 226 255
204 226 255
204 226 255
204 226 255
204 226 255
204 226 255
204 226 255
205 226 255
205 226 255
205 226 255
205 226 255
205 226 255
205 226 255
205 227 255
205 227 255
205 227 255
205 227 255
205 227 255
205 227 255
205 227 255
205 227 255
205 227 255
205 227 255
206 227 255
206 227 255
206 227 255
206 227 255
206 227 255
206 227 255
206 227 255
206 227 255
206 227 255
206 227 255
206 227 255
206 227 255
206 227 255
206 227 255
206 227 255
206 227 255
206 227 255
207 227 255
207 227 255
207 227 255
207 227 255
207 228 255
207 228 255
207 228 255
207 228 255
207 228 255
207 228 255
207 228 255
207 228 255
207 228 255
207 228 255
207 228 255
207 228 255
207 228 255
207 228 255
208 228 255
208 228 255
208 228 255
208 228 255
208 228 255
208 228 255
208 228 255
208 228 255
208 228 255
208 228 255
208 228 255
208 228 255
208 228 255
208 228 255
208 228 255
208 228 255
208 228 255
208 228 255
208 228 255
209 228 255
209 228 255
209 229 255
209 229 255
209 229 255
209 229 255
209 229 255
209 229 255
209 229 255
209 229 255
209 229 255
209 229 255
209 229 255
209 229 255
209 229 255
209 229 255
209 229 255
209 229 255
209 229 255
209 229 255
209 229 255
209 229 255
210 229 255
210 229 255
210 229 255
210 229 255
210 229 255
210 229 255
210 229 255
210 229 255
210 229 255
210 229 255
210 229 255
210 229 255
210 229 255
210 229 255
210 229 255
210 229 255
210 229 255
210 229 255
210 229 255
210 229 255
210 229 255
210 230 255
210 230 255
210 230 255
211 230 255
211 230 255
211 230 255
211 230 255
210 230 255
210 230 255
210 230 255
210 229 255
210 229 255
210 229 255
210 229 255
210 229 255
210 229 255
210 229 255
210 229 255
210 229 255
210 229 255
210 229 255
210 229 255
210 229 255
210 229 255
210 229 255
210 229 255
210 229 255
210 229 255
210 229 255
210 229 255
210 229 255
209 229 255
209 229 255
209 229 255
209 229 255
209 229 255
209 229 255
209 229 255
209 229 255
209 229 255
209 229 255
209 229 255
209 229 255
209 229 255
209 229 255
209 229 255
209 229 255
209 229 255
209 229 255
209 229 255
209 229 255
209 228 255
208 228 255
208 228 255
208 228 255
208 228 255
208 228 255
208 228 255
208 228 255
208 228 255
208 228 255
208 228 255
208 228 255
208 228 255
208 228 255
208 228 255
208 228 255
208 228 255
208 228 255
208 228 255
208 228 255
208 228 255
207 228 255
207 228 255
207 228 255
207 228 255
207 228 255
207 228 255
207 228 255
207 228 255
207 228 255
207 228 255
207 228 255
207 228 255
207 228 255
207 227 255
207 227 255
207 227 255
207 227 255
206 227 255
206 227 255
206 227 255
206 227 255
206 227 255
206 227 255
206 227 255
206 227 255
206 227 255
206 227 255
206 227 255
206 227 255
206 227 255
206 227 255
206 227 255
206 227 255
206 227 255
205 227 255
205 227 255
205 227 255
205 227 255
205 227 255
205 227 255
205 227 255
205 227 255
205 227 255
205 227 255
205 226 255
205 226 255
205 226 255
205 226 255
205 226 255
205 226 255
205 226 255
204 226 255
204 226 255
204 226 255
204 226 255
204 226 255
204 226 255
204 226 255
204 226 255
204 226 255
204 226 255
204 226 255
204 226 255
204 226 255
204 226 255
204 226 255
204 226 255
204 226 255
203 226 255
203 226 255
203 226 255
203 226 255
203 226 255
203 226 255
203 226 255
203 226 255
203 225 255
203 225 255
203 225 255
203 225 255
203 225 255
203 225 255
203 225 255
203 225 255
203 225 255
203 225 255
203 225 255
203 225 255
202 225 255
202 225 255
202 225 255
202 225 255
202 225 255
202 225 255
202 225 255
202 225 255
202 225 255
202 225 255
202 225 255
202 225 255
202 225 255
202 225 255
202 225 255
202 225 255
202 225 255
202 225 255
202 225 255
202 225 255
202 225 255
202 225 255
202 225 255
202 225 255
202 225 255
202 225 255
202 225 255
202 225 255
202 225 255
202 225 255
202 225 255
202 225 255
202 225 255
202 225 255
202 225 255
201 225 255
201 225 255
201 225 255
201 225 255
201 225 255
201 225 255
201 225 255
201 225 255
201 225 255
201 225 255
201 225 255
201 225 255
201 225 255
201 225 255
201 225 255
201 225 255
202 225 255
202 225 255
202 225 255
202 225 255
202 225 255
202 225 255
202 225 255
202 225 255
202 225 255
202 225 255
202 225 255
202 225 255
202 225 255
202 225 255
202 225 255
202 225 255
202 225 255
202 225 255
202 225 255
202 225 255
202 225 255
202 225 255
202 225 255
202 225 255
202 225 255
202 225 255
202 225 255
202 225 255
202 225 255
202 225 255
202 225 255
202 225 255
202 225 255
202 225 255
202 225 255
203 225 255
203 225 255
203 225 255
203 225 255
203 225 255
203 225 255
203 225 255
203 225 255
203 225 255
203 225 255
203 225 255
203 225 255
203 226 255
203 226 255
203 226 255
203 226 255
203 226 255
203 226 255
203 226 255
203 226 255
204 226 255
204 226 255
204 226 255
204 226 255
204 226 255
204 226 255
204 226 255
204 226 255
204 226 255
204 226 255
204 226 255
204 226 255
204 226 255
204 226 255
204 226 255
204 226 255
204 226 255
205 226 255
205 226 255
205 226 255
205 226 255
205 226 255
205 226 255
205 226 255
205 227 255
205 227 255
205 227 255
205 227 255
205 227 255
205 227 255
205 227 255
205 227 255
205 227 255
205 227 255
206 227 255
206 227 255
206 227 255
206 227 255
206 227 255
206 227 255
206 227 255
206 227 255
206 227 255
206 227 255
206 227 255
206 227 255
206 227 255
206 227 255
206 227 255
206 227 255
206 227 255
207 227 255
207 227 255
207 227 255
207 227 255
207 228 255
207 228 255
207 228 255
207 228 255
207 228 255
207 228 255
207 228 255
207 228 255
207 228 255
207 228 255
207 228 255
207 228 255
207 228 255
208 228 255
208 228 255
208 228 255
208 228 255
208 228 255
208 228 255
208 228 255
208 228 255
208 228 255
208 228 255
208 228 255
208 228 255
208 228 255
208 228 255
208 228 255
208 228 255
208 228 255
208 228 255
208 228 255
208 228 255
209 228 255
209 229 255
209 229 255
209 229 255
209 229 255
209 229 255
209 229 255
209 229 255
209 229 255
209 229 255
209 229 255
209 229 255
209 229 255
209 229 255
209 229 255
209 229 255
209 229 255
209 229 255
209 229 255
209 229 255
209 229 255
210 229 255
210 229 255
210 229 255
210 229 255
210 229 255
210 229 255
210 229 255
210 229 255
210 229 255
210 229 255
210 229 255
210 229 255
210 229 255
210 229 255
210 229 255
210 229 255
210 229 255
210 229 255
210 229 255
210 229 255
210 229 255
210 230 255
210 230 255
210 230 255
211 230 255
211 230 255
211 230 255
211 230 255
211 230 255
211 230 255
211 230 255
211 230 255
211 230 255
211 230 255
211 230 255
211 230 255
210 230 255
210 230 255
210 230 255
210 229 255
210 229 255
210 229 255
210 229 255
210 229 255
210 229 255
210 229 255
210 229 255
210 229 255
210 229 255
210 229 255
210 229 255
210 229 255
210 229 255
210 229 255
210 229 255
210 229 255
210 229 255
210 229 255
210 229 255
210 229 255
209 229 255
209 229 255
209 229 255
209 229 255
209 229 255
209 229 255
209 229 255
209 229 255
209 229 255
209 229 255
209 229 255
209 229 255
209 229 255
209 229 255
209 229 255
209 229 255
209 229 255
209 229 255
209 229 255
209 228 255
209 228 255
208 228 255
208 228 255
208 228 255
208 228 255
208 228 255
208 228 255
208 228 255
208 228 255
208 228 255
208 228 255
208 228 255
208 228 255
208 228 255
208 228 255
208 228 255
208 228 255
208 228 255
208 228 255
208 228 255
207 228 255
207 228 255
207 228 255
207 228 255
207 228 255
207 228 255
207 228 255
207 228 255
207 228 255
207 228 255
207 228 255
207 228 255
207 228 255
207 228 255
207 227 255
207 227 255
207 227 255
207 227 255
206 227 255
206 227 255
206 227 255
206 227 255
206 227 255
206 227 255
206 227 255
206 227 255
206 227 255
206 227 255
206 227 255
206 227 255
206 227 255
206 227 255
206 227 255
206 227 255
206 227 255
205 227 255
205 227 255
205 227 255
205 227 255
205 227 255
205 227 255
205 227 255
205 227 255
205 227 255
205 227 255
205 226 255
205 226 255
205 226 255
205 226 255
205 226 255
205 226 255
205 226 255
204 226 255
204 226 255
204 226 255
204 226 255
204 226 255
204 226 255
204 226 255
204 226 255
204 226 255
204 226 255
204 226 255
204 226 255
204 226 255
204 226 255
204 226 255
204 226 255
204 226 255
203 226 255
203 226 255
203 226 255
203 226 255
203 226 255
203 226 255
203 226 255
203 226 255
203 226 255
203 225 255
203 225 255
203 225 255
203 225 255
203 225 255
203 225 255
203 225 255
203 225 255
203 225 255
203 225 255
203 225 255
203 225 255
202 225 255
202 225 255
202 225 255
202 225 255
202 225 255
202 225 255
202 225 255
202 225 255
202 225 255
202 225 255
202 225 255
202 225 255
202 225 255
202 225 255
202 225 255
202 225 255
202 225 255
202 225 255
202 225 255
202 225 255
202 225 255
202 225 255
202 225 255
202 225 255
202 225 255
202 225 255
202 225 255
202 225 255
202 225 255
202 225 255
202 225 255
202 225 255
202 225 255
202 225 255
202 225 255
202 225 255
202 225 255
202 225 255
202 225 255
202 225 255
202 225 255
202 225 255
202 225 255
202 225 255
202 225 255
202 225 255
202 225 255
202 225 255
202 225 255
202 225 255
202 225 255
202 225 255
202 225 255
202 225 255
202 225 255
202 225 255
202 225 255
202 225 255
202 225 255
202 225 255
202 225 255
202 225 255
202 225 255
202 225 255
202 225 255
202 225 255
202 225 255
202 225 255
202 225 255
202 225 255
202 225 255
202 225 255
202 225 255
202 225 255
202 225 255
202 225 255
203 225 255
203 225 255
203 225 255
203 225 255
203 225 255
203 225 255
203 225 255
203 225 255
203 225 255
203 225 255
203 225 255
203 225 255
203 226 255
203 226 255
203 226 255
203 226 255
203 226 255
203 226 255
203 226 255
203 226 255
203 226 255
204 226 255
204 226 255
204 226 255
204 226 255
204 226 255
204 226 255
204 226 255
204 226 255
204 226 255
204 226 255
204 226 255
204 226 255
204 226 255
204 226 255
204 226 255
204 226 255
204 226 255
204 226 255
205 226 255
205 226 255
205 226 255
205 226 255
205 226 255
205 226 255
205 227 255
205 227 255
205 227 255
205 227 255
205 227 255
205 227 255
205 227 255
205 227 255
205 227 255
205 227 255
206 227 255
206 227 255
206 227 255
206 227 255
206 227 255
206 227 255
206 227 255
206 227 255
206 227 255
206 227 255
206 227 255
206 227 255
206 227 255
206 227 255
206 227 255
206 227 255
206 227 255
207 227 255
207 227 255
207 227 255
207 227 255
207 227 255
207 228 255
207 228 255
207 228 255
207 228 255
207 228 255
207 228 255
207 228 255
207 228 255
207 228 255
207 228 255
207 228 255
207 228 255
207 228 255
208 228 255
208 228 255
208 228 255
208 228 255
208 228 255
208 228 255
208 228 255
208 228 255
208 228 255
208 228 255
208 228 255
208 228 255
208 228 255
208 228 255
208 228 255
208 228 255
208 228 255
208 228 255
208 228 255
209 228 255
209 228 255
209 229 255
209 229 255
209 229 255
209 229 255
209 229 255
209 229 255
209 229 255
209 229 255
209 229 255
209 229 255
209 229 255
209 229 255
209 229 255
209 229 255
209 229 255
209 229 255
209 229 255
209 229 255
209 229 255
210 229 255
210 229 255
210 229 255
210 229 255
210 229 255
210 229 255
210 229 255
210 229 255
210 229 255
210 229 255
210 229 255
210 229 255
210 229 255
210 229 255
210 229 255
210 229 255
210 229 255
210 229 255
210 229 255
210 229 255
210 229 255
210 230 255
210 230 255
210 230 255
211 230 255
211 230 255
211 230 255
211 230 255
211 230 255
211 230 255
211 230 255
211 230 255
211 230 255
211 230 255
211 230 255
211 230 255
211 230 255
211 230 255
211 230 255
211 230 255
211 230 255
211 230 255
211 230 255
211 230 255
210 230 255
210 230 255
210 229 255
210 229 255
210 229 255
210 229 255
210 229 255
210 229 255
210 229 255
210 229 255
210 229 255
210 229 255
210 229 255
210 229 255
210 229 255
210 229 255
210 229 255
210 229 255
210 229 255
210 229 255
210 229 255
210 229 255
210 229 255
210 229 255
208 228 254
205 225 251
195 214 239
196 215 241
191 210 235
185 203 228
183 201 225
181 199 224
177 195 219
175 193 217
171 188 212
164 181 204
170 188 211
170 188 212
173 191 215
176 194 218
162 180 203
170 188 212
173 191 215
174 192 216
183 201 226
176 194 219
175 193 217
177 195 219
193 213 239
194 213 240
197 216 242
205 225 252
208 228 255
208 228 255
208 228 255
208 228 255
208 228 255
208 228 255
208 228 255
208 228 255
208 228 255
208 228 255
208 228 255
207 228 255
207 228 255
207 228 255
207 228 255
207 228 255
207 228 255
207 228 255
207 228 255
207 228 255
207 228 255
207 228 255
207 228 255
207 228 255
207 228 255
207 227 255
207 227 255
207 227 255
207 227 255
206 227 255
206 227 255
206 227 255
206 227 255
206 227 255
206 227 255
206 227 255
206 227 255
206 227 255
206 227 255
206 227 255
206 227 255
206 227 255
206 227 255
206 227 255
206 227 255
206 227 255
205 227 255
205 227 255
205 227 255
205 227 255
205 227 255
205 227 255
205 227 255
205 227 255
205 227 255
205 227 255
205 226 255
205 226 255
205 226 255
205 226 255
205 226 255
205 226 255
205 226 255
204 226 255
204 226 255
204 226 255
204 226 255
204 226 255
204 226 255
204 226 255
204 226 255
204 226 255
204 226 255
204 226 255
204 226 255
204 226 255
204 226 255
204 226 255
204 226 255
204 226 255
204 226 255
204 226 255
203 226 255
203 226 255
203 226 255
203 226 255
203 226 255
203 226 255
203 226 255
203 226 255
203 226 255
203 225 255
203 225 255
203 225 255
203 225 255
203 225 255
203 225 255
203 225 255
203 225 255
203 225 255
203 225 255
203 225 255
203 225 255
203 225 255
202 225 255
202 225 255
202 225 255
202 225 255
202 225 255
202 225 255
202 225 255
202 225 255
202 225 255
202 225 255
202 225 255
202 225 255
202 225 255
202 225 255
202 225 255
202 225 255
202 225 255
202 225 255
202 225 255
202 225 255
202 225 255
202 225 255
202 225 255
202 225 255
202 225 255
202 225 255
202 225 255
202 225 255
202 225 255
202 225 255
202 225 255
202 225 255
202 225 255
202 225 255
202 225 255
202 225 255
202 225 255
202 225 255
202 225 255
202 225 255
202 225 255
202 225 255
202 225 255
202 225 255
202 225 255
202 225 255
202 225 255
202 225 255
202 225 255
202 225 255
202 225 255
202 225 255
202 225 255
202 225 255
202 225 255
202 225 255
202 225 255
202 225 255
202 225 255
202 225 255
202 225 255
202 225 255
202 225 255
202 225 255
203 225 255
203 225 255
203 225 255
203 225 255
203 225 255
203 225 255
203 225 255
203 225 255
203 225 255
203 225 255
203 225 255
203 225 255
203 225 255
203 226 255
203 226 255
203 226 255
203 226 255
203 226 255
203 226 255
203 226 255
203 226 255
203 226 255
204 226 255
204 226 255
204 226 255
204 226 255
204 226 255
204 226 255
204 226 255
204 226 255
204 226 255
204 226 255
204 226 255
204 226 255
204 226 255
204 226 255
204 226 255
204 226 255
204 226 255
204 226 255
204 226 255
205 226 255
205 226 255
205 226 255
205 226 255
205 226 255
205 226 255
205 226 255
205 227 255
205 227 255
205 227 255
205 227 255
205 227 255
205 227 255
205 227 255
205 227 255
205 227 255
205 227 255
206 227 255
206 227 255
206 227 255
206 227 255
206 227 255
206 227 255
206 227 255
206 227 255
206 227 255
206 227 255
206 227 255
206 227 255
206 227 255
206 227 255
206 227 255
206 227 255
206 227 255
207 227 255
207 227 255
207 227 255
207 227 255
207 228 255
207 228 255
207 228 255
207 228 255
207 228 255
207 228 255
207 228 255
207 228 255
207 228 255
207 228 255
207 228 255
207 228 255
207 228 255
207 228 255
208 228 255
208 228 255
208 228 255
208 228 255
208 228 255
208 228 255
208 228 255
208 228 255
208 228 255
208 228 255
206 226 254
202 222 249
198 218 244
196 215 242
185 204 229
172 190 214
173 191 216
175 194 220
177 195 219
161 178 200
160 177 200
162 181 205
171 189 213
153 171 195
161 178 201
151 168 188
161 179 202
162 180 203
170 188 213
164 182 205
174 193 217
172 190 215
179 198 223
187 206 231
189 207 231
189 207 231
199 218 244
207 226 253
209 229 255
210 229 255
210 229 255
210 229 255
210 229 255
210 229 255
210 229 255
210 229 255
210 229 255
210 229 255
210 229 255
210 229 255
210 229 255
210 229 255
210 229 255
210 229 255
210 229 255
210 229 255
210 229 255
210 229 255
210 229 255
210 229 255
210 230 255
210 230 255
210 230 255
211 230 255
211 230 255
211 230 255
211 230 255
211 230 255
211 230 255
211 230 255
211 230 255
211 230 255
211 230 255
211 230 255
211 230 255
211 230 255
211 230 255
211 230 255
211 230 255
211 230 255
211 230 255
211 230 255
211 230 255
211 230 255
211 230 255
211 230 255
211 230 255
211 230 255
211 230 255
211 230 255
211 230 255
210 230 255
210 230 255
210 229 255
210 229 255
210 229 255
210 229 255
210 229 255
210 229 255
210 229 255
210 229 255
210 229 255
210 229 255
208 227 253
199 218 244
197 216 241
185 203 227
168 184 206
172 189 212
164 182 206
151 168 190
137 153 174
149 167 191
142 159 181
150 168 192
155 174 199
149 167 191
159 179 204
157 176 202
157 177 203
145 163 187
141 159 183
155 175 200
161 182 208
146 166 191
152 172 198
158 179 206
151 170 195
153 172 198
154 174 200
145 164 188
153 173 199
155 174 200
146 165 190
149 168 194
150 169 194
152 170 195
158 178 204
154 174 199
149 168 192
152 170 194
157 175 199
170 189 215
169 187 212
173 192 216
184 202 227
194 213 239
204 224 251
208 228 255
208 228 255
208 228 255
208 228 255
208 228 255
208 228 255
207 228 255
207 228 255
207 228 255
207 228 255
207 228 255
207 228 255
207 228 255
207 228 255
207 228 255
207 228 255
207 228 255
207 228 255
207 228 255
207 227 255
207 227 255
207 227 255
207 227 255
207 227 255
206 227 255
206 227 255
206 227 255
206 227 255
206 227 255
206 227 255
206 227 255
206 227 255
206 227 255
206 227 255
206 227 255
206 227 255
206 227 255
206 227 255
206 227 255
206 227 255
206 227 255
205 227 255
205 227 255
205 227 255
205 227 255
205 227 255
205 227 255
205 227 255
205 227 255
205 227 255
205 227 255
205 226 255
205 226 255
205 226 255
205 226 255
205 226 255
205 226 255
205 226 255
204 226 255
204 226 255
204 226 255
204 226 255
204 226 255
204 226 255
204 226 255
204 226 255
204 226 255
204 226 255
204 226 255
204 226 255
204 226 255
204 226 255
204 226 255
204 226 255
204 226 255
204 226 255
204 226 255
203 226 255
203 226 255
203 226 255
203 226 255
203 226 255
203 226 255
203 226 255
203 226 255
203 226 255
203 226 255
203 225 255
203 225 255
203 225 255
203 225 255
203 225 255
203 225 255
203 225 255
203 225 255
203 225 255
203 225 255
203 225 255
203 225 255
203 225 255
203 225 255
203 225 255
203 225 255
202 225 255
202 225 255
202 225 255
202 225 255
202 225 255
202 225 255
202 225 255
202 225 255
202 225 255
202 225 255
202 225 255
202 225 255
202 225 255
202 225 255
202 225 255
202 225 255
202 225 255
202 225 255
202 225 255
202 225 255
202 225 255
202 225 255
202 225 255
202 225 255
202 225 255
202 225 255
202 225 255
202 225 255
202 225 255
202 225 255
202 225 255
202 225 255
202 225 255
202 225 255
202 225 255
202 225 255
202 225 255
202 225 255
202 225 255
202 225 255
202 225 255
202 225 255
202 225 255
202 225 255
202 225 255
202 225 255
202 225 255
202 225 255
202 225 255
203 225 255
203 225 255
203 225 255
203 225 255
203 225 255
203 225 255
203 225 255
203 225 255
203 225 255
203 225 255
203 225 255
203 225 255
203 225 255
203 225 255
203 225 255
203 226 255
203 226 255
203 226 255
203 226 255
203 226 255
203 226 255
203 226 255
203 226 255
203 226 255
203 226 255
204 226 255
204 226 255
204 226 255
204 226 255
204 226 255
204 226 255
204 226 255
204 226 255
204 226 255
204 226 255
204 226 255
204 226 255
204 226 255
204 226 255
204 226 255
204 226 255
204 226 255
204 226 255
204 226 255
205 226 255
205 226 255
205 226 255
205 226 255
205 226 255
205 226 255
205 226 255
205 227 255
205 227 255
205 227 255
205 227 255
205 227 255
205 227 255
205 227 255
205 227 255
205 227 255
205 227 255
206 227 255
206 227 255
206 227 255
206 227 255
206 227 255
206 227 255
206 227 255
206 227 255
206 227 255
206 227 255
206 227 255
206 227 255
206 227 255
206 227 255
206 227 255
206 227 255
206 227 255
207 227 255
207 227 255
207 227 255
207 227 255
207 228 255
207 228 255
207 228 255
207 228 255
207 228 255
207 228 255
207 228 255
207 228 255
207 228 255
207 228 255
207 228 255
207 228 255
207 228 255
207 228 255
208 228 255
208 228 255
208 228 255
208 228 255
208 228 255
208 228 255
205 225 252
193 213 239
181 200 224
174 193 217
154 171 193
149 166 188
136 153 176
136 153 175
130 149 172
127 145 168
124 141 163
133 151 175
128 145 168
133 151 174
136 155 180
141 160 186
137 155 177
131 150 174
123 139 161
131 149 172
138 157 178
144 163 188
135 153 177
135 153 177
129 147 171
140 159 183
126 142 163
144 163 188
129 146 168
120 136 156
132 150 172
118 134 155
136 153 175
122 137 155
137 156 178
142 160 180
137 154 175
144 162 185
145 161 182
150 167 188
176 194 217
176 193 217
186 204 228
197 215 240
206 225 251
210 229 255
210 229 255
210 229 255
210 229 255
210 229 255
210 229 255
210 229 255
210 229 255
210 229 255
210 230 255
210 230 255
210 230 255
211 230 255
211 230 255
211 230 255
211 230 255
211 230 255
211 230 255
211 230 255
211 230 255
211 230 255
211 230 255
211 230 255
211 230 255
211 230 255
211 230 255
211 230 255
211 230 255
211 230 255
211 230 255
211 230 255
211 230 255
211 230 255
211 230 255
211 230 255
211 230 255
211 230 255
211 230 255
211 230 255
211 230 255
211 230 255
211 230 255
211 230 255
211 230 255
211 230 255
211 230 255
211 230 255
211 230 255
210 230 255
210 230 255
209 228 254
201 220 245
191 209 233
182 199 223
155 171 193
151 167 188
150 167 190
147 164 187
152 170 194
162 181 207
162 181 207
151 170 194
159 179 204
159 178 204
165 184 211
158 177 203
166 187 214
160 180 207
163 184 212
160 181 208
162 183 211
159 180 207
169 191 220
161 183 211
164 185 213
163 185 213
165 187 216
166 188 218
163 185 213
161 183 211
163 184 213
158 179 207
164 187 217
163 185 214
164 187 216
164 186 216
157 178 206
153 174 202
161 183 212
160 181 209
161 182 211
155 176 203
158 180 208
162 183 212
155 176 203
160 181 209
158 179 207
154 173 199
150 169 195
147 166 191
143 161 186
155 173 197
159 177 201
166 185 210
180 198 223
197 216 242
205 225 252
208 228 255
208 228 255
208 228 255
208 228 255
207 228 255
207 228 255
207 228 255
207 228 255
207 228 255
207 228 255
207 228 255
207 228 255
207 228 255
207 228 255
207 228 255
207 228 255
207 228 255
207 227 255
207 227 255
207 227 255
207 227 255
206 227 255
206 227 255
206 227 255
206 227 255
206 227 255
206 227 255
206 227 255
206 227 255
206 227 255
206 227 255
206 227 255
206 227 255
206 227 255
206 227 255
206 227 255
206 227 255
206 227 255
206 227 255
205 227 255
205 227 255
205 227 255
205 227 255
205 227 255
205 227 255
205 227 255
205 227 255
205 227 255
205 227 255
205 226 255
205 226 255
205 226 255
205 226 255
205 226 255
205 226 255
205 226 255
204 226 255
204 226 255
204 226 255
204 226 255
204 226 255
204 226 255
204 226 255
204 226 255
204 226 255
204 226 255
204 226 255
204 226 255
204 226 255
204 226 255
204 226 255
204 226 255
204 226 255
204 226 255
204 226 255
204 226 255
203 226 255
203 226 255
203 226 255
203 226 255
203 226 255
203 226 255
203 226 255
203 226 255
203 226 255
203 226 255
203 226 255
203 225 255
203 225 255
203 225 255
203 225 255
203 225 255
203 225 255
203 225 255
203 225 255
203 225 255
203 225 255
203 225 255
203 225 255
203 225 255
203 225 255
203 225 255
203 225 255
203 225 255
203 225 255
203 225 255
203 225 255
203 225 255
202 225 255
202 225 255
202 225 255
202 225 255
202 225 255
202 225 255
202 225 255
202 225 255
202 225 255
202 225 255
202 225 255
202 225 255
202 225 255
202 225 255
202 225 255
202 225 255
202 225 255
202 225 255
202 225 255
202 225 255
202 225 255
202 225 255
202 225 255
202 225 255
202 225 255
202 225 255
203 225 255
203 225 255
203 225 255
203 225 255
203 225 255
203 225 255
203 225 255
203 225 255
203 225 255
203 225 255
203 225 255
203 225 255
203 225 255
203 225 255
203 225 255
203 225 255
203 225 255
203 225 255
203 225 255
203 225 255
203 225 255
203 226 255
203 226 255
203 226 255
203 226 255
203 226 255
203 226 255
203 226 255
203 226 255
203 226 255
203 226 255
203 226 255
204 226 255
204 226 255
204 226 255
204 226 255
204 226 255
204 226 255
204 226 255
204 226 255
204 226 255
204 226 255
204 226 255
204 226 255
204 226 255
204 226 255
204 226 255
204 226 255
204 226 255
204 226 255
204 226 255
204 226 255
205 226 255
205 226 255
205 226 255
205 226 255
205 226 255
205 226 255
205 226 255
205 227 255
205 227 255
205 227 255
205 227 255
205 227 255
205 227 255
205 227 255
205 227 255
205 227 255
205 227 255
206 227 255
206 227 255
206 227 255
206 227 255
206 227 255
206 227 255
206 227 255
206 227 255
206 227 255
206 227 255
206 227 255
206 227 255
206 227 255
206 227 255
206 227 255
206 227 255
206 227 255
206 227 255
207 227 255
207 227 255
207 227 255
207 227 255
207 228 255
207 228 255
207 228 255
207 228 255
207 228 255
207 228 255
207 228 255
207 228 255
207 228 255
207 228 255
207 228 255
207 228 255
207 228 255
207 228 255
208 228 255
208 228 255
208 228 255
203 223 249
190 209 235
169 187 211
168 186 211
148 166 190
132 148 169
127 146 169
128 145 168
125 143 166
138 157 181
125 143 166
124 141 163
132 151 174
134 152 177
127 144 168
123 140 161
135 152 175
129 147 171
142 161 187
145 164 188
136 155 180
135 154 178
127 145 168
133 151 174
139 158 184
132 150 172
142 161 186
127 145 166
129 146 168
132 150 172
135 154 178
142 162 188
128 146 165
145 165 190
138 158 184
138 156 180
131 148 169
134 152 175
134 153 177
131 148 171
128 145 163
134 152 175
139 158 178
131 147 166
137 156 180
133 150 169
128 145 165
136 154 175
131 148 171
143 160 183
127 142 160
144 161 184
152 168 189
169 186 207
183 201 225
199 218 242
209 228 254
210 230 255
210 230 255
211 230 255
211 230 255
211 230 255
211 230 255
211 230 255
211 230 255
211 230 255
211 230 255
211 230 255
211 230 255
211 230 255
211 230 255
211 230 255
211 230 255
211 230 255
211 230 255
211 230 255
211 230 255
211 230 255
211 230 255
211 230 255
211 230 255
211 230 255
211 230 255
211 230 255
211 230 255
211 230 255
211 230 255
211 230 255
211 230 255
211 230 255
211 230 255
211 230 255
211 230 255
211 230 255
211 230 255
211 230 255
211 230 255
204 223 248
193 211 236
177 194 217
160 177 199
146 162 184
152 169 192
152 169 192
154 171 195
158 176 200
161 181 207
159 178 204
165 185 212
156 175 200
165 186 213
162 182 209
159 179 206
161 182 209
158 178 204
165 186 214
171 193 221
165 186 214
165 187 216
163 185 214
165 188 217
168 190 219
166 189 218
166 188 218
170 193 224
166 188 218
169 193 224
165 188 218
170 193 224
169 193 224
167 189 219
171 194 225
166 189 219
168 193 224
171 196 227
166 191 223
169 192 223
170 194 225
167 190 221
170 194 225
163 187 217
165 189 220
160 183 213
168 192 223
168 191 221
165 189 219
165 188 218
166 190 220
162 185 214
162 185 216
161 183 212
161 183 212
157 179 207
157 178 206
147 167 194
155 175 202
148 168 194
153 172 198
146 164 187
170 189 214
186 205 231
191 210 236
206 227 254
208 228 255
208 228 255
207 228 255
207 228 255
207 228 255
207 228 255
207 228 255
207 228 255
207 228 255
207 228 255
207 228 255
207 228 255
207 228 255
207 228 255
207 228 255
207 227 255
207 227 255
207 227 255
207 227 255
207 227 255
206 227 255
206 227 255
206 227 255
206 227 255
206 227 255
206 227 255
206 227 255
206 227 255
206 227 255
206 227 255
206 227 255
206 227 255
206 227 255
206 227 255
206 227 255
206 227 255
206 227 255
206 227 255
205 227 255
205 227 255
205 227 255
205 227 255
205 227 255
205 227 255
205 227 255
205 227 255
205 227 255
205 227 255
205 226 255
205 226 255
205 226 255
205 226 255
205 226 255
205 226 255
205 226 255
205 226 255
204 226 255
204 226 255
204 226 255
204 226 255
204 226 255
204 226 255
204 226 255
204 226 255
204 226 255
204 226 255
204 226 255
204 226 255
204 226 255
204 226 255
204 226 255
204 226 255
204 226 255
204 226 255
204 226 255
204 226 255
204 226 255
203 226 255
203 226 255
203 226 255
203 226 255
203 226 255
203 226 255
203 226 255
203 226 255
203 226 255
203 226 255
203 226 255
203 226 255
203 226 255
203 225 255
203 225 255
203 225 255
203 225 255
203 225 255
203 225 255
203 225 255
203 225 255
203 225 255
203 225 255
203 225 255
203 225 255
203 225 255
203 225 255
203 225 255
203 225 255
203 225 255
203 225 255
203 225 255
203 225 255
203 225 255
203 225 255
203 225 255
203 225 255
203 225 255
203 225 255
203 225 255
203 225 255
203 225 255
203 225 255
203 225 255
203 225 255
203 225 255
203 225 255
203 225 255
203 225 255
203 225 255
203 225 255
203 225 255
203 225 255
203 225 255
203 225 255
203 225 255
203 225 255
203 225 255
203 225 255
203 225 255
203 225 255
203 225 255
203 225 255
203 225 255
203 225 255
203 225 255
203 226 255
203 226 255
203 226 255
203 226 255
203 226 255
203 226 255
203 226 255
203 226 255
203 226 255
203 226 255
203 226 255
203 226 255
203 226 255
204 226 255
204 226 255
204 226 255
204 226 255
204 226 255
204 226 255
204 226 255
204 226 255
204 226 255
204 226 255
204 226 255
204 226 255
204 226 255
204 226 255
204 226 255
204 226 255
204 226 255
204 226 255
204 226 255
204 226 255
205 226 255
205 226 255
205 226 255
205 226 255
205 226 255
205 226 255
205 226 255
205 226 255
205 227 255
205 227 255
205 227 255
205 227 255
205 227 255
205 227 255
205 227 255
205 227 255
205 227 255
205 227 255
205 227 255
206 227 255
206 227 255
206 227 255
206 227 255
206 227 255
206 227 255
206 227 255
206 227 255
206 227 255
206 227 255
206 227 255
206 227 255
206 227 255
206 227 255
206 227 255
206 227 255
206 227 255
207 227 255
207 227 255
207 227 255
207 227 255
207 228 255
207 228 255
207 228 255
207 228 255
207 228 255
207 228 255
207 228 255
207 228 255
207 228 255
207 228 255
207 228 255
207 228 255
207 228 255
207 228 255
208 228 255
208 228 255
207 227 255
190 209 235
175 194 219
160 179 203
141 158 182
133 151 175
133 152 175
119 136 158
125 143 166
126 143 166
121 138 160
134 152 177
131 150 175
128 147 171
137 157 183
140 160 186
130 149 174
136 155 180
134 152 177
141 161 186
133 152 177
133 152 177
139 158 183
136 155 180
138 158 184
141 160 186
129 148 172
139 159 186
131 150 174
128 145 168
149 170 196
141 161 187
141 160 186
145 163 187
142 162 188
135 153 175
141 160 184
145 165 190
148 168 192
146 166 190
140 160 181
139 158 183
136 155 178
139 158 181
127 144 165
135 153 177
134 153 175
135 152 171
142 161 183
129 147 165
139 157 180
138 156 180
133 150 168
132 150 171
131 147 166
129 145 165
123 140 155
136 153 171
129 146 166
136 153 172
124 139 153
129 146 167
142 157 177
179 197 220
178 195 217
204 223 248
211 230 255
211 230 255
211 230 255
211 230 255
211 230 255
211 230 255
211 230 255
211 230 255
211 230 255
211 230 255
211 230 255
211 230 255
211 230 255
211 230 255
211 230 255
211 230 255
211 230 255
211 230 255
212 230 255
212 230 255
211 230 255
211 230 255
211 230 255
211 230 255
211 230 255
211 230 255
211 230 255
211 230 255
211 230 255
211 230 255
211 230 255
211 230 255
207 225 251
178 195 218
173 190 213
144 159 180
154 171 194
156 174 198
148 165 187
154 171 195
152 170 194
156 174 199
153 172 196
157 176 202
166 186 212
167 188 216
172 193 221
162 183 209
163 184 211
170 192 220
169 191 219
165 186 214
170 192 221
172 194 224
171 194 224
165 187 217
172 195 226
173 196 226
170 193 223
172 195 226
172 195 226
171 195 226
171 195 226
173 197 228
171 196 227
173 197 228
172 196 228
172 197 228
173 197 228
171 195 227
172 196 228
170 195 227
172 197 228
171 196 228
171 196 228
171 196 228
171 196 228
171 196 228
171 196 228
170 194 226
170 195 228
170 195 227
171 196 228
170 196 228
169 194 226
168 192 224
170 194 226
168 193 225
169 194 226
167 191 223
165 189 220
160 183 213
163 186 217
165 189 220
161 184 213
156 179 208
157 179 208
159 181 209
154 175 202
150 170 196
152 172 198
153 172 196
165 184 210
178 197 222
193 212 238
206 226 254
208 228 255
208 228 255
207 228 255
207 228 255
207 228 255
207 228 255
207 228 255
207 228 255
207 228 255
207 228 255
207 228 255
207 228 255
207 228 255
207 228 255
207 228 255
207 227 255
207 227 255
207 227 255
207 227 255
207 227 255
206 227 255
206 227 255
206 227 255
206 227 255
206 227 255
206 227 255
206 227 255
206 227 255
206 227 255
206 227 255
206 227 255
206 227 255
206 227 255
206 227 255
206 227 255
206 227 255
206 227 255
205 227 255
205 227 255
205 227 255
205 227 255
205 227 255
205 227 255
205 227 255
205 227 255
205 227 255
205 227 255
205 227 255
205 226 255
205 226 255
205 226 255
205 226 255
205 226 255
205 226 255
205 226 255
205 226 255
204 226 255
204 226 255
204 226 255
204 226 255
204 226 255
204 226 255
204 226 255
204 226 255
204 226 255
204 226 255
204 226 255
204 226 255
204 226 255
204 226 255
204 226 255
204 226 255
204 226 255
204 226 255
204 226 255
204 226 255
204 226 255
204 226 255
204 226 255
203 226 255
203 226 255
203 226 255
203 226 255
203 226 255
203 226 255
203 226 255
203 226 255
203 226 255
203 226 255
203 226 255
203 226 255
203 226 255
203 226 255
203 226 255
203 226 255
203 225 255
203 225 255
203 225 255
203 225 255
203 225 255
203 225 255
203 225 255
203 225 255
203 225 255
203 225 255
203 225 255
203 225 255
203 225 255
203 225 255
203 225 255
203 225 255
203 225 255
203 225 255
203 225 255
203 225 255
203 225 255
203 225 255
203 225 255
203 225 255
203 225 255
203 225 255
203 225 255
203 225 255
203 225 255
203 225 255
203 225 255
203 225 255
203 225 255
203 225 255
203 226 255
203 226 255
203 226 255
203 226 255
203 226 255
203 226 255
203 226 255
203 226 255
203 226 255
203 226 255
203 226 255
203 226 255
203 226 255
203 226 255
203 226 255
203 226 255
204 226 255
204 226 255
204 226 255
204 226 255
204 226 255
204 226 255
204 226 255
204 226 255
204 226 255
204 226 255
204 226 255
204 226 255
204 226 255
204 226 255
204 226 255
204 226 255
204 226 255
204 226 255
204 226 255
204 226 255
204 226 255
204 226 255
204 226 255
205 226 255
205 226 255
205 226 255
205 226 255
205 226 255
205 226 255
205 226 255
205 226 255
205 227 255
205 227 255
205 227 255
205 227 255
205 227 255
205 227 255
205 227 255
205 227 255
205 227 255
205 227 255
205 227 255
206 227 255
206 227 255
206 227 255
206 227 255
206 227 255
206 227 255
206 227 255
206 227 255
206 227 255
206 227 255
206 227 255
206 227 255
206 227 255
206 227 255
206 227 255
206 227 255
206 227 255
207 227 255
207 227 255
207 227 255
207 227 255
207 227 255
207 228 255
207 228 255
207 228 255
207 228 255
207 228 255
207 228 255
207 228 255
207 228 255
207 228 255
207 228 255
207 228 255
207 228 255
207 228 255
208 228 255
208 228 255
206 227 254
194 214 240
174 192 217
152 169 192
127 145 168
140 159 184
131 150 175
128 146 169
127 144 166
130 148 171
131 150 175
131 149 172
137 156 181
135 155 180
131 150 174
140 159 184
144 164 190
132 151 175
138 157 183
138 156 181
133 152 177
146 166 192
138 157 183
134 153 177
141 161 188
140 161 187
144 165 192
131 149 174
137 156 181
142 162 188
145 166 192
144 164 190
136 156 181
134 152 175
134 153 177
145 166 192
139 159 184
140 159 184
140 160 186
149 168 192
145 165 190
142 162 187
135 154 177
140 159 184
150 169 195
136 154 175
141 159 183
144 163 188
144 164 188
138 157 181
131 149 172
139 158 181
147 165 188
137 156 180
135 153 175
136 154 174
129 147 169
140 158 177
131 148 169
138 155 175
139 156 177
140 157 180
142 161 180
126 142 160
122 137 156
128 145 165
134 152 171
126 141 160
133 151 172
132 148 168
146 163 184
149 165 184
188 205 228
192 210 234
211 230 255
211 230 255
211 230 255
211 230 255
211 230 255
211 230 255
211 230 255
211 230 255
211 230 255
211 230 255
211 230 255
211 230 255
212 230 255
212 230 255
212 230 255
212 230 255
212 230 255
212 230 255
212 230 255
212 230 255
211 230 255
211 230 255
211 230 255
211 230 255
209 228 253
197 215 239
161 177 198
156 172 194
147 163 184
156 173 196
158 175 198
158 176 199
157 175 199
155 173 198
158 177 202
165 184 211
163 183 209
162 182 208
168 189 217
166 187 216
171 192 220
169 191 219
165 186 213
170 192 220
170 192 220
173 195 225
174 197 227
174 197 227
173 197 227
174 197 227
174 197 227
174 197 228
174 197 228
173 197 228
172 197 228
172 196 228
173 197 228
172 197 228
173 197 228
172 196 228
172 196 228
171 196 228
171 196 228
171 196 228
171 196 228
171 196 228
169 195 228
171 196 228
169 195 228
169 195 228
170 196 228
170 195 228
169 195 228
169 195 228
169 195 228
170 195 228
169 195 228
170 195 228
169 195 228
169 195 228
169 195 228
169 195 228
169 195 228
169 195 228
170 195 228
170 195 228
170 195 228
169 195 228
170 195 227
167 192 224
167 193 225
166 190 221
168 192 224
167 191 223
160 183 213
167 191 221
160 182 212
158 179 208
159 181 209
152 173 200
144 162 187
157 177 203
157 176 200
183 202 228
196 216 242
208 228 255
208 228 255
207 228 255
207 228 255
207 228 255
207 228 255
207 228 255
207 228 255
207 228 255
207 228 255
207 228 255
207 228 255
207 228 255
207 228 255
207 228 255
207 228 255
207 227 255
207 227 255
207 227 255
207 227 255
206 227 255
206 227 255
206 227 255
206 227 255
206 227 255
206 227 255
206 227 255
206 227 255
206 227 255
206 227 255
206 227 255
206 227 255
206 227 255
206 227 255
206 227 255
206 227 255
206 227 255
206 227 255
206 227 255
205 227 255
205 227 255
205 227 255
205 227 255
205 227 255
205 227 255
205 227 255
205 227 255
205 227 255
205 227 255
205 227 255
205 226 255
205 226 255
205 226 255
205 226 255
205 226 255
205 226 255
205 226 255
205 226 255
204 226 255
204 226 255
204 226 255
204 226 255
204 226 255
204 226 255
204 226 255
204 226 255
204 226 255
204 226 255
204 226 255
204 226 255
204 226 255
204 226 255
204 226 255
204 226 255
204 226 255
204 226 255
204 226 255
204 226 255
204 226 255
204 226 255
204 226 255
204 226 255
204 226 255
204 226 255
203 226 255
203 226 255
203 226 255
203 226 255
203 226 255
203 226 255
203 226 255
203 226 255
203 226 255
203 226 255
203 226 255
203 226 255
203 226 255
203 226 255
203 226 255
203 226 255
203 226 255
203 226 255
203 226 255
203 226 255
203 226 255
203 226 255
203 226 255
203 226 255
203 226 255
203 226 255
203 226 255
203 226 255
203 226 255
203 226 255
203 226 255
203 226 255
203 226 255
203 226 255
203 226 255
203 226 255
203 226 255
203 226 255
203 226 255
203 226 255
203 226 255
203 226 255
203 226 255
203 226 255
203 226 255
203 226 255
203 226 255
203 226 255
203 226 255
203 226 255
203 226 255
204 226 255
204 226 255
204 226 255
204 226 255
204 226 255
204 226 255
204 226 255
204 226 255
204 226 255
204 226 255
204 226 255
204 226 255
204 226 255
204 226 255
204 226 255
204 226 255
204 226 255
204 226 255
204 226 255
204 226 255
204 226 255
204 226 255
204 226 255
204 226 255
204 226 255
205 226 255
205 226 255
205 226 255
205 226 255
205 226 255
205 226 255
205 226 255
205 226 255
205 226 255
205 227 255
205 227 255
205 227 255
205 227 255
205 227 255
205 227 255
205 227 255
205 227 255
205 227 255
205 227 255
205 227 255
206 227 255
206 227 255
206 227 255
206 227 255
206 227 255
206 227 255
206 227 255
206 227 255
206 227 255
206 227 255
206 227 255
206 227 255
206 227 255
206 227 255
206 227 255
206 227 255
206 227 255
206 227 255
207 227 255
207 227 255
207 227 255
207 227 255
207 228 255
207 228 255
207 228 255
207 228 255
207 228 255
207 228 255
207 228 255
207 228 255
207 228 255
207 228 255
207 228 255
207 228 255
207 228 255
208 228 255
208 228 255
208 228 255
194 214 240
172 191 216
152 170 194
133 151 175
126 143 166
135 155 180
131 150 174
136 155 180
133 151 175
130 149 174
137 157 183
133 151 175
139 159 186
137 157 183
134 153 178
142 163 190
131 150 175
135 154 178
144 165 191
134 153 178
138 159 186
136 155 181
145 165 192
129 147 171
140 161 187
146 167 194
139 159 184
141 161 187
144 164 191
141 160 186
145 164 190
138 159 186
139 159 186
141 161 187
140 160 186
141 161 186
145 165 191
142 163 190
145 165 191
150 171 196
138 157 181
137 156 178
142 161 186
148 168 195
146 166 191
147 166 191
137 156 180
143 162 184
137 157 183
145 165 191
136 155 178
144 162 186
132 151 174
141 160 184
142 161 184
145 165 190
136 155 178
140 158 178
131 147 166
145 164 188
144 163 184
135 153 175
140 158 180
143 161 184
134 153 174
142 160 178
142 160 180
135 151 168
142 161 184
133 149 166
137 155 177
134 151 171
131 147 168
144 161 180
135 152 168
138 154 172
133 150 171
141 157 178
163 180 199
181 198 220
203 221 245
211 230 255
211 230 255
211 230 255
211 230 255
212 230 255
212 230 255
212 230 255
212 230 255
212 230 255
212 230 255
212 230 255
212 230 255
212 230 255
212 230 255
212 230 255
212 230 255
212 230 255
198 215 239
185 202 225
161 176 197
147 163 184
149 165 187
157 175 198
151 167 190
163 182 207
157 175 199
167 187 213
158 176 200
157 176 202
166 185 212
166 186 213
169 190 218
166 187 214
173 195 224
173 195 224
174 197 226
173 195 224
172 194 224
174 197 227
174 197 227
175 198 228
175 198 228
175 198 228
173 197 228
174 197 228
174 198 228
174 197 228
173 197 228
173 197 228
172 197 228
173 197 228
172 196 228
171 196 228
172 196 228
171 196 228
171 196 228
171 196 228
170 196 228
170 195 228
170 196 228
169 195 228
169 195 228
170 195 228
169 195 228
170 195 228
169 195 228
169 195 228
169 195 228
168 195 228
168 195 228
169 195 228
168 195 228
169 195 228
168 194 228
168 194 228
168 194 228
168 194 228
168 195 228
168 195 228
168 195 228
168 195 228
168 194 228
168 195 228
168 195 228
168 194 228
168 194 228
169 195 228
169 195 228
170 195 228
168 194 227
168 193 226
165 190 221
169 194 226
167 192 224
164 187 218
160 183 213
161 183 213
157 179 207
160 182 211
152 173 199
149 168 194
155 174 200
175 194 219
184 203 228
207 228 255
208 228 255
208 228 255
208 228 255
207 228 255
207 228 255
207 228 255
207 228 255
207 228 255
207 228 255
207 228 255
207 228 255
207 228 255
207 228 255
207 228 255
207 228 255
207 228 255
207 227 255
207 227 255
207 227 255
207 227 255
206 227 255
206 227 255
206 227 255
206 227 255
206 227 255
206 227 255
206 227 255
206 227 255
206 227 255
206 227 255
206 227 255
206 227 255
206 227 255
206 227 255
206 227 255
206 227 255
206 227 255
206 227 255
206 227 255
205 227 255
205 227 255
205 227 255
205 227 255
205 227 255
205 227 255
205 227 255
205 227 255
205 227 255
205 227 255
205 227 255
205 226 255
205 226 255
205 226 255
205 226 255
205 226 255
205 226 255
205 226 255
205 226 255
205 226 255
204 226 255
204 226 255
204 226 255
204 226 255
204 226 255
204 226 255
204 226 255
204 226 255
204 226 255
204 226 255
204 226 255
204 226 255
204 226 255
204 226 255
204 226 255
204 226 255
204 226 255
204 226 255
204 226 255
204 226 255
204 226 255
204 226 255
204 226 255
204 226 255
204 226 255
204 226 255
204 226 255
204 226 255
204 226 255
204 226 255
204 226 255
203 226 255
203 226 255
203 226 255
203 226 255
203 226 255
203 226 255
203 226 255
203 226 255
203 226 255
203 226 255
203 226 255
203 226 255
203 226 255
203 226 255
203 226 255
203 226 255
203 226 255
203 226 255
203 226 255
203 226 255
203 226 255
203 226 255
203 226 255
203 226 255
203 226 255
203 226 255
203 226 255
203 226 255
203 226 255
203 226 255
204 226 255
204 226 255
204 226 255
204 226 255
204 226 255
204 226 255
204 226 255
204 226 255
204 226 255
204 226 255
204 226 255
204 226 255
204 226 255
204 226 255
204 226 255
204 226 255
204 226 255
204 226 255
204 226 255
204 226 255
204 226 255
204 226 255
204 226 255
204 226 255
204 226 255
204 226 255
204 226 255
204 226 255
204 226 255
204 226 255
204 226 255
205 226 255
205 226 255
205 226 255
205 226 255
205 226 255
205 226 255
205 226 255
205 226 255
205 226 255
205 227 255
205 227 255
205 227 255
205 227 255
205 227 255
205 227 255
205 227 255
205 227 255
205 227 255
205 227 255
205 227 255
205 227 255
206 227 255
206 227 255
206 227 255
206 227 255
206 227 255
206 227 255
206 227 255
206 227 255
206 227 255
206 227 255
206 227 255
206 227 255
206 227 255
206 227 255
206 227 255
206 227 255
206 227 255
206 227 255
207 227 255
207 227 255
207 227 255
207 227 255
207 228 255
207 228 255
207 228 255
207 228 255
207 228 255
207 228 255
207 228 255
207 228 255
207 228 255
207 228 255
207 228 255
207 228 255
207 228 255
207 228 255
208 228 255
208 228 255
208 228 255
193 213 240
169 187 212
137 154 178
121 138 160
133 151 175
135 154 178
137 156 181
140 160 186
142 161 187
134 153 178
137 156 181
143 164 191
141 162 188
138 158 184
141 161 188
145 166 192
142 163 190
150 171 198
138 159 186
135 155 180
136 156 183
142 162 188
139 160 187
139 159 186
141 161 187
142 161 187
131 151 177
133 152 177
146 167 194
148 168 194
147 168 196
145 165 191
153 174 200
147 167 194
146 165 190
146 166 192
158 180 208
144 163 188
142 161 186
144 163 188
152 173 198
144 164 190
149 170 195
141 160 186
142 161 187
142 162 188
147 167 192
143 163 188
154 175 202
138 158 183
147 167 190
138 157 181
136 156 180
142 162 186
144 164 188
140 157 180
139 158 178
145 165 191
144 163 187
149 167 191
144 163 186
133 150 172
147 166 188
143 162 187
141 160 184
144 163 187
140 158 178
147 164 184
133 150 171
132 150 166
145 162 183
125 141 160
140 158 181
136 154 172
141 158 175
136 154 172
137 155 175
142 160 178
110 124 139
133 149 166
132 149 163
142 160 180
132 148 166
136 153 169
138 152 164
174 191 212
201 220 244
212 230 255
212 230 255
212 230 255
212 230 255
212 230 255
212 230 255
212 230 255
212 230 255
212 230 255
212 230 255
212 230 255
202 219 243
183 200 223
155 170 190
149 164 184
145 161 183
154 171 194
161 179 203
157 175 199
163 182 207
170 190 217
162 181 207
168 188 216
168 188 214
171 191 218
170 191 219
170 191 219
173 194 223
171 193 221
171 192 220
175 197 226
176 199 228
176 198 228
176 199 228
175 198 228
174 198 228
175 198 228
174 198 228
173 197 228
174 198 228
174 198 228
172 197 228
173 197 228
172 197 228
172 196 228
171 196 228
171 196 228
171 196 228
171 196 228
170 195 228
170 196 228
170 196 228
170 195 228
170 195 228
169 195 228
169 195 228
170 195 228
169 195 228
168 195 228
169 195 228
168 195 228
168 195 228
168 194 228
168 194 228
168 195 228
168 194 228
168 194 228
168 194 228
167 194 228
168 194 228
167 194 228
167 194 228
167 194 228
167 194 228
167 194 228
167 194 228
167 194 228
166 194 228
167 194 228
167 194 228
167 194 228
167 194 228
168 194 228
167 194 228
167 194 228
168 195 228
168 194 228
169 195 228
169 195 228
168 194 228
169 195 228
168 194 227
167 193 225
169 194 227
167 192 224
161 185 216
162 185 216
150 171 199
163 185 214
152 172 199
153 174 200
149 168 192
172 191 216
194 214 240
206 227 254
208 228 255
208 228 255
208 228 255
207 228 255
207 228 255
207 228 255
207 228 255
207 228 255
207 228 255
207 228 255
207 228 255
207 228 255
207 228 255
207 228 255
207 228 255
207 228 255
207 228 255
207 227 255
207 227 255
207 227 255
207 227 255
207 227 255
206 227 255
206 227 255
206 227 255
206 227 255
206 227 255
206 227 255
206 227 255
206 227 255
206 227 255
206 227 255
206 227 255
206 227 255
206 227 255
206 227 255
206 227 255
206 227 255
206 227 255
206 227 255
205 227 255
205 227 255
205 227 255
205 227 255
205 227 255
205 227 255
205 227 255
205 227 255
205 227 255
205 227 255
205 227 255
205 227 255
205 226 255
205 226 255
205 226 255
205 226 255
205 226 255
205 226 255
205 226 255
205 226 255
205 226 255
205 226 255
204 226 255
204 226 255
204 226 255
204 226 255
204 226 255
204 226 255
204 226 255
204 226 255
204 226 255
204 226 255
204 226 255
204 226 255
204 226 255
204 226 255
204 226 255
204 226 255
204 226 255
204 226 255
204 226 255
204 226 255
204 226 255
204 226 255
204 226 255
204 226 255
204 226 255
204 226 255
204 226 255
204 226 255
204 226 255
204 226 255
204 226 255
204 226 255
204 226 255
204 226 255
204 226 255
204 226 255
204 226 255
204 226 255
204 226 255
204 226 255
204 226 255
204 226 255
204 226 255
204 226 255
204 226 255
204 226 255
204 226 255
204 226 255
204 226 255
204 226 255
204 226 255
204 226 255
204 226 255
204 226 255
204 226 255
204 226 255
204 226 255
204 226 255
204 226 255
204 226 255
204 226 255
204 226 255
204 226 255
204 226 255
204 226 255
204 226 255
204 226 255
204 226 255
204 226 255
204 226 255
204 226 255
204 226 255
204 226 255
204 226 255
204 226 255
204 226 255
204 226 255
204 226 255
204 226 255
204 226 255
205 226 255
205 226 255
205 226 255
205 226 255
205 226 255
205 226 255
205 226 255
205 226 255
205 226 255
205 226 255
205 227 255
205 227 255
205 227 255
205 227 255
205 227 255
205 227 255
205 227 255
205 227 255
205 227 255
205 227 255
205 227 255
205 227 255
206 227 255
206 227 255
206 227 255
206 227 255
206 227 255
206 227 255
206 227 255
206 227 255
206 227 255
206 227 255
206 227 255
206 227 255
206 227 255
206 227 255
206 227 255
206 227 255
206 227 255
206 227 255
206 227 255
207 227 255
207 227 255
207 227 255
207 227 255
207 228 255
207 228 255
207 228 255
207 228 255
207 228 255
207 228 255
207 228 255
207 228 255
207 228 255
207 228 255
207 228 255
207 228 255
207 228 255
207 228 255
208 228 255
208 228 255
208 228 255
207 228 255
195 215 242
162 180 204
136 153 175
131 149 172
133 150 174
130 148 172
133 152 177
129 148 172
132 151 175
130 149 174
141 162 188
140 160 187
135 154 180
146 167 195
134 153 178
137 156 181
149 171 199
147 169 196
142 162 188
139 159 186
137 158 184
137 157 183
148 168 195
146 167 194
138 157 183
136 157 183
143 163 190
148 170 198
147 168 195
138 157 183
143 164 191
144 165 191
149 170 198
147 168 194
144 164 190
140 160 186
146 167 194
151 173 202
139 158 184
148 169 196
143 163 190
136 155 180
151 170 196
148 168 192
149 170 195
149 169 194
150 171 198
140 160 186
149 169 196
144 164 190
149 170 196
144 163 186
143 162 187
138 156 178
147 166 191
145 165 190
144 164 190
151 171 195
140 159 180
140 159 181
143 162 184
139 158 180
148 169 192
131 149 171
146 165 183
139 158 183
148 167 191
144 163 184
139 157 180
133 152 169
145 163 186
144 163 184
147 166 191
141 159 183
144 162 186
138 156 177
135 152 169
149 168 188
144 162 186
138 155 177
133 150 165
143 162 186
137 155 177
138 155 172
125 141 155
133 150 169
123 138 156
120 135 150
136 152 161
128 144 161
141 157 173
174 191 213
203 222 245
212 230 255
212 230 255
212 230 255
212 230 255
212 230 255
208 226 251
189 206 229
150 165 185
143 158 178
157 174 196
158 175 198
164 182 206
160 177 200
162 179 203
168 187 212
169 189 214
159 177 202
168 188 214
172 192 219
174 195 223
175 196 224
174 196 224
172 194 223
175 197 226
175 197 226
176 199 228
176 198 228
175 198 228
175 198 228
175 198 228
175 198 228
174 197 228
173 197 228
173 197 228
174 197 228
173 197 228
173 197 228
172 197 228
173 197 228
172 197 228
172 197 228
171 196 228
172 196 228
171 196 228
170 196 228
171 196 228
170 196 228
170 196 228
170 196 228
169 195 228
170 195 228
169 195 228
170 195 228
168 194 228
168 194 228
169 195 228
168 195 228
168 195 228
167 194 228
167 194 228
168 194 228
167 194 228
167 194 228
167 194 228
167 194 228
167 194 228
167 194 228
167 194 228
167 194 228
166 194 228
167 194 228
166 193 228
167 194 228
166 193 228
166 194 228
166 194 228
166 194 228
166 194 228
166 194 228
166 194 228
166 194 228
166 194 228
166 194 228
167 194 228
167 194 228
167 194 228
168 194 228
168 194 228
168 194 228
168 195 228
169 195 228
169 195 228
170 195 228
169 194 226
167 192 224
166 190 221
165 189 220
160 183 213
158 180 208
150 171 198
156 177 204
155 174 200
165 183 208
199 219 246
208 228 255
208 228 255
208 228 255
208 228 255
208 228 255
207 228 255
207 228 255
207 228 255
207 228 255
207 228 255
207 228 255
207 228 255
207 228 255
207 228 255
207 228 255
207 228 255
207 228 255
207 228 255
207 228 255
207 227 255
207 227 255
207 227 255
207 227 255
207 227 255
206 227 255
206 227 255
206 227 255
206 227 255
206 227 255
206 227 255
206 227 255
206 227 255
206 227 255
206 227 255
206 227 255
206 227 255
206 227 255
206 227 255
206 227 255
206 227 255
206 227 255
206 227 255
206 227 255
205 227 255
205 227 255
205 227 255
205 227 255
205 227 255
205 227 255
205 227 255
205 227 255
205 227 255
205 227 255
205 227 255
205 227 255
205 227 255
205 226 255
205 226 255
205 226 255
205 226 255
205 226 255
205 226 255
205 226 255
205 226 255
205 226 255
205 226 255
204 226 255
204 226 255
204 226 255
204 226 255
204 226 255
204 226 255
204 226 255
204 226 255
204 226 255
204 226 255
204 226 255
204 226 255
204 226 255
204 226 255
204 226 255
204 226 255
204 226 255
204 226 255
204 226 255
204 226 255
204 226 255
204 226 255
204 226 255
204 226 255
204 226 255
204 226 255
204 226 255
204 226 255
204 226 255
204 226 255
204 226 255
204 226 255
204 226 255
204 226 255
204 226 255
204 226 255
204 226 255
204 226 255
204 226 255
204 226 255
204 226 255
204 226 255
204 226 255
204 226 255
204 226 255
204 226 255
204 226 255
204 226 255
204 226 255
204 226 255
204 226 255
204 226 255
204 226 255
204 226 255
204 226 255
204 226 255
204 226 255
204 226 255
204 226 255
204 226 255
204 226 255
204 226 255
204 226 255
204 226 255
204 226 255
204 226 255
204 226 255
204 226 255
205 226 255
205 226 255
205 226 255
205 226 255
205 226 255
205 226 255
205 226 255
205 226 255
205 226 255
205 226 255
205 227 255
205 227 255
205 227 255
205 227 255
205 227 255
205 227 255
205 227 255
205 227 255
205 227 255
205 227 255
205 227 255
205 227 255
205 227 255
206 227 255
206 227 255
206 227 255
206 227 255
206 227 255
206 227 255
206 227 255
206 227 255
206 227 255
206 227 255
206 227 255
206 227 255
206 227 255
206 227 255
206 227 255
206 227 255
206 227 255
206 227 255
206 227 255
207 227 255
207 227 255
207 227 255
207 227 255
207 227 255
207 228 255
207 228 255
207 228 255
207 228 255
207 228 255
207 228 255
207 228 255
207 228 255
207 228 255
207 228 255
207 228 255
207 228 255
207 228 255
207 228 255
208 228 255
208 228 255
208 228 255
208 228 255
208 228 255
194 213 239
162 179 203
140 158 182
134 152 175
126 144 168
135 154 178
139 159 186
131 149 174
125 143 166
133 153 178
130 149 174
137 157 183
134 153 178
139 160 187
135 154 178
142 164 191
145 166 192
139 160 187
148 170 198
143 163 190
137 158 186
142 163 191
140 161 188
147 169 196
148 170 199
142 163 190
137 157 183
151 173 202
151 172 200
139 159 184
142 163 190
142 163 190
149 169 195
143 163 190
156 178 207
143 163 188
144 164 191
150 171 198
139 159 186
145 166 194
138 157 183
147 167 194
153 174 202
148 168 195
140 160 187
143 164 191
149 169 195
145 165 191
137 157 181
145 164 187
149 169 195
141 160 184
147 168 194
147 167 191
145 165 191
135 153 175
146 166 192
143 162 184
146 166 191
145 164 187
143 163 186
145 163 187
139 157 180
143 163 187
146 166 191
149 169 192
145 164 187
141 161 184
152 173 199
139 156 175
145 164 187
129 146 166
148 167 191
143 162 186
143 161 180
144 163 186
142 160 184
144 163 187
142 162 183
136 154 172
140 159 180
147 165 187
138 156 175
144 162 181
145 164 188
137 154 171
138 155 172
142 159 178
139 156 175
144 162 181
138 155 169
133 149 168
130 145 165
132 149 163
132 149 166
139 155 174
144 159 178
183 200 220
206 224 248
212 230 255
173 189 211
152 167 189
156 172 194
147 163 184
157 174 196
163 181 204
162 180 203
160 179 203
164 183 208
170 190 216
167 186 212
174 195 221
172 192 219
175 196 224
176 198 226
173 194 221
175 196 225
175 197 226
177 199 228
175 198 228
176 199 228
176 198 228
175 198 228
174 198 228
175 198 228
175 198 228
175 198 228
174 198 228
174 198 228
173 197 228
172 197 228
173 197 228
172 197 228
172 196 228
172 197 228
171 196 228
171 196 228
171 196 228
171 196 228
170 196 228
171 196 228
170 195 228
170 195 228
169 195 228
170 195 228
170 195 228
169 195 228
169 195 228
169 195 228
169 195 228
168 195 228
168 194 228
168 194 228
168 195 228
168 194 228
167 194 228
167 194 228
167 194 228
167 194 228
166 194 228
167 194 228
166 194 228
166 194 228
166 193 228
166 193 228
166 193 228
165 193 228
166 193 228
166 193 228
165 193 228
165 193 228
165 193 228
165 193 228
166 193 228
165 193 228
166 193 228
165 193 228
165 193 228
166 193 228
166 193 228
166 193 228
166 193 228
167 194 228
166 194 228
167 194 228
167 194 228
167 194 228
167 194 228
168 195 228
168 195 228
168 195 228
169 195 228
169 195 228
166 191 223
165 189 220
164 188 219
160 183 213
161 184 213
150 170 196
151 170 196
160 179 204
190 209 235
201 221 247
208 228 255
208 228 255
208 228 255
208 228 255
208 228 255
208 228 255
207 228 255
207 228 255
207 228 255
207 228 255
207 228 255
207 228 255
207 228 255
207 228 255
207 228 255
207 228 255
207 228 255
207 228 255
207 228 255
207 228 255
207 228 255
207 227 255
207 227 255
207 227 255
207 227 255
206 227 255
206 227 255
206 227 255
206 227 255
206 227 255
206 227 255
206 227 255
206 227 255
206 227 255
206 227 255
206 227 255
206 227 255
206 227 255
206 227 255
206 227 255
206 227 255
206 227 255
206 227 255
206 227 255
206 227 255
205 227 255
205 227 255
205 227 255
205 227 255
205 227 255
205 227 255
205 227 255
205 227 255
205 227 255
205 227 255
205 227 255
205 227 255
205 227 255
205 227 255
205 226 255
205 226 255
205 226 255
205 226 255
205 226 255
205 226 255
205 226 255
205 226 255
205 226 255
205 226 255
205 226 255
205 226 255
204 226 255
204 226 255
204 226 255
204 226 255
204 226 255
204 226 255
204 226 255
204 226 255
204 226 255
204 226 255
204 226 255
204 226 255
204 226 255
204 226 255
204 226 255
204 226 255
204 226 255
204 226 255
204 226 255
204 226 255
204 226 255
204 226 255
204 226 255
204 226 255
204 226 255
204 226 255
204 226 255
204 226 255
204 226 255
204 226 255
204 226 255
204 226 255
204 226 255
204 226 255
204 226 255
204 226 255
204 226 255
204 226 255
204 226 255
204 226 255
204 226 255
204 226 255
204 226 255
204 226 255
204 226 255
204 226 255
204 226 255
204 226 255
204 226 255
204 226 255
204 226 255
204 226 255
205 226 255
205 226 255
205 226 255
205 226 255
205 226 255
205 226 255
205 226 255
205 226 255
205 226 255
205 226 255
205 226 255
205 226 255
205 227 255
205 227 255
205 227 255
205 227 255
205 227 255
205 227 255
205 227 255
205 227 255
205 227 255
205 227 255
205 227 255
205 227 255
205 227 255
205 227 255
206 227 255
206 227 255
206 227 255
206 227 255
206 227 255
206 227 255
206 227 255
206 227 255
206 227 255
206 227 255
206 227 255
206 227 255
206 227 255
206 227 255
206 227 255
206 227 255
206 227 255
206 227 255
206 227 255
206 227 255
207 227 255
207 227 255
207 227 255
207 227 255
207 227 255
207 228 255
207 228 255
207 228 255
207 228 255
207 228 255
207 228 255
207 228 255
207 228 255
207 228 255
207 228 255
207 228 255
207 228 255
207 228 255
207 228 255
208 228 255
208 228 255
208 228 255
208 228 255
208 228 255
208 228 255
202 222 249
184 204 229
150 169 193
130 148 171
133 151 175
135 155 181
126 144 168
138 158 184
126 145 169
150 171 198
148 170 198
144 166 194
139 160 187
130 149 174
142 163 191
135 156 183
143 164 191
148 170 199
144 165 192
146 167 194
142 163 190
140 160 187
139 159 186
146 168 196
146 168 195
146 167 194
145 167 195
148 170 198
144 165 192
151 174 203
152 174 203
152 175 204
142 162 188
140 160 187
144 164 191
149 171 198
147 168 195
148 168 194
151 172 199
152 174 202
143 164 191
148 169 196
149 169 195
142 162 186
148 167 192
151 172 198
151 171 198
142 162 187
142 161 186
150 171 198
144 164 187
152 171 196
147 167 194
139 158 181
147 165 188
151 172 199
151 172 199
146 166 188
147 166 187
144 162 186
145 164 187
150 169 192
145 165 188
147 166 191
150 170 195
144 164 188
156 177 204
145 164 190
147 166 191
152 171 192
149 168 191
152 172 199
146 165 186
153 172 194
154 174 199
146 165 187
140 159 178
158 177 199
142 161 184
143 160 181
144 162 184
140 157 175
142 160 181
137 155 172
146 165 181
139 157 180
140 159 180
133 151 172
142 159 177
148 166 183
145 162 181
136 153 172
136 154 172
143 160 180
133 150 169
131 148 163
139 158 172
142 160 175
134 151 166
137 153 166
136 154 161
123 138 151
170 187 206
160 177 199
155 172 194
162 180 204
167 186 211
168 186 211
163 180 204
167 186 212
161 180 204
168 187 213
170 190 217
177 198 225
175 196 224
176 197 226
177 198 226
178 200 228
178 200 228
178 200 228
176 199 228
177 199 228
175 198 228
175 198 228
175 198 228
175 198 228
175 198 228
175 198 228
174 198 228
174 197 228
174 197 228
174 198 228
173 197 228
172 197 228
173 197 228
171 196 228
173 197 228
171 196 228
171 196 228
171 196 228
170 196 228
171 196 228
170 196 228
170 195 228
170 195 228
169 195 228
169 195 228
169 195 228
169 195 228
168 195 228
168 194 228
168 194 228
168 194 228
168 194 228
168 194 228
167 194 228
167 194 228
167 194 228
167 194 228
167 194 228
166 194 228
167 194 228
167 194 228
166 194 228
166 193 228
165 193 228
166 193 228
166 193 228
166 193 228
165 193 228
165 193 228
165 193 228
165 193 228
165 193 228
165 193 228
165 193 228
165 193 228
165 193 228
165 193 228
165 193 228
165 193 228
165 193 228
165 193 228
164 193 228
165 193 228
165 193 228
165 193 228
165 193 228
165 193 228
166 193 228
166 194 228
166 193 228
167 194 228
167 194 228
167 194 228
168 195 228
168 195 228
169 195 228
170 195 228
168 194 226
169 194 226
169 194 226
161 184 213
163 186 216
162 183 212
152 171 195
175 194 219
189 208 234
208 228 255
208 228 255
208 228 255
208 228 255
208 228 255
208 228 255
208 228 255
208 228 255
207 228 255
207 228 255
207 228 255
207 228 255
207 228 255
207 228 255
207 228 255
207 228 255
207 228 255
207 228 255
207 228 255
207 228 255
207 228 255
207 228 255
207 228 255
207 227 255
207 227 255
207 227 255
207 227 255
207 227 255
206 227 255
206 227 255
206 227 255
206 227 255
206 227 255
206 227 255
206 227 255
206 227 255
206 227 255
206 227 255
206 227 255
206 227 255
206 227 255
206 227 255
206 227 255
206 227 255
206 227 255
206 227 255
206 227 255
206 227 255
205 227 255
205 227 255
205 227 255
205 227 255
205 227 255
205 227 255
205 227 255
205 227 255
205 227 255
205 227 255
205 227 255
205 227 255
205 227 255
205 227 255
205 227 255
205 227 255
205 226 255
205 226 255
205 226 255
205 226 255
205 226 255
205 226 255
205 226 255
205 226 255
205 226 255
205 226 255
205 226 255
205 226 255
205 226 255
205 226 255
205 226 255
205 226 255
205 226 255
205 226 255
204 226 255
204 226 255
204 226 255
204 226 255
204 226 255
204 226 255
204 226 255
204 226 255
204 226 255
204 226 255
204 226 255
204 226 255
204 226 255
204 226 255
204 226 255
204 226 255
204 226 255
204 226 255
204 226 255
204 226 255
204 226 255
204 226 255
204 226 255
204 226 255
204 226 255
204 226 255
204 226 255
205 226 255
205 226 255
205 226 255
205 226 255
205 226 255
205 226 255
205 226 255
205 226 255
205 226 255
205 226 255
205 226 255
205 226 255
205 226 255
205 226 255
205 226 255
205 226 255
205 226 255
205 227 255
205 227 255
205 227 255
205 227 255
205 227 255
205 227 255
205 227 255
205 227 255
205 227 255
205 227 255
205 227 255
205 227 255
205 227 255
205 227 255
205 227 255
206 227 255
206 227 255
206 227 255
206 227 255
206 227 255
206 227 255
206 227 255
206 227 255
206 227 255
206 227 255
206 227 255
206 227 255
206 227 255
206 227 255
206 227 255
206 227 255
206 227 255
206 227 255
206 227 255
206 227 255
206 227 255
207 227 255
207 227 255
207 227 255
207 227 255
207 227 255
207 228 255
207 228 255
207 228 255
207 228 255
207 228 255
207 228 255
207 228 255
207 228 255
207 228 255
207 228 255
207 228 255
207 228 255
207 228 255
207 228 255
207 228 255
208 228 255
208 228 255
208 228 255
208 228 255
208 228 255
208 228 255
208 228 255
208 228 255
192 211 237
171 190 216
131 149 173
139 158 183
138 157 183
132 151 175
144 164 191
133 152 177
137 157 183
137 157 183
142 163 190
142 163 190
140 160 186
151 173 202
140 161 188
136 157 183
134 154 180
145 166 194
144 165 192
143 163 190
134 154 180
144 166 194
137 158 184
146 167 195
142 162 188
147 168 196
147 168 195
148 169 196
145 166 194
146 168 195
145 166 194
144 165 192
142 162 187
155 177 206
151 172 199
143 163 188
144 164 191
144 165 192
149 170 198
148 169 196
145 166 192
148 169 195
151 173 200
141 162 187
146 168 195
153 174 202
154 176 204
154 175 203
154 175 202
144 163 187
149 169 196
145 165 188
149 169 195
144 165 191
148 168 195
136 155 178
154 174 200
142 162 187
142 161 186
150 171 198
153 174 199
156 176 203
142 162 187
154 176 202
146 167 192
146 166 190
152 172 196
151 171 196
146 166 190
147 166 190
147 167 190
145 164 186
143 162 186
147 167 190
152 172 192
151 170 191
146 165 190
151 171 191
144 163 187
145 163 181
150 168 191
146 165 188
150 170 188
141 158 175
139 158 175
146 163 184
144 163 183
145 163 183
147 165 183
136 154 171
136 153 172
144 162 175
139 157 174
143 160 178
138 155 172
142 160 175
133 148 165
134 149 169
155 174 192
146 165 188
128 144 153
129 144 158
132 148 163
136 152 166
125 141 160
162 180 203
166 184 209
160 178 202
160 179 203
171 190 216
173 193 219
171 191 218
177 198 225
176 197 225
174 195 223
177 198 226
177 199 227
177 199 228
178 200 228
179 200 228
177 199 228
176 199 228
175 198 228
176 199 228
175 198 228
175 198 228
176 198 228
175 198 228
175 198 228
173 197 228
173 197 228
174 198 228
173 197 228
172 197 228
173 197 228
172 197 228
172 197 228
172 197 228
172 197 228
171 196 228
171 196 228
170 196 228
171 196 228
170 195 228
170 195 228
171 196 228
170 195 228
169 195 228
168 195 228
169 195 228
169 195 228
168 194 228
168 195 228
167 194 228
168 194 228
167 194 228
167 194 228
167 194 228
167 194 228
166 194 228
166 194 228
167 194 228
166 194 228
166 193 228
166 193 228
166 193 228
165 193 228
165 193 228
165 193 228
165 193 228
165 193 228
165 193 228
165 193 228
164 193 228
165 193 228
164 193 228
164 193 228
165 193 228
164 192 228
165 193 228
164 192 228
164 192 228
164 193 228
164 192 228
164 192 228
164 192 228
164 192 228
164 192 228
164 193 228
164 193 228
165 193 228
165 193 228
165 193 228
165 193 228
166 193 228
166 193 228
166 193 228
167 194 228
167 194 228
167 194 228
168 194 228
168 195 228
169 195 228
169 195 228
167 192 224
168 192 224
164 188 219
157 178 207
160 182 211
143 161 186
153 171 195
183 202 226
208 228 255
208 228 255
208 228 255
208 228 255
208 228 255
208 228 255
208 228 255
208 228 255
208 228 255
208 228 255
208 228 255
207 228 255
207 228 255
207 228 255
207 228 255
207 228 255
207 228 255
207 228 255
207 228 255
207 228 255
207 228 255
207 228 255
207 228 255
207 228 255
207 228 255
207 227 255
207 227 255
207 227 255
207 227 255
207 227 255
206 227 255
206 227 255
206 227 255
206 227 255
206 227 255
206 227 255
206 227 255
206 227 255
206 227 255
206 227 255
206 227 255
206 227 255
206 227 255
206 227 255
206 227 255
206 227 255
206 227 255
206 227 255
206 227 255
206 227 255
206 227 255
206 227 255
206 227 255
205 227 255
205 227 255
205 227 255
205 227 255
205 227 255
205 227 255
205 227 255
205 227 255
205 227 255
205 227 255
205 227 255
205 227 255
205 227 255
205 227 255
205 227 255
205 227 255
205 227 255
205 227 255
205 227 255
205 226 255
205 226 255
205 226 255
205 226 255
205 226 255
205 226 255
205 226 255
205 226 255
205 226 255
205 226 255
205 226 255
205 226 255
205 226 255
205 226 255
205 226 255
205 226 255
205 226 255
205 226 255
205 226 255
205 226 255
205 226 255
205 226 255
205 226 255
205 226 255
205 226 255
205 226 255
205 226 255
205 226 255
205 226 255
205 226 255
205 226 255
205 226 255
205 226 255
205 226 255
205 226 255
205 226 255
205 226 255
205 226 255
205 226 255
205 226 255
205 226 255
205 226 255
205 227 255
205 227 255
205 227 255
205 227 255
205 227 255
205 227 255
205 227 255
205 227 255
205 227 255
205 227 255
205 227 255
205 227 255
205 227 255
205 227 255
205 227 255
205 227 255
205 227 255
205 227 255
205 227 255
206 227 255
206 227 255
206 227 255
206 227 255
206 227 255
206 227 255
206 227 255
206 227 255
206 227 255
206 227 255
206 227 255
206 227 255
206 227 255
206 227 255
206 227 255
206 227 255
206 227 255
206 227 255
206 227 255
206 227 255
206 227 255
206 227 255
206 227 255
207 227 255
207 227 255
207 227 255
207 227 255
207 227 255
207 228 255
207 228 255
207 228 255
207 228 255
207 228 255
207 228 255
207 228 255
207 228 255
207 228 255
207 228 255
207 228 255
207 228 255
207 228 255
207 228 255
208 228 255
208 228 255
208 228 255
208 228 255
208 228 255
208 228 255
208 228 255
208 228 255
208 228 255
208 228 255
207 227 254
178 197 221
158 177 202
131 149 172
130 148 171
135 153 178
134 152 177
140 160 186
138 158 184
144 164 191
126 144 168
137 158 184
141 162 190
142 163 190
133 152 177
134 153 178
152 174 203
144 165 192
149 171 199
140 160 186
139 160 187
139 159 186
141 161 188
152 174 203
146 167 195
150 173 202
152 174 203
158 181 211
153 176 206
147 168 195
142 162 188
145 166 194
150 171 199
154 176 204
146 167 194
147 168 195
149 170 198
144 165 192
147 167 194
155 178 207
156 177 206
149 170 198
150 172 199
154 176 204
146 166 192
150 171 198
151 171 198
152 174 200
149 169 195
152 172 199
146 168 194
152 172 199
145 164 190
152 174 200
148 168 191
149 170 195
146 165 191
145 164 188
158 180 208
143 162 188
146 166 192
145 164 190
157 178 203
146 167 190
152 170 194
150 170 196
152 171 196
153 172 192
152 173 195
145 164 186
146 166 191
150 170 194
141 160 183
142 161 181
151 172 198
148 167 188
152 173 199
150 170 194
156 177 203
146 165 186
149 168 188
145 164 187
156 176 198
150 169 188
153 173 194
155 174 194
138 156 177
142 160 180
154 173 192
141 160 181
147 165 186
147 166 188
144 164 187
140 157 178
140 158 174
147 165 186
138 155 174
143 162 184
139 155 172
135 151 168
146 165 177
139 156 172
143 161 177
136 152 165
146 164 184
132 148 161
131 147 161
140 155 169
171 189 213
169 188 213
167 186 211
177 196 223
173 193 219
176 196 223
176 197 225
178 199 227
179 200 227
179 200 228
178 200 228
177 199 228
178 200 228
178 200 228
177 199 228
176 199 228
176 199 228
176 198 228
176 199 228
175 198 228
176 198 228
175 198 228
174 198 228
174 198 228
174 198 228
173 197 228
172 197 228
173 197 228
172 197 228
172 197 228
173 197 228
171 196 228
172 197 228
172 196 228
171 196 228
171 196 228
170 196 228
171 196 228
171 196 228
169 195 228
170 195 228
169 195 228
169 195 228
169 195 228
169 195 228
169 195 228
168 195 228
168 194 228
167 194 228
167 194 228
167 194 228
167 194 228
167 194 228
167 194 228
167 194 228
166 193 228
166 193 228
166 193 228
166 193 228
166 193 228
166 193 228
166 193 228
165 193 228
165 193 228
164 193 228
165 193 228
165 193 228
164 193 228
165 193 228
164 192 228
165 193 228
164 192 228
164 192 228
163 192 228
164 192 228
164 192 228
164 192 228
164 192 228
164 192 228
164 192 228
164 192 228
164 192 228
164 192 228
163 192 228
164 192 228
164 192 228
164 192 228
164 192 228
165 193 228
165 193 228
165 193 228
165 193 228
165 193 228
165 193 228
166 194 228
167 194 228
167 194 228
168 194 228
168 195 228
169 195 228
168 194 227
170 195 227
168 192 224
166 190 220
163 186 216
156 177 206
146 166 191
157 175 199
184 202 228
206 226 253
208 228 255
208 228 255
208 228 255
208 228 255
208 228 255
208 228 255
208 228 255
208 228 255
208 228 255
208 228 255
208 228 255
208 228 255
207 228 255
207 228 255
207 228 255
207 228 255
207 228 255
207 228 255
207 228 255
207 228 255
207 228 255
207 228 255
207 228 255
207 228 255
207 228 255
207 228 255
207 228 255
207 228 255
207 227 255
207 227 255
207 227 255
207 227 255
206 227 255
206 227 255
206 227 255
206 227 255
206 227 255
206 227 255
206 227 255
206 227 255
206 227 255
206 227 255
206 227 255
206 227 255
206 227 255
206 227 255
206 227 255
206 227 255
206 227 255
206 227 255
206 227 255
206 227 255
206 227 255
206 227 255
206 227 255
206 227 255
205 227 255
205 227 255
205 227 255
205 227 255
205 227 255
205 227 255
205 227 255
205 227 255
205 227 255
205 227 255
205 227 255
205 227 255
205 227 255
205 227 255
205 227 255
205 227 255
205 227 255
205 227 255
205 227 255
205 227 255
205 227 255
205 227 255
205 227 255
205 227 255
205 227 255
205 227 255
205 227 255
205 227 255
205 227 255
205 227 255
205 227 255
205 227 255
205 227 255
205 227 255
205 227 255
205 227 255
205 227 255
205 227 255
205 227 255
205 227 255
205 227 255
205 227 255
205 227 255
205 227 255
205 227 255
205 227 255
205 227 255
205 227 255
205 227 255
205 227 255
205 227 255
205 227 255
205 227 255
205 227 255
205 227 255
205 227 255
205 227 255
205 227 255
205 227 255
205 227 255
205 227 255
205 227 255
205 227 255
205 227 255
205 227 255
205 227 255
205 227 255
206 227 255
206 227 255
206 227 255
206 227 255
206 227 255
206 227 255
206 227 255
206 227 255
206 227 255
206 227 255
206 227 255
206 227 255
206 227 255
206 227 255
206 227 255
206 227 255
206 227 255
206 227 255
206 227 255
206 227 255
206 227 255
206 227 255
206 227 255
206 227 255
206 227 255
207 227 255
207 227 255
207 227 255
207 227 255
207 227 255
207 228 255
207 228 255
207 228 255
207 228 255
207 228 255
207 228 255
207 228 255
207 228 255
207 228 255
207 228 255
207 228 255
207 228 255
207 228 255
207 228 255
207 228 255
208 228 255
208 228 255
208 228 255
208 228 255
208 228 255
208 228 255
208 228 255
208 228 255
208 228 255
208 228 255
208 228 255
208 228 255
208 228 255
180 199 224
142 159 182
131 149 172
132 151 175
129 148 172
140 160 186
133 152 178
145 166 194
138 158 185
144 164 191
143 163 188
134 153 178
138 159 186
146 167 195
140 161 187
145 166 192
137 157 183
149 171 199
146 168 195
141 161 188
135 155 180
150 172 200
149 171 199
148 170 199
148 170 198
150 171 199
149 170 198
151 172 199
150 172 199
151 173 200
151 172 200
150 171 199
148 168 195
145 166 192
148 170 198
153 175 203
153 174 202
152 172 199
143 163 190
151 172 200
142 163 190
142 163 190
143 163 190
147 168 195
155 175 202
154 176 204
155 177 206
152 173 200
154 175 203
141 161 187
151 171 198
145 165 191
154 175 202
152 173 200
157 177 203
158 180 208
154 176 200
152 172 198
154 174 198
153 174 200
148 166 190
155 176 204
153 174 200
149 169 194
154 175 200
152 174 199
154 175 195
141 159 181
146 165 190
149 169 195
151 171 195
151 171 191
150 171 195
157 178 204
152 171 196
148 167 191
155 174 196
151 170 191
149 168 190
153 174 199
152 171 191
150 170 194
140 158 178
153 172 192
151 172 196
151 169 188
147 166 187
149 168 187
150 170 192
149 168 191
138 156 178
158 177 199
146 164 183
150 168 186
139 156 172
139 157 175
141 158 172
150 169 190
140 158 180
146 164 184
144 161 183
150 169 184
141 159 171
143 160 180
128 145 160
141 159 177
140 157 171
138 156 171
140 157 172
165 184 208
170 189 214
177 197 224
178 198 225
179 200 227
180 201 228
179 200 228
179 200 228
179 200 228
178 200 228
178 200 228
178 200 228
178 200 228
176 199 228
177 199 228
177 199 228
176 199 228
176 199 228
175 198 228
175 198 228
175 198 228
174 198 228
174 197 228
173 197 228
173 197 228
173 197 228
173 197 228
174 197 228
173 197 228
172 197 228
172 196 228
171 196 228
172 197 228
171 196 228
171 196 228
170 196 228
171 196 228
170 196 228
170 196 228
170 195 228
169 195 228
169 195 228
170 195 228
169 195 228
169 195 228
168 195 228
168 194 228
168 194 228
168 194 228
168 194 228
167 194 228
167 194 228
167 194 228
167 194 228
166 194 228
166 194 228
166 193 228
166 193 228
165 193 228
166 193 228
166 193 228
165 193 228
165 193 228
165 193 228
165 193 228
165 193 228
165 193 228
164 193 228
164 192 228
164 192 228
164 193 228
164 192 228
164 192 228
164 192 228
164 192 228
163 192 228
163 192 228
163 192 228
163 192 228
163 192 228
163 192 228
163 192 228
163 192 228
163 192 228
163 192 228
163 192 228
164 192 228
164 192 228
164 192 228
164 192 228
164 192 228
164 193 228
165 193 228
165 193 228
165 193 228
165 193 228
166 193 228
167 194 228
167 194 228
168 194 228
168 195 228
168 195 228
169 195 228
166 191 224
166 191 223
167 191 223
164 187 217
156 178 206
161 182 209
156 174 199
185 204 229
205 224 251
208 228 255
208 228 255
208 228 255
208 228 255
208 228 255
208 228 255
208 228 255
208 228 255
208 228 255
208 228 255
208 228 255
208 228 255
208 228 255
208 228 255
208 228 255
207 228 255
207 228 255
207 228 255
207 228 255
207 228 255
207 228 255
207 228 255
207 228 255
207 228 255
207 228 255
207 228 255
207 228 255
207 228 255
207 228 255
207 228 255
207 227 255
207 227 255
207 227 255
207 227 255
207 227 255
207 227 255
206 227 255
206 227 255
206 227 255
206 227 255
206 227 255
206 227 255
206 227 255
206 227 255
206 227 255
206 227 255
206 227 255
206 227 255
206 227 255
206 227 255
206 227 255
206 227 255
206 227 255
206 227 255
206 227 255
206 227 255
206 227 255
206 227 255
206 227 255
206 227 255
206 227 255
206 227 255
206 227 255
206 227 255
205 227 255
205 227 255
205 227 255
205 227 255
205 227 255
205 227 255
205 227 255
205 227 255
205 227 255
205 227 255
205 227 255
205 227 255
205 227 255
205 227 255
205 227 255
205 227 255
205 227 255
205 227 255
199 220 251
194 215 247
174 196 234
170 193 232
187 208 243
179 201 238
165 187 228
172 194 233
181 203 239
179 201 238
196 217 249
202 224 254
205 227 255
205 227 255
205 227 255
205 227 255
205 227 255
205 227 255
205 227 255
205 227 255
205 227 255
205 227 255
205 227 255
205 227 255
205 227 255
205 227 255
205 227 255
205 227 255
205 227 255
205 227 255
206 227 255
206 227 255
206 227 255
206 227 255
206 227 255
206 227 255
206 227 255
206 227 255
206 227 255
206 227 255
206 227 255
206 227 255
206 227 255
206 227 255
206 227 255
206 227 255
206 227 255
206 227 255
206 227 255
206 227 255
206 227 255
206 227 255
206 227 255
206 227 255
206 227 255
206 227 255
206 227 255
206 227 255
207 227 255
207 227 255
207 227 255
207 227 255
207 227 255
207 227 255
207 228 255
207 228 255
207 228 255
207 228 255
207 228 255
207 228 255
207 228 255
207 228 255
207 228 255
207 228 255
207 228 255
207 228 255
207 228 255
207 228 255
207 228 255
208 228 255
208 228 255
208 228 255
208 228 255
208 228 255
208 228 255
208 228 255
208 228 255
208 228 255
208 228 255
208 228 255
208 228 255
208 228 255
208 228 255
208 228 255
208 228 255
177 196 222
144 162 186
142 162 187
123 141 163
140 160 186
135 154 179
138 157 183
138 158 186
136 155 180
134 155 181
149 170 198
135 155 180
137 157 183
136 157 183
147 169 196
149 170 198
146 167 195
144 164 190
143 165 192
140 160 188
148 170 200
150 172 199
147 169 198
140 160 188
139 159 185
136 155 180
146 167 195
156 179 208
146 168 195
156 180 209
150 172 200
152 174 203
157 178 206
149 170 198
155 178 207
150 171 199
146 167 195
153 174 202
153 175 203
139 159 186
146 166 192
151 172 199
146 166 191
157 178 207
154 176 204
149 170 196
152 173 200
152 172 198
161 182 209
157 178 206
154 176 202
159 180 206
144 164 190
153 173 198
149 169 194
154 175 202
161 183 211
147 167 194
154 174 196
148 168 194
151 172 200
156 177 203
155 176 203
164 185 212
158 179 204
154 173 198
153 174 200
146 166 190
153 174 200
146 164 187
156 176 199
162 183 208
155 174 196
152 173 196
155 175 199
158 178 202
153 174 198
154 174 198
150 169 191
146 165 184
151 171 195
147 166 190
153 173 198
150 170 194
154 172 192
151 170 191
154 173 190
149 167 186
149 167 187
153 172 195
152 171 192
144 162 178
142 160 181
152 172 190
144 162 181
146 165 183
140 158 177
152 171 191
149 168 190
148 167 186
142 159 180
150 168 190
145 163 184
142 160 175
144 162 181
147 164 184
134 151 168
142 159 174
134 153 171
142 160 180
142 158 175
177 196 221
178 198 225
181 201 228
180 201 228
180 201 228
180 201 228
179 200 228
178 200 228
178 200 228
178 200 228
178 200 228
176 199 228
178 200 228
177 199 228
177 199 228
176 199 228
176 198 228
176 199 228
176 199 228
174 198 228
175 198 228
175 198 228
174 198 228
173 197 228
173 197 228
173 197 228
174 198 228
173 197 228
173 197 228
173 197 228
172 197 228
172 197 228
172 197 228
171 196 228
172 197 228
170 196 228
169 195 228
170 196 228
170 195 228
170 195 228
170 195 228
169 195 228
168 195 228
169 195 228
169 195 228
168 195 228
168 194 228
168 194 228
168 194 228
168 194 228
167 194 228
167 194 228
167 194 228
167 194 228
167 194 228
166 194 228
166 194 228
166 193 228
166 193 228
165 193 228
165 193 228
165 193 228
165 193 228
164 193 228
165 193 228
164 193 228
164 193 228
164 193 228
164 192 228
164 193 228
164 192 228
164 192 228
164 192 228
164 192 228
163 192 228
163 192 228
163 192 228
163 192 228
163 192 228
163 192 228
163 192 228
163 192 228
163 192 228
163 192 228
163 192 228
163 192 228
163 192 228
163 192 228
163 192 228
164 192 228
164 192 228
164 192 228
164 192 228
164 192 228
164 193 228
165 193 228
165 193 228
166 193 228
166 193 228
166 194 228
166 194 228
167 194 228
167 194 228
169 195 228
169 195 228
170 195 228
169 193 225
169 193 225
166 189 219
161 183 212
155 175 202
159 178 203
175 193 217
206 226 252
208 228 255
208 228 255
208 228 255
208 228 255
208 228 255
208 228 255
208 228 255
208 228 255
208 228 255
208 228 255
208 228 255
208 228 255
208 228 255
208 228 255
208 228 255
208 228 255
208 228 255
208 228 255
207 228 255
207 228 255
207 228 255
207 228 255
207 228 255
207 228 255
207 228 255
207 228 255
207 228 255
207 228 255
207 228 255
207 228 255
207 228 255
207 228 255
207 228 255
207 228 255
207 227 255
207 227 255
207 227 255
207 227 255
207 227 255
207 227 255
206 227 255
206 227 255
206 227 255
206 227 255
206 227 255
206 227 255
206 227 255
206 227 255
206 227 255
206 227 255
206 227 255
206 227 255
206 227 255
206 227 255
206 227 255
206 227 255
206 227 255
206 227 255
206 227 255
206 227 255
206 227 255
206 227 255
206 227 255
206 227 255
206 227 255
206 227 255
206 227 255
206 227 255
206 227 255
206 227 255
206 227 255
206 227 255
206 227 255
206 227 255
203 224 254
179 201 237
153 176 221
140 164 213
105 133 196
76 109 183
61 98 171
62 99 179
62 99 179
62 99 177
62 99 175
62 99 176
62 99 177
63 100 176
62 99 175
62 99 178
62 99 176
65 101 180
78 111 181
112 139 198
130 155 208
157 180 223
180 202 238
200 221 252
206 227 255
206 227 255
206 227 255
206 227 255
206 227 255
206 227 255
206 227 255
206 227 255
206 227 255
206 227 255
206 227 255
206 227 255
206 227 255
206 227 255
206 227 255
206 227 255
206 227 255
206 227 255
206 227 255
206 227 255
206 227 255
206 227 255
206 227 255
206 227 255
206 227 255
206 227 255
206 227 255
206 227 255
206 227 255
206 227 255
206 227 255
206 227 255
206 227 255
206 227 255
207 227 255
207 227 255
207 227 255
207 227 255
207 227 255
207 227 255
207 228 255
207 228 255
207 228 255
207 228 255
207 228 255
207 228 255
207 228 255
207 228 255
207 228 255
207 228 255
207 228 255
207 228 255
207 228 255
207 228 255
207 228 255
207 228 255
208 228 255
208 228 255
208 228 255
208 228 255
208 228 255
208 228 255
208 228 255
208 228 255
208 228 255
208 228 255
208 228 255
208 228 255
208 228 255
208 228 255
208 228 255
208 228 255
208 228 255
208 228 255
207 227 254
174 192 216
147 165 189
139 158 183
138 158 183
128 146 170
129 147 171
139 159 186
136 156 182
151 172 200
146 166 193
144 164 190
139 158 184
143 164 191
146 167 195
141 162 188
141 162 188
147 169 196
150 171 198
146 167 194
136 156 181
151 172 200
150 172 200
153 175 203
153 174 203
148 170 198
151 173 202
150 171 199
145 166 194
146 167 194
160 182 212
151 173 202
153 175 203
152 174 203
148 169 196
152 173 200
157 179 208
151 172 200
151 172 200
154 176 204
157 178 206
155 176 203
151 172 200
145 166 194
148 168 194
155 175 202
149 169 196
146 167 194
149 169 195
157 178 206
158 179 207
150 171 198
152 173 200
158 179 208
150 171 198
161 183 212
156 177 203
156 176 203
153 175 202
163 186 213
158 178 204
159 179 204
148 168 194
165 186 213
161 181 207
149 169 194
155 175 202
149 170 192
150 170 192
148 167 188
156 177 202
152 173 196
147 167 194
154 174 198
153 173 198
150 170 194
150 169 192
155 175 200
150 170 194
147 167 188
152 172 194
146 165 183
151 170 192
141 160 181
149 167 190
148 167 186
154 174 194
143 162 181
152 171 192
140 158 177
141 158 174
154 173 196
145 165 186
146 164 184
154 174 195
150 170 186
148 168 188
149 168 186
145 164 184
142 162 181
147 165 180
138 156 177
139 156 174
140 159 175
149 167 186
151 170 194
148 165 178
151 169 184
142 159 175
141 158 177
145 163 178
145 162 180
136 154 169
140 156 171
178 198 224
179 200 227
180 201 228
180 201 228
180 201 228
179 200 228
179 200 228
179 200 228
178 200 228
178 200 228
177 199 228
177 199 228
177 199 228
176 199 228
177 199 228
176 199 228
176 199 228
176 198 228
175 198 228
175 198 228
175 198 228
175 198 228
174 197 228
175 198 228
172 197 228
173 197 228
172 197 228
172 197 228
173 197 228
172 196 228
172 197 228
172 197 228
171 196 228
171 196 228
171 196 228
170 196 228
171 196 228
170 196 228
170 195 228
170 195 228
170 195 228
170 195 228
169 195 228
169 195 228
169 195 228
169 195 228
168 194 228
168 194 228
168 194 228
167 194 228
167 194 228
167 194 228
167 194 228
167 194 228
167 194 228
166 194 228
166 193 228
166 193 228
166 193 228
165 193 228
165 193 228
165 193 228
165 193 228
165 193 228
164 193 228
165 193 228
164 192 228
164 193 228
164 192 228
164 192 228
164 192 228
163 192 228
164 192 228
163 192 228
163 192 228
163 192 228
163 192 228
163 192 228
163 192 228
163 192 228
163 192 228
163 192 228
163 192 228
163 192 228
163 192 228
163 192 228
163 192 228
163 192 228
163 192 228
163 192 228
163 192 228
163 192 228
164 192 228
163 192 228
164 192 228
164 192 228
164 192 228
164 193 228
165 193 228
165 193 228
166 193 228
166 193 228
167 194 228
167 194 228
167 194 228
169 195 228
169 195 228
171 196 228
171 196 228
168 192 224
166 189 219
158 180 208
156 177 203
164 183 208
189 208 233
209 228 255
208 228 255
208 228 255
208 228 255
208 228 255
208 228 255
208 228 255
208 228 255
208 228 255
208 228 255
208 228 255
208 228 255
208 228 255
208 228 255
208 228 255
208 228 255
208 228 255
208 228 255
208 228 255
208 228 255
208 228 255
208 228 255
207 228 255
207 228 255
207 228 255
207 228 255
207 228 255
207 228 255
207 228 255
207 228 255
207 228 255
207 228 255
207 228 255
207 228 255
207 228 255
207 228 255
207 228 255
207 228 255
207 228 255
207 227 255
207 227 255
207 227 255
207 227 255
207 227 255
207 227 255
207 227 255
206 227 255
206 227 255
206 227 255
206 227 255
206 227 255
206 227 255
206 227 255
206 227 255
206 227 255
206 227 255
206 227 255
206 227 255
206 227 255
206 227 255
206 227 255
206 227 255
206 227 255
206 227 255
206 227 255
206 227 255
206 227 255
206 227 255
206 227 255
205 226 255
189 211 244
152 175 220
118 144 203
61 98 173
62 98 173
62 99 173
62 99 175
62 99 174
62 99 174
62 99 174
62 99 175
63 99 176
62 99 175
63 99 173
62 99 178
62 99 174
62 99 177
61 98 173
62 99 174
62 99 174
62 98 175
63 99 175
62 99 175
62 99 176
62 99 179
62 99 179
67 102 177
109 136 196
158 181 223
187 209 242
203 224 254
206 227 255
206 227 255
206 227 255
206 227 255
206 227 255
206 227 255
206 227 255
206 227 255
206 227 255
206 227 255
206 227 255
206 227 255
206 227 255
206 227 255
206 227 255
206 227 255
206 227 255
206 227 255
206 227 255
206 227 255
206 227 255
206 227 255
206 227 255
206 227 255
207 227 255
207 227 255
207 227 255
207 227 255
207 227 255
207 227 255
207 228 255
207 228 255
207 228 255
207 228 255
207 228 255
207 228 255
207 228 255
207 228 255
207 228 255
207 228 255
207 228 255
207 228 255
207 228 255
207 228 255
207 228 255
207 228 255
207 228 255
208 228 255
208 228 255
208 228 255
208 228 255
208 228 255
208 228 255
208 228 255
208 228 255
208 228 255
208 228 255
208 228 255
208 228 255
208 228 255
208 228 255
208 228 255
208 228 255
208 228 255
208 228 255
208 228 255
208 228 255
209 228 255
208 227 254
182 201 227
155 174 199
132 149 171
135 154 178
140 159 185
136 155 180
132 151 175
139 159 186
142 162 189
130 149 174
137 156 183
140 160 186
135 154 178
149 170 199
145 166 192
149 170 198
145 167 196
148 168 195
143 163 190
147 168 197
142 163 190
156 179 208
155 177 206
145 165 192
150 172 200
146 167 195
156 179 208
154 176 204
154 176 206
157 179 208
155 176 204
153 176 206
148 170 198
159 181 210
147 169 196
157 178 207
156 177 206
153 175 203
154 175 203
156 179 208
155 177 206
154 175 202
152 173 202
154 175 203
145 166 192
151 172 199
147 166 192
162 184 212
156 178 206
151 171 196
153 174 202
148 169 196
151 172 199
154 175 200
154 176 203
155 176 200
153 173 198
159 180 207
150 171 196
152 173 200
167 189 218
152 172 195
158 179 204
160 181 208
155 176 202
156 176 200
160 181 204
152 173 196
153 173 198
151 171 195
150 170 194
153 173 198
158 178 203
154 174 196
154 174 199
153 173 198
151 172 194
155 176 198
160 181 206
147 166 187
157 175 198
153 173 195
159 179 203
154 174 196
143 161 183
150 168 188
148 168 191
149 168 188
150 167 188
145 163 186
156 176 195
146 166 187
150 168 180
157 176 199
149 168 187
152 172 184
149 168 187
142 160 177
155 174 191
146 165 180
143 161 181
150 169 187
140 156 165
149 168 188
154 173 190
147 164 187
140 158 172
139 157 172
155 175 194
146 163 183
142 160 177
131 149 165
143 160 174
148 165 181
145 162 181
182 202 228
180 201 228
181 201 228
179 200 228
180 201 228
179 200 228
179 200 228
179 200 228
178 200 228
177 199 228
177 199 228
177 199 228
177 199 228
176 199 228
176 199 228
176 199 228
176 199 228
175 198 228
175 198 228
174 198 228
174 198 228
175 198 228
174 197 228
173 197 228
173 197 228
173 197 228
173 197 228
173 197 228
172 197 228
172 197 228
172 197 228
172 196 228
171 196 228
171 196 228
171 196 228
170 196 228
171 196 228
170 195 228
170 196 228
170 195 228
170 196 228
170 195 228
169 195 228
169 195 228
168 195 228
169 195 228
168 194 228
168 194 228
168 194 228
167 194 228
167 194 228
166 194 228
167 194 228
166 194 228
166 193 228
166 194 228
167 194 228
166 194 228
166 194 228
166 193 228
165 193 228
166 193 228
165 193 228
165 193 228
165 193 228
165 193 228
164 193 228
164 193 228
164 192 228
164 192 228
164 192 228
164 192 228
163 192 228
164 192 228
163 192 228
163 192 228
163 192 228
163 192 228
163 192 228
163 192 228
163 192 228
163 192 228
163 192 228
163 192 228
163 192 228
163 192 228
163 192 228
163 192 228
163 192 228
163 192 228
163 192 228
163 192 228
163 192 228
163 192 228
163 192 228
163 192 228
164 192 228
164 192 228
164 193 228
165 193 228
165 193 228
165 193 228
165 193 228
166 193 228
167 194 228
167 194 228
168 195 228
169 195 228
169 195 228
170 196 228
171 195 227
167 191 221
168 192 223
163 185 213
159 180 207
158 176 200
198 218 244
209 229 255
209 229 255
209 229 255
209 228 255
208 228 255
208 228 255
208 228 255
208 228 255
208 228 255
208 228 255
208 228 255
208 228 255
208 228 255
208 228 255
208 228 255
208 228 255
208 228 255
208 228 255
208 228 255
208 228 255
208 228 255
208 228 255
208 228 255
208 228 255
208 228 255
207 228 255
207 228 255
207 228 255
207 228 255
207 228 255
207 228 255
207 228 255
207 228 255
207 228 255
207 228 255
207 228 255
207 228 255
207 228 255
207 228 255
207 228 255
207 228 255
207 228 255
207 228 255
207 228 255
207 227 255
207 227 255
207 227 255
207 227 255
207 227 255
207 227 255
207 227 255
206 227 255
206 227 255
206 227 255
206 227 255
206 227 255
206 227 255
206 227 255
206 227 255
206 227 255
206 227 255
206 227 255
206 227 255
206 227 255
205 226 255
181 203 238
137 161 207
83 114 184
61 98 172
62 99 178
63 99 175
62 99 171
62 99 175
62 98 172
62 99 174
62 99 174
63 100 178
62 99 174
62 98 172
62 99 175
62 99 176
62 99 175
62 98 168
62 99 173
62 98 172
62 99 171
62 99 172
61 98 173
62 99 174
62 99 173
62 99 176
62 99 175
62 98 171
63 99 173
62 98 174
61 98 173
62 99 175
63 99 178
75 108 177
140 164 214
186 208 241
206 227 255
206 227 255
206 227 255
206 227 255
206 227 255
206 227 255
206 227 255
206 227 255
206 227 255
206 227 255
206 227 255
206 227 255
206 227 255
206 227 255
207 227 255
207 227 255
207 227 255
207 227 255
207 227 255
207 227 255
207 227 255
207 228 255
207 228 255
207 228 255
207 228 255
207 228 255
207 228 255
207 228 255
207 228 255
207 228 255
207 228 255
207 228 255
207 228 255
207 228 255
207 228 255
207 228 255
207 228 255
207 228 255
207 228 255
207 228 255
208 228 255
208 228 255
208 228 255
208 228 255
208 228 255
208 228 255
208 228 255
208 228 255
208 228 255
208 228 255
208 228 255
208 228 255
208 228 255
208 228 255
208 228 255
208 228 255
208 228 255
208 228 255
208 228 255
208 228 255
208 228 255
209 228 255
209 229 255
209 229 255
209 229 255
197 216 242
143 159 181
140 160 186
137 156 181
138 157 182
135 155 180
138 158 184
137 156 182
152 172 198
142 162 189
134 154 180
149 170 198
147 168 196
142 162 189
139 160 186
141 162 190
150 172 200
148 170 198
150 172 200
144 165 192
143 164 191
155 177 207
148 169 196
146 166 192
156 179 209
159 181 211
151 172 199
146 165 191
156 178 207
155 177 206
156 178 207
148 169 196
154 176 204
152 173 200
153 175 203
150 170 196
151 172 200
157 179 207
151 172 199
157 178 207
148 168 194
157 179 208
152 173 200
151 172 199
156 178 207
152 174 203
159 181 209
154 175 203
156 177 204
153 173 199
158 180 208
157 179 207
162 184 213
158 180 208
155 177 206
156 178 206
164 186 216
156 177 203
157 178 203
164 186 214
151 171 196
154 176 202
159 180 206
156 178 206
154 175 199
157 177 202
152 173 199
154 175 200
163 185 209
152 173 200
155 174 199
153 173 196
150 170 190
154 173 196
154 175 198
160 181 207
159 179 204
153 173 196
153 174 199
153 174 200
156 176 198
154 174 196
155 175 198
153 174 199
154 173 195
157 178 203
149 168 187
152 172 191
148 167 186
140 158 175
147 166 187
157 176 198
146 165 187
143 162 178
145 164 184
151 170 190
159 180 198
147 166 183
147 164 178
151 171 190
148 167 184
147 166 184
146 164 177
145 162 181
146 164 175
145 164 184
145 162 177
150 169 186
143 161 180
150 168 184
140 158 174
145 162 175
152 171 191
148 168 186
150 168 186
140 156 169
130 146 161
180 201 228
181 201 228
180 201 228
179 200 228
179 200 228
178 200 228
178 200 228
178 200 228
178 200 228
177 199 228
176 199 228
177 199 228
178 200 228
176 199 228
176 198 228
176 199 228
175 198 228
176 199 228
175 198 228
175 198 228
174 198 228
174 198 228
174 198 228
174 198 228
173 197 228
173 197 228
173 197 228
173 197 228
172 197 228
173 197 228
172 196 228
172 197 228
172 196 228
172 197 228
172 196 228
171 196 228
170 196 228
170 196 228
171 196 228
170 196 228
170 195 228
170 195 228
169 195 228
169 195 228
169 195 228
169 195 228
169 195 228
168 194 228
167 194 228
168 194 228
168 195 228
167 194 228
167 194 228
167 194 228
166 194 228
167 194 228
166 194 228
166 193 228
166 193 228
166 193 228
166 193 228
165 193 228
165 193 228
165 193 228
165 193 228
165 193 228
165 193 228
165 193 228
164 192 228
164 192 228
164 192 228
164 192 228
163 192 228
164 192 228
164 192 228
163 192 228
163 192 228
163 192 228
163 192 228
163 192 228
163 192 228
163 192 228
163 192 228
163 192 228
163 192 228
163 192 228
163 192 228
163 192 228
163 192 228
163 192 228
163 192 228
163 192 228
163 192 228
163 192 228
163 192 228
163 192 228
163 192 228
164 192 228
164 192 228
164 192 228
164 192 228
165 193 228
165 193 228
166 193 228
166 193 228
166 193 228
166 193 228
167 194 228
168 195 228
168 195 228
170 195 228
170 196 228
168 193 225
170 194 225
159 181 209
154 175 202
156 176 202
171 189 213
205 225 252
209 229 255
209 229 255
209 229 255
209 229 255
209 229 255
209 229 255
209 228 255
208 228 255
208 228 255
208 228 255
208 228 255
208 228 255
208 228 255
208 228 255
208 228 255
208 228 255
208 228 255
208 228 255
208 228 255
208 228 255
208 228 255
208 228 255
208 228 255
208 228 255
208 228 255
208 228 255
208 228 255
208 228 255
208 228 255
207 228 255
207 228 255
207 228 255
207 228 255
207 228 255
207 228 255
207 228 255
207 228 255
207 228 255
207 228 255
207 228 255
207 228 255
207 228 255
207 228 255
207 228 255
207 228 255
207 228 255
207 228 255
207 228 255
207 228 255
207 228 255
207 227 255
207 227 255
207 227 255
207 227 255
207 227 255
207 227 255
207 227 255
207 227 255
207 227 255
207 227 255
197 218 249
146 169 214
84 115 186
62 99 177
61 98 174
63 99 176
62 99 173
61 98 175
62 99 172
61 98 168
62 99 172
62 98 171
61 98 173
62 98 169
64 100 176
63 99 177
62 99 174
63 99 174
62 99 175
62 99 171
63 99 176
62 99 176
63 99 174
62 99 175
63 99 174
62 98 170
63 99 174
62 99 172
61 98 177
61 98 171
63 99 176
62 98 172
63 100 177
61 98 173
61 98 176
61 98 172
62 98 175
62 99 178
62 99 176
100 128 188
151 174 218
196 217 248
207 227 255
207 227 255
207 227 255
207 227 255
207 227 255
207 227 255
207 227 255
207 227 255
207 227 255
207 227 255
207 228 255
207 228 255
207 228 255
207 228 255
207 228 255
207 228 255
207 228 255
207 228 255
207 228 255
207 228 255
207 228 255
207 228 255
207 228 255
207 228 255
207 228 255
207 228 255
207 228 255
207 228 255
207 228 255
207 228 255
208 228 255
208 228 255
208 228 255
208 228 255
208 228 255
208 228 255
208 228 255
208 228 255
208 228 255
208 228 255
208 228 255
208 228 255
208 228 255
208 228 255
208 228 255
208 228 255
208 228 255
208 228 255
208 228 255
208 228 255
208 228 255
208 228 255
208 228 255
209 228 255
209 229 255
209 229 255
209 229 255
209 229 255
209 229 255
209 229 255
203 223 249
172 190 215
136 155 179
133 151 175
138 156 181
144 165 193
146 167 194
147 168 195
135 155 180
142 163 190
145 165 192
134 153 179
137 158 184
144 165 194
140 160 186
145 166 194
149 171 199
145 166 193
152 174 202
144 165 193
149 171 199
150 171 199
140 160 186
150 171 199
158 181 211
152 174 202
161 183 212
147 169 196
155 178 207
158 180 209
153 175 204
154 176 205
153 175 203
153 176 205
160 182 212
151 172 200
157 179 207
160 183 212
156 179 208
150 171 198
155 177 206
159 180 208
160 182 211
153 174 202
159 181 209
148 168 195
152 173 200
160 182 211
164 187 217
158 180 209
154 174 200
148 168 195
158 180 207
157 179 207
156 178 207
157 178 204
155 176 203
158 179 204
165 186 213
149 169 195
155 176 203
156 177 206
156 176 202
158 179 207
162 183 209
155 176 200
157 178 199
152 172 198
150 170 195
154 175 200
162 183 208
150 170 192
162 182 208
157 177 200
158 178 203
156 176 198
161 182 208
159 180 204
159 180 202
147 167 190
154 174 198
152 172 190
161 181 202
150 170 194
163 183 207
152 171 194
158 178 200
154 173 195
157 176 192
151 170 191
147 165 184
151 171 191
154 173 192
154 173 196
155 175 198
153 173 194
151 170 184
152 172 192
157 176 199
153 171 194
156 176 194
145 164 186
156 175 192
148 168 188
150 169 188
143 160 172
151 169 184
155 174 192
151 171 190
151 170 188
148 167 187
137 153 166
142 159 174
140 158 174
144 161 178
146 163 181
148 166 183
137 153 171
131 146 156
180 201 228
181 201 228
180 201 228
180 201 228
179 200 228
179 200 228
179 200 228
178 200 228
178 200 228
178 200 228
178 200 228
176 199 228
177 199 228
176 199 228
177 199 228
176 199 228
176 199 228
175 198 228
175 198 228
175 198 228
175 198 228
175 198 228
174 198 228
174 198 228
174 197 228
174 198 228
174 197 228
173 197 228
172 197 228
172 197 228
172 196 228
172 197 228
171 196 228
172 197 228
171 196 228
170 196 228
171 196 228
170 196 228
171 196 228
171 196 228
169 195 228
169 195 228
170 196 228
169 195 228
169 195 228
169 195 228
169 195 228
168 194 228
168 195 228
168 194 228
168 194 228
168 194 228
168 194 228
167 194 228
167 194 228
167 194 228
167 194 228
166 194 228
166 193 228
166 194 228
166 193 228
166 193 228
166 193 228
165 193 228
165 193 228
165 193 228
165 193 228
164 193 228
164 192 228
164 192 228
164 192 228
164 192 228
164 192 228
164 192 228
164 192 228
164 192 228
163 192 228
163 192 228
163 192 228
163 192 228
163 192 228
163 192 228
163 192 228
163 192 228
163 192 228
163 192 228
163 192 228
163 192 228
163 192 228
163 192 228
163 192 228
163 192 228
163 192 228
163 192 228
163 192 228
163 192 228
163 192 228
163 192 228
163 192 228
164 192 228
164 193 228
164 192 228
164 192 228
165 193 228
165 193 228
165 193 228
166 193 228
166 194 228
167 194 228
168 195 228
168 195 228
168 195 228
170 195 228
171 196 228
170 194 226
166 189 219
165 187 216
159 180 207
161 179 204
192 211 237
209 228 255
209 229 255
209 229 255
209 229 255
209 229 255
209 229 255
209 229 255
209 229 255
209 229 255
209 229 255
209 228 255
209 228 255
208 228 255
208 228 255
208 228 255
208 228 255
208 228 255
208 228 255
208 228 255
208 228 255
208 228 255
208 228 255
208 228 255
208 228 255
208 228 255
208 228 255
208 228 255
208 228 255
208 228 255
208 228 255
208 228 255
208 228 255
208 228 255
208 228 255
208 228 255
207 228 255
207 228 255
207 228 255
207 228 255
207 228 255
207 228 255
207 228 255
207 228 255
207 228 255
207 228 255
207 228 255
207 228 255
207 228 255
207 228 255
207 228 255
207 228 255
207 228 255
207 228 255
207 228 255
207 228 255
207 228 255
207 228 255
191 212 245
137 161 210
68 103 176
62 99 175
62 99 170
62 98 174
62 99 174
61 98 173
62 99 173
62 99 172
62 99 177
63 99 173
61 98 169
62 99 177
62 99 171
62 98 170
62 99 170
62 99 168
63 99 175
62 98 171
62 99 173
61 98 170
61 97 163
62 98 167
62 99 172
62 99 171
62 98 171
62 98 170
63 99 176
62 98 169
62 98 173
62 99 169
63 99 174
62 99 173
62 99 173
62 98 173
62 99 172
62 99 174
61 98 167
62 99 174
62 99 174
62 99 175
61 98 176
76 108 180
132 156 207
191 212 245
207 228 255
207 228 255
207 228 255
207 228 255
207 228 255
207 228 255
207 228 255
207 228 255
207 228 255
207 228 255
207 228 255
207 228 255
207 228 255
207 228 255
207 228 255
207 228 255
207 228 255
207 228 255
207 228 255
207 228 255
207 228 255
207 228 255
208 228 255
208 228 255
208 228 255
208 228 255
208 228 255
208 228 255
208 228 255
208 228 255
208 228 255
208 228 255
208 228 255
208 228 255
208 228 255
208 228 255
208 228 255
208 228 255
208 228 255
208 228 255
208 228 255
208 228 255
208 228 255
208 228 255
208 228 255
209 228 255
209 228 255
209 229 255
209 229 255
209 229 255
209 229 255
209 229 255
209 229 255
209 229 255
209 229 255
209 229 255
209 229 255
184 203 228
135 153 175
133 151 175
127 145 169
138 157 183
134 153 177
138 157 183
140 160 187
135 155 181
146 167 195
143 164 191
144 165 192
138 159 186
146 166 193
139 159 186
152 173 201
147 168 196
147 169 199
147 168 196
153 175 203
150 172 201
147 169 198
149 170 198
150 172 200
146 167 196
149 170 198
146 167 194
153 174 202
154 177 206
154 176 204
155 176 204
147 168 196
157 178 207
153 174 202
153 174 202
152 172 199
152 173 200
148 169 195
155 177 206
158 179 207
154 175 203
158 179 207
153 175 203
155 177 206
159 181 209
158 180 209
157 178 204
153 174 200
156 177 204
155 176 203
157 179 207
155 177 200
161 184 213
156 178 207
156 178 206
160 182 208
157 178 204
158 179 206
149 170 196
157 179 207
162 183 211
155 176 203
159 179 207
149 167 190
158 180 207
160 181 207
155 175 202
157 178 203
153 173 196
166 187 213
156 174 198
154 174 200
152 173 196
151 171 195
161 182 206
151 170 192
158 179 203
157 177 202
163 184 209
152 172 195
157 178 200
158 178 203
158 179 206
155 174 198
157 178 200
151 171 194
158 177 198
155 175 196
151 169 191
152 172 191
152 172 194
150 171 194
153 172 192
152 171 191
162 183 204
158 179 200
150 169 192
162 183 204
159 178 196
150 168 188
157 176 199
155 173 194
157 176 199
158 177 198
136 152 169
144 162 184
138 154 171
149 167 180
156 174 192
154 173 187
146 167 187
149 169 190
144 161 177
138 156 172
142 159 175
143 161 178
148 166 184
147 166 178
152 171 184
151 168 186
180 201 228
180 201 228
179 200 228
180 201 228
179 200 228
178 200 228
179 200 228
177 199 228
179 200 228
178 200 228
178 200 228
177 199 228
177 199 228
176 198 228
177 199 228
176 198 228
176 199 228
175 198 228
175 198 228
175 198 228
175 198 228
174 198 228
174 198 228
174 198 228
175 198 228
174 197 228
173 197 228
173 197 228
172 197 228
172 197 228
172 197 228
171 196 228
171 196 228
172 197 228
171 196 228
172 196 228
170 196 228
171 196 228
171 196 228
171 196 228
170 195 228
170 196 228
170 195 228
169 195 228
169 195 228
169 195 228
168 195 228
169 195 228
168 195 228
168 194 228
168 194 228
167 194 228
167 194 228
167 194 228
166 194 228
168 194 228
167 194 228
167 194 228
167 194 228
167 194 228
166 194 228
166 193 228
166 193 228
166 193 228
165 193 228
165 193 228
164 193 228
165 193 228
164 193 228
165 193 228
164 193 228
164 193 228
164 192 228
164 192 228
164 192 228
164 192 228
164 192 228
163 192 228
164 192 228
163 192 228
163 192 228
163 192 228
163 192 228
163 192 228
163 192 228
163 192 228
163 192 228
163 192 228
163 192 228
163 192 228
163 192 228
163 192 228
163 192 228
163 192 228
163 192 228
163 192 228
163 192 228
163 192 228
164 192 228
163 192 228
163 192 228
164 192 228
164 192 228
164 193 228
164 192 228
165 193 228
165 193 228
166 193 228
166 194 228
166 194 228
167 194 228
168 195 228
169 195 228
170 195 228
171 196 228
171 196 228
171 195 226
171 194 224
158 179 206
146 164 188
177 196 220
201 221 247
209 229 255
209 229 255
209 229 255
209 229 255
209 229 255
209 229 255
209 229 255
209 229 255
209 229 255
209 229 255
209 229 255
209 229 255
209 229 255
209 228 255
209 228 255
208 228 255
208 228 255
208 228 255
208 228 255
208 228 255
208 228 255
208 228 255
208 228 255
208 228 255
208 228 255
208 228 255
208 228 255
208 228 255
208 228 255
208 228 255
208 228 255
208 228 255
208 228 255
208 228 255
208 228 255
208 228 255
208 228 255
208 228 255
208 228 255
208 228 255
207 228 255
207 228 255
207 228 255
207 228 255
207 228 255
207 228 255
207 228 255
207 228 255
207 228 255
207 228 255
207 228 255
207 228 255
207 228 255
192 213 245
146 169 215
61 98 172
63 99 175
62 99 176
63 99 176
62 98 174
62 98 170
63 99 175
63 99 175
62 98 170
62 98 174
61 98 168
61 98 171
62 99 175
62 99 176
62 99 174
62 98 170
62 99 173
62 99 177
62 99 171
63 99 175
62 99 168
62 99 172
62 99 172
63 100 176
62 99 170
63 99 172
62 99 173
62 99 172
62 99 170
62 98 169
63 100 176
62 99 170
63 99 172
62 99 170
62 99 172
62 98 173
60 96 163
62 98 171
61 97 172
62 99 173
63 99 173
61 98 174
62 98 172
61 97 171
61 98 174
67 102 170
138 161 210
194 215 246
207 228 255
207 228 255
207 228 255
207 228 255
207 228 255
207 228 255
207 228 255
207 228 255
207 228 255
207 228 255
207 228 255
207 228 255
207 228 255
208 228 255
208 228 255
208 228 255
208 228 255
208 228 255
208 228 255
208 228 255
208 228 255
208 228 255
208 228 255
208 228 255
208 228 255
208 228 255
208 228 255
208 228 255
208 228 255
208 228 255
208 228 255
208 228 255
208 228 255
208 228 255
208 228 255
208 228 255
208 228 255
208 228 255
209 228 255
209 229 255
209 229 255
209 229 255
209 229 255
209 229 255
209 229 255
209 229 255
209 229 255
209 229 255
209 229 255
209 229 255
209 229 255
209 229 255
209 229 255
200 219 245
164 183 206
134 151 175
137 156 181
132 152 178
133 152 178
144 164 191
141 161 186
134 154 180
143 164 193
141 162 189
135 155 181
143 163 190
143 163 190
149 170 199
142 163 190
141 161 187
144 166 196
156 178 207
143 163 190
147 169 197
150 172 200
154 177 206
145 166 194
144 165 193
158 181 211
153 175 203
157 180 209
154 175 203
148 169 197
152 173 201
161 183 211
158 180 209
155 177 206
157 179 208
162 186 217
158 179 207
155 177 206
153 174 202
155 177 204
160 183 212
154 175 204
159 181 209
160 183 213
157 177 204
152 173 200
163 185 214
163 185 214
164 185 213
163 184 211
156 177 204
154 176 203
160 181 209
160 181 208
162 184 211
157 178 204
161 182 209
156 177 204
157 177 203
158 179 206
160 180 207
159 180 207
159 179 206
159 178 204
157 179 204
155 176 203
155 176 200
158 178 203
163 184 211
163 184 211
161 182 204
157 177 203
157 177 200
152 172 195
164 184 208
163 184 209
157 177 199
155 175 198
168 188 211
160 180 203
155 174 199
157 177 200
152 171 191
152 171 190
159 178 200
151 171 194
147 167 190
160 180 203
158 177 199
156 176 196
152 171 192
151 170 190
151 171 194
154 173 184
154 172 191
160 179 200
157 177 200
144 163 181
153 173 188
143 162 183
160 179 199
149 169 188
151 169 184
154 173 188
158 179 196
149 167 183
149 170 191
155 173 190
158 177 199
151 170 188
146 164 180
149 168 188
149 168 183
151 170 186
150 169 180
143 161 175
148 166 180
141 158 174
145 163 175
142 158 172
140 157 168
144 161 172
181 201 228
180 201 228
180 201 228
180 201 228
179 200 228
178 200 228
178 200 228
177 199 228
177 199 228
177 199 228
178 200 228
177 199 228
177 199 228
177 199 228
176 199 228
177 199 228
176 199 228
176 199 228
176 199 228
175 198 228
175 198 228
175 198 228
174 198 228
175 198 228
174 197 228
174 197 228
173 197 228
173 197 228
173 197 228
173 197 228
173 197 228
173 197 228
172 197 228
172 196 228
172 197 228
171 196 228
171 196 228
171 196 228
171 196 228
170 195 228
171 196 228
170 196 228
170 195 228
170 195 228
169 195 228
169 195 228
170 195 228
169 195 228
169 195 228
169 195 228
168 195 228
168 195 228
169 195 228
167 194 228
167 194 228
167 194 228
167 194 228
167 194 228
167 194 228
167 194 228
166 194 228
166 193 228
167 194 228
166 193 228
166 193 228
166 193 228
165 193 228
165 193 228
165 193 228
165 193 228
164 192 228
164 192 228
165 193 228
164 193 228
164 192 228
164 192 228
164 192 228
164 192 228
163 192 228
164 192 228
164 192 228
163 192 228
163 192 228
163 192 228
163 192 228
163 192 228
163 192 228
163 192 228
163 192 228
163 192 228
163 192 228
163 192 228
163 192 228
163 192 228
163 192 228
163 192 228
163 192 228
163 192 228
163 192 228
164 192 228
163 192 228
164 192 228
164 192 228
164 192 228
164 192 228
164 192 228
165 193 228
165 193 228
166 193 228
166 194 228
166 194 228
167 194 228
167 194 228
168 195 228
169 195 228
171 196 228
171 196 228
173 197 228
171 195 226
167 190 219
157 177 203
161 180 205
191 210 236
209 229 255
209 229 255
209 229 255
209 229 255
209 229 255
209 229 255
209 229 255
209 229 255
209 229 255
209 229 255
209 229 255
209 229 255
209 229 255
209 229 255
209 229 255
209 229 255
209 229 255
209 229 255
209 228 255
209 228 255
208 228 255
208 228 255
208 228 255
208 228 255
208 228 255
208 228 255
208 228 255
208 228 255
208 228 255
208 228 255
208 228 255
208 228 255
208 228 255
208 228 255
208 228 255
208 228 255
208 228 255
208 228 255
208 228 255
208 228 255
208 228 255
208 228 255
208 228 255
208 228 255
208 228 255
208 228 255
208 228 255
208 228 255
208 228 255
207 228 255
202 222 252
148 171 217
68 102 174
62 99 173
62 99 175
62 98 169
60 97 168
62 98 169
62 99 176
61 98 168
62 99 174
62 99 174
61 98 169
62 99 171
63 99 175
62 98 166
61 98 170
63 99 167
62 99 169
63 99 172
63 99 167
62 98 165
61 98 165
61 98 166
61 98 166
63 99 172
63 99 172
62 98 167
62 99 173
62 99 169
63 99 171
62 98 168
63 99 170
62 98 171
63 99 174
62 99 171
63 99 170
62 98 171
61 98 169
62 98 167
62 98 172
62 99 167
62 98 169
61 97 171
63 99 168
62 98 168
62 98 169
62 98 170
62 99 172
61 98 174
62 99 175
72 105 177
139 163 210
204 224 253
207 228 255
208 228 255
208 228 255
208 228 255
208 228 255
208 228 255
208 228 255
208 228 255
208 228 255
208 228 255
208 228 255
208 228 255
208 228 255
208 228 255
208 228 255
208 228 255
208 228 255
208 228 255
208 228 255
208 228 255
208 228 255
208 228 255
208 228 255
208 228 255
208 228 255
208 228 255
208 228 255
208 228 255
208 228 255
208 228 255
209 228 255
209 229 255
209 229 255
209 229 255
209 229 255
209 229 255
209 229 255
209 229 255
209 229 255
209 229 255
209 229 255
209 229 255
209 229 255
209 229 255
209 229 255
209 229 255
209 229 255
209 229 255
209 229 255
209 229 255
181 199 223
142 160 182
128 146 169
134 153 178
146 166 192
138 158 184
143 162 187
141 160 187
138 158 184
133 152 178
144 165 193
142 162 188
143 162 189
142 163 190
152 173 202
146 167 196
140 160 188
147 169 198
151 172 199
145 167 196
154 175 204
152 174 202
154 175 205
147 169 197
156 177 206
155 176 205
152 174 203
150 171 199
153 175 204
155 178 207
152 174 202
156 178 207
156 179 208
152 173 200
151 172 200
166 189 218
156 178 206
162 184 212
155 176 203
156 179 209
158 179 207
155 176 203
163 184 212
161 182 209
160 181 209
161 182 209
159 181 209
160 181 209
159 180 208
158 180 209
158 179 207
161 183 211
162 184 211
157 179 206
163 185 214
156 176 202
165 186 213
160 181 208
164 186 214
161 182 209
157 178 204
158 179 206
168 189 216
160 181 207
163 184 211
163 184 209
147 166 188
161 183 207
161 182 206
162 182 206
161 182 206
158 179 204
163 183 211
162 183 209
160 181 207
153 172 194
157 176 199
158 180 204
158 178 203
156 175 199
156 176 196
161 183 206
156 177 202
155 176 203
155 174 194
153 172 195
156 176 194
157 178 202
161 182 203
159 178 199
150 167 191
155 175 195
159 179 200
158 177 198
149 168 186
155 175 196
154 174 192
156 176 194
158 178 196
146 166 183
156 176 195
149 168 188
151 169 187
149 168 188
149 168 180
151 171 187
147 166 184
148 167 190
150 168 181
152 169 184
155 174 188
152 171 188
139 156 171
145 162 180
147 165 184
148 165 177
150 169 183
142 160 177
147 165 178
141 158 172
153 171 187
144 162 174
153 171 187
180 201 228
179 200 228
180 201 228
180 201 228
179 200 228
179 200 228
180 201 228
178 200 228
179 200 228
177 199 228
177 199 228
177 199 228
178 200 228
177 199 228
177 199 228
176 199 228
175 198 228
176 198 228
175 198 228
175 198 228
175 198 228
175 198 228
174 198 228
174 198 228
174 198 228
174 197 228
174 198 228
173 197 228
173 197 228
173 197 228
173 197 228
172 197 228
172 196 228
172 197 228
172 197 228
172 197 228
172 196 228
170 196 228
172 196 228
170 196 228
171 196 228
171 196 228
170 195 228
170 196 228
170 195 228
169 195 228
169 195 228
169 195 228
170 195 228
169 195 228
169 195 228
168 194 228
168 195 228
167 194 228
168 194 228
167 194 228
168 194 228
167 194 228
167 194 228
167 194 228
167 194 228
166 193 228
166 193 228
166 194 228
166 193 228
166 193 228
165 193 228
166 193 228
165 193 228
165 193 228
165 193 228
165 193 228
165 193 228
164 193 228
164 193 228
164 192 228
164 192 228
164 192 228
164 192 228
164 192 228
164 192 228
163 192 228
164 192 228
163 192 228
163 192 228
163 192 228
163 192 228
163 192 228
163 192 228
163 192 228
163 192 228
163 192 228
163 192 228
163 192 228
163 192 228
163 192 228
163 192 228
163 192 228
163 192 228
163 192 228
163 192 228
164 192 228
164 192 228
164 192 228
164 193 228
164 192 228
165 193 228
165 193 228
165 193 228
166 193 228
166 194 228
166 194 228
167 194 228
167 194 228
169 195 228
169 195 228
170 195 228
171 196 228
172 197 228
172 196 227
168 191 220
159 180 207
156 175 200
167 184 208
206 225 251
210 229 255
209 229 255
209 229 255
209 229 255
209 229 255
209 229 255
209 229 255
209 229 255
209 229 255
209 229 255
209 229 255
209 229 255
209 229 255
209 229 255
209 229 255
209 229 255
209 229 255
209 229 255
209 229 255
209 229 255
209 229 255
209 229 255
209 229 255
209 228 255
208 228 255
208 228 255
208 228 255
208 228 255
208 228 255
208 228 255
208 228 255
208 228 255
208 228 255
208 228 255
208 228 255
208 228 255
208 228 255
208 228 255
208 228 255
208 228 255
208 228 255
208 228 255
208 228 255
208 228 255
208 228 255
208 228 255
208 228 255
172 194 229
81 112 182
63 99 174
62 98 172
62 99 173
62 98 171
62 98 167
62 99 172
62 99 172
61 97 159
62 98 173
62 98 169
62 99 170
62 99 176
62 98 169
62 99 171
63 99 173
62 98 170
62 99 169
62 98 168
62 98 168
62 98 163
62 98 166
62 99 167
62 99 172
62 99 167
63 99 172
61 98 168
61 98 168
62 99 171
61 97 162
62 98 169
61 98 170
62 98 170
62 98 165
62 99 171
62 98 164
62 98 168
62 98 173
63 99 168
61 97 159
62 98 166
61 96 163
61 98 167
62 99 175
63 99 170
62 98 170
62 98 171
62 99 170
61 98 171
62 98 167
61 98 166
61 97 169
62 98 174
73 105 174
176 197 234
208 228 255
208 228 255
208 228 255
208 228 255
208 228 255
208 228 255
208 228 255
208 228 255
208 228 255
208 228 255
208 228 255
208 228 255
208 228 255
208 228 255
208 228 255
208 228 255
208 228 255
208 228 255
208 228 255
208 228 255
208 228 255
208 228 255
209 228 255
209 228 255
209 229 255
209 229 255
209 229 255
209 229 255
209 229 255
209 229 255
209 229 255
209 229 255
209 229 255
209 229 255
209 229 255
209 229 255
209 229 255
209 229 255
209 229 255
209 229 255
209 229 255
209 229 255
209 229 255
209 229 255
209 229 255
209 229 255
210 229 255
205 224 249
170 189 215
133 150 171
128 145 169
144 164 190
134 154 179
142 161 188
146 166 193
145 166 194
136 156 183
137 158 186
144 165 192
137 157 184
135 155 182
141 162 189
143 164 192
150 170 198
150 172 202
152 175 204
151 172 200
143 164 192
154 175 203
153 175 205
153 175 204
156 178 207
153 175 205
161 183 212
155 177 206
159 180 209
156 177 206
155 178 208
160 182 211
150 171 200
152 173 200
156 178 208
157 180 209
155 177 206
157 179 207
163 185 214
164 186 216
157 179 208
163 185 213
155 175 202
156 177 204
160 182 211
166 189 217
157 178 206
155 176 202
161 182 211
155 176 203
155 177 204
155 176 203
163 185 213
160 181 208
158 179 207
159 181 209
158 178 203
160 181 208
158 179 206
164 185 211
157 179 206
155 176 203
163 185 212
162 183 208
160 181 206
159 179 204
167 188 212
164 187 211
160 179 206
163 184 209
159 180 204
165 187 213
161 182 207
163 183 206
155 175 196
159 180 203
158 178 198
149 169 192
163 183 206
155 176 199
158 179 203
159 180 206
157 177 196
160 180 202
158 179 200
158 177 198
164 184 209
156 176 194
159 179 198
151 171 194
154 174 196
162 182 204
159 178 200
164 185 204
163 184 207
152 172 187
151 170 190
157 176 195
158 178 198
160 179 199
161 181 202
150 168 184
151 170 191
155 174 195
154 172 192
155 175 196
154 173 188
156 175 196
152 171 186
151 170 188
151 169 190
142 161 174
152 170 184
152 171 184
147 165 184
149 168 186
149 167 181
138 157 172
151 170 188
159 179 198
137 154 169
149 168 183
138 155 174
143 161 178
151 169 180
180 201 228
179 200 228
180 201 228
180 201 228
179 200 228
179 201 228
179 201 228
179 200 228
178 200 228
179 200 228
178 200 228
177 199 228
177 199 228
177 199 228
177 199 228
176 199 228
177 199 228
176 199 228
176 198 228
176 199 228
176 199 228
176 198 228
175 198 228
175 198 228
175 198 228
174 198 228
173 197 228
174 198 228
174 197 228
173 197 228
173 197 228
172 196 228
172 197 228
172 197 228
173 197 228
173 197 228
172 197 228
172 196 228
171 196 228
171 196 228
171 196 228
171 196 228
170 196 228
170 196 228
170 196 228
170 195 228
170 196 228
169 195 228
169 195 228
169 195 228
169 195 228
169 195 228
169 195 228
168 194 228
168 195 228
168 194 228
168 194 228
168 194 228
167 194 228
167 194 228
167 194 228
168 194 228
167 194 228
166 194 228
166 193 228
167 194 228
167 194 228
166 193 228
166 193 228
166 193 228
165 193 228
165 193 228
165 193 228
165 193 228
164 193 228
165 193 228
164 193 228
164 193 228
164 193 228
164 192 228
164 192 228
164 192 228
164 192 228
164 192 228
164 192 228
163 192 228
163 192 228
163 192 228
163 192 228
163 192 228
163 192 228
163 192 228
163 192 228
163 192 228
163 192 228
163 192 228
163 192 228
163 192 228
163 192 228
163 192 228
163 192 228
163 192 228
164 192 228
164 192 228
164 192 228
164 192 228
164 193 228
165 193 228
165 193 228
166 193 228
166 193 228
166 194 228
166 193 228
167 194 228
168 194 228
168 195 228
169 195 228
170 195 228
170 196 228
171 196 228
173 197 228
172 195 225
161 183 211
160 180 207
161 179 203
201 220 246
210 229 255
210 229 255
210 229 255
210 229 255
210 229 255
210 229 255
209 229 255
209 229 255
209 229 255
209 229 255
209 229 255
209 229 255
209 229 255
209 229 255
209 229 255
209 229 255
209 229 255
209 229 255
209 229 255
209 229 255
209 229 255
209 229 255
209 229 255
209 229 255
209 229 255
209 229 255
209 229 255
209 229 255
209 229 255
209 228 255
209 228 255
208 228 255
208 228 255
208 228 255
208 228 255
208 228 255
208 228 255
208 228 255
208 228 255
208 228 255
208 228 255
208 228 255
208 228 255
208 228 255
197 218 248
128 152 204
62 99 175
62 98 177
62 99 176
62 98 173
62 99 173
62 98 172
62 98 168
61 98 170
62 98 170
61 97 167
62 98 168
62 98 167
61 97 163
62 98 172
63 100 174
62 98 171
61 98 168
62 98 164
62 98 165
62 99 170
63 100 174
62 98 166
63 99 168
62 99 171
63 100 173
63 99 168
62 99 172
62 99 169
63 99 170
62 98 168
62 98 166
62 99 168
63 99 170
62 98 170
62 98 167
62 99 166
62 98 163
63 99 170
62 98 166
62 98 168
61 97 164
61 97 161
62 98 173
62 98 167
62 99 171
62 98 174
61 97 169
62 98 170
62 99 170
62 98 169
61 98 170
61 97 170
61 97 170
62 98 169
61 98 174
62 98 176
131 154 203
196 217 248
208 228 255
208 228 255
208 228 255
208 228 255
208 228 255
208 228 255
208 228 255
208 228 255
208 228 255
208 228 255
208 228 255
208 228 255
208 228 255
209 228 255
209 228 255
209 229 255
209 229 255
209 229 255
209 229 255
209 229 255
209 229 255
209 229 255
209 229 255
209 229 255
209 229 255
209 229 255
209 229 255
209 229 255
209 229 255
209 229 255
209 229 255
209 229 255
209 229 255
209 229 255
209 229 255
209 229 255
209 229 255
209 229 255
210 229 255
210 229 255
210 229 255
210 229 255
210 229 255
210 229 255
199 218 242
143 161 186
129 146 169
130 147 168
138 156 181
136 156 181
135 154 179
139 160 187
144 165 191
136 157 184
149 171 199
146 167 197
144 164 190
145 166 194
144 165 193
148 170 198
152 175 206
156 179 209
141 162 191
157 180 211
153 176 206
156 178 209
143 164 193
150 172 200
152 174 204
152 173 201
148 169 196
154 176 206
159 182 212
156 178 207
151 172 200
155 177 206
153 174 202
160 183 212
150 170 198
163 186 217
154 175 204
157 178 206
156 177 205
158 180 208
166 188 217
166 189 219
159 181 209
158 181 210
164 186 215
163 185 213
165 187 217
159 180 209
160 181 209
161 182 209
162 185 212
159 180 208
165 187 216
158 181 209
163 184 211
159 180 207
159 181 208
162 183 212
156 177 204
157 178 204
166 188 213
153 173 198
165 186 208
168 189 214
166 189 218
160 180 203
163 183 209
160 182 211
162 183 209
165 186 209
164 184 208
161 182 204
164 185 211
158 179 203
161 182 208
163 185 211
165 185 211
165 186 209
158 177 200
154 175 198
154 174 195
159 179 203
157 178 195
156 176 196
160 180 202
156 176 196
161 181 204
159 179 200
163 183 200
155 174 194
158 178 199
159 178 196
160 181 199
159 179 199
161 181 196
153 173 192
154 173 188
155 174 191
164 183 202
149 169 181
153 173 190
158 178 199
157 177 194
152 171 186
157 177 198
157 177 195
147 165 183
153 172 188
155 173 194
154 172 187
157 177 195
153 172 187
153 171 184
149 167 177
156 175 188
154 173 186
151 169 187
156 175 192
144 162 175
144 161 174
153 171 181
153 172 187
138 155 169
151 168 184
150 168 178
146 165 175
181 201 228
180 201 228
179 200 228
179 200 228
179 200 228
180 201 228
178 200 228
178 200 228
179 200 228
179 200 228
178 200 228
178 200 228
178 200 228
177 199 228
177 199 228
177 199 228
177 199 228
177 199 228
177 199 228
176 198 228
175 198 228
176 199 228
175 198 228
176 199 228
174 197 228
174 198 228
174 198 228
174 198 228
174 198 228
174 198 228
174 197 228
173 197 228
173 197 228
173 197 228
172 197 228
173 197 228
172 197 228
172 196 228
171 196 228
171 196 228
171 196 228
171 196 228
171 196 228
171 196 228
170 196 228
170 196 228
170 195 228
169 195 228
169 195 228
170 196 228
169 195 228
170 195 228
169 195 228
168 195 228
168 195 228
169 195 228
169 195 228
168 194 228
168 194 228
167 194 228
168 194 228
167 194 228
167 194 228
167 194 228
167 194 228
166 194 228
167 194 228
166 193 228
166 194 228
166 193 228
166 193 228
166 194 228
166 193 228
165 193 228
165 193 228
165 193 228
165 193 228
165 193 228
165 193 228
164 193 228
164 193 228
164 192 228
164 192 228
164 192 228
164 192 228
164 192 228
164 192 228
164 192 228
164 192 228
164 192 228
164 192 228
163 192 228
163 192 228
163 192 228
163 192 228
163 192 228
163 192 228
163 192 228
164 192 228
163 192 228
164 192 228
164 192 228
164 192 228
164 192 228
164 193 228
164 193 228
164 193 228
165 193 228
165 193 228
165 193 228
165 193 228
165 193 228
167 194 228
166 194 228
167 194 228
167 194 228
168 195 228
169 195 228
170 195 228
171 196 228
171 196 228
173 196 227
172 196 226
165 188 217
160 180 207
161 180 204
172 190 213
210 229 255
210 229 255
210 229 255
210 229 255
210 229 255
210 229 255
210 229 255
210 229 255
210 229 255
210 229 255
210 229 255
209 229 255
209 229 255
209 229 255
209 229 255
209 229 255
209 229 255
209 229 255
209 229 255
209 229 255
209 229 255
209 229 255
209 229 255
209 229 255
209 229 255
209 229 255
209 229 255
209 229 255
209 229 255
209 229 255
209 229 255
209 229 255
209 229 255
209 229 255
209 229 255
209 229 255
209 229 255
209 228 255
209 228 255
208 228 255
208 228 255
208 228 255
175 196 232
91 120 187
62 99 174
61 97 170
62 99 172
62 98 167
61 98 172
62 99 171
61 97 166
62 99 171
62 98 169
62 98 170
62 98 168
62 98 167
62 98 167
61 97 169
61 97 167
62 99 169
62 99 169
62 99 174
62 99 171
63 99 168
63 100 173
62 98 170
62 98 169
62 98 165
62 98 169
62 98 167
62 98 165
63 100 173
62 98 166
62 99 173
62 98 163
62 98 168
62 99 168
62 99 172
62 98 167
61 97 164
62 99 170
62 99 168
62 98 171
62 98 162
63 99 168
63 99 176
62 98 168
61 97 167
62 99 169
60 97 162
62 99 173
62 99 172
63 99 174
62 98 169
62 98 168
62 98 170
62 98 170
61 97 170
62 98 169
62 98 171
62 98 171
61 98 171
79 110 175
177 198 234
208 228 255
208 228 255
208 228 255
208 228 255
209 228 255
209 228 255
209 229 255
209 229 255
209 229 255
209 229 255
209 229 255
209 229 255
209 229 255
209 229 255
209 229 255
209 229 255
209 229 255
209 229 255
209 229 255
209 229 255
209 229 255
209 229 255
209 229 255
209 229 255
209 229 255
209 229 255
209 229 255
209 229 255
209 229 255
209 229 255
209 229 255
210 229 255
210 229 255
210 229 255
210 229 255
210 229 255
210 229 255
210 229 255
210 229 255
210 229 255
210 229 255
210 229 255
178 196 220
140 157 180
133 150 173
139 157 181
143 162 190
139 159 186
127 145 171
149 171 199
140 160 187
138 159 186
131 150 177
139 159 186
147 169 198
140 162 191
145 165 192
146 168 197
152 173 201
146 168 198
142 163 191
156 177 206
149 171 200
148 168 196
149 171 200
153 174 202
151 172 200
154 176 204
153 175 204
153 174 203
146 166 194
150 172 201
157 180 212
158 181 212
158 180 209
155 177 206
158 181 211
159 181 210
158 181 210
159 182 212
158 178 204
157 178 207
158 180 208
158 179 207
165 186 214
164 186 214
161 183 212
157 178 206
166 189 219
162 182 209
165 186 214
159 181 209
166 189 219
166 188 216
167 190 218
162 184 212
167 188 216
169 190 219
162 183 207
162 183 209
169 190 217
161 183 208
162 184 208
163 184 207
161 182 208
162 183 208
160 181 208
167 188 214
162 183 206
154 174 200
166 188 212
162 183 208
156 176 199
161 182 202
159 180 203
163 184 209
162 183 211
167 187 211
164 183 209
160 182 206
160 180 204
159 179 202
162 182 207
156 177 198
166 186 209
165 185 207
161 181 200
164 185 207
159 179 199
162 182 198
159 179 202
161 180 195
163 183 204
164 185 206
163 182 204
163 184 207
158 178 195
157 177 196
162 182 198
158 177 198
150 169 190
156 175 192
164 184 203
161 181 195
150 169 184
154 175 194
152 172 192
158 178 196
155 173 184
157 176 187
159 178 195
150 168 180
153 171 184
153 171 183
153 171 188
150 170 184
159 178 188
157 176 186
142 159 171
153 172 187
148 167 186
151 168 178
155 173 184
146 164 175
151 170 186
151 169 181
157 176 196
151 169 183
146 164 180
181 202 228
181 202 228
180 201 228
180 201 228
180 201 228
179 200 228
179 200 228
178 200 228
179 200 228
178 200 228
178 200 228
178 200 228
178 200 228
178 200 228
177 199 228
177 199 228
177 199 228
177 199 228
176 199 228
176 198 228
176 198 228
175 198 228
175 198 228
175 198 228
175 198 228
175 198 228
175 198 228
175 198 228
174 197 228
174 198 228
174 197 228
174 197 228
173 197 228
173 197 228
172 197 228
173 197 228
173 197 228
172 197 228
172 196 228
172 196 228
171 196 228
172 196 228
171 196 228
171 196 228
170 196 228
170 196 228
171 196 228
171 196 228
170 196 228
170 196 228
170 195 228
169 195 228
170 196 228
169 195 228
168 194 228
168 195 228
169 195 228
168 195 228
168 194 228
168 194 228
167 194 228
167 194 228
167 194 228
167 194 228
166 194 228
167 194 228
167 194 228
167 194 228
166 194 228
166 194 228
166 193 228
166 193 228
166 193 228
166 193 228
165 193 228
165 193 228
165 193 228
165 193 228
166 193 228
165 193 228
164 193 228
164 193 228
165 193 228
164 193 228
164 193 228
164 192 228
164 192 228
164 192 228
164 192 228
164 192 228
164 192 228
164 192 228
164 192 228
164 192 228
164 192 228
164 192 228
163 192 228
164 192 228
163 192 228
164 192 228
164 192 228
164 193 228
164 192 228
165 193 228
164 193 228
164 192 228
165 193 228
165 193 228
165 193 228
165 193 228
165 193 228
166 193 228
166 193 228
167 194 228
166 194 228
167 194 228
168 194 228
168 195 228
169 195 228
169 195 228
171 196 228
172 196 228
173 197 228
173 196 227
167 189 218
167 188 216
152 170 194
173 190 214
207 227 252
210 229 255
210 229 255
210 229 255
210 229 255
210 229 255
210 229 255
210 229 255
210 229 255
210 229 255
210 229 255
210 229 255
210 229 255
210 229 255
210 229 255
210 229 255
210 229 255
209 229 255
209 229 255
209 229 255
209 229 255
209 229 255
209 229 255
209 229 255
209 229 255
209 229 255
209 229 255
209 229 255
209 229 255
209 229 255
209 229 255
209 229 255
209 229 255
209 229 255
209 229 255
209 229 255
209 229 255
209 229 255
209 229 255
208 228 255
157 179 221
61 98 173
62 98 171
62 98 171
61 97 169
62 98 173
62 98 167
61 97 166
61 98 166
62 98 171
62 98 166
62 99 167
62 98 169
62 98 163
62 98 162
62 98 170
62 98 164
62 98 168
61 97 163
62 99 170
62 99 172
61 97 157
62 98 168
62 98 161
62 98 167
62 99 167
62 98 167
62 97 157
62 98 164
62 98 165
62 98 164
61 97 162
62 99 168
62 98 165
62 98 165
61 97 159
62 99 168
61 98 164
62 99 173
62 98 170
62 98 166
62 98 163
62 97 163
62 98 167
61 97 163
62 98 165
62 98 165
61 97 165
62 98 167
61 97 168
62 99 172
61 97 166
62 98 168
62 99 167
62 98 170
62 98 164
61 97 168
61 97 169
60 95 161
61 97 170
61 97 170
61 97 169
62 98 173
156 178 219
208 228 255
209 229 255
209 229 255
209 229 255
209 229 255
209 229 255
209 229 255
209 229 255
209 229 255
209 229 255
209 229 255
209 229 255
209 229 255
209 229 255
209 229 255
209 229 255
209 229 255
209 229 255
209 229 255
209 229 255
209 229 255
209 229 255
209 229 255
210 229 255
210 229 255
210 229 255
210 229 255
210 229 255
210 229 255
210 229 255
210 229 255
210 229 255
210 229 255
210 229 255
210 229 255
210 229 255
210 229 255
210 229 255
210 229 255
208 227 253
162 179 201
133 150 172
134 154 180
133 152 175
144 163 189
137 157 183
132 152 180
130 149 175
144 165 192
151 171 199
142 163 193
133 152 179
140 160 188
142 163 192
147 169 198
146 167 195
153 174 204
150 171 199
143 164 192
149 170 200
146 167 196
152 174 204
147 169 198
148 169 196
156 179 208
149 170 198
154 176 206
147 168 196
152 173 202
160 182 210
157 178 207
153 175 204
158 179 207
158 180 209
163 186 214
155 176 203
163 185 213
151 172 201
163 185 213
153 174 201
161 183 211
159 181 209
163 184 212
162 184 212
162 184 212
165 187 215
164 186 215
165 187 214
166 188 216
165 186 212
157 177 202
163 183 207
163 185 212
159 181 206
165 187 214
164 185 211
170 192 219
161 183 208
165 187 214
163 183 207
161 182 208
170 191 217
152 173 199
162 182 206
162 183 206
165 186 212
163 184 211
159 179 203
162 182 203
166 186 212
167 189 212
164 184 207
160 182 206
153 173 195
161 182 208
160 180 206
161 182 203
167 187 204
162 182 207
166 187 211
165 185 208
158 178 198
163 183 202
160 180 203
166 187 208
162 182 200
162 182 204
160 180 202
158 176 192
163 184 207
159 179 202
162 182 200
157 177 198
154 172 190
164 185 202
156 177 199
164 183 198
153 172 192
169 189 211
163 183 202
157 177 196
163 184 207
156 175 191
157 176 194
156 176 195
161 180 196
163 182 203
159 178 194
151 170 186
154 171 186
156 175 191
149 168 184
160 179 192
155 173 192
157 175 186
154 174 186
151 169 188
147 167 180
149 167 184
154 173 181
152 170 184
144 163 177
151 170 174
150 169 181
151 169 184
147 165 183
156 174 191
149 167 180
180 201 228
180 201 228
180 201 228
181 201 228
179 200 228
181 201 228
180 201 228
180 201 228
178 200 228
178 200 228
179 200 228
178 200 228
178 200 228
177 199 228
178 200 228
178 199 228
177 199 228
177 199 228
176 199 228
176 199 228
177 199 228
176 199 228
176 199 228
176 199 228
175 198 228
175 198 228
175 198 228
175 198 228
174 197 228
174 198 228
175 198 228
174 197 228
173 197 228
173 197 228
173 197 228
173 197 228
173 197 228
172 197 228
172 197 228
173 197 228
172 197 228
172 197 228
172 196 228
171 196 228
172 196 228
171 196 228
171 196 228
171 196 228
171 196 228
170 196 228
170 196 228
169 195 228
170 196 228
170 195 228
169 195 228
169 195 228
169 195 228
169 195 228
169 195 228
168 195 228
168 195 228
168 195 228
169 195 228
168 194 228
168 194 228
167 194 228
167 194 228
167 194 228
167 194 228
166 194 228
166 194 228
167 194 228
167 194 228
167 194 228
166 193 228
166 193 228
166 194 228
166 193 228
165 193 228
165 193 228
165 193 228
165 193 228
165 193 228
164 193 228
165 193 228
165 193 228
164 193 228
164 192 228
164 193 228
164 192 228
164 192 228
164 192 228
164 192 228
164 192 228
164 193 228
164 192 228
164 192 228
164 193 228
164 192 228
164 192 228
164 192 228
164 193 228
165 193 228
164 193 228
164 193 228
165 193 228
164 193 228
165 193 228
165 193 228
165 193 228
165 193 228
166 193 228
166 193 228
166 193 228
167 194 228
167 194 228
167 194 228
168 195 228
169 195 228
169 195 228
170 195 228
171 196 228
172 197 228
173 197 228
174 198 228
170 191 220
166 187 214
154 173 198
164 182 206
208 227 252
210 229 255
210 229 255
210 229 255
210 229 255
210 229 255
210 229 255
210 229 255
210 229 255
210 229 255
210 229 255
210 229 255
210 229 255
210 229 255
210 229 255
210 229 255
210 229 255
210 229 255
210 229 255
210 229 255
210 229 255
210 229 255
210 229 255
209 229 255
209 229 255
209 229 255
209 229 255
209 229 255
209 229 255
209 229 255
209 229 255
209 229 255
209 229 255
209 229 255
209 229 255
209 229 255
209 229 255
205 225 253
121 145 198
61 98 170
61 97 165
62 98 174
61 98 169
62 98 173
61 98 170
62 98 168
62 98 171
62 98 170
63 99 171
62 98 165
62 98 166
62 98 165
62 98 164
63 99 169
62 98 167
61 97 156
62 98 165
62 98 168
61 97 159
61 97 163
61 98 161
62 98 166
63 99 168
61 98 164
62 99 169
62 99 164
62 99 169
61 98 163
62 98 163
62 98 166
62 99 164
63 99 165
62 98 161
62 98 161
62 99 165
63 99 173
62 98 163
62 99 167
62 98 162
61 97 160
62 98 162
62 98 164
62 98 170
62 98 163
63 98 163
62 98 164
62 98 165
62 98 170
60 97 164
62 98 167
61 98 170
62 98 168
62 98 172
62 98 168
62 99 169
61 97 169
62 98 168
62 98 171
61 97 164
61 97 166
61 97 170
61 97 170
62 98 172
130 153 201
204 224 252
209 229 255
209 229 255
209 229 255
209 229 255
209 229 255
209 229 255
209 229 255
209 229 255
209 229 255
209 229 255
209 229 255
209 229 255
209 229 255
209 229 255
210 229 255
210 229 255
210 229 255
210 229 255
210 229 255
210 229 255
210 229 255
210 229 255
210 229 255
210 229 255
210 229 255
210 229 255
210 229 255
210 229 255
210 229 255
210 229 255
210 229 255
210 229 255
210 229 255
210 229 255
210 229 255
210 229 255
204 222 248
148 166 190
132 150 173
133 151 172
138 156 180
136 154 179
143 163 189
138 158 185
141 160 186
147 168 196
141 161 189
138 157 183
149 171 200
147 168 198
146 168 197
143 164 193
144 164 193
148 170 199
141 163 194
156 177 206
152 174 204
152 174 203
154 176 207
159 182 213
163 186 217
156 178 205
151 173 202
153 174 202
159 180 209
157 179 208
168 191 222
158 181 210
162 184 212
158 179 207
154 175 203
163 185 213
159 181 209
155 177 205
162 183 212
158 178 206
159 180 209
162 183 211
161 182 209
159 180 209
161 183 210
167 188 216
161 183 210
166 187 215
161 184 214
168 189 215
158 179 206
165 186 212
164 185 212
162 182 206
159 179 204
163 184 210
157 177 201
163 184 208
162 184 209
160 181 207
169 190 217
169 191 216
161 181 206
163 184 211
165 186 211
163 184 206
157 178 203
164 184 209
166 187 213
165 185 208
159 180 203
156 176 196
169 190 211
167 188 212
160 181 202
169 190 216
163 183 203
166 187 209
156 175 191
157 178 200
165 186 208
160 181 202
163 182 199
166 186 208
165 186 211
169 189 213
166 185 204
163 184 207
155 174 194
157 176 195
160 179 194
156 175 187
164 185 200
161 181 200
159 179 198
155 175 198
162 182 202
161 181 202
158 178 195
148 166 184
165 185 207
155 174 190
163 183 202
161 180 199
158 177 195
153 173 190
152 171 187
157 177 195
159 178 198
152 172 188
159 179 196
153 171 183
165 184 198
157 175 188
164 184 200
152 171 191
154 173 190
149 167 181
160 179 194
149 166 181
163 182 195
149 167 180
153 172 186
148 166 174
153 170 183
144 163 177
157 175 190
157 176 192
153 171 183
155 173 186
182 202 228
181 201 228
181 201 228
180 201 228
179 200 228
179 200 228
180 201 228
180 201 228
179 200 228
178 199 228
178 200 228
179 200 228
178 200 228
178 200 228
178 200 228
177 199 228
178 200 228
178 200 228
177 199 228
177 199 228
177 199 228
176 199 228
176 199 228
176 199 228
175 198 228
175 198 228
175 198 228
175 198 228
175 198 228
174 198 228
175 198 228
174 198 228
174 198 228
174 198 228
173 197 228
174 197 228
173 197 228
173 197 228
173 197 228
172 197 228
172 197 228
172 197 228
172 197 228
172 196 228
171 196 228
172 196 228
172 197 228
171 196 228
172 196 228
171 196 228
171 196 228
170 195 228
170 196 228
170 195 228
170 196 228
170 196 228
169 195 228
170 196 228
169 195 228
169 195 228
169 195 228
169 195 228
168 195 228
168 195 228
168 195 228
168 194 228
168 194 228
168 194 228
168 194 228
167 194 228
167 194 228
167 194 228
167 194 228
166 193 228
166 194 228
166 193 228
166 193 228
166 193 228
167 194 228
166 194 228
165 193 228
166 193 228
166 193 228
166 193 228
165 193 228
166 193 228
165 193 228
165 193 228
165 193 228
165 193 228
165 193 228
165 193 228
165 193 228
164 193 228
165 193 228
164 193 228
165 193 228
164 193 228
164 193 228
165 193 228
165 193 228
165 193 228
164 193 228
165 193 228
165 193 228
165 193 228
165 193 228
165 193 228
165 193 228
165 193 228
165 193 228
166 193 228
166 194 228
166 194 228
166 194 228
167 194 228
168 194 228
168 194 228
168 195 228
169 195 228
170 195 228
170 196 228
171 196 228
172 197 228
173 197 228
174 198 228
175 197 227
167 188 216
160 180 206
163 181 204
206 225 250
211 230 255
211 230 255
210 230 255
210 230 255
210 229 255
210 229 255
210 229 255
210 229 255
210 229 255
210 229 255
210 229 255
210 229 255
210 229 255
210 229 255
210 229 255
210 229 255
210 229 255
210 229 255
210 229 255
210 229 255
210 229 255
210 229 255
210 229 255
210 229 255
210 229 255
210 229 255
210 229 255
210 229 255
210 229 255
209 229 255
209 229 255
209 229 255
209 229 255
209 229 255
197 217 246
104 131 188
62 98 173
61 98 171
62 98 167
61 97 164
62 97 165
62 98 169
62 98 170
63 99 173
62 98 168
62 98 170
62 98 166
61 98 166
62 98 165
62 99 169
62 98 169
62 98 161
62 98 161
61 97 165
61 97 162
62 98 162
62 98 162
60 96 156
61 97 160
62 99 165
63 99 167
62 98 166
62 98 168
62 98 160
62 98 163
62 98 159
62 98 165
62 98 166
62 99 171
62 98 159
61 97 156
62 98 164
62 98 166
62 98 170
62 98 158
62 98 165
62 99 172
61 97 159
62 98 164
62 98 170
63 99 165
61 97 163
61 98 166
61 97 165
62 99 170
62 98 163
60 97 159
62 98 167
62 99 167
62 98 160
61 97 164
63 99 173
60 96 162
61 98 171
62 98 167
61 97 163
62 98 168
61 97 169
60 96 160
60 96 166
60 95 164
61 97 171
103 129 190
199 219 247
209 229 255
209 229 255
209 229 255
209 229 255
209 229 255
210 229 255
210 229 255
210 229 255
210 229 255
210 229 255
210 229 255
210 229 255
210 229 255
210 229 255
210 229 255
210 229 255
210 229 255
210 229 255
210 229 255
210 229 255
210 229 255
210 229 255
210 229 255
210 229 255
210 229 255
210 229 255
210 229 255
210 229 255
210 229 255
210 229 255
210 230 255
210 230 255
211 230 255
211 230 255
200 218 243
136 152 172
128 144 164
137 156 180
138 156 181
145 164 190
144 164 191
140 160 186
142 164 193
141 161 189
133 154 182
144 165 194
141 160 186
142 163 192
147 168 199
143 163 192
144 164 191
149 171 202
151 173 204
138 157 185
146 167 194
148 170 200
153 175 205
154 176 207
150 171 202
155 176 205
156 178 207
153 175 205
153 175 206
156 176 202
154 175 202
153 175 205
160 181 208
154 174 201
158 181 209
156 178 206
158 179 207
165 187 215
163 185 215
158 179 204
156 177 202
164 186 214
162 183 209
162 184 211
158 180 208
164 186 213
162 184 210
169 189 216
163 185 212
159 180 206
165 187 214
163 184 211
168 190 216
163 183 208
163 184 212
168 190 219
165 186 209
161 182 202
169 190 218
166 187 214
161 182 207
163 183 207
163 184 207
160 181 206
160 181 202
168 190 218
169 190 216
164 185 212
165 186 208
152 171 192
166 187 214
159 180 202
162 182 204
162 183 207
167 187 212
163 184 206
163 184 209
168 187 212
164 185 208
167 188 208
167 188 208
158 179 200
164 184 204
168 189 214
158 177 199
158 178 196
157 176 191
158 178 199
164 184 203
165 185 207
166 186 208
161 180 198
164 183 204
165 185 202
158 178 196
163 182 199
163 182 195
158 179 196
162 183 198
153 172 180
161 180 188
161 181 200
157 176 194
162 181 199
161 182 196
159 179 196
156 175 190
159 179 194
159 179 194
156 175 188
161 179 191
154 173 180
152 172 183
160 180 194
158 176 190
150 168 180
163 182 198
158 177 198
165 186 203
148 166 171
154 173 186
153 170 184
152 171 184
161 179 195
156 176 195
159 178 194
143 160 165
152 171 188
156 175 192
143 160 169
158 177 187
181 201 228
181 201 228
180 201 228
180 201 228
181 201 228
181 201 228
180 201 228
180 201 228
180 201 228
179 200 228
179 200 228
180 201 228
178 200 228
178 200 228
178 200 228
178 200 228
178 200 228
178 200 228
177 199 228
176 199 228
177 199 228
177 199 228
176 199 228
177 199 228
176 199 228
175 198 228
176 199 228
175 198 228
175 198 228
175 198 228
174 198 228
175 198 228
174 198 228
174 198 228
175 198 228
175 198 228
173 197 228
174 197 228
173 197 228
172 197 228
173 197 228
173 197 228
173 197 228
173 197 228
172 197 228
173 197 228
171 196 228
172 197 228
172 196 228
172 196 228
171 196 228
171 196 228
171 196 228
171 196 228
170 196 228
169 195 228
169 195 228
170 195 228
169 195 228
170 195 228
170 195 228
169 195 228
169 195 228
169 195 228
168 195 228
168 195 228
169 195 228
168 195 228
169 195 228
168 194 228
168 194 228
167 194 228
167 194 228
167 194 228
167 194 228
167 194 228
167 194 228
167 194 228
166 194 228
166 194 228
166 194 228
166 193 228
166 193 228
165 193 228
166 193 228
165 193 228
166 193 228
166 193 228
165 193 228
166 193 228
165 193 228
166 193 228
165 193 228
165 193 228
165 193 228
165 193 228
165 193 228
165 193 228
165 193 228
165 193 228
165 193 228
165 193 228
165 193 228
165 193 228
165 193 228
165 193 228
165 193 228
165 193 228
166 193 228
166 193 228
166 193 228
167 194 228
166 194 228
166 193 228
166 194 228
167 194 228
167 194 228
168 194 228
169 195 228
169 195 228
169 195 228
169 195 228
170 196 228
171 196 228
172 196 228
173 197 228
175 198 228
175 198 227
174 195 224
168 189 216
148 164 186
196 214 239
211 230 255
211 230 255
211 230 255
211 230 255
211 230 255
211 230 255
211 230 255
211 230 255
210 230 255
210 230 255
210 230 255
210 229 255
210 229 255
210 229 255
210 229 255
210 229 255
210 229 255
210 229 255
210 229 255
210 229 255
210 229 255
210 229 255
210 229 255
210 229 255
210 229 255
210 229 255
210 229 255
210 229 255
210 229 255
210 229 255
210 229 255
210 229 255
197 217 246
86 116 177
61 97 173
61 97 168
61 98 173
61 97 165
61 97 165
62 98 168
62 98 166
61 98 163
61 97 168
62 98 165
62 98 166
62 98 160
62 98 168
61 98 166
61 97 161
61 97 160
62 98 168
62 98 165
63 99 168
62 97 158
62 98 160
62 98 166
62 98 163
62 98 164
63 99 166
62 98 162
61 98 164
62 98 166
62 98 162
62 98 159
62 98 165
62 99 167
62 98 157
62 99 165
62 98 164
63 99 169
61 96 157
61 98 163
63 99 171
61 97 155
61 97 163
62 98 161
62 98 163
62 98 166
61 96 157
61 97 162
62 98 167
62 98 163
61 97 165
61 97 158
62 97 161
61 97 161
61 97 161
61 97 157
62 98 168
62 98 163
62 98 170
60 96 163
62 98 164
61 97 162
61 97 161
61 97 166
61 97 166
61 96 169
61 97 165
61 96 167
61 96 169
61 97 167
99 126 186
190 210 241
210 229 255
210 229 255
210 229 255
210 229 255
210 229 255
210 229 255
210 229 255
210 229 255
210 229 255
210 229 255
210 229 255
210 229 255
210 229 255
210 229 255
210 229 255
210 229 255
210 229 255
210 229 255
210 229 255
210 229 255
210 229 255
210 229 255
210 230 255
210 230 255
211 230 255
211 230 255
211 230 255
211 230 255
211 230 255
211 230 255
211 230 255
211 230 255
201 220 245
128 143 162
128 144 164
143 162 186
120 137 161
129 149 175
133 150 173
138 158 185
140 161 190
144 163 189
140 161 190
136 155 183
140 161 190
149 169 197
139 159 187
140 161 188
143 164 193
148 170 198
153 176 205
148 169 199
147 168 197
135 157 190
153 175 204
148 169 196
153 175 202
151 172 200
144 165 192
153 175 205
151 173 201
156 179 209
154 175 204
154 176 204
163 186 215
159 180 208
166 188 218
160 183 210
163 185 214
161 183 212
166 189 219
161 183 211
167 190 219
162 184 211
170 193 222
166 188 216
164 185 212
170 192 215
173 195 223
165 187 214
159 180 206
168 190 216
168 190 220
169 191 221
168 190 215
162 184 212
161 181 204
163 185 210
166 187 212
167 188 214
163 183 211
163 184 207
166 188 208
159 180 203
171 192 217
164 185 211
168 190 214
166 188 213
167 188 214
167 188 211
164 183 209
167 190 213
164 183 204
169 190 212
163 183 204
162 183 207
166 186 208
165 186 213
167 187 208
168 188 209
163 183 204
159 179 200
163 183 200
166 186 208
164 185 204
168 189 212
163 184 204
156 176 199
164 184 204
159 178 198
165 186 207
162 183 203
167 187 209
163 183 200
162 182 203
166 186 206
158 179 195
153 173 188
161 180 200
156 177 198
160 179 198
156 175 194
160 181 199
163 183 200
167 187 203
159 178 191
159 177 188
163 182 198
155 174 187
164 184 195
152 171 184
158 177 194
154 173 186
155 174 186
165 185 202
160 179 198
161 181 199
160 179 192
156 175 192
159 178 187
156 176 187
159 179 196
157 176 191
155 173 187
149 167 180
155 173 184
148 165 175
149 167 180
159 177 183
158 177 188
149 167 180
147 165 175
140 158 171
151 169 177
181 201 228
181 201 228
181 201 228
181 201 228
180 201 228
180 201 228
181 201 228
180 201 228
180 201 228
180 201 228
180 201 228
178 200 228
179 200 228
179 200 228
179 200 228
179 200 228
178 200 228
177 199 228
178 200 228
177 199 228
177 199 228
176 199 228
176 199 228
177 199 228
176 199 228
176 199 228
176 199 228
176 199 228
176 199 228
175 198 228
176 198 228
175 198 228
175 198 228
175 198 228
175 198 228
174 198 228
174 197 228
174 198 228
174 198 228
174 198 228
174 198 228
173 197 228
173 197 228
173 197 228
173 197 228
172 197 228
172 197 228
172 197 228
172 197 228
172 197 228
172 196 228
172 196 228
171 196 228
171 196 228
171 196 228
171 196 228
171 196 228
172 196 228
170 195 228
170 195 228
170 196 228
170 195 228
170 196 228
170 195 228
169 195 228
169 195 228
169 195 228
169 195 228
169 195 228
169 195 228
169 195 228
168 194 228
168 194 228
167 194 228
168 195 228
168 194 228
167 194 228
167 194 228
167 194 228
167 194 228
166 194 228
166 194 228
167 194 228
167 194 228
166 193 228
166 193 228
166 194 228
167 194 228
166 193 228
166 193 228
166 193 228
166 193 228
166 193 228
165 193 228
166 193 228
165 193 228
166 193 228
165 193 228
166 193 228
165 193 228
165 193 228
165 193 228
165 193 228
166 193 228
166 193 228
166 193 228
166 193 228
166 193 228
166 193 228
166 193 228
166 194 228
166 193 228
166 194 228
167 194 228
167 194 228
168 194 228
168 194 228
169 195 228
168 194 228
168 195 228
169 195 228
169 195 228
171 196 228
171 196 228
172 197 228
172 197 228
174 198 228
176 198 228
175 198 227
172 194 221
166 186 213
153 170 193
196 214 238
211 230 255
211 230 255
211 230 255
211 230 255
211 230 255
211 230 255
211 230 255
211 230 255
211 230 255
211 230 255
211 230 255
211 230 255
211 230 255
211 230 255
210 230 255
210 230 255
210 230 255
210 229 255
210 229 255
210 229 255
210 229 255
210 229 255
210 229 255
210 229 255
210 229 255
210 229 255
210 229 255
210 229 255
210 229 255
210 229 255
194 214 244
81 112 181
62 98 171
61 96 168
60 96 161
61 97 165
62 98 169
60 96 159
62 98 168
62 98 162
62 99 170
62 98 166
61 97 157
61 97 159
61 97 166
61 96 160
62 98 164
61 97 156
62 98 169
62 99 171
63 99 162
61 98 163
61 97 155
62 98 165
62 98 168
62 98 164
63 99 167
62 98 163
62 98 160
63 99 167
62 98 163
63 100 170
62 98 165
62 98 169
61 98 163
61 97 155
61 98 161
62 98 162
63 99 163
62 98 168
61 97 158
62 98 165
62 97 156
63 99 163
62 99 170
62 98 159
62 98 161
61 96 157
62 98 166
62 97 159
62 98 161
62 97 161
61 98 165
62 98 165
60 95 154
61 97 166
61 97 163
61 97 162
62 98 160
60 96 160
62 98 164
62 98 165
61 98 170
61 97 164
60 96 164
61 97 160
61 96 157
61 97 163
61 97 165
60 96 163
61 96 169
60 96 165
96 124 184
188 207 240
210 229 255
210 229 255
210 229 255
210 229 255
210 229 255
210 229 255
210 229 255
210 229 255
210 229 255
210 229 255
210 229 255
210 229 255
210 229 255
210 230 255
210 230 255
210 230 255
211 230 255
211 230 255
211 230 255
211 230 255
211 230 255
211 230 255
211 230 255
211 230 255
211 230 255
211 230 255
211 230 255
211 230 255
211 230 255
211 230 255
192 210 233
149 166 189
126 143 165
135 154 177
134 153 179
138 158 185
130 149 177
144 165 194
148 169 199
145 167 198
147 168 198
146 166 194
145 165 194
140 160 188
137 159 189
146 168 198
154 175 205
154 176 205
147 168 198
145 167 197
147 168 196
151 173 203
151 171 198
147 170 201
158 179 207
160 182 212
152 172 201
146 167 195
153 174 202
153 174 203
153 174 204
158 180 208
160 183 212
161 183 211
162 184 211
154 176 203
158 179 207
165 187 216
162 184 211
167 188 214
163 185 211
165 186 212
162 184 210
160 182 209
161 182 209
163 185 212
164 187 215
166 187 215
163 184 209
167 188 213
167 189 214
167 189 216
167 188 214
165 187 209
167 189 214
165 185 211
167 189 217
162 183 209
169 189 213
166 186 211
169 191 217
167 188 213
168 189 213
169 190 214
161 181 204
169 190 213
168 189 213
172 193 218
170 190 213
167 188 207
167 188 211
163 184 208
168 188 209
166 188 209
169 191 214
163 184 207
162 183 206
161 181 196
172 193 217
168 189 208
157 176 198
166 186 208
169 190 208
163 183 200
163 183 200
159 178 198
154 173 195
171 192 214
162 182 196
161 182 206
164 183 200
165 185 206
166 186 206
168 190 211
162 181 196
161 181 200
161 180 200
158 177 195
156 175 190
161 180 198
167 187 202
159 177 196
163 182 195
168 188 207
161 181 196
156 175 191
157 176 194
155 174 190
163 183 203
165 185 206
158 178 192
159 178 198
170 189 204
159 178 195
155 174 183
153 171 188
159 179 187
148 165 175
150 168 181
156 174 178
160 180 192
156 175 190
157 176 195
145 163 178
160 179 195
159 177 190
148 168 178
148 167 181
148 166 187
151 168 174
161 181 192
153 171 183
153 171 181
182 202 228
182 202 228
182 202 228
180 201 228
181 201 228
179 200 228
181 201 228
181 201 228
181 201 228
180 201 228
180 201 228
180 201 228
180 201 228
179 200 228
179 200 228
178 200 228
179 200 228
179 200 228
178 200 228
177 199 228
177 199 228
178 200 228
177 199 228
177 199 228
177 199 228
177 199 228
177 199 228
177 199 228
176 199 228
176 199 228
175 198 228
176 199 228
175 198 228
175 198 228
175 198 228
175 198 228
175 198 228
174 198 228
174 198 228
174 198 228
175 198 228
174 198 228
173 197 228
173 197 228
173 197 228
173 197 228
173 197 228
173 197 228
173 197 228
173 197 228
172 197 228
172 196 228
172 196 228
172 196 228
171 196 228
171 196 228
171 196 228
171 196 228
171 196 228
171 196 228
170 196 228
170 195 228
170 196 228
170 195 228
170 195 228
169 195 228
170 195 228
170 195 228
169 195 228
169 195 228
168 195 228
169 195 228
168 195 228
169 195 228
168 195 228
168 195 228
168 194 228
168 194 228
168 194 228
168 194 228
167 194 228
167 194 228
167 194 228
167 194 228
168 194 228
167 194 228
166 194 228
167 194 228
166 194 228
167 194 228
167 194 228
166 193 228
166 193 228
166 193 228
166 194 228
166 193 228
166 193 228
166 193 228
166 193 228
165 193 228
166 193 228
166 193 228
166 193 228
166 193 228
166 194 228
166 193 228
165 193 228
166 193 228
166 194 228
166 194 228
167 194 228
166 194 228
167 194 228
167 194 228
167 194 228
167 194 228
167 194 228
168 195 228
169 195 228
168 195 228
169 195 228
170 195 228
170 195 228
170 196 228
171 196 228
172 197 228
173 197 228
174 198 228
176 199 228
175 198 227
167 188 216
164 183 208
159 176 200
194 212 236
211 230 255
211 230 255
211 230 255
211 230 255
211 230 255
211 230 255
211 230 255
211 230 255
211 230 255
211 230 255
211 230 255
211 230 255
211 230 255
211 230 255
211 230 255
211 230 255
211 230 255
211 230 255
211 230 255
211 230 255
211 230 255
210 230 255
210 230 255
210 230 255
210 230 255
210 229 255
210 229 255
210 229 255
189 209 240
88 117 178
61 97 170
61 97 168
62 98 170
61 97 162
61 97 168
61 97 164
62 98 166
61 97 164
61 98 163
62 98 164
62 98 165
61 97 164
61 96 156
62 98 167
61 97 164
61 98 169
61 97 162
62 98 161
62 98 162
62 98 167
62 98 160
62 98 162
62 98 165
62 98 160
61 97 151
61 97 155
62 99 168
62 98 163
62 98 165
61 97 159
61 97 157
61 97 154
62 98 163
61 98 158
61 98 159
62 98 164
63 99 166
62 98 160
62 98 162
61 97 163
62 98 167
62 98 163
61 97 158
62 98 165
61 97 165
62 98 166
61 97 162
61 97 159
62 97 163
62 98 166
62 99 170
62 98 159
61 98 164
62 99 168
60 95 153
62 98 163
62 97 160
62 98 163
62 98 163
62 98 164
62 98 171
61 97 163
61 97 163
61 97 166
61 97 161
61 97 162
61 97 167
61 96 164
59 94 154
60 97 167
61 98 173
61 97 169
89 117 179
195 215 245
210 229 255
210 229 255
210 229 255
210 230 255
210 230 255
210 230 255
211 230 255
211 230 255
211 230 255
211 230 255
211 230 255
211 230 255
211 230 255
211 230 255
211 230 255
211 230 255
211 230 255
211 230 255
211 230 255
211 230 255
211 230 255
211 230 255
211 230 255
211 230 255
211 230 255
211 230 255
211 230 255
211 230 255
193 210 235
126 142 164
131 148 169
125 143 167
134 154 181
131 149 175
124 142 168
141 161 189
149 170 200
135 155 185
139 160 188
138 159 188
140 160 188
147 169 200
144 166 197
145 167 197
131 151 181
145 166 195
144 166 196
144 165 192
153 175 206
148 168 197
152 173 202
152 174 203
162 184 212
147 168 196
151 172 200
153 174 204
155 177 205
156 177 207
151 173 204
155 177 205
159 181 210
158 179 207
156 178 207
162 184 213
157 178 203
161 183 211
162 184 211
158 180 209
157 179 207
161 183 209
159 180 203
160 181 206
165 187 215
163 184 209
162 183 210
162 183 211
165 186 214
162 184 206
170 191 214
162 183 210
169 191 217
169 190 215
164 186 209
167 188 212
167 188 211
160 181 206
170 191 212
168 190 214
169 189 214
168 189 213
163 184 207
168 189 214
170 191 214
172 192 217
165 185 207
163 184 203
164 185 206
163 183 203
167 188 212
164 185 206
167 188 212
161 183 207
167 187 211
168 187 208
165 185 204
159 180 199
167 188 209
167 187 208
169 190 209
170 191 212
168 188 204
167 187 208
169 190 211
165 185 203
166 187 203
163 183 203
165 186 200
161 180 199
172 192 211
162 182 196
160 179 195
159 180 198
167 187 200
166 186 203
165 186 204
160 182 200
171 191 209
160 179 192
167 186 200
160 180 198
163 181 198
154 172 188
162 182 195
166 185 199
163 183 198
156 175 186
159 179 191
156 175 190
155 175 188
155 175 196
156 176 194
156 174 186
154 172 181
154 172 188
160 179 192
152 170 178
156 174 186
160 178 186
162 181 199
150 167 180
160 178 194
155 173 188
161 179 198
161 179 192
156 174 186
151 171 184
154 172 180
151 168 174
159 180 194
148 166 169
153 171 178
146 162 169
182 202 228
183 202 228
182 202 228
181 201 228
180 201 228
181 201 228
180 201 228
180 201 228
180 201 228
180 201 228
179 200 228
180 201 228
179 200 228
180 201 228
179 200 228
179 200 228
179 200 228
179 200 228
179 200 228
179 200 228
178 200 228
178 200 228
178 200 228
177 199 228
177 199 228
178 200 228
176 199 228
177 199 228
177 199 228
176 199 228
176 199 228
176 199 228
176 199 228
175 198 228
175 198 228
175 198 228
175 198 228
175 198 228
175 198 228
176 199 228
175 198 228
173 197 228
174 198 228
175 198 228
174 198 228
174 198 228
174 197 228
173 197 228
173 197 228
173 197 228
173 197 228
173 197 228
172 197 228
171 196 228
172 196 228
172 196 228
172 197 228
171 196 228
171 196 228
171 196 228
171 196 228
171 196 228
171 196 228
171 196 228
171 196 228
171 196 228
171 196 228
169 195 228
170 195 228
169 195 228
169 195 228
169 195 228
168 195 228
169 195 228
169 195 228
169 195 228
168 195 228
168 195 228
168 195 228
168 194 228
169 195 228
169 195 228
168 194 228
168 195 228
167 194 228
168 194 228
167 194 228
167 194 228
167 194 228
167 194 228
167 194 228
166 194 228
167 194 228
167 194 228
166 194 228
166 194 228
166 193 228
167 194 228
166 194 228
167 194 228
166 193 228
166 194 228
166 194 228
166 194 228
166 194 228
167 194 228
167 194 228
166 193 228
166 194 228
167 194 228
167 194 228
167 194 228
167 194 228
167 194 228
167 194 228
167 194 228
168 195 228
169 195 228
168 195 228
169 195 228
170 195 228
170 195 228
170 195 228
171 196 228
171 196 228
172 196 228
172 197 228
173 197 228
175 198 228
175 198 228
176 198 227
172 193 220
169 189 216
156 173 195
199 216 240
211 230 255
211 230 255
211 230 255
211 230 255
211 230 255
211 230 255
211 230 255
211 230 255
211 230 255
211 230 255
211 230 255
211 230 255
211 230 255
211 230 255
211 230 255
211 230 255
211 230 255
211 230 255
211 230 255
211 230 255
211 230 255
211 230 255
211 230 255
211 230 255
211 230 255
211 230 255
197 216 245
83 113 176
61 97 165
61 97 170
62 98 170
61 97 164
60 96 160
60 96 160
61 97 165
61 97 162
61 97 159
61 97 159
62 98 163
63 100 174
62 98 165
61 97 162
61 97 164
61 97 164
61 97 162
61 98 161
62 97 160
61 97 162
62 98 163
61 97 164
61 97 157
62 98 167
61 97 155
62 98 164
63 99 170
62 98 166
62 98 157
61 97 163
61 97 156
62 98 159
61 97 155
62 98 161
62 98 164
62 98 164
61 96 152
62 97 160
61 97 159
62 98 160
61 97 162
62 98 160
61 97 158
61 98 162
61 97 160
61 98 162
62 98 163
62 97 158
63 99 169
62 97 163
62 98 167
62 98 168
61 97 159
62 98 159
62 98 162
61 97 164
62 98 164
60 96 161
61 97 159
61 97 163
60 96 159
60 95 157
62 98 168
62 98 164
60 96 155
62 98 168
61 97 165
61 96 163
61 97 162
61 96 166
61 97 167
61 96 164
60 96 161
60 95 165
94 121 179
202 221 250
211 230 255
211 230 255
211 230 255
211 230 255
211 230 255
211 230 255
211 230 255
211 230 255
211 230 255
211 230 255
211 230 255
211 230 255
211 230 255
211 230 255
211 230 255
211 230 255
211 230 255
211 230 255
211 230 255
211 230 255
211 230 255
211 230 255
211 230 255
211 230 255
211 230 255
211 230 255
194 212 235
136 153 174
131 149 172
131 148 170
133 152 177
137 156 183
129 148 175
133 153 181
133 152 180
140 160 190
133 153 182
135 156 187
137 157 186
134 153 181
143 164 193
135 155 185
142 164 194
151 174 206
149 169 199
148 169 200
148 170 200
143 165 195
145 167 199
150 172 201
148 169 200
152 173 201
156 177 204
150 171 200
160 182 212
157 180 205
152 172 201
158 179 207
151 172 200
158 179 207
163 185 214
162 184 213
157 178 206
152 174 202
161 182 209
166 188 216
160 182 212
161 181 207
163 185 210
165 186 212
165 187 212
160 181 202
162 184 213
165 187 211
157 177 202
165 186 212
168 190 216
168 189 213
166 186 212
163 183 207
170 192 218
170 192 217
171 192 217
164 186 212
169 191 213
168 189 212
169 190 216
167 188 209
164 185 208
168 189 214
168 189 213
171 191 212
167 187 203
167 187 211
163 183 208
169 190 211
169 190 213
171 192 218
166 186 204
171 192 214
160 181 196
168 188 211
167 187 207
167 189 211
168 189 212
165 185 200
161 182 204
172 193 212
171 192 212
168 188 207
174 195 217
167 186 204
162 181 198
168 188 208
165 186 207
164 185 207
163 184 204
166 187 203
166 185 202
167 187 204
159 178 192
163 183 199
159 180 198
164 183 196
160 179 192
158 177 194
158 177 192
161 182 195
165 185 199
157 177 194
164 184 196
157 177 194
160 179 194
163 183 202
157 175 191
158 177 191
162 181 198
164 183 198
158 176 184
157 176 181
161 180 194
157 176 186
156 175 184
158 176 186
160 179 195
149 167 178
157 176 187
155 172 183
149 167 184
159 178 195
153 171 190
152 171 177
149 166 169
148 166 181
151 170 178
157 175 186
157 175 188
152 169 180
150 166 172
157 175 184
155 173 183
183 202 228
183 202 228
181 201 228
182 202 228
182 202 228
181 201 228
180 201 228
180 201 228
181 202 228
181 201 228
181 201 228
181 201 228
180 201 228
180 201 228
180 201 228
179 200 228
178 200 228
180 201 228
179 200 228
179 200 228
179 200 228
178 200 228
179 200 228
178 200 228
178 200 228
179 200 228
178 200 228
176 199 228
177 199 228
177 199 228
177 199 228
176 199 228
177 199 228
177 199 228
176 199 228
177 199 228
176 199 228
175 198 228
175 198 228
175 198 228
176 199 228
175 198 228
175 198 228
174 198 228
175 198 228
174 198 228
174 197 228
173 197 228
173 197 228
173 197 228
173 197 228
173 197 228
172 197 228
173 197 228
173 197 228
173 197 228
172 197 228
172 196 228
172 197 228
172 197 228
172 196 228
172 196 228
172 196 228
171 196 228
171 196 228
171 196 228
171 196 228
171 196 228
170 196 228
170 196 228
171 196 228
169 195 228
170 195 228
170 195 228
170 195 228
170 195 228
168 195 228
169 195 228
169 195 228
169 195 228
169 195 228
169 195 228
168 194 228
168 194 228
168 195 228
168 194 228
168 195 228
168 194 228
168 194 228
168 194 228
167 194 228
168 194 228
168 194 228
167 194 228
167 194 228
167 194 228
167 194 228
167 194 228
167 194 228
167 194 228
167 194 228
167 194 228
167 194 228
168 194 228
167 194 228
167 194 228
167 194 228
167 194 228
167 194 228
167 194 228
167 194 228
168 194 228
168 194 228
167 194 228
168 194 228
168 194 228
168 194 228
168 195 228
169 195 228
169 195 228
170 195 228
169 195 228
170 195 228
171 196 228
171 196 228
172 196 228
172 197 228
173 197 228
174 198 228
175 198 228
177 199 228
177 199 228
171 192 220
165 184 209
166 184 208
205 223 248
212 230 255
212 230 255
212 230 255
212 230 255
212 230 255
212 230 255
211 230 255
211 230 255
211 230 255
211 230 255
211 230 255
211 230 255
211 230 255
211 230 255
211 230 255
211 230 255
211 230 255
211 230 255
211 230 255
211 230 255
211 230 255
211 230 255
211 230 255
211 230 255
209 228 254
100 126 182
61 97 172
59 95 166
61 97 167
61 97 166
61 98 168
61 97 166
62 98 163
61 97 162
60 96 159
61 97 156
61 97 164
62 98 165
61 97 161
61 98 170
61 97 161
62 99 168
61 96 152
62 98 166
62 98 162
62 98 162
61 97 157
62 98 162
62 98 160
62 98 162
62 98 157
61 97 159
62 98 169
62 98 160
62 98 162
61 98 160
61 97 154
63 99 165
62 98 165
62 98 161
62 98 165
61 97 155
62 99 167
61 97 162
62 98 160
60 96 155
63 99 169
61 97 161
62 98 156
62 99 165
62 98 161
62 98 156
62 98 167
62 98 165
62 98 159
62 98 168
62 98 160
60 96 155
62 98 163
62 98 162
61 97 160
61 97 158
63 99 162
62 98 161
62 98 166
61 97 160
62 98 159
62 98 166
61 96 163
61 97 162
60 95 158
61 97 163
62 98 170
61 97 162
61 97 161
61 96 159
60 96 161
60 96 164
60 96 161
59 94 161
61 97 163
60 95 166
92 120 180
204 223 251
211 230 255
211 230 255
211 230 255
211 230 255
211 230 255
211 230 255
211 230 255
211 230 255
211 230 255
211 230 255
211 230 255
211 230 255
211 230 255
211 230 255
211 230 255
211 230 255
211 230 255
211 230 255
212 230 255
212 230 255
212 230 255
212 230 255
212 230 255
212 230 255
199 217 241
138 155 175
128 144 164
133 152 178
123 141 161
136 156 184
134 154 182
119 138 166
140 160 189
137 157 187
142 163 193
144 165 195
141 163 194
135 156 186
145 165 193
133 153 185
139 159 190
147 169 199
140 161 191
143 165 195
149 169 198
151 173 203
152 173 201
153 175 203
146 166 193
155 176 204
156 177 205
147 167 195
151 173 201
158 179 208
157 179 206
158 179 202
158 180 209
159 181 207
164 186 213
159 180 203
162 184 210
158 179 204
162 184 211
166 187 213
162 184 210
164 186 215
164 186 212
157 178 204
168 190 220
166 188 213
161 182 209
165 186 214
170 192 218
165 186 212
160 181 207
167 188 211
169 191 212
172 194 221
172 193 215
168 189 212
167 188 212
164 185 211
170 191 216
167 188 213
169 189 211
166 187 210
174 195 221
169 190 209
167 188 209
165 187 209
166 188 211
162 183 203
170 191 218
170 191 212
176 196 220
164 183 200
171 192 213
169 190 209
167 187 206
169 190 213
163 184 203
167 188 209
169 189 212
171 191 209
165 185 202
170 190 208
166 187 208
164 184 202
161 181 196
167 187 208
159 179 196
167 187 212
167 186 202
161 180 198
162 182 195
165 185 199
163 184 202
160 180 196
164 185 202
169 188 203
166 187 202
167 188 207
168 188 206
168 188 207
167 187 203
162 182 192
159 178 188
162 182 196
161 179 190
164 183 200
166 185 204
156 174 184
168 186 198
162 182 198
157 175 192
152 171 183
161 180 195
160 179 195
159 178 194
157 175 190
154 172 184
160 179 191
155 174 191
155 173 188
152 170 175
156 174 186
157 177 187
150 168 183
155 174 190
154 171 186
160 179 196
163 182 200
161 181 191
154 173 181
154 172 184
157 176 183
143 161 172
156 175 177
157 176 186
158 176 180
183 202 228
183 203 228
183 202 228
183 202 228
183 202 228
183 202 228
182 202 228
182 202 228
181 202 228
181 201 228
181 202 228
180 201 228
180 201 228
180 201 228
180 201 228
180 201 228
180 201 228
180 201 228
179 200 228
178 200 228
179 200 228
179 200 228
178 200 228
178 200 228
179 200 228
178 200 228
179 200 228
178 200 228
177 199 228
177 199 228
178 200 228
178 200 228
177 199 228
176 199 228
177 199 228
176 198 228
177 199 228
176 199 228
175 198 228
176 199 228
176 199 228
174 198 228
175 198 228
176 198 228
175 198 228
175 198 228
175 198 228
174 198 228
175 198 228
174 198 228
174 198 228
173 197 228
174 198 228
173 197 228
173 197 228
174 198 228
173 197 228
172 197 228
173 197 228
173 197 228
172 197 228
173 197 228
172 196 228
172 196 228
172 196 228
171 196 228
172 196 228
172 196 228
171 196 228
171 196 228
171 196 228
171 196 228
171 196 228
170 196 228
170 196 228
170 196 228
170 196 228
169 195 228
170 196 228
170 195 228
168 195 228
169 195 228
168 195 228
169 195 228
168 194 228
169 195 228
168 195 228
168 195 228
168 195 228
168 195 228
168 195 228
168 194 228
169 195 228
168 194 228
169 195 228
168 195 228
168 194 228
168 194 228
167 194 228
167 194 228
167 194 228
167 194 228
168 194 228
167 194 228
167 194 228
168 194 228
167 194 228
168 194 228
168 194 228
168 194 228
168 194 228
167 194 228
168 194 228
168 195 228
167 194 228
169 195 228
169 195 228
169 195 228
168 195 228
169 195 228
169 195 228
170 195 228
170 196 228
171 196 228
172 197 228
172 196 228
172 197 228
173 197 228
173 197 228
174 198 228
175 198 228
176 199 228
176 198 227
175 195 223
167 186 212
158 174 196
208 227 252
212 230 255
212 230 255
212 230 255
212 230 255
212 230 255
212 230 255
212 230 255
212 230 255
212 230 255
212 230 255
212 230 255
212 230 255
212 230 255
211 230 255
211 230 255
211 230 255
211 230 255
211 230 255
211 230 255
211 230 255
211 230 255
211 230 255
210 229 255
116 140 195
60 95 168
61 96 162
60 96 165
61 97 161
60 96 163
61 97 163
61 97 165
61 97 164
60 96 164
61 97 156
61 97 160
62 98 163
62 98 161
61 97 163
62 98 163
62 98 163
62 98 161
62 98 163
61 96 160
61 97 160
61 97 155
62 98 166
62 98 161
61 96 155
62 98 163
62 97 161
60 96 155
61 98 161
62 98 162
63 98 161
62 97 155
61 97 157
62 99 166
60 96 147
62 98 160
63 99 169
62 98 162
61 97 156
61 98 160
61 97 161
63 99 169
63 98 161
61 97 159
61 97 157
62 98 163
63 99 162
61 97 156
62 98 166
62 97 161
62 98 161
62 98 166
61 97 161
62 98 160
62 97 157
62 97 154
61 97 159
62 98 167
62 97 160
61 96 157
61 97 154
62 98 163
61 97 162
61 97 165
62 98 158
62 98 162
60 96 158
61 97 160
60 96 160
62 97 164
62 97 161
60 95 158
61 97 163
61 97 166
61 96 169
61 96 163
60 95 159
61 96 172
59 94 164
119 142 191
211 230 255
211 230 255
211 230 255
211 230 255
211 230 255
211 230 255
211 230 255
211 230 255
211 230 255
212 230 255
212 230 255
212 230 255
212 230 255
212 230 255
212 230 255
212 230 255
212 230 255
212 230 255
212 230 255
212 230 255
212 230 255
212 230 255
212 230 255
202 220 244
133 148 167
130 148 171
133 150 174
130 147 172
133 152 178
133 153 178
141 162 193
148 168 196
136 155 183
138 159 188
145 167 196
138 158 186
135 155 185
151 173 203
137 157 185
146 168 197
145 165 195
141 163 192
139 160 190
147 169 200
141 162 192
148 168 198
157 180 214
146 167 197
147 168 197
150 172 204
152 175 204
160 182 210
155 177 204
152 174 204
156 178 206
153 175 204
160 181 210
162 183 211
157 179 206
154 175 202
166 188 216
153 175 205
160 180 204
163 184 210
167 189 217
160 180 201
163 186 216
167 189 212
162 183 207
163 184 207
165 186 207
161 182 202
168 190 216
163 183 207
173 194 221
169 191 214
163 183 205
168 189 213
161 181 204
164 186 208
169 189 212
169 190 214
169 190 212
170 191 214
171 193 217
163 184 198
167 189 213
167 188 209
165 185 209
170 192 213
167 188 209
161 181 202
170 190 212
170 191 209
165 186 200
166 187 206
160 179 199
172 191 213
168 187 208
168 189 214
175 196 220
173 193 212
167 187 202
163 183 200
166 186 202
164 184 202
169 189 203
163 183 200
163 183 195
164 185 204
166 186 203
172 192 209
163 183 202
171 191 211
167 187 204
165 184 199
166 187 204
163 183 198
169 189 208
158 177 188
162 181 196
165 185 204
163 182 195
161 181 195
166 186 200
165 184 196
168 188 203
155 174 188
161 181 187
162 181 196
165 185 198
163 183 194
160 179 198
156 174 184
164 183 202
164 183 198
155 174 186
157 176 190
156 174 177
165 185 192
161 181 196
162 181 191
157 177 188
157 177 187
161 179 183
158 176 191
164 183 195
149 167 175
164 184 191
153 171 174
159 177 186
154 173 181
157 175 184
159 178 191
150 169 180
154 172 178
147 164 178
147 166 169
145 163 169
149 165 171
183 202 228
183 202 228
183 202 228
182 202 228
182 202 228
182 202 228
181 202 228
182 202 228
181 202 228
182 202 228
182 202 228
180 201 228
180 201 228
181 201 228
180 201 228
180 201 228
180 201 228
179 200 228
180 201 228
178 200 228
180 201 228
179 200 228
179 200 228
178 200 228
179 200 228
178 200 228
179 200 228
178 200 228
178 200 228
178 200 228
177 199 228
177 199 228
177 199 228
178 200 228
178 200 228
176 199 228
176 199 228
176 199 228
177 199 228
175 198 228
176 199 228
176 199 228
176 199 228
175 198 228
175 198 228
175 198 228
175 198 228
175 198 228
174 197 228
174 198 228
174 198 228
174 198 228
175 198 228
174 198 228
174 198 228
173 197 228
174 198 228
173 197 228
174 198 228
173 197 228
173 197 228
172 197 228
173 197 228
173 197 228
172 197 228
172 197 228
173 197 228
172 196 228
172 197 228
171 196 228
172 196 228
171 196 228
171 196 228
171 196 228
171 196 228
171 196 228
171 196 228
171 196 228
171 196 228
171 196 228
170 196 228
171 196 228
170 195 228
170 195 228
169 195 228
169 195 228
169 195 228
169 195 228
169 195 228
169 195 228
168 195 228
169 195 228
169 195 228
169 195 228
169 195 228
169 195 228
169 195 228
168 195 228
168 195 228
168 194 228
168 195 228
168 195 228
167 194 228
169 195 228
169 195 228
168 194 228
168 195 228
168 195 228
169 195 228
168 195 228
168 194 228
168 195 228
168 195 228
168 195 228
169 195 228
169 195 228
169 195 228
169 195 228
170 195 228
170 195 228
170 196 228
170 196 228
170 196 228
172 196 228
171 196 228
172 196 228
172 197 228
173 197 228
173 197 228
174 198 228
176 198 228
175 198 228
177 199 228
178 199 227
174 194 221
163 180 204
161 177 199
208 227 251
212 230 255
212 230 255
212 230 255
212 230 255
212 230 255
212 230 255
212 230 255
212 230 255
212 230 255
212 230 255
212 230 255
212 230 255
212 230 255
212 230 255
212 230 255
212 230 255
212 230 255
212 230 255
212 230 255
212 230 255
212 230 255
149 171 214
61 97 171
60 95 167
60 96 164
60 96 161
61 97 158
60 96 160
60 96 160
61 98 167
60 96 152
62 97 161
61 96 152
61 97 162
61 97 159
62 98 163
61 96 157
60 95 153
61 98 165
61 97 158
61 96 157
61 97 162
61 97 158
62 98 162
61 96 153
61 96 151
61 97 155
61 97 153
62 98 159
62 98 162
62 98 161
63 99 165
61 97 156
61 97 162
62 98 161
62 98 160
62 98 158
62 98 159
62 98 164
61 97 157
62 98 156
61 97 157
62 98 163
62 98 160
62 98 162
62 97 156
63 98 163
62 97 151
62 98 161
62 97 158
61 97 157
61 96 151
62 98 164
62 98 162
62 98 166
62 98 158
62 98 153
62 98 166
61 97 155
62 98 163
61 97 163
61 96 160
62 97 157
62 99 174
61 96 157
61 97 156
61 97 157
60 95 154
59 94 155
61 97 163
62 97 159
60 96 158
60 96 160
61 96 160
60 95 156
61 96 162
61 97 165
61 97 166
61 96 167
60 95 161
60 96 167
60 95 163
147 168 210
212 230 255
212 230 255
212 230 255
212 230 255
212 230 255
212 230 255
212 230 255
212 230 255
212 230 255
212 230 255
212 230 255
212 230 255
212 230 255
212 230 255
212 230 255
212 230 255
212 230 255
212 230 255
212 230 255
212 230 255
212 230 255
207 225 250
138 154 176
132 151 171
132 150 174
127 144 168
134 153 180
138 158 186
130 149 174
133 152 180
131 152 183
131 152 183
136 158 190
135 156 186
139 160 191
146 168 196
146 168 196
141 162 191
139 160 190
142 164 196
148 168 196
140 161 191
142 163 193
152 173 203
146 167 197
152 174 202
145 165 192
146 167 196
150 172 202
157 179 210
153 176 206
157 178 207
150 171 196
154 175 203
150 172 200
162 182 208
158 179 202
163 185 213
163 184 210
165 187 216
159 181 205
160 182 209
160 182 207
167 189 215
163 184 212
163 184 208
164 186 212
166 187 214
163 183 208
163 185 212
169 190 214
163 182 203
163 184 209
163 184 209
164 186 211
161 183 204
169 191 217
167 189 209
170 192 217
164 185 207
170 191 213
165 186 204
162 182 204
168 190 210
169 190 215
167 187 209
164 184 205
166 187 200
170 190 216
167 189 208
165 185 205
169 190 211
173 193 210
167 188 208
173 194 217
166 186 203
174 194 212
166 187 203
164 184 203
169 190 212
172 192 212
168 188 204
170 190 209
168 188 207
167 188 206
165 185 198
166 186 200
173 193 213
172 193 213
164 184 203
162 182 195
164 183 198
168 189 204
163 183 199
165 184 200
166 186 204
163 183 203
162 182 192
162 183 196
166 186 198
168 187 204
163 183 194
157 176 190
160 180 188
163 183 199
158 177 192
166 187 202
165 184 198
165 185 195
166 186 199
166 185 202
158 177 184
164 184 195
163 182 195
164 184 194
161 180 190
157 176 194
168 188 195
156 174 187
162 182 196
168 186 195
159 178 184
162 181 191
153 171 177
160 178 188
161 181 183
158 176 186
158 177 188
150 168 180
164 183 191
155 174 180
153 171 180
160 179 187
156 173 184
147 164 161
159 177 183
157 176 183
164 183 200
153 171 178
183 202 228
183 203 228
183 202 228
183 202 228
183 202 228
183 202 228
183 203 228
182 202 228
182 202 228
182 202 228
183 202 228
182 202 228
181 201 228
181 201 228
181 202 228
181 201 228
181 201 228
181 201 228
180 201 228
179 200 228
180 201 228
180 201 228
179 201 228
180 201 228
179 200 228
178 200 228
179 200 228
178 200 228
178 200 228
178 200 228
179 200 228
178 200 228
177 199 228
178 200 228
177 199 228
178 200 228
177 199 228
178 200 228
177 199 228
177 199 228
177 199 228
176 199 228
176 199 228
176 198 228
177 199 228
176 199 228
176 198 228
176 199 228
175 198 228
176 198 228
174 198 228
175 198 228
175 198 228
175 198 228
174 198 228
174 198 228
174 198 228
174 198 228
174 197 228
174 197 228
174 198 228
174 198 228
173 197 228
173 197 228
174 198 228
173 197 228
173 197 228
173 197 228
173 197 228
172 197 228
173 197 228
172 197 228
172 196 228
171 196 228
172 196 228
171 196 228
171 196 228
171 196 228
171 196 228
171 196 228
171 196 228
171 196 228
170 196 228
170 195 228
169 195 228
171 196 228
170 195 228
170 195 228
170 195 228
170 195 228
169 195 228
169 195 228
169 195 228
169 195 228
169 195 228
169 195 228
170 195 228
169 195 228
169 195 228
169 195 228
169 195 228
169 195 228
168 195 228
169 195 228
169 195 228
169 195 228
169 195 228
169 195 228
169 195 228
169 195 228
168 195 228
169 195 228
169 195 228
170 195 228
170 195 228
170 195 228
170 195 228
170 196 228
170 195 228
170 196 228
171 196 228
171 196 228
171 196 228
171 196 228
172 196 228
172 197 228
172 197 228
173 197 228
173 197 228
174 198 228
174 197 228
175 198 228
176 199 228
178 200 228
180 201 228
174 194 220
162 180 203
179 196 219
212 231 255
212 231 255
212 231 255
212 231 255
212 231 255
212 231 255
212 231 255
212 231 255
212 230 255
212 230 255
212 230 255
212 230 255
212 230 255
212 230 255
212 230 255
212 230 255
212 230 255
212 230 255
212 230 255
212 230 255
180 200 231
58 93 163
60 95 164
59 95 164
61 97 165
60 96 165
59 95 164
62 97 163
62 98 165
62 98 169
62 98 162
61 97 153
62 98 163
60 96 155
60 96 153
60 95 154
61 97 157
61 97 160
62 98 163
61 97 160
62 98 161
61 96 154
62 97 158
61 97 159
62 97 157
61 97 161
61 97 163
62 97 160
62 98 161
62 98 161
62 97 157
61 97 159
62 98 162
62 98 156
62 98 164
62 98 165
63 99 167
62 99 163
62 98 161
62 98 161
61 96 152
63 99 162
61 97 154
62 97 160
62 98 164
61 97 153
61 97 156
61 97 158
61 98 165
61 97 149
62 98 162
62 98 161
61 96 153
62 98 161
61 97 164
62 97 159
62 97 154
61 97 157
61 97 159
61 97 164
62 98 164
61 97 153
60 95 152
60 96 153
61 96 157
61 96 161
61 96 158
61 97 154
61 97 155
60 95 159
62 97 167
60 95 151
62 97 161
61 96 158
61 97 158
60 96 155
60 95 155
60 95 161
59 95 161
59 95 161
59 94 161
59 94 158
58 92 161
181 201 235
212 230 255
212 230 255
212 230 255
212 230 255
212 230 255
212 230 255
212 230 255
212 230 255
212 230 255
212 230 255
212 230 255
212 230 255
212 231 255
212 231 255
212 231 255
212 231 255
212 231 255
212 231 255
212 231 255
210 228 252
157 175 199
123 140 160
137 155 179
121 139 164
121 139 167
133 152 180
131 150 178
127 146 174
128 148 176
127 148 179
132 151 180
132 152 182
134 155 187
138 159 189
136 158 189
153 175 206
143 165 198
148 170 201
135 156 188
147 167 197
153 174 203
148 170 202
148 169 200
145 167 198
149 170 199
157 179 207
149 170 199
150 172 203
154 176 206
156 177 205
153 174 202
158 180 207
161 182 211
162 183 207
158 180 207
162 184 209
161 182 208
159 180 207
158 179 202
166 189 216
161 182 207
157 178 202
164 185 211
165 185 209
168 189 214
165 186 207
165 187 213
162 183 205
165 186 206
162 182 205
167 188 209
171 193 220
169 189 210
165 186 212
169 191 217
163 184 204
164 185 207
165 185 210
168 190 212
170 190 209
169 190 213
169 190 210
167 187 209
166 188 205
168 189 212
168 190 213
170 191 209
171 191 208
167 188 207
171 193 216
168 190 209
170 190 203
174 195 216
167 188 205
170 190 212
171 192 208
165 186 199
174 195 211
165 185 201
172 193 217
168 190 203
171 190 206
164 183 200
173 193 212
172 192 216
168 189 207
172 192 212
173 193 213
166 187 198
163 183 196
168 187 204
163 182 204
164 184 199
159 178 196
162 181 190
168 188 206
169 189 204
161 180 188
162 182 199
167 187 200
168 188 199
160 180 196
168 187 195
166 186 200
164 184 198
167 187 199
166 185 195
162 182 194
161 180 192
160 179 188
166 186 192
159 178 192
163 182 199
162 181 191
164 183 199
165 185 196
162 181 190
161 181 196
168 188 203
164 182 192
159 179 183
156 174 183
156 175 181
163 182 188
158 178 190
156 173 188
160 178 183
162 182 191
156 175 183
159 177 186
153 170 183
156 175 178
162 181 184
158 177 180
152 170 186
156 173 181
153 171 178
141 158 151
183 203 228
183 203 228
183 203 228
183 202 228
184 203 228
182 202 228
182 202 228
182 202 228
182 202 228
183 202 228
181 202 228
182 202 228
182 202 228
181 202 228
181 202 228
181 201 228
181 201 228
180 201 228
180 201 228
181 201 228
181 201 228
181 201 228
181 201 228
179 200 228
180 201 228
180 201 228
179 200 228
180 201 228
180 201 228
179 200 228
179 200 228
179 200 228
179 200 228
178 200 228
178 200 228
178 200 228
177 199 228
177 199 228
178 200 228
178 200 228
178 200 228
176 199 228
177 199 228
177 199 228
176 199 228
177 199 228
176 199 228
177 199 228
177 199 228
175 198 228
175 198 228
176 199 228
175 198 228
176 199 228
175 198 228
175 198 228
174 198 228
175 198 228
175 198 228
174 198 228
174 198 228
174 197 228
173 197 228
174 198 228
174 198 228
173 197 228
173 197 228
174 197 228
173 197 228
173 197 228
173 197 228
173 197 228
173 197 228
171 196 228
172 197 228
171 196 228
172 197 228
172 197 228
172 197 228
172 196 228
172 196 228
171 196 228
171 196 228
171 196 228
171 196 228
171 196 228
171 196 228
171 196 228
171 196 228
170 195 228
171 196 228
171 196 228
171 196 228
170 195 228
170 196 228
170 195 228
170 195 228
170 195 228
170 196 228
170 196 228
169 195 228
169 195 228
170 196 228
170 195 228
169 195 228
170 195 228
170 196 228
169 195 228
170 196 228
170 196 228
170 195 228
170 195 228
170 196 228
169 195 228
170 196 228
170 195 228
169 195 228
170 196 228
171 196 228
171 196 228
170 196 228
171 196 228
171 196 228
172 197 228
172 196 228
172 197 228
174 197 228
173 197 228
174 198 228
174 198 228
174 198 228
176 199 228
176 198 228
178 199 228
179 200 228
177 197 225
172 191 217
161 178 200
190 207 230
213 231 255
213 231 255
213 231 255
213 231 255
213 231 255
213 231 255
213 231 255
212 231 255
212 231 255
212 231 255
212 231 255
212 231 255
212 231 255
212 231 255
212 231 255
212 231 255
212 231 255
212 230 255
204 222 249
80 110 172
60 95 164
59 95 160
59 95 155
60 95 159
60 96 160
61 96 165
61 96 157
61 96 156
62 97 163
61 97 161
61 97 154
61 97 159
61 97 163
61 97 163
62 98 164
62 98 162
62 98 159
62 98 165
61 97 156
62 98 162
61 97 156
60 95 151
61 97 154
61 96 150
61 97 156
61 96 150
61 97 158
61 96 154
61 97 158
61 97 153
62 97 159
61 97 155
62 97 159
61 97 159
61 97 151
62 98 163
62 99 166
62 98 158
62 97 156
62 97 149
61 96 154
61 97 157
61 97 154
61 97 155
60 96 151
60 96 150
61 97 154
62 98 162
61 97 160
62 99 164
62 98 161
61 97 158
61 97 148
62 97 157
61 97 159
61 97 154
62 98 158
61 97 153
62 98 162
61 97 153
62 97 155
61 97 156
62 97 163
60 96 152
61 96 156
61 97 161
61 97 160
61 97 163
61 96 159
62 97 162
62 97 166
60 95 159
59 94 150
61 97 163
61 96 158
61 96 164
60 95 165
59 94 159
60 95 159
59 95 162
59 94 160
58 92 156
67 98 162
204 222 249
212 231 255
212 231 255
212 231 255
212 231 255
212 231 255
212 231 255
212 231 255
212 231 255
212 231 255
212 231 255
212 231 255
213 231 255
213 231 255
213 231 255
213 231 255
213 231 255
213 231 255
213 231 255
173 190 213
124 141 163
139 158 182
131 148 173
123 140 165
134 154 183
140 161 191
129 148 178
131 150 178
136 157 187
118 138 172
136 157 186
131 150 181
134 154 182
140 161 191
146 167 196
148 170 201
142 164 195
136 157 189
142 163 194
146 167 198
145 167 196
139 160 189
136 157 187
144 165 194
149 170 199
153 175 206
157 179 208
159 179 207
152 173 201
158 179 206
156 177 200
158 179 205
159 180 208
161 183 211
155 176 203
154 175 196
165 187 214
161 182 209
166 187 213
159 180 207
164 185 208
165 186 213
160 183 207
165 187 207
161 182 205
161 181 198
167 187 208
166 186 206
165 185 210
168 189 215
170 190 211
169 190 209
171 193 218
165 186 202
170 191 213
172 193 213
163 184 204
171 191 215
174 195 214
170 191 213
168 189 207
170 191 208
171 192 213
167 187 206
169 190 209
169 190 208
172 193 209
169 190 206
170 191 210
169 188 203
166 187 206
170 189 207
174 194 211
170 191 210
177 197 217
169 190 206
168 188 203
167 187 207
170 191 210
165 186 203
172 193 216
167 186 203
167 186 204
169 190 207
170 191 206
162 183 198
168 188 203
169 189 206
166 186 204
172 192 207
166 185 196
168 188 204
160 181 194
164 183 195
162 181 195
164 184 200
164 184 195
162 181 192
163 183 199
165 185 198
164 182 194
163 183 196
168 189 206
159 178 192
157 176 187
162 181 196
164 183 196
159 178 188
164 183 192
164 182 190
162 181 196
164 183 194
168 187 204
161 180 191
164 183 192
160 180 192
168 188 203
160 178 187
159 177 192
158 175 187
161 180 187
169 188 200
157 175 187
165 185 203
159 178 178
158 177 188
158 177 186
163 182 191
157 176 183
155 173 184
157 176 183
159 177 188
151 170 183
160 178 188
161 181 195
153 170 181
151 169 177
149 166 171
185 204 228
184 203 228
183 202 228
183 202 228
183 202 228
183 202 228
183 203 228
183 203 228
182 202 228
182 202 228
182 202 228
182 202 228
182 202 228
182 202 228
181 202 228
181 202 228
181 202 228
181 201 228
181 201 228
181 201 228
180 201 228
181 202 228
181 201 228
181 201 228
179 200 228
180 201 228
180 201 228
180 201 228
180 201 228
179 200 228
180 201 228
180 201 228
179 200 228
180 201 228
179 200 228
178 200 228
179 200 228
179 200 228
179 200 228
178 200 228
178 200 228
178 200 228
178 199 228
178 200 228
177 199 228
177 199 228
177 199 228
177 199 228
177 199 228
177 199 228
176 199 228
177 199 228
177 199 228
176 198 228
176 199 228
175 198 228
175 198 228
176 199 228
175 198 228
176 199 228
175 198 228
174 198 228
175 198 228
175 198 228
174 198 228
175 198 228
174 198 228
174 198 228
174 198 228
174 198 228
173 197 228
174 198 228
173 197 228
173 197 228
174 198 228
173 197 228
173 197 228
173 197 228
173 197 228
172 196 228
172 197 228
172 197 228
173 197 228
172 197 228
172 197 228
172 196 228
173 197 228
171 196 228
172 197 228
172 196 228
171 196 228
171 196 228
170 196 228
171 196 228
171 196 228
170 196 228
171 196 228
170 196 228
171 196 228
171 196 228
170 196 228
170 196 228
170 196 228
171 196 228
170 196 228
171 196 228
170 196 228
171 196 228
170 195 228
171 196 228
170 195 228
170 196 228
170 196 228
170 196 228
171 196 228
171 196 228
171 196 228
171 196 228
171 196 228
171 196 228
172 196 228
172 196 228
172 197 228
172 197 228
172 197 228
173 197 228
172 197 228
172 197 228
174 198 228
175 198 228
176 198 228
176 199 228
176 199 228
177 199 228
178 200 228
179 200 228
179 200 227
173 192 218
166 183 206
190 206 228
213 231 255
213 231 255
213 231 255
213 231 255
213 231 255
213 231 255
213 231 255
213 231 255
213 231 255
213 231 255
213 231 255
213 231 255
213 231 255
213 231 255
213 231 255
213 231 255
213 231 255
138 159 205
59 93 156
60 95 162
60 95 158
60 96 163
61 96 159
61 97 163
61 97 163
61 96 153
60 96 165
61 96 155
61 97 160
60 96 158
61 97 159
62 98 161
61 96 156
62 98 163
61 97 155
62 98 166
62 98 162
61 97 155
62 97 156
62 98 164
62 98 160
61 96 152
62 97 158
61 97 159
61 97 154
62 98 160
61 97 153
62 97 160
62 98 160
60 95 151
62 97 155
61 97 153
61 96 150
61 97 159
61 97 154
63 99 169
61 96 151
62 98 161
62 98 162
60 96 157
62 98 163
62 98 156
62 97 162
62 97 156
61 96 155
62 98 157
60 96 149
62 98 158
62 97 158
61 96 149
62 97 156
62 97 155
61 96 155
62 97 157
61 96 153
60 96 151
61 96 148
61 97 155
61 97 162
61 97 158
61 97 159
60 95 151
61 96 156
61 97 162
61 97 160
62 98 162
62 97 158
60 95 153
61 96 156
60 95 152
61 97 160
62 98 162
60 95 156
61 97 162
61 96 163
60 96 164
61 96 158
60 95 154
60 95 165
59 94 160
58 92 155
57 92 154
133 155 199
213 231 255
213 231 255
213 231 255
213 231 255
213 231 255
213 231 255
213 231 255
213 231 255
213 231 255
213 231 255
213 231 255
213 231 255
213 231 255
213 231 255
213 231 255
213 231 255
213 231 255
189 207 231
128 145 162
127 144 169
131 150 175
118 134 159
122 140 167
130 150 177
126 145 175
130 149 177
134 154 181
136 156 185
136 158 190
135 155 186
130 151 181
138 159 190
145 166 197
142 164 196
135 156 186
140 160 187
138 159 189
138 160 187
144 166 197
144 167 196
151 173 202
147 168 194
148 169 195
148 169 199
147 168 195
141 162 191
155 177 206
154 176 205
153 174 202
156 178 210
163 184 211
158 179 207
159 182 208
157 177 198
161 181 206
160 181 208
161 182 207
160 180 202
163 184 211
164 184 209
170 191 217
169 190 211
161 183 207
162 184 210
161 182 204
168 190 216
160 181 208
160 182 203
169 190 211
171 192 210
169 190 211
167 188 206
168 189 209
174 196 219
169 190 204
173 194 217
171 192 214
167 188 207
171 192 216
167 188 209
168 188 207
171 192 209
166 187 207
172 193 216
165 187 200
170 191 209
171 192 211
172 193 213
172 193 206
169 190 207
169 189 207
166 186 203
171 192 209
170 190 206
165 185 198
174 193 208
168 189 199
173 192 206
168 187 199
172 194 211
161 179 191
168 189 200
173 194 213
163 184 194
174 194 214
172 191 207
165 186 196
169 189 200
164 183 195
164 183 192
172 191 212
166 186 202
160 180 186
164 184 190
169 189 207
169 188 202
163 182 199
166 186 203
167 186 199
169 189 206
164 184 196
170 189 203
164 185 196
160 179 190
163 182 192
158 177 186
160 180 194
162 181 192
162 181 186
159 178 181
158 177 186
161 180 187
161 179 190
155 172 172
164 182 199
165 185 195
166 186 196
163 182 187
161 179 184
165 184 194
162 181 178
156 175 183
163 181 190
156 174 187
158 177 191
158 175 178
161 180 187
156 175 180
158 175 181
160 179 186
157 176 183
160 178 184
147 165 177
162 179 188
154 171 177
154 172 172
161 179 184
185 204 228
184 203 228
184 203 228
185 203 228
183 203 228
182 202 228
184 203 228
183 203 228
184 203 228
182 202 228
184 203 228
184 203 228
182 202 228
182 202 228
182 202 228
181 202 228
182 202 228
181 202 228
182 202 228
181 201 228
181 202 228
181 201 228
181 201 228
181 201 228
180 201 228
181 201 228
180 201 228
181 201 228
179 200 228
180 201 228
180 201 228
180 201 228
180 201 228
180 201 228
180 201 228
180 201 228
179 200 228
178 200 228
179 200 228
178 200 228
179 200 228
178 200 228
178 200 228
178 200 228
179 200 228
177 199 228
178 200 228
177 199 228
177 199 228
178 200 228
178 199 228
177 199 228
176 198 228
177 199 228
176 199 228
177 199 228
176 199 228
176 199 228
177 199 228
176 199 228
175 198 228
176 198 228
175 198 228
175 198 228
175 198 228
175 198 228
175 198 228
174 198 228
174 198 228
174 198 228
174 198 228
174 198 228
174 198 228
174 198 228
174 198 228
174 198 228
174 198 228
173 197 228
172 197 228
174 198 228
173 197 228
173 197 228
173 197 228
173 197 228
173 197 228
173 197 228
173 197 228
172 197 228
172 197 228
172 196 228
172 196 228
172 196 228
172 196 228
171 196 228
172 196 228
172 197 228
172 196 228
172 197 228
171 196 228
172 196 228
172 196 228
171 196 228
171 196 228
171 196 228
171 196 228
172 196 228
170 196 228
171 196 228
171 196 228
172 196 228
171 196 228
171 196 228
172 197 228
172 196 228
171 196 228
171 196 228
171 196 228
172 197 228
171 196 228
172 196 228
172 196 228
171 196 228
172 197 228
172 197 228
173 197 228
173 197 228
173 197 228
173 197 228
174 197 228
174 197 228
176 198 228
176 199 228
177 199 228
177 199 228
178 200 228
179 200 228
180 201 228
179 199 226
169 188 213
161 177 199
207 225 248
213 231 255
213 231 255
213 231 255
213 231 255
213 231 255
213 231 255
213 231 255
213 231 255
213 231 255
213 231 255
213 231 255
213 231 255
213 231 255
213 231 255
213 231 255
183 202 234
60 95 167
60 96 161
60 95 159
60 95 156
61 96 160
61 96 161
59 94 154
61 96 164
60 96 153
61 97 158
62 97 158
61 96 158
61 97 159
60 96 157
61 97 159
60 95 149
62 98 162
62 97 161
61 96 150
61 97 158
61 97 154
61 97 160
62 97 159
61 96 155
61 97 156
61 97 157
61 97 154
62 97 154
61 97 152
63 98 156
61 97 160
61 97 158
61 97 152
60 96 150
61 97 151
61 97 151
62 98 160
63 99 163
62 97 154
62 97 154
62 98 168
62 98 155
61 97 162
62 98 154
61 97 154
60 95 143
62 98 157
62 98 160
61 97 155
62 97 154
61 97 157
61 97 156
61 97 155
62 98 156
62 98 156
61 96 154
61 97 158
61 97 155
61 96 153
63 99 162
61 96 152
60 95 155
62 97 155
60 95 150
62 98 161
61 97 156
61 96 155
63 98 158
62 97 157
62 97 163
62 98 161
61 96 149
61 96 156
60 96 159
60 96 158
59 94 148
59 94 151
60 95 157
59 93 154
60 96 162
60 95 158
59 94 154
59 94 155
58 92 155
57 91 153
58 93 163
184 203 233
213 231 255
213 231 255
213 231 255
213 231 255
213 231 255
213 231 255
213 231 255
213 231 255
213 231 255
213 231 255
213 231 255
213 231 255
213 231 255
213 231 255
213 231 255
203 221 243
122 136 155
131 148 171
117 133 158
116 135 164
115 133 164
132 152 180
131 151 182
131 150 177
121 140 170
133 153 184
136 157 188
129 151 183
131 150 179
129 148 179
127 147 176
128 148 179
128 150 183
136 158 191
139 160 189
141 162 193
145 167 198
143 165 196
154 177 208
149 171 198
141 162 186
155 177 205
146 167 195
157 178 204
150 171 199
157 179 207
152 173 198
158 179 206
156 176 192
155 176 204
163 185 208
161 183 207
159 180 208
162 184 211
162 184 208
161 183 210
161 182 201
163 185 208
164 186 212
170 192 213
160 182 209
169 189 213
166 186 206
169 191 210
167 187 211
167 188 212
164 185 205
164 185 208
172 192 206
172 193 210
170 191 216
172 192 213
170 191 206
169 190 210
165 186 207
166 187 208
168 190 212
168 188 206
169 190 208
164 185 207
172 193 210
171 192 213
168 188 209
167 187 210
174 195 212
170 191 210
169 190 198
168 188 207
169 189 202
166 187 195
167 187 209
172 192 208
171 192 203
167 186 199
172 192 208
168 187 207
174 194 209
168 188 199
171 190 203
165 184 196
170 190 200
174 195 216
166 185 195
170 190 203
166 185 199
170 191 200
170 191 199
172 192 196
164 183 196
170 190 202
174 195 211
168 187 202
167 187 199
162 182 188
162 182 195
169 190 204
170 189 206
158 178 191
166 186 196
163 183 198
163 181 194
166 185 198
165 184 195
165 185 195
160 179 188
164 182 195
166 185 195
162 181 190
167 187 198
158 176 183
159 178 190
170 189 204
164 183 194
160 180 188
159 178 192
167 186 202
166 185 190
159 179 188
168 187 200
151 168 175
168 188 195
160 179 190
156 175 177
159 178 191
165 184 195
159 178 181
159 178 181
159 178 184
165 184 188
159 177 184
158 177 181
155 174 178
155 172 181
158 176 183
155 173 174
158 176 183
184 203 228
184 203 228
185 203 228
185 204 228
184 203 228
185 203 228
184 203 228
184 203 228
184 203 228
184 203 228
184 203 228
183 203 228
183 203 228
183 202 228
183 203 228
184 203 228
183 202 228
181 202 228
182 202 228
182 202 228
181 202 228
180 201 228
182 202 228
182 202 228
181 201 228
181 202 228
182 202 228
181 202 228
180 201 228
182 202 228
182 202 228
182 202 228
181 201 228
180 201 228
179 200 228
181 201 228
180 201 228
180 201 228
179 200 228
179 200 228
178 200 228
179 200 228
179 200 228
179 200 228
178 200 228
179 200 228
178 200 228
178 200 228
178 200 228
179 200 228
178 200 228
177 199 228
177 199 228
178 200 228
177 199 228
177 199 228
177 199 228
176 199 228
177 199 228
177 199 228
176 199 228
176 199 228
177 199 228
176 198 228
176 199 228
175 198 228
175 198 228
176 199 228
175 198 228
175 198 228
175 198 228
176 198 228
175 198 228
175 198 228
175 198 228
175 198 228
175 198 228
174 198 228
173 197 228
174 198 228
174 198 228
173 197 228
175 198 228
173 197 228
174 197 228
173 197 228
173 197 228
173 197 228
173 197 228
173 197 228
173 197 228
173 197 228
173 197 228
172 197 228
173 197 228
172 197 228
172 197 228
172 197 228
172 197 228
173 197 228
173 197 228
172 197 228
172 197 228
173 197 228
172 197 228
172 196 228
172 197 228
172 197 228
172 197 228
173 197 228
171 196 228
172 197 228
172 197 228
172 197 228
172 196 228
172 197 228
173 197 228
172 197 228
174 198 228
173 197 228
172 197 228
173 197 228
173 197 228
173 197 228
171 195 227
170 194 226
171 195 227
170 193 225
173 196 227
172 195 226
169 192 224
174 196 226
174 196 227
177 199 228
178 200 228
178 200 228
180 201 228
180 200 227
172 190 216
169 186 209
166 180 200
213 231 255
213 231 255
213 231 255
213 231 255
213 231 255
213 231 255
213 231 255
213 231 255
213 231 255
213 231 255
213 231 255
213 231 255
213 231 255
213 231 255
210 228 253
88 115 177
58 93 159
60 95 161
61 96 163
60 96 157
59 94 152
61 96 161
61 96 155
61 96 161
60 96 162
60 96 155
61 97 165
61 97 158
62 98 163
61 96 156
62 97 153
62 98 163
60 96 150
62 97 155
61 97 163
61 97 155
62 99 166
60 96 155
61 97 151
61 97 155
61 97 152
63 99 165
61 96 149
62 97 158
61 97 149
61 97 151
61 96 150
62 97 151
63 98 156
61 96 147
62 97 151
61 97 155
61 97 153
63 98 156
62 97 154
62 98 155
63 99 161
61 96 154
62 97 155
62 98 162
62 98 156
61 96 151
61 97 155
61 97 149
61 96 145
62 97 155
61 96 149
62 98 158
62 98 156
61 96 154
62 98 159
61 96 159
62 98 167
62 98 164
61 97 155
60 95 145
61 97 157
61 96 152
61 96 157
61 97 156
60 95 152
61 96 152
61 97 157
60 96 153
59 94 144
60 95 155
61 97 154
61 96 155
61 97 154
60 95 147
62 97 159
61 97 158
61 96 160
59 94 155
61 96 164
60 96 156
61 97 165
60 95 160
59 93 153
60 95 161
57 91 153
57 90 148
82 111 170
209 227 252
213 231 255
213 231 255
213 231 255
213 231 255
213 231 255
213 231 255
213 231 255
213 231 255
213 231 255
213 231 255
213 231 255
213 231 255
213 231 255
213 231 255
163 180 202
126 144 167
114 129 151
125 144 171
117 134 159
131 151 180
126 147 179
119 139 167
123 142 172
122 142 174
131 152 183
139 160 191
130 151 183
135 156 187
136 157 188
130 151 178
129 149 179
139 160 189
141 163 196
141 162 193
136 156 186
141 163 194
152 174 206
142 163 193
150 172 199
138 159 187
152 174 205
150 172 197
141 162 191
147 168 195
153 175 200
153 174 203
156 178 202
157 177 202
152 172 198
158 180 202
161 182 205
156 176 201
163 185 210
162 184 213
160 181 200
158 179 202
163 183 207
163 184 209
166 187 209
160 181 208
163 183 203
163 184 208
173 193 210
168 188 209
168 189 203
174 195 216
164 184 205
167 189 209
164 185 204
164 185 204
170 191 212
167 188 204
166 187 200
167 188 209
172 193 208
173 193 211
167 188 208
167 187 208
167 188 207
169 189 206
172 193 206
171 192 204
172 193 206
170 191 207
171 191 200
167 187 199
170 191 206
173 193 209
176 197 217
176 196 214
169 189 205
166 187 199
173 193 211
169 188 202
168 188 203
168 189 202
168 188 195
169 188 196
167 188 206
169 189 195
169 189 202
169 188 199
167 186 198
171 191 202
169 189 200
172 192 208
164 184 195
170 190 200
168 189 203
168 187 198
166 186 199
162 182 195
168 188 202
166 185 200
169 188 194
166 185 186
168 187 194
168 188 196
170 189 202
169 189 195
171 190 204
162 181 192
163 183 198
164 183 195
161 181 188
162 180 184
168 187 199
150 169 165
164 183 191
165 185 192
165 185 192
160 179 186
163 182 192
160 178 184
158 177 186
158 177 181
166 185 194
167 186 198
160 178 192
159 178 187
157 176 180
154 172 174
161 178 190
160 179 191
158 176 175
160 179 187
161 179 186
155 172 180
151 169 180
158 176 180
162 180 183
155 172 178
157 174 180
154 171 169
155 173 186
185 204 228
185 203 228
185 203 228
185 204 228
184 203 228
185 204 228
185 203 228
184 203 228
183 203 228
184 203 228
185 203 228
183 203 228
183 203 228
183 202 228
183 203 228
183 203 228
183 202 228
184 203 228
183 202 228
183 202 228
183 202 228
182 202 228
183 203 228
182 202 228
182 202 228
182 202 228
181 201 228
181 202 228
180 201 228
181 201 228
181 201 228
181 201 228
181 201 228
181 201 228
181 201 228
180 201 228
181 201 228
180 201 228
181 201 228
180 201 228
180 201 228
180 201 228
179 200 228
180 201 228
179 200 228
179 200 228
179 200 228
179 200 228
179 200 228
179 200 228
180 201 228
179 200 228
179 200 228
178 200 228
178 200 228
178 200 228
178 200 228
177 199 228
178 200 228
177 199 228
177 199 228
177 199 228
177 199 228
177 199 228
176 199 228
176 199 228
177 199 228
176 199 228
176 199 228
176 199 228
176 199 228
176 198 228
175 198 228
176 199 228
175 198 228
175 198 228
175 198 228
176 199 228
175 198 228
176 198 228
175 198 228
174 198 228
175 198 228
175 198 228
174 198 228
174 198 228
175 198 228
174 198 228
174 198 228
174 198 228
174 197 228
174 197 228
173 197 228
174 198 228
173 197 228
173 197 228
173 197 228
173 197 228
173 197 228
174 197 228
173 197 228
173 197 228
172 197 228
172 197 228
173 197 228
172 197 228
173 197 228
173 197 228
173 197 228
173 197 228
173 197 228
173 197 228
173 197 228
173 197 228
173 197 228
173 197 228
173 197 228
173 197 228
173 197 228
173 197 228
173 197 228
171 195 227
171 195 226
167 191 224
163 187 221
167 191 224
167 190 223
167 191 223
166 189 222
163 187 221
163 186 219
168 190 222
168 190 221
174 195 225
179 200 228
179 200 228
180 201 228
181 201 228
180 200 226
175 194 219
164 180 203
184 200 221
214 231 255
214 231 255
214 231 255
214 231 255
214 231 255
214 231 255
214 231 255
214 231 255
214 231 255
214 231 255
213 231 255
213 231 255
213 231 255
139 160 199
59 94 162
59 94 158
61 96 163
60 95 160
59 94 155
59 94 154
59 94 150
61 97 160
60 96 155
60 95 153
60 95 154
60 95 152
61 96 155
60 96 153
61 97 157
61 97 158
60 95 151
61 97 160
61 97 159
61 96 153
61 97 160
61 96 155
62 97 160
61 97 157
61 97 158
61 97 152
61 96 139
62 97 154
62 98 163
62 97 149
62 98 162
61 97 157
62 98 156
61 97 157
62 98 157
63 98 160
61 97 150
62 98 158
62 97 151
62 98 154
62 98 162
62 98 163
62 97 154
61 97 154
61 97 147
61 97 154
60 95 149
61 96 153
60 95 150
61 97 151
62 97 155
61 97 152
61 96 151
62 98 160
63 98 160
62 98 161
61 96 149
63 98 158
60 95 152
62 97 155
61 97 151
60 95 148
63 99 163
61 96 152
62 98 160
62 98 163
60 95 149
61 97 154
61 97 159
61 97 154
63 98 163
61 96 153
61 96 158
61 97 157
61 96 159
60 94 149
61 96 158
61 96 154
59 94 155
59 93 153
60 95 160
60 96 159
61 97 162
59 93 149
58 92 147
59 93 158
58 92 151
57 92 153
143 164 208
213 231 255
213 231 255
213 231 255
214 231 255
214 231 255
214 231 255
214 231 255
214 231 255
214 231 255
214 231 255
214 231 255
214 231 255
214 231 255
186 202 221
130 148 169
125 144 169
134 153 181
113 131 161
127 147 180
107 125 157
129 149 177
125 144 174
130 151 185
121 141 172
130 150 182
116 136 169
139 161 194
133 155 188
137 159 191
131 151 177
130 151 179
121 141 171
139 161 195
142 163 191
138 159 189
144 166 196
143 164 192
137 159 189
149 170 195
147 169 199
151 172 203
150 171 195
148 170 195
154 173 197
155 176 202
153 175 198
157 179 201
161 182 203
152 174 198
158 179 198
162 183 210
160 181 202
152 173 197
157 177 199
162 185 212
163 185 204
163 184 210
162 184 209
167 188 206
158 179 197
164 186 209
171 192 213
159 181 204
164 186 204
160 180 201
171 192 213
169 190 203
166 187 203
168 189 207
168 189 203
175 196 218
169 190 207
171 193 212
171 192 211
169 189 209
169 189 206
168 188 202
168 189 200
171 192 209
170 191 208
172 192 204
170 191 208
175 195 212
171 192 209
171 192 206
172 193 214
172 192 207
171 191 208
171 192 207
170 191 209
171 192 204
166 187 199
170 190 198
168 187 194
171 190 207
172 193 208
167 188 198
171 191 204
168 189 204
172 191 206
172 193 213
166 186 195
167 187 204
173 193 207
171 191 200
169 188 195
169 188 196
166 186 196
164 185 199
167 187 198
166 186 194
162 181 190
171 190 202
170 191 196
169 190 203
169 189 199
165 184 192
166 184 194
170 189 192
163 183 184
169 189 199
164 183 196
158 177 186
165 183 191
170 189 199
161 181 181
164 184 186
165 184 192
160 179 194
162 182 192
167 186 195
170 189 195
159 177 181
156 174 169
159 179 188
170 189 196
162 181 194
151 169 175
163 182 194
162 181 181
164 182 184
150 168 171
156 175 191
159 178 171
158 177 180
157 176 183
155 173 169
154 173 177
158 176 177
152 170 174
158 177 183
150 168 175
155 174 169
157 175 181
159 179 178
186 204 228
187 204 228
187 204 228
184 203 228
185 203 228
185 203 228
184 203 228
184 203 228
185 203 228
185 203 228
185 203 228
185 204 228
183 203 228
184 203 228
183 202 228
184 203 228
184 203 228
183 202 228
184 203 228
182 202 228
184 203 228
183 202 228
183 202 228
183 202 228
183 202 228
183 203 228
183 202 228
182 202 228
182 202 228
182 202 228
182 202 228
182 202 228
181 201 228
181 201 228
181 201 228
180 201 228
180 201 228
180 201 228
180 201 228
182 202 228
181 201 228
181 201 228
180 201 228
180 201 228
180 201 228
180 201 228
180 201 228
181 201 228
179 200 228
180 201 228
178 200 228
179 200 228
180 201 228
179 200 228
179 200 228
179 200 228
178 200 228
179 200 228
177 199 228
178 200 228
179 200 228
179 200 228
178 200 228
177 199 228
178 200 228
177 199 228
177 199 228
177 199 228
178 199 228
177 199 228
176 199 228
176 198 228
177 199 228
176 199 228
176 199 228
176 199 228
176 199 228
176 199 228
177 199 228
176 199 228
175 198 228
176 199 228
176 198 228
175 198 228
175 198 228
174 198 228
174 198 228
176 199 228
174 197 228
174 198 228
175 198 228
175 198 228
174 198 228
175 198 228
174 197 228
174 197 228
173 197 228
174 198 228
174 197 228
175 198 228
174 198 228
174 198 228
173 197 228
173 197 228
174 197 228
174 197 228
173 197 228
174 197 228
173 197 228
174 197 228
173 197 228
174 198 228
174 197 228
173 197 228
174 197 228
173 197 228
174 197 228
174 198 228
174 197 228
173 197 228
169 193 226
167 191 224
169 193 225
162 186 220
163 186 219
156 180 216
160 184 219
158 182 216
155 178 214
164 187 220
161 184 218
158 181 216
166 189 220
168 191 222
167 189 221
172 193 224
179 200 228
180 201 228
181 202 228
181 200 225
161 178 200
166 182 204
202 219 241
214 231 255
214 231 255
214 231 255
214 231 255
214 231 255
214 231 255
214 231 255
214 231 255
214 231 255
214 231 255
214 231 255
198 217 245
62 96 165
59 94 163
60 96 163
59 93 159
61 96 158
61 96 158
60 95 155
61 97 161
60 95 159
60 96 156
62 97 165
60 96 152
61 96 159
61 96 152
61 97 155
61 97 155
61 96 155
61 96 152
60 96 151
61 96 146
61 96 154
60 96 158
62 97 154
62 97 159
61 96 149
59 95 149
62 98 158
61 96 146
61 96 152
62 98 161
61 96 151
60 96 151
61 96 151
62 97 156
61 96 149
61 97 156
60 96 149
62 98 154
62 97 163
61 96 153
62 97 155
61 97 154
62 97 155
62 98 162
61 97 157
62 98 162
60 96 152
60 95 142
60 96 150
61 97 158
61 97 155
60 96 144
62 98 159
61 97 156
61 96 151
62 98 159
61 96 151
61 97 157
61 96 154
61 96 154
62 98 156
60 95 145
61 97 156
62 97 154
61 96 154
62 98 160
61 97 158
61 97 150
61 96 155
61 96 153
61 97 154
61 97 162
61 96 151
61 97 156
59 94 150
60 95 147
60 96 157
60 95 152
60 95 155
61 96 156
59 93 148
62 97 157
59 93 155
61 96 155
60 95 161
57 92 151
57 91 153
57 91 151
58 93 158
62 96 164
201 219 244
214 231 255
214 231 255
214 231 255
214 231 255
214 231 255
214 231 255
214 231 255
214 231 255
214 231 255
214 231 255
214 231 255
205 222 245
135 153 172
119 137 160
116 134 164
123 142 171
112 131 162
118 138 169
130 150 180
124 143 173
118 137 168
127 148 180
129 149 179
121 142 173
118 139 173
129 150 183
121 142 173
129 150 181
136 158 191
121 142 178
142 163 193
142 163 195
137 159 187
135 156 187
142 163 192
150 171 199
147 169 197
152 174 201
151 172 203
149 169 192
149 170 196
154 174 197
155 177 204
149 170 196
154 174 196
156 177 203
163 183 207
157 178 200
157 178 205
154 176 201
158 179 205
152 172 196
162 184 206
155 175 197
164 186 212
164 186 209
167 187 204
162 183 201
164 186 209
168 190 210
167 188 209
168 189 208
167 188 207
169 191 211
169 189 210
173 193 217
171 192 212
171 192 212
170 191 211
165 185 201
164 185 204
175 195 210
169 190 200
173 193 213
174 195 212
173 193 207
169 191 204
169 190 203
172 191 206
168 189 203
168 189 204
165 186 196
170 191 209
171 192 209
172 192 204
169 189 204
171 192 196
163 183 191
174 194 204
173 193 207
169 190 204
167 187 204
168 188 200
171 192 207
168 187 198
172 193 207
174 194 207
170 190 207
170 190 206
169 188 194
172 192 203
168 188 191
164 183 194
170 190 200
168 188 186
172 192 207
164 183 190
161 181 188
164 183 187
168 188 188
170 190 196
166 185 195
168 188 200
167 187 198
166 186 191
165 185 194
156 176 181
166 185 188
171 191 199
165 184 194
170 190 199
166 184 187
162 182 186
161 180 184
165 184 194
164 183 194
165 184 192
167 187 194
164 183 190
160 180 194
159 177 191
165 185 188
169 189 198
158 176 178
161 178 187
168 187 195
161 179 188
161 180 188
163 182 196
164 182 188
168 188 196
156 174 175
161 179 190
160 178 175
165 184 188
155 172 184
163 182 192
165 184 187
156 175 183
157 177 181
160 178 183
162 181 184
153 171 172
156 174 172
187 205 228
186 204 228
185 204 228
185 203 228
186 204 228
185 203 228
186 204 228
185 204 228
185 204 228
185 203 228
185 203 228
185 204 228
183 202 228
186 204 228
184 203 228
185 203 228
185 203 228
184 203 228
184 203 228
184 203 228
184 203 228
184 203 228
184 203 228
183 203 228
184 203 228
184 203 228
183 202 228
184 203 228
183 202 228
182 202 228
182 202 228
182 202 228
182 202 228
182 202 228
181 201 228
181 201 228
182 202 228
181 202 228
182 202 228
181 201 228
182 202 228
182 202 228
181 201 228
181 201 228
182 202 228
181 201 228
180 201 228
180 201 228
181 201 228
181 201 228
181 201 228
180 201 228
179 201 228
178 200 228
179 200 228
179 200 228
179 200 228
178 200 228
178 200 228
178 200 228
178 200 228
178 200 228
178 200 228
177 199 228
178 200 228
178 200 228
178 200 228
178 200 228
178 200 228
178 200 228
177 199 228
179 200 228
177 199 228
177 199 228
178 200 228
177 199 228
177 199 228
178 199 228
178 200 228
177 199 228
176 199 228
176 199 228
176 199 228
177 199 228
177 199 228
176 199 228
176 199 228
175 198 228
175 198 228
176 198 228
175 198 228
176 198 228
175 198 228
175 198 228
174 198 228
174 198 228
175 198 228
174 197 228
175 198 228
175 198 228
174 198 228
175 198 228
174 198 228
175 198 228
174 198 228
174 198 228
175 198 228
175 198 228
174 198 228
174 198 228
174 198 228
174 198 228
174 198 228
174 198 228
174 198 228
174 198 228
175 198 228
174 197 228
173 197 228
173 196 227
169 192 224
167 190 223
164 187 221
162 185 220
159 182 217
150 174 211
155 179 214
154 178 212
153 176 211
143 166 203
155 178 214
160 183 217
150 173 209
160 182 214
157 179 214
165 186 218
175 196 225
178 198 227
181 202 228
183 202 228
177 196 220
170 188 211
178 194 216
214 232 255
214 232 255
214 232 255
214 232 255
214 232 255
214 232 255
214 232 255
214 232 255
214 232 255
214 232 255
214 232 255
123 145 190
59 94 165
59 94 158
57 92 154
61 96 156
60 94 157
59 95 158
61 96 160
60 95 155
60 95 150
60 95 149
60 95 153
61 96 158
62 97 156
61 96 154
61 97 156
61 97 160
62 98 160
61 96 157
61 96 148
61 96 149
62 97 151
61 97 156
61 97 154
61 97 153
61 97 149
61 96 154
61 96 150
62 97 159
61 96 148
61 96 153
62 97 153
61 97 157
63 99 161
61 97 152
60 95 149
61 96 153
62 98 157
61 96 148
62 97 152
61 96 150
62 98 155
61 96 147
61 97 149
62 97 151
62 97 150
60 96 145
61 97 156
61 97 150
62 98 154
63 99 166
62 98 155
61 96 147
60 95 150
61 96 153
61 97 155
61 97 149
62 97 150
61 97 154
62 98 154
61 96 147
60 96 142
61 96 155
62 98 157
61 97 157
60 95 155
61 97 160
60 95 149
62 97 160
61 96 157
60 95 145
62 98 161
61 97 163
60 95 147
60 96 156
61 96 157
59 93 144
60 95 153
60 96 152
60 95 157
61 96 163
59 93 150
59 94 147
58 93 151
60 95 154
59 94 157
59 93 149
60 94 154
58 92 151
57 91 160
58 92 159
119 140 184
214 232 255
214 232 255
214 232 255
214 232 255
214 232 255
214 232 255
214 232 255
214 232 255
214 232 255
214 232 255
214 232 255
161 178 200
116 132 155
109 126 146
129 147 171
104 123 154
125 144 174
119 139 168
116 135 167
122 143 176
126 146 177
129 150 181
119 139 169
121 141 173
126 147 178
142 163 192
129 151 181
135 157 192
118 138 167
136 157 187
134 154 183
134 156 186
134 154 186
145 166 195
141 162 189
146 168 198
145 165 188
140 162 193
143 163 192
151 174 201
149 170 199
152 174 198
153 174 194
154 174 195
162 183 203
154 175 202
154 176 200
157 178 201
155 176 195
161 181 202
161 183 205
158 179 204
162 183 208
164 185 205
160 181 201
158 179 198
168 189 210
165 186 204
163 184 202
169 190 209
164 184 204
166 187 205
169 190 208
169 190 205
164 185 204
169 191 211
171 192 206
167 188 207
167 188 202
171 190 207
172 193 210
167 188 203
173 194 209
170 190 207
174 194 209
172 192 207
171 191 210
167 188 208
168 187 199
175 195 213
171 192 206
174 195 212
169 190 205
167 187 205
173 193 208
171 191 207
173 194 208
170 191 205
168 189 202
169 190 208
172 193 204
166 186 198
172 192 206
170 190 200
166 186 194
170 189 196
172 192 208
173 192 202
175 195 203
169 189 199
166 186 188
172 191 198
167 188 200
167 187 203
168 189 198
169 191 204
169 189 200
169 188 200
172 191 203
169 189 200
166 186 194
164 184 180
169 188 199
167 185 194
165 185 188
168 187 203
167 186 190
164 183 194
171 189 196
166 185 187
165 184 188
169 188 200
164 183 181
165 184 187
166 186 187
163 182 187
166 185 192
169 188 194
165 184 192
160 179 177
160 179 190
164 183 190
166 185 194
162 181 188
166 185 191
162 181 184
158 177 191
164 182 190
164 183 184
159 177 178
154 171 174
153 170 180
151 170 171
160 179 186
154 173 177
163 182 183
156 173 181
163 183 184
152 171 168
154 172 178
155 173 172
157 175 184
156 173 175
161 180 174
187 204 228
185 204 228
186 204 228
186 204 228
186 204 228
185 203 228
185 204 228
185 204 228
186 204 228
185 203 228
183 203 228
185 203 228
184 203 228
184 203 228
185 204 228
185 203 228
184 203 228
184 203 228
185 204 228
184 203 228
185 203 228
184 203 228
184 203 228
184 203 228
182 202 228
183 202 228
184 203 228
183 203 228
182 202 228
183 203 228
183 202 228
183 202 228
182 202 228
182 202 228
182 202 228
183 202 228
181 202 228
183 202 228
182 202 228
183 202 228
181 201 228
183 202 228
182 202 228
182 202 228
182 202 228
182 202 228
181 201 228
182 202 228
181 201 228
181 201 228
181 201 228
180 201 228
180 201 228
180 201 228
181 202 228
180 201 228
179 200 228
180 201 228
181 201 228
180 201 228
179 200 228
179 200 228
179 200 228
180 201 228
179 200 228
178 200 228
179 200 228
179 200 228
178 200 228
178 200 228
179 200 228
179 200 228
178 200 228
178 200 228
179 200 228
178 200 228
179 200 228
177 199 228
177 199 228
178 200 228
177 199 228
177 199 228
178 200 228
177 199 228
177 199 228
177 199 228
177 199 228
176 199 228
176 199 228
177 199 228
176 199 228
176 199 228
176 199 228
175 198 228
177 199 228
176 199 228
176 199 228
175 198 228
175 198 228
176 199 228
175 198 228
176 198 228
175 198 228
176 199 228
176 198 228
175 198 228
174 198 228
175 198 228
175 198 228
176 199 228
175 198 228
175 198 228
175 198 228
176 198 228
176 199 228
175 198 228
176 198 228
174 196 227
167 190 222
164 187 220
158 181 215
163 186 219
159 182 217
161 185 218
150 173 209
144 168 207
147 171 209
150 173 208
145 168 205
144 167 205
139 162 200
143 166 205
136 159 198
153 175 209
150 172 208
163 185 217
165 187 219
168 189 219
173 193 222
182 202 228
183 201 226
181 198 223
162 179 200
203 220 243
215 232 255
215 232 255
215 232 255
214 232 255
214 232 255
214 232 255
214 232 255
214 232 255
214 232 255
203 221 246
61 95 159
58 93 159
58 92 155
60 95 156
59 94 155
58 92 146
60 95 155
61 96 155
60 95 147
59 94 145
61 96 158
60 96 156
61 96 156
61 97 157
62 97 151
61 96 150
60 96 143
61 96 154
62 97 154
61 96 151
61 96 156
61 97 158
60 95 151
61 96 149
60 95 150
62 97 155
61 97 156
61 96 154
61 96 151
62 98 158
62 97 156
61 97 155
61 97 153
61 97 155
62 97 156
62 97 155
62 97 156
61 96 149
62 98 155
62 97 154
62 97 154
61 96 149
62 97 153
62 98 156
61 96 142
61 96 147
62 98 157
62 97 159
61 97 154
61 97 153
62 97 151
61 97 152
61 96 152
61 97 153
60 96 147
62 97 160
62 97 154
61 96 154
61 97 151
61 96 155
62 97 155
60 95 150
62 97 154
61 97 154
61 96 153
60 95 154
62 98 156
61 97 155
61 97 150
61 97 160
61 96 144
60 94 146
61 96 155
61 96 154
61 96 155
59 94 147
60 95 148
61 97 161
61 96 153
59 93 149
60 95 158
60 94 155
61 96 156
60 95 158
57 91 146
59 93 158
59 94 149
59 93 154
59 94 161
59 94 161
56 90 154
65 97 158
195 213 239
214 232 255
214 232 255
214 232 255
214 232 255
214 232 255
214 232 255
215 232 255
215 232 255
215 232 255
194 212 231
121 138 154
115 133 150
108 124 149
120 138 166
118 137 170
117 136 164
123 142 172
118 138 170
119 139 169
122 142 175
114 133 164
123 143 174
119 141 177
131 151 182
123 143 176
138 159 189
126 148 180
126 147 178
133 154 184
127 147 181
139 160 184
134 155 181
140 161 184
135 156 179
141 161 189
146 167 194
153 174 200
148 168 195
143 164 193
143 165 192
157 178 201
151 171 195
149 170 193
157 178 200
159 180 211
157 177 196
157 177 198
152 172 190
165 186 211
160 181 205
157 178 196
163 184 196
156 177 194
168 189 208
161 183 202
163 184 200
167 188 207
167 187 205
165 185 203
169 190 213
166 186 200
168 188 203
170 190 205
165 187 201
164 185 199
166 187 209
168 188 210
168 188 196
171 192 211
169 188 200
168 189 204
174 193 216
167 188 195
173 192 209
175 195 208
174 194 206
170 190 194
166 186 201
171 192 209
174 195 213
170 191 193
170 190 200
168 187 196
171 191 200
172 193 204
169 188 192
169 189 206
171 192 204
173 194 203
175 195 206
172 192 206
173 193 205
170 191 198
170 189 200
169 189 203
175 195 207
168 189 198
170 190 195
169 189 203
168 188 192
170 190 198
165 185 191
167 186 194
167 188 199
173 192 199
171 190 187
164 184 187
167 186 198
164 183 192
167 186 191
168 187 191
166 187 192
165 186 191
169 188 194
168 188 198
163 182 191
167 187 200
162 181 188
165 184 186
167 187 188
165 183 191
166 185 188
160 179 183
164 183 188
161 181 181
167 187 187
168 187 190
158 177 178
169 187 192
162 181 175
165 184 194
158 176 183
166 186 188
165 184 198
163 182 190
160 179 186
161 180 183
167 186 195
163 181 190
161 179 181
161 180 184
162 180 181
160 177 181
156 174 183
156 175 169
160 177 175
155 173 172
157 175 174
160 178 181
163 182 186
165 182 180
154 173 172
163 180 174
186 204 228
187 204 228
187 205 228
187 204 228
187 205 228
186 204 228
188 205 228
186 204 228
186 204 228
187 204 228
186 204 228
186 204 228
185 204 228
186 204 228
185 204 228
185 204 228
185 204 228
185 204 228
185 204 228
186 204 228
184 203 228
185 204 228
184 203 228
186 204 228
184 203 228
184 203 228
185 203 228
184 203 228
184 203 228
183 203 228
184 203 228
183 203 228
183 203 228
184 203 228
184 203 228
182 202 228
182 202 228
182 202 228
182 202 228
183 202 228
183 202 228
182 202 228
182 202 228
182 202 228
182 202 228
182 202 228
182 202 228
182 202 228
182 202 228
181 201 228
180 201 228
181 201 228
181 201 228
181 201 228
181 201 228
181 201 228
180 201 228
180 201 228
181 201 228
181 201 228
181 201 228
181 201 228
180 201 228
180 201 228
179 200 228
179 200 228
179 200 228
180 201 228
180 201 228
180 201 228
179 200 228
178 200 228
179 200 228
179 200 228
178 199 228
179 200 228
178 200 228
180 201 228
178 200 228
177 199 228
178 200 228
177 199 228
178 200 228
178 200 228
177 199 228
177 199 228
177 199 228
178 200 228
177 199 228
177 199 228
178 200 228
177 199 228
177 199 228
178 200 228
177 199 228
177 199 228
177 199 228
177 199 228
177 199 228
177 199 228
176 199 228
176 199 228
177 199 228
177 199 228
176 199 228
176 199 228
175 198 228
177 199 228
176 199 228
177 199 228
177 199 228
176 199 228
176 199 228
177 199 228
175 198 228
174 196 227
172 195 226
171 194 226
166 189 220
167 190 221
166 189 222
154 177 210
154 177 211
155 178 214
148 171 208
145 168 204
143 167 205
143 166 203
135 159 200
132 156 198
135 159 199
130 153 195
149 172 207
138 160 198
140 163 202
146 168 204
147 168 203
156 177 212
168 189 219
174 194 223
183 202 228
181 200 225
173 189 212
165 179 198
214 231 255
215 232 255
215 232 255
215 232 255
215 232 255
215 232 255
215 232 255
215 232 255
215 232 255
156 175 211
58 93 154
58 93 154
59 94 155
58 93 149
59 94 154
58 93 147
61 96 160
61 96 158
60 96 154
60 95 158
61 96 154
59 94 149
60 95 149
61 96 157
61 96 155
60 95 145
59 94 139
61 96 158
61 96 156
61 96 152
61 97 158
61 97 154
61 97 154
61 96 151
61 97 151
60 96 154
60 95 144
61 96 154
61 97 154
61 97 154
62 97 153
61 97 148
62 97 155
60 95 145
62 97 154
61 97 155
61 96 151
62 98 156
61 97 150
61 96 151
61 97 150
62 97 151
62 97 152
60 96 144
61 97 152
62 97 157
61 96 150
62 97 156
61 97 150
61 97 152
61 96 147
61 97 148
61 96 152
61 97 151
61 97 152
61 97 150
60 95 142
61 96 153
61 96 151
61 96 148
61 97 153
61 96 151
61 97 157
61 97 161
60 95 141
62 98 159
60 96 144
61 96 145
60 96 147
61 96 151
61 97 158
61 97 160
61 96 154
60 95 150
61 96 154
60 95 149
60 95 147
60 95 156
58 93 147
60 95 154
60 96 155
61 97 161
60 95 154
59 94 143
59 93 151
59 94 150
58 93 156
61 96 162
59 93 148
58 92 153
57 91 148
56 89 152
142 161 202
215 232 255
215 232 255
215 232 255
215 232 255
215 232 255
215 232 255
215 232 255
215 232 255
214 231 255
142 158 174
124 141 160
118 136 159
129 148 179
122 141 170
112 132 165
113 132 165
102 121 155
109 128 160
117 137 169
109 129 164
113 134 170
118 138 168
124 145 179
118 139 172
118 140 174
144 166 196
131 152 183
131 153 184
142 162 185
133 154 182
128 148 176
135 157 188
133 154 187
142 163 194
145 167 196
135 157 184
148 169 193
149 171 198
146 166 189
153 175 202
154 174 198
153 174 192
154 175 201
154 175 197
165 185 208
150 171 193
155 177 200
156 176 199
162 183 208
162 183 198
161 182 197
160 181 198
164 185 201
170 191 209
155 175 194
160 181 199
164 186 207
168 189 209
164 184 197
162 182 198
163 183 195
162 183 192
164 186 203
173 194 212
164 184 198
169 190 207
165 185 199
168 188 195
170 191 208
170 190 206
168 189 205
168 187 200
170 191 207
170 190 199
172 192 205
170 190 204
173 194 205
174 194 201
174 195 209
172 193 206
168 190 200
171 192 203
171 191 204
169 190 199
170 189 192
173 193 208
172 192 196
173 194 203
173 193 205
168 188 198
174 194 207
174 194 204
171 192 206
171 190 201
169 189 195
172 192 204
172 191 198
172 191 202
169 188 202
168 188 196
170 190 198
168 188 192
167 186 194
171 191 202
168 187 186
164 184 195
169 189 204
165 185 192
171 191 198
168 187 188
174 193 204
172 192 194
171 191 200
165 184 191
158 177 181
163 182 181
166 185 188
174 194 200
166 186 196
170 189 200
163 182 188
160 180 184
165 184 192
166 185 191
164 183 184
162 181 177
168 187 183
169 190 198
160 179 175
162 180 175
168 186 196
168 188 195
164 183 187
162 182 198
169 188 196
161 181 184
164 182 188
166 185 191
162 180 194
157 176 174
157 176 178
162 180 186
159 178 177
160 178 178
165 183 183
159 178 175
159 178 180
154 172 180
160 178 180
152 169 168
157 177 166
162 179 180
152 169 177
187 205 228
188 205 228
187 205 228
187 205 228
187 205 228
187 204 228
187 205 228
187 204 228
187 205 228
186 204 228
187 205 228
186 204 228
186 204 228
186 204 228
186 204 228
185 204 228
186 204 228
185 204 228
186 204 228
185 204 228
185 203 228
184 203 228
186 204 228
185 203 228
184 203 228
185 204 228
185 204 228
185 203 228
185 203 228
184 203 228
185 203 228
184 203 228
184 203 228
184 203 228
184 203 228
183 202 228
183 203 228
183 202 228
183 203 228
183 203 228
183 203 228
183 202 228
183 202 228
183 203 228
183 202 228
182 202 228
182 202 228
182 202 228
183 202 228
183 202 228
182 202 228
181 202 228
182 202 228
182 202 228
182 202 228
182 202 228
181 202 228
181 202 228
181 201 228
181 201 228
182 202 228
181 201 228
181 201 228
180 201 228
180 201 228
181 201 228
179 200 228
181 201 228
180 201 228
180 201 228
180 201 228
179 201 228
180 201 228
179 200 228
179 200 228
180 201 228
180 201 228
178 200 228
179 200 228
178 200 228
180 201 228
179 200 228
179 200 228
178 200 228
179 200 228
178 200 228
179 200 228
178 200 228
178 200 228
177 199 228
178 200 228
178 200 228
178 200 228
178 200 228
178 200 228
177 199 228
178 200 228
178 200 228
178 200 228
178 200 228
177 199 228
178 199 228
178 200 228
178 200 228
178 200 228
178 199 228
177 199 228
178 200 228
177 199 228
178 200 228
177 199 228
177 199 228
177 199 228
178 200 228
177 199 228
172 195 226
171 194 224
166 189 220
163 185 218
156 179 212
159 182 216
151 174 209
150 174 209
145 168 204
141 164 202
139 163 201
141 164 202
124 148 192
134 157 197
123 147 189
129 152 194
138 161 199
137 160 198
127 149 190
130 153 193
146 168 204
136 158 198
142 164 201
152 173 208
158 178 211
174 193 222
183 201 226
179 196 219
165 180 200
199 215 237
215 232 255
215 232 255
215 232 255
215 232 255
215 232 255
215 232 255
215 232 255
207 224 249
70 100 160
56 90 153
60 95 158
60 95 160
58 93 151
60 95 158
60 95 155
60 95 154
59 93 151
59 95 155
60 94 155
60 95 146
61 96 146
61 96 152
61 96 150
61 96 155
62 98 161
61 96 160
61 96 153
61 96 149
60 95 153
61 96 156
61 97 156
62 98 159
60 95 146
62 97 155
61 96 147
61 96 153
61 95 147
60 95 148
62 97 151
61 97 147
60 94 137
61 96 148
62 97 153
60 95 142
62 98 157
60 96 145
61 96 147
62 98 152
61 97 153
60 95 147
62 98 156
62 98 154
60 95 149
61 97 150
61 96 143
62 98 157
61 96 148
61 97 154
61 97 156
61 97 149
61 97 155
62 97 150
62 98 159
61 97 149
61 96 147
62 97 152
61 96 149
61 97 151
62 97 154
59 94 143
60 96 150
62 97 154
60 95 142
60 96 150
61 96 149
60 95 145
60 95 143
61 97 156
61 96 156
61 96 150
62 98 159
60 96 146
61 96 157
61 96 159
60 95 153
61 96 153
59 93 142
60 94 154
60 95 153
59 94 148
59 94 153
59 93 144
59 93 146
60 95 151
58 92 151
58 92 147
58 92 153
59 94 155
59 93 153
58 92 156
57 90 152
57 88 145
209 226 251
215 232 255
215 232 255
215 232 255
215 232 255
215 232 255
215 232 255
215 232 255
195 211 232
111 126 141
111 128 153
117 136 165
108 128 160
109 128 160
109 128 158
108 128 162
107 126 158
110 130 165
112 131 164
128 149 181
110 130 164
120 140 172
129 150 183
112 132 167
136 157 187
117 136 162
133 153 179
125 146 177
131 151 178
136 156 183
135 156 183
140 162 193
139 160 184
144 164 190
139 158 184
153 173 194
150 170 191
146 166 186
141 162 188
147 168 191
153 175 196
160 181 203
156 177 191
156 177 199
162 183 201
155 178 196
156 176 193
154 175 194
160 181 202
161 182 204
162 182 202
156 177 200
155 175 189
167 187 206
165 185 201
169 190 205
160 181 198
171 190 211
167 187 203
167 188 203
165 185 198
170 191 208
163 184 197
170 190 200
165 186 193
165 186 201
164 185 202
168 189 204
171 192 208
169 189 200
161 182 194
167 188 192
171 191 196
166 187 193
169 189 202
174 194 208
167 186 196
168 189 205
172 193 204
169 190 201
175 195 208
172 192 204
171 192 200
171 191 204
173 194 202
171 190 195
166 185 184
170 190 197
166 187 192
173 192 203
167 188 191
171 191 202
170 190 199
169 188 196
171 190 188
167 186 199
170 190 199
168 188 198
169 189 196
173 193 199
169 189 203
171 191 200
169 189 195
169 189 200
167 187 190
170 189 194
170 189 202
168 187 194
167 186 196
163 182 180
172 192 203
166 185 190
171 191 196
167 185 192
171 190 191
163 181 188
169 188 191
164 185 188
168 188 192
170 188 200
165 184 190
163 183 191
164 182 186
167 186 188
163 182 186
166 186 196
165 184 191
165 183 190
166 186 192
160 178 177
168 188 187
157 176 181
155 174 178
167 185 187
163 182 177
166 184 191
164 182 178
163 182 188
165 183 184
155 173 168
150 168 166
160 178 174
163 181 171
162 181 175
165 183 188
152 170 175
161 179 175
159 177 178
158 176 171
168 186 187
163 181 184
155 173 175
165 182 184
188 205 228
187 205 228
189 206 228
188 205 228
187 205 228
188 205 228
188 205 228
187 205 228
187 205 228
187 205 228
187 205 228
187 205 228
186 204 228
186 204 228
186 204 228
186 204 228
186 204 228
186 204 228
186 204 228
186 204 228
186 204 228
186 204 228
185 203 228
186 204 228
185 204 228
186 204 228
185 203 228
186 204 228
185 204 228
185 204 228
185 203 228
184 203 228
184 203 228
184 203 228
184 203 228
184 203 228
184 203 228
184 203 228
184 203 228
184 203 228
185 204 228
184 203 228
184 203 228
184 203 228
183 203 228
183 202 228
183 202 228
184 203 228
183 203 228
184 203 228
183 202 228
183 202 228
183 202 228
183 202 228
182 202 228
183 202 228
182 202 228
182 202 228
182 202 228
182 202 228
182 202 228
182 202 228
181 202 228
182 202 228
182 202 228
181 201 228
181 202 228
181 201 228
181 201 228
180 201 228
182 202 228
180 201 228
180 201 228
180 201 228
181 201 228
180 201 228
181 201 228
180 201 228
180 201 228
179 200 228
180 201 228
180 201 228
180 201 228
179 200 228
180 201 228
179 200 228
179 201 228
179 200 228
179 200 228
180 201 228
179 200 228
179 200 228
178 200 228
179 200 228
179 200 228
180 201 228
179 200 228
179 200 228
179 200 228
178 200 228
178 200 228
179 200 228
178 200 228
178 200 228
178 200 228
178 200 228
178 200 228
178 200 228
178 200 228
179 200 228
178 200 228
178 200 228
178 200 228
178 200 228
174 197 227
172 194 224
171 193 222
166 188 219
163 185 215
155 178 211
153 175 210
141 164 199
139 163 201
132 156 194
136 160 197
140 163 201
138 161 200
128 151 195
123 146 186
119 142 185
119 143 188
108 131 179
121 145 186
127 149 189
119 142 185
124 147 188
132 153 193
141 162 198
149 170 204
153 173 207
163 183 213
175 194 221
184 202 227
173 190 212
161 175 194
215 232 255
215 232 255
215 232 255
215 232 255
215 232 255
215 232 255
215 232 255
173 191 222
57 92 157
58 92 154
58 93 157
59 94 154
59 94 148
59 94 153
60 95 148
61 96 161
60 95 155
61 96 153
60 95 148
59 94 143
60 95 149
60 95 147
61 96 154
60 95 147
60 95 148
60 95 144
61 96 154
61 96 148
61 96 149
60 96 149
61 96 151
60 95 138
60 96 145
61 97 152
62 97 154
60 95 139
60 95 147
62 97 151
61 97 154
62 97 155
62 98 156
61 96 146
61 97 151
60 96 147
62 97 150
62 98 157
60 95 139
61 97 152
61 96 145
60 96 153
61 96 149
61 97 154
60 95 147
62 97 154
61 96 152
61 97 150
60 95 145
61 96 149
61 96 148
60 96 150
61 97 151
61 96 144
62 98 155
60 96 144
61 96 145
60 95 149
61 96 148
61 97 154
60 96 150
60 95 150
60 95 147
61 96 156
62 97 151
60 95 141
61 97 152
61 96 149
60 95 148
60 95 141
62 98 156
60 95 148
61 97 157
60 94 151
59 94 148
61 96 156
61 96 154
60 96 149
59 93 142
59 93 143
60 95 152
59 93 143
61 96 153
58 93 142
59 94 150
60 95 154
60 95 153
59 93 147
58 92 149
59 93 151
55 88 141
58 92 148
56 89 144
54 87 146
169 187 221
215 232 255
215 232 255
215 232 255
215 232 255
215 232 255
215 232 255
215 232 255
129 143 165
107 123 141
102 118 138
107 123 148
98 115 142
93 110 137
111 132 167
113 133 165
110 130 163
104 125 162
104 123 152
120 140 173
103 124 159
116 136 169
117 137 169
119 139 169
123 143 173
133 155 182
121 141 170
125 145 176
138 159 188
131 153 185
136 157 183
136 156 184
139 160 188
128 149 179
145 165 190
139 160 187
151 172 198
139 160 182
149 170 196
156 177 202
149 169 189
151 171 189
149 169 193
155 176 198
153 173 198
159 180 200
159 181 205
162 182 202
162 183 202
161 182 199
164 185 202
162 182 194
160 181 198
159 180 198
167 187 200
159 180 199
163 184 192
165 185 200
164 185 198
164 184 198
170 190 207
171 191 204
166 188 205
175 195 206
162 183 196
172 193 212
174 194 206
165 187 195
168 189 195
172 193 203
170 190 199
171 191 205
167 186 193
172 192 202
173 194 202
171 190 201
171 192 205
176 196 204
172 192 202
173 194 211
172 192 195
172 192 203
175 196 206
173 193 207
170 191 199
170 190 198
168 188 193
165 185 183
172 192 204
172 192 198
172 192 200
176 196 204
172 192 200
167 187 184
173 192 206
168 188 194
172 191 199
168 187 194
173 193 198
167 187 188
170 190 192
172 191 195
167 188 196
162 181 177
169 188 196
168 187 190
171 189 191
169 189 192
171 190 194
167 185 183
171 190 202
169 188 198
168 188 195
168 187 191
170 190 199
166 187 183
167 186 188
167 186 196
167 186 191
166 184 196
168 188 188
169 189 198
166 185 181
161 180 180
167 185 186
168 188 184
168 186 190
166 184 190
167 185 190
165 184 178
163 181 183
163 181 178
162 180 183
163 181 175
165 184 186
164 184 184
163 181 188
158 177 172
160 178 174
162 181 178
159 177 175
163 181 178
159 176 177
163 181 190
161 178 183
155 174 175
161 179 184
158 176 177
158 175 174
162 180 178
161 178 183
162 180 191
164 182 184
188 205 228
188 205 228
188 205 228
188 205 228
188 205 228
188 205 228
188 205 228
188 205 228
187 205 228
188 205 228
188 205 228
188 205 228
187 204 228
186 204 228
187 205 228
188 205 228
187 205 228
187 204 228
187 204 228
186 204 228
187 204 228
186 204 228
185 204 228
186 204 228
186 204 228
186 204 228
186 204 228
185 204 228
186 204 228
187 204 228
185 204 228
186 204 228
186 204 228
185 203 228
185 203 228
186 204 228
185 203 228
184 203 228
185 203 228
185 203 228
185 203 228
185 203 228
185 203 228
185 203 228
185 203 228
184 203 228
184 203 228
183 202 228
184 203 228
184 203 228
183 203 228
184 203 228
183 202 228
184 203 228
184 203 228
184 203 228
183 203 228
181 202 228
182 202 228
183 202 228
182 202 228
182 202 228
182 202 228
183 202 228
183 202 228
182 202 228
182 202 228
183 202 228
181 201 228
182 202 228
182 202 228
182 202 228
180 201 228
181 201 228
180 201 228
181 201 228
181 201 228
181 202 228
180 201 228
181 201 228
180 201 228
180 201 228
182 202 228
181 201 228
181 201 228
181 201 228
180 201 228
180 201 228
180 201 228
180 201 228
180 201 228
179 200 228
180 201 228
180 201 228
180 201 228
180 201 228
180 201 228
179 200 228
179 200 228
180 201 228
179 200 228
180 201 228
179 200 228
179 200 228
179 200 228
178 200 228
179 200 228
179 200 228
179 200 228
179 200 228
179 200 228
179 200 228
179 200 228
176 197 226
175 196 226
170 192 223
167 188 218
165 187 219
153 175 210
157 179 212
152 175 208
153 176 210
146 169 206
130 153 193
131 154 195
126 149 191
125 148 188
123 146 188
120 144 188
101 126 175
116 139 182
111 135 179
102 126 175
112 135 181
111 135 180
128 150 192
113 135 180
128 149 189
129 149 187
144 164 199
149 169 204
172 191 220
180 199 225
178 195 218
177 193 214
196 211 233
216 232 255
216 232 255
216 232 255
216 232 255
216 232 255
215 231 255
77 103 158
56 89 148
58 92 151
60 95 157
58 92 146
60 94 154
61 96 154
59 94 151
59 94 150
59 93 144
60 95 146
61 96 152
60 95 156
60 96 153
60 94 144
61 96 149
59 94 145
60 94 145
59 93 144
60 95 147
60 95 153
61 96 150
62 98 159
61 96 154
62 98 162
61 97 152
61 96 143
62 97 153
60 95 144
61 97 152
60 95 140
61 97 151
60 95 139
61 96 150
59 94 144
61 96 149
61 97 151
62 97 147
61 97 151
61 96 143
61 97 154
62 97 154
61 96 149
61 96 153
61 97 155
61 96 149
61 96 148
61 97 149
61 97 150
62 97 153
61 97 146
62 97 154
61 96 149
61 96 150
61 97 156
61 96 150
61 97 146
61 97 152
60 95 141
59 94 148
60 96 157
62 97 150
60 95 136
61 96 150
60 96 147
61 95 142
61 97 155
61 96 154
60 96 151
61 97 154
60 95 147
61 96 158
60 95 144
61 96 146
60 95 145
61 96 154
60 95 151
60 95 150
60 96 157
59 94 144
60 95 156
61 96 159
59 94 151
60 95 153
60 95 152
59 93 149
58 93 145
59 93 150
60 95 155
60 95 158
58 92 148
57 91 141
59 93 158
57 90 151
56 89 152
107 128 169
215 231 255
216 232 255
216 232 255
216 232 255
216 232 255
216 232 255
187 203 225
111 127 147
107 123 146
113 131 157
113 131 160
114 131 158
100 119 150
107 126 159
98 117 151
103 123 159
109 130 164
103 123 157
121 142 175
114 136 170
115 134 162
118 139 170
123 144 175
130 151 184
127 148 179
121 143 173
117 138 166
135 156 186
137 158 186
131 152 175
135 154 179
129 148 171
141 162 183
134 155 179
142 163 190
136 157 183
146 168 189
137 158 179
154 175 195
149 171 192
150 171 191
146 168 189
148 169 194
156 178 195
156 176 182
154 174 188
160 181 203
162 183 198
156 178 193
159 180 194
159 178 194
160 181 202
161 182 198
169 190 205
170 191 208
166 187 208
160 181 193
165 187 207
166 186 199
167 187 192
171 192 207
159 179 187
169 190 197
166 186 190
167 188 196
171 192 202
170 191 204
164 185 196
172 193 203
169 189 196
166 187 189
170 190 198
169 189 196
169 190 200
174 194 201
170 190 192
168 188 198
175 195 208
173 193 207
171 192 194
176 195 204
173 193 195
175 194 206
170 191 199
171 191 196
173 193 210
167 187 195
174 194 198
173 193 203
174 195 207
171 191 199
171 190 188
171 191 198
173 193 200
168 188 198
174 194 204
171 191 198
172 191 198
171 190 186
167 186 194
173 192 192
167 187 192
171 190 195
168 188 195
174 193 203
172 192 195
167 187 202
164 183 186
168 188 194
165 186 188
166 185 191
169 189 184
163 182 184
165 185 184
169 187 188
163 182 175
169 188 186
167 186 184
168 187 192
169 188 196
165 183 190
170 189 194
168 187 187
166 185 188
168 186 188
171 190 192
163 181 184
160 178 180
161 180 175
162 180 184
161 179 178
163 182 175
157 174 175
157 174 183
161 181 177
156 173 175
156 175 166
158 177 172
167 185 188
159 178 177
156 173 180
150 168 166
161 178 177
153 171 156
149 167 169
151 168 168
158 175 177
159 178 178
148 166 166
155 173 166
161 179 180
150 168 165
189 206 228
188 205 228
189 206 228
189 206 228
188 205 228
188 205 228
189 206 228
188 205 228
189 205 228
189 205 228
187 204 228
188 205 228
188 205 228
188 205 228
187 205 228
188 205 228
188 205 228
187 205 228
188 205 228
188 205 228
187 204 228
186 204 228
188 205 228
186 204 228
186 204 228
187 205 228
187 204 228
186 204 228
186 204 228
186 204 228
187 204 228
186 204 228
187 205 228
186 204 228
186 204 228
186 204 228
186 204 228
186 204 228
186 204 228
185 204 228
185 203 228
184 203 228
185 204 228
185 203 228
185 203 228
184 203 228
184 203 228
185 203 228
185 203 228
184 203 228
184 203 228
184 203 228
184 203 228
184 203 228
184 203 228
184 203 228
183 203 228
184 203 228
183 203 228
184 203 228
182 202 228
182 202 228
184 203 228
183 202 228
183 202 228
183 202 228
183 202 228
183 202 228
183 202 228
183 202 228
182 202 228
183 202 228
182 202 228
182 202 228
182 202 228
182 202 228
183 203 228
182 202 228
182 202 228
182 202 228
181 201 228
182 202 228
181 202 228
181 201 228
180 201 228
180 201 228
181 201 228
182 202 228
182 202 228
180 201 228
180 201 228
182 202 228
180 201 228
181 201 228
180 201 228
180 201 228
181 201 228
181 201 228
181 201 228
180 201 228
179 200 228
180 201 228
181 201 228
180 201 228
180 201 228
181 201 228
180 201 228
180 201 228
179 200 228
180 201 228
179 200 228
180 201 228
179 200 227
175 195 224
171 193 223
167 188 218
165 186 218
162 184 215
153 175 209
148 170 204
146 168 205
135 158 198
137 159 197
134 157 193
125 148 187
122 144 187
113 136 176
108 131 175
114 138 182
108 131 174
110 134 181
99 123 169
90 114 163
94 119 169
95 119 169
104 127 174
105 127 175
113 136 181
114 136 178
141 161 197
148 167 200
163 182 214
166 184 211
178 196 221
181 197 219
164 177 196
216 233 255
216 233 255
216 233 255
216 233 255
216 233 255
190 207 233
56 90 152
57 91 145
58 93 155
58 93 148
58 92 148
60 95 149
59 94 146
58 93 148
60 95 152
59 94 145
59 95 150
58 93 148
61 96 156
60 95 153
59 94 147
59 94 149
62 97 153
60 95 149
60 95 148
61 97 151
61 97 156
60 94 145
62 97 152
60 95 154
60 95 145
60 96 148
60 95 151
61 96 150
61 97 153
61 96 151
61 96 155
62 97 155
60 94 137
61 96 152
61 96 148
60 96 151
60 95 143
61 96 153
61 96 150
62 97 155
60 96 142
61 95 146
61 97 152
61 97 152
60 96 144
61 97 149
61 97 150
60 96 148
62 97 154
62 98 153
60 94 144
61 97 149
60 95 144
61 97 147
60 94 144
60 96 141
61 96 142
60 95 135
60 95 140
60 95 142
61 96 151
59 93 149
61 96 148
61 96 150
61 96 148
60 95 147
60 95 142
57 92 128
62 97 151
61 96 156
61 96 154
61 96 150
59 94 148
61 96 151
60 96 148
61 96 152
60 96 149
61 96 147
59 93 140
59 94 152
60 94 148
60 95 158
60 95 152
60 95 151
60 95 149
60 94 149
59 93 150
58 92 148
59 93 148
59 94 149
57 91 144
58 91 145
58 91 155
55 88 145
58 92 153
56 89 152
184 201 228
216 233 255
216 233 255
216 233 255
216 233 255
216 233 255
155 171 187
110 128 155
114 131 157
103 121 149
93 113 148
110 130 164
112 132 165
98 118 158
112 131 165
95 114 148
103 124 158
114 135 168
126 148 182
116 136 167
118 139 172
122 143 177
126 147 183
122 144 174
120 140 169
124 145 179
130 150 179
133 154 182
136 157 184
141 162 184
141 162 184
129 150 177
133 153 180
146 167 180
145 166 189
143 164 188
139 160 184
140 161 183
152 174 196
152 173 193
157 178 207
151 172 188
144 165 182
155 176 196
150 170 189
153 173 192
155 175 193
162 184 205
158 180 196
164 184 204
157 178 202
165 186 198
165 186 197
162 183 198
159 180 194
167 187 203
163 184 197
164 185 191
166 185 195
165 186 195
166 185 197
166 188 204
168 189 192
169 190 197
171 192 204
171 191 204
172 193 203
170 190 201
171 191 210
167 187 191
171 191 196
172 192 206
174 193 192
173 193 201
173 194 200
169 190 196
173 192 200
171 191 192
173 193 194
174 195 207
172 193 200
171 191 196
175 195 199
173 193 202
169 190 196
173 193 195
169 188 195
172 193 195
174 193 198
176 195 207
170 189 192
172 191 198
167 187 190
170 189 194
175 196 209
170 190 195
171 190 198
172 192 194
167 187 196
170 190 188
168 187 192
170 189 194
168 187 188
170 190 195
165 184 184
169 189 192
172 191 192
172 192 194
167 186 190
167 186 183
168 187 190
172 192 195
162 182 180
169 188 188
162 181 181
168 185 180
169 188 190
168 187 187
166 185 184
167 185 181
167 185 187
165 184 190
165 185 186
165 185 178
165 184 192
167 186 188
168 187 187
173 192 196
166 185 184
163 181 175
164 182 186
157 175 172
170 188 192
165 183 184
166 185 190
164 182 190
156 173 169
172 191 200
164 182 184
157 176 172
159 177 166
161 181 187
162 181 177
162 180 175
156 173 174
156 174 177
161 179 168
155 172 169
152 169 163
153 170 166
148 165 165
157 175 177
189 206 228
190 206 228
189 206 228
189 205 228
189 206 228
188 205 228
189 206 228
189 206 228
188 205 228
190 206 228
188 205 228
189 205 228
188 205 228
188 205 228
188 205 228
188 205 228
188 205 228
187 205 228
188 205 228
188 205 228
187 205 228
188 205 228
188 205 228
187 204 228
187 204 228
186 204 228
187 205 228
186 204 228
187 205 228
187 204 228
187 205 228
187 204 228
187 204 228
187 204 228
187 204 228
187 205 228
187 205 228
186 204 228
186 204 228
187 205 228
186 204 228
186 204 228
185 204 228
186 204 228
185 203 228
185 204 228
186 204 228
185 204 228
185 203 228
185 204 228
185 203 228
186 204 228
184 203 228
185 204 228
185 204 228
185 203 228
185 204 228
185 203 228
185 203 228
184 203 228
185 203 228
184 203 228
184 203 228
183 203 228
184 203 228
184 203 228
184 203 228
184 203 228
183 202 228
183 203 228
184 203 228
183 202 228
183 203 228
183 202 228
183 202 228
183 202 228
182 202 228
183 202 228
183 202 228
184 203 228
183 202 228
182 202 228
183 203 228
182 202 228
182 202 228
182 202 228
183 202 228
182 202 228
182 202 228
182 202 228
182 202 228
182 202 228
182 202 228
183 202 228
181 201 228
182 202 228
182 202 228
180 201 228
182 202 228
182 202 228
181 202 228
182 202 228
182 202 228
181 201 228
181 201 228
181 201 228
180 201 228
181 201 228
181 201 228
181 201 228
181 201 228
179 200 228
176 196 224
176 196 224
170 191 219
159 180 212
161 182 215
158 179 210
156 177 207
145 167 201
141 163 198
131 154 194
128 150 190
137 160 197
127 150 191
114 138 182
119 143 186
114 138 180
109 133 175
92 117 165
89 114 163
91 115 167
73 98 152
74 99 154
90 113 160
81 105 155
105 128 174
90 113 162
98 120 169
102 123 168
124 144 183
142 161 194
154 172 203
175 192 217
184 201 224
171 186 207
213 229 251
216 233 255
216 233 255
216 233 255
216 233 255
134 154 192
56 89 150
57 90 149
57 90 141
59 94 153
59 94 157
58 93 148
59 94 155
59 94 147
58 93 140
58 92 133
59 94 146
61 96 156
59 94 147
61 96 146
59 94 143
61 96 154
60 95 150
59 93 143
60 95 155
61 96 142
61 97 155
61 96 145
60 94 142
60 95 149
61 96 151
61 96 151
59 94 144
60 95 147
59 93 141
61 96 150
62 97 153
60 95 143
62 97 155
61 97 157
61 96 152
61 97 154
61 96 136
61 96 150
60 95 143
62 98 150
61 97 144
61 97 153
61 97 148
61 96 143
61 96 149
62 98 153
61 97 153
61 97 149
61 96 150
60 95 142
61 97 154
62 97 151
62 98 154
60 95 141
60 95 144
60 95 149
62 98 149
60 95 144
61 96 152
61 96 150
60 95 142
61 96 146
61 97 156
61 96 150
61 96 144
60 95 147
61 96 147
62 97 153
61 96 155
62 97 156
61 96 147
59 94 145
61 95 147
59 94 139
61 96 150
61 96 148
62 97 159
60 95 147
60 95 148
59 93 137
60 96 153
60 95 140
60 95 155
59 94 141
59 94 140
59 93 141
59 94 152
58 92 144
56 89 138
58 93 150
58 92 150
57 90 144
59 94 152
57 91 143
56 89 145
52 83 134
137 156 195
216 233 255
216 233 255
216 233 255
216 233 255
207 223 245
124 140 160
104 120 146
103 121 151
105 123 152
113 132 160
100 118 150
102 121 151
92 112 147
105 126 159
91 110 142
107 126 161
100 121 158
100 120 154
106 126 158
115 136 167
122 144 177
121 142 174
127 148 181
125 146 174
129 151 180
121 142 171
124 143 167
132 152 175
128 150 180
132 152 175
135 156 174
138 159 182
134 154 182
131 151 167
144 165 188
147 168 188
146 167 185
143 162 185
150 170 190
154 176 196
150 171 190
149 170 183
153 174 188
159 180 190
162 183 202
159 179 194
156 177 197
164 184 201
159 179 188
168 188 199
161 181 197
158 179 192
163 183 198
162 182 201
165 185 202
164 185 198
168 188 202
169 189 198
166 187 200
167 186 194
163 184 200
169 189 198
174 194 203
171 192 200
170 191 201
165 184 191
171 191 194
170 190 198
172 192 199
173 192 202
172 192 196
169 189 201
171 192 200
168 189 196
172 192 198
172 192 191
171 192 204
172 192 195
176 196 203
175 196 203
175 194 199
174 194 199
170 191 192
168 188 182
172 192 191
171 189 186
171 190 198
168 188 184
170 189 188
172 192 209
173 193 194
171 191 192
173 192 194
174 193 196
170 189 191
173 192 194
173 192 192
171 191 188
170 189 198
166 185 188
170 190 198
175 194 199
170 190 188
165 184 183
166 185 192
166 185 181
169 188 187
165 185 186
171 191 198
172 192 198
167 187 191
166 184 183
167 186 188
168 187 184
165 184 180
167 185 186
171 190 200
170 190 194
171 190 194
164 183 190
168 187 181
163 181 168
164 184 175
166 185 181
161 179 174
160 178 174
164 182 181
164 183 180
163 182 190
157 176 172
163 182 174
164 184 186
162 180 174
164 183 180
163 182 178
165 183 187
158 177 165
155 173 161
154 172 175
157 174 163
160 178 174
153 170 177
163 180 184
161 179 181
162 180 180
161 180 166
148 164 163
148 165 165
162 181 180
157 176 168
155 174 165
189 206 228
189 206 228
189 206 228
189 206 228
189 206 228
190 207 228
189 205 228
189 206 228
189 206 228
188 205 228
188 205 228
189 205 228
189 205 228
189 206 228
189 206 228
188 205 228
189 206 228
189 205 228
188 205 228
187 204 228
190 206 228
188 205 228
187 205 228
188 205 228
188 205 228
188 205 228
188 205 228
188 205 228
187 205 228
188 205 228
189 206 228
187 205 228
188 205 228
188 205 228
187 204 228
187 205 228
187 205 228
187 204 228
187 205 228
187 204 228
187 204 228
188 205 228
187 204 228
186 204 228
185 204 228
185 204 228
185 204 228
187 204 228
186 204 228
186 204 228
185 203 228
185 204 228
186 204 228
186 204 228
186 204 228
185 204 228
185 203 228
186 204 228
184 203 228
185 204 228
185 204 228
184 203 228
186 204 228
184 203 228
184 203 228
185 204 228
184 203 228
186 204 228
185 204 228
186 204 228
184 203 228
185 203 228
185 204 228
184 203 228
184 203 228
184 203 228
183 202 228
184 203 228
183 203 228
184 203 228
184 203 228
185 203 228
182 202 228
183 202 228
183 202 228
184 203 228
183 202 228
183 202 228
184 203 228
182 202 228
183 203 228
182 202 228
183 202 228
182 202 228
183 202 228
182 202 228
183 203 228
183 203 228
182 202 228
183 202 228
182 202 228
183 202 228
183 202 228
182 202 228
182 202 228
182 202 228
182 202 228
182 202 228
181 201 228
183 203 228
182 202 228
181 201 228
175 194 221
167 188 217
166 186 214
159 180 212
163 184 216
154 175 207
157 178 209
140 162 200
138 159 198
139 161 197
132 155 196
119 141 179
120 142 181
100 124 173
96 121 169
97 121 168
85 110 162
83 108 161
76 102 156
76 102 158
67 94 150
58 86 147
76 101 154
65 91 150
89 113 164
80 105 157
90 111 160
103 124 166
118 137 176
119 139 178
130 148 184
155 173 202
172 189 214
178 193 214
182 196 216
217 233 255
217 233 255
217 233 255
215 232 254
76 104 160
55 88 144
56 90 142
57 91 150
57 91 135
59 93 147
59 93 148
58 92 144
60 95 153
59 94 148
60 95 155
59 94 143
60 94 147
60 95 147
61 96 152
61 96 150
60 95 149
60 94 142
60 95 144
60 95 149
61 97 154
60 94 146
60 95 149
60 95 142
61 96 150
60 94 139
60 94 142
61 96 149
61 95 147
61 97 150
61 97 152
59 93 138
60 95 145
62 97 152
61 97 150
60 95 149
60 95 141
61 97 147
61 96 139
61 97 149
62 97 157
61 96 149
61 96 143
60 95 141
61 96 148
61 97 144
61 97 148
61 96 152
61 96 147
61 96 149
62 97 150
59 93 137
61 96 148
62 98 154
61 96 145
61 97 152
61 96 143
60 95 146
61 96 147
61 96 144
61 96 151
61 97 152
61 97 146
62 97 152
60 96 150
60 95 148
59 93 132
60 95 144
62 97 150
61 96 144
60 94 146
60 96 146
61 97 148
61 96 142
61 96 152
60 95 142
59 94 144
60 94 150
61 96 155
60 95 147
61 96 151
59 93 140
59 94 147
60 95 152
59 94 146
59 93 145
58 92 147
60 95 146
60 95 151
59 93 145
58 92 144
57 90 143
56 90 131
57 91 139
56 90 143
55 87 141
55 88 143
74 101 159
213 230 252
217 233 255
217 233 255
217 233 255
172 186 204
116 131 150
95 112 137
96 111 139
84 102 136
86 104 136
86 103 134
103 122 157
92 111 145
93 112 145
93 113 147
101 120 152
100 121 155
117 138 173
106 125 151
114 134 165
112 131 157
114 134 163
113 134 162
106 127 159
117 139 169
136 158 188
131 153 185
138 158 185
139 160 186
139 160 175
143 165 190
129 150 174
139 160 189
132 152 175
141 161 177
145 165 183
146 165 183
144 165 181
148 168 183
145 165 176
152 172 197
157 178 196
150 170 190
148 168 180
150 171 189
155 176 188
151 171 183
157 178 191
160 180 190
154 174 181
156 177 191
157 177 195
158 178 191
160 181 189
162 183 200
155 175 180
169 189 196
161 181 190
163 183 192
168 189 201
168 189 192
171 192 206
170 191 202
171 191 195
168 190 200
170 191 192
170 190 201
170 190 196
164 184 186
170 190 198
170 190 194
172 193 192
173 193 202
174 194 206
168 188 194
172 192 194
172 192 195
171 191 200
173 192 191
167 187 187
174 193 192
174 194 201
170 190 194
170 190 191
171 192 194
167 188 184
175 195 204
172 192 204
169 189 184
176 195 203
171 191 189
172 192 192
172 192 200
165 185 183
172 192 198
173 193 192
165 184 175
171 192 203
166 187 184
171 191 195
171 191 198
169 189 187
168 187 184
174 194 192
176 196 196
170 190 188
166 185 187
169 189 190
168 188 191
162 181 180
171 190 190
166 187 188
163 182 178
165 185 178
161 180 169
168 187 188
167 186 186
165 185 186
169 187 188
163 181 171
169 188 186
160 180 169
169 188 186
171 191 190
163 181 178
162 180 178
165 184 187
162 181 178
165 183 186
165 184 186
169 189 188
163 181 180
159 178 174
158 175 165
159 177 184
153 171 171
162 180 177
160 177 180
163 181 177
161 179 178
154 172 166
161 179 169
160 178 178
163 180 188
162 180 172
160 177 174
164 183 180
158 176 165
161 179 175
160 178 177
154 172 163
190 206 228
190 206 228
190 206 228
189 206 228
191 207 228
190 206 228
190 206 228
190 206 228
190 206 228
190 206 228
190 206 228
189 206 228
189 206 228
189 206 228
189 205 228
190 206 228
188 205 228
189 206 228
189 206 228
189 206 228
189 205 228
188 205 228
188 205 228
189 205 228
189 206 228
189 206 228
189 206 228
188 205 228
188 205 228
189 205 228
187 205 228
187 205 228
188 205 228
188 205 228
188 205 228
188 205 228
187 205 228
187 205 228
188 205 228
186 204 228
187 205 228
188 205 228
186 204 228
187 205 228
188 205 228
187 205 228
187 205 228
186 204 228
187 204 228
187 205 228
187 205 228
187 204 228
187 204 228
186 204 228
186 204 228
187 204 228
186 204 228
187 204 228
186 204 228
186 204 228
186 204 228
185 204 228
186 204 228
185 204 228
185 204 228
186 204 228
186 204 228
185 204 228
185 203 228
186 204 228
186 204 228
185 204 228
186 204 228
185 204 228
185 203 228
184 203 228
184 203 228
185 204 228
184 203 228
184 203 228
185 204 228
184 203 228
183 203 228
183 202 228
184 203 228
183 203 228
183 203 228
184 203 228
184 203 228
184 203 228
183 202 228
184 203 228
184 203 228
184 203 228
183 202 228
183 203 228
183 202 228
183 203 228
185 203 228
184 203 228
184 203 228
183 202 228
184 203 228
182 202 228
184 203 228
183 202 228
183 203 228
183 202 228
182 202 228
182 202 228
183 203 228
181 200 227
177 197 224
173 193 220
164 184 213
157 177 206
155 175 209
156 177 208
154 174 206
134 155 188
140 162 197
122 144 183
122 144 182
117 139 183
111 134 174
95 120 165
95 120 168
93 118 166
76 103 154
71 97 148
68 96 153
55 85 150
53 83 143
51 81 144
51 80 137
56 84 146
57 85 139
66 92 143
76 99 151
75 96 146
107 127 172
100 119 164
127 146 182
154 172 202
159 175 201
176 192 214
168 182 199
215 231 253
217 233 255
217 233 255
193 209 236
55 88 148
58 92 155
58 91 145
57 90 136
58 92 148
58 92 151
59 93 147
59 94 151
58 92 146
60 94 150
60 95 147
61 96 147
61 96 157
59 94 139
60 95 150
60 95 140
60 95 147
59 94 141
60 95 142
60 95 146
61 96 147
62 97 155
59 94 137
60 95 142
60 95 138
61 96 152
60 94 136
60 95 135
61 96 150
60 95 143
60 96 146
60 95 139
62 97 147
60 95 143
61 96 149
61 96 149
62 97 154
60 95 139
60 95 147
61 96 151
60 96 149
61 97 143
61 96 150
61 96 151
61 96 144
63 99 160
60 95 142
60 96 149
61 96 142
61 96 147
61 96 145
61 96 145
60 94 143
61 96 144
61 96 142
61 96 148
62 97 147
60 95 142
61 96 153
61 96 144
62 97 156
61 96 147
60 95 145
61 97 156
61 96 151
61 96 142
61 96 148
60 94 145
61 96 152
60 95 147
60 96 150
58 92 135
61 96 146
59 93 137
60 95 144
60 96 146
59 93 143
59 93 138
61 96 152
60 94 153
60 94 143
59 94 142
61 95 154
60 94 140
59 92 136
60 95 143
60 95 151
60 94 152
59 93 145
57 91 143
57 90 144
57 91 143
57 91 147
58 91 147
56 89 140
56 89 142
54 86 142
54 86 137
192 208 234
217 233 255
217 233 255
215 231 253
130 145 161
112 128 148
98 115 143
100 118 147
96 113 145
102 121 155
97 117 154
100 119 153
93 112 145
90 109 144
90 109 142
91 110 146
94 113 146
109 129 159
107 129 164
117 138 171
117 138 167
111 132 169
122 144 180
120 142 170
118 137 160
131 151 179
121 142 163
134 155 184
133 155 177
141 162 188
141 161 183
143 164 187
143 163 185
151 171 189
134 155 182
128 148 164
144 164 171
140 161 176
150 170 183
147 167 176
146 167 192
148 169 185
162 182 193
155 175 188
159 179 196
154 175 183
162 183 197
153 173 184
157 177 187
158 179 194
158 179 190
164 185 197
162 182 189
162 182 190
166 187 198
169 189 200
160 180 183
166 186 190
160 180 189
167 188 183
170 190 198
170 190 199
171 191 206
172 193 205
169 190 192
167 186 187
172 192 200
169 190 196
170 190 204
173 193 194
170 190 192
175 194 202
172 192 195
172 193 201
173 193 200
171 191 204
166 186 187
168 187 183
171 192 196
170 190 186
170 189 194
168 189 194
172 193 188
173 192 193
170 189 185
177 195 202
174 193 194
170 189 183
171 191 191
174 194 204
173 192 191
172 192 198
168 188 186
175 194 203
174 194 198
172 192 192
172 192 199
172 192 195
174 193 194
168 187 188
169 188 192
167 185 177
170 190 194
173 192 194
165 185 188
169 187 191
171 190 188
169 188 184
164 183 174
172 191 199
166 186 183
163 183 172
171 191 194
172 191 188
162 181 177
170 188 187
160 179 180
164 183 181
167 186 184
156 174 174
164 183 178
167 185 184
166 184 183
161 179 175
168 187 192
166 185 180
171 191 192
161 180 180
161 179 183
167 185 177
157 175 175
164 183 187
159 178 174
165 186 184
164 183 174
158 176 168
163 180 186
161 180 169
160 178 168
153 170 166
156 173 168
167 185 191
162 182 171
155 172 172
152 169 161
162 180 181
160 179 172
162 180 183
162 180 177
157 176 165
156 173 177
191 207 228
192 207 228
191 207 228
190 207 228
190 206 228
191 207 228
190 206 228
190 206 228
191 207 228
190 206 228
190 206 228
190 206 228
190 206 228
189 206 228
191 207 228
189 206 228
189 206 228
190 206 228
188 205 228
189 206 228
189 206 228
189 206 228
190 206 228
188 205 228
190 207 228
189 206 228
190 206 228
188 205 228
189 205 228
189 206 228
188 205 228
189 206 228
189 206 228
189 206 228
188 205 228
190 206 228
188 205 228
190 206 228
188 205 228
188 205 228
188 205 228
188 205 228
187 205 228
189 206 228
189 206 228
188 205 228
187 205 228
187 205 228
187 205 228
187 205 228
187 204 228
186 204 228
187 205 228
187 205 228
186 204 228
188 205 228
187 205 228
186 204 228
187 205 228
188 205 228
186 204 228
186 204 228
187 204 228
186 204 228
186 204 228
186 204 228
187 204 228
186 204 228
186 204 228
186 204 228
187 205 228
186 204 228
186 204 228
186 204 228
186 204 228
186 204 228
186 204 228
185 203 228
186 204 228
185 204 228
184 203 228
184 203 228
186 204 228
185 204 228
185 204 228
186 204 228
186 204 228
185 204 228
185 204 228
185 203 228
186 204 228
186 204 228
185 203 228
185 203 228
184 203 228
185 203 228
185 203 228
183 203 228
184 203 228
184 203 228
185 204 228
184 203 228
184 203 228
184 203 228
185 204 228
184 203 228
184 203 228
183 202 228
184 203 228
184 203 228
183 202 228
180 199 224
174 193 220
173 192 220
163 183 212
167 187 216
152 172 203
154 174 205
147 167 199
139 160 193
130 151 185
116 139 181
122 143 179
121 144 183
98 122 163
100 123 167
86 111 158
77 103 151
57 87 146
51 82 141
52 83 144
51 82 139
49 79 139
48 77 138
49 79 138
50 80 138
45 73 133
47 76 135
49 78 141
60 85 139
74 98 153
94 114 159
111 130 168
128 146 179
148 166 196
173 189 213
170 185 204
198 214 234
217 233 255
217 233 255
158 176 210
56 89 152
58 91 148
57 91 152
56 89 140
60 94 147
58 93 144
60 95 145
59 93 144
58 93 136
60 95 153
60 95 144
60 95 152
59 94 145
60 94 140
60 94 144
61 95 150
60 95 144
60 95 146
60 95 149
60 94 140
60 96 144
59 93 133
59 93 134
60 94 141
61 96 148
59 94 137
60 96 142
62 97 155
61 96 139
60 94 137
61 96 148
61 96 144
61 96 151
61 96 146
62 98 154
60 95 141
61 96 147
61 96 150
61 96 149
61 96 148
61 96 154
61 97 149
60 95 136
60 95 143
61 96 150
61 96 144
61 96 143
60 95 143
61 95 140
60 95 137
59 94 139
59 94 140
61 96 145
61 96 149
62 97 152
60 94 141
61 97 144
60 96 145
61 96 147
61 96 145
61 96 151
61 96 142
60 95 141
60 94 144
59 95 143
61 96 144
60 95 145
58 93 138
60 95 146
59 93 144
60 95 141
59 94 139
61 96 152
60 96 149
60 95 149
59 94 137
59 93 140
60 95 147
61 96 150
58 92 135
60 95 149
59 93 141
58 92 147
60 94 140
59 94 144
58 92 143
59 93 138
58 92 143
57 91 144
60 94 150
58 91 141
58 92 147
56 89 130
56 89 136
58 91 149
54 86 136
55 88 144
54 86 142
142 160 194
217 233 255
217 233 255
192 208 227
109 124 143
109 125 146
89 106 136
96 113 144
78 95 127
83 101 135
108 128 161
84 102 136
94 113 148
90 109 143
89 107 140
100 121 156
101 120 153
92 114 149
109 130 159
106 125 156
105 126 153
119 140 168
117 137 163
114 134 160
127 148 170
117 137 160
123 142 168
131 152 171
128 148 169
129 149 171
131 151 168
140 160 183
137 157 171
145 165 184
132 152 177
148 169 189
149 168 183
140 161 173
144 165 186
157 177 186
149 170 177
153 173 182
149 170 187
152 172 184
158 178 186
160 180 189
156 175 191
163 182 192
153 173 175
157 176 178
156 177 184
164 185 200
167 188 199
166 186 194
163 184 189
162 181 183
161 181 185
172 192 208
165 184 182
169 189 199
162 182 187
167 187 187
169 189 188
168 187 187
173 194 200
167 187 185
172 193 203
170 190 198
168 188 185
169 189 191
170 189 198
169 189 188
168 188 188
170 189 192
168 188 187
170 190 197
171 191 191
171 191 185
168 188 184
170 190 189
171 192 183
173 192 195
171 191 191
175 194 195
167 187 181
170 190 192
169 189 186
173 192 186
171 191 190
169 188 191
175 196 206
171 191 194
170 190 191
172 191 192
172 193 196
172 192 187
172 191 188
169 188 196
173 193 194
168 187 186
168 187 177
171 191 190
170 189 188
173 193 199
170 190 190
167 186 184
168 187 188
172 191 183
171 191 190
166 185 184
165 185 181
167 186 177
165 184 171
167 187 186
168 187 186
167 188 184
170 189 188
170 187 191
169 188 187
165 184 178
168 187 191
165 184 181
161 179 177
168 187 187
165 183 184
163 182 178
159 179 172
165 184 183
164 183 183
170 188 195
156 174 168
164 182 183
159 178 169
161 179 177
161 180 181
162 180 178
159 177 175
162 180 183
160 179 181
168 186 191
160 179 166
158 175 168
161 179 175
162 181 172
157 174 169
159 177 177
159 175 166
158 175 169
166 183 188
151 169 169
161 178 172
192 207 228
192 207 228
191 207 228
191 207 228
192 207 228
191 207 228
190 206 228
191 207 228
190 206 228
191 207 228
191 207 228
190 206 228
191 207 228
191 207 228
190 206 228
191 207 228
191 207 228
190 206 228
191 207 228
189 206 228
190 206 228
190 206 228
191 207 228
190 206 228
190 206 228
190 206 228
189 206 228
189 206 228
190 206 228
189 206 228
189 205 228
188 205 228
189 206 228
189 206 228
189 206 228
190 206 228
189 206 228
189 206 228
189 206 228
189 206 228
189 206 228
189 206 228
189 206 228
189 206 228
188 205 228
189 206 228
189 205 228
188 205 228
188 205 228
189 206 228
187 205 228
188 205 228
187 205 228
188 205 228
188 205 228
188 205 228
188 205 228
186 204 228
188 205 228
186 204 228
187 204 228
188 205 228
186 204 228
188 205 228
187 205 228
188 205 228
187 204 228
186 204 228
187 205 228
187 204 228
187 205 228
186 204 228
186 204 228
185 204 228
187 204 228
187 205 228
187 205 228
186 204 228
187 205 228
187 205 228
187 205 228
186 204 228
186 204 228
186 204 228
185 203 228
185 204 228
186 204 228
186 204 228
186 204 228
186 204 228
186 204 228
186 204 228
185 204 228
185 204 228
186 204 228
184 203 228
185 204 228
185 204 228
185 204 228
185 204 228
185 203 228
185 204 228
186 204 228
185 204 228
185 203 228
186 204 228
185 204 228
185 204 228
184 203 228
184 203 228
180 198 223
178 197 223
174 193 218
166 185 213
157 177 203
153 173 205
148 167 198
145 165 194
146 166 200
133 154 187
124 145 181
118 140 173
109 131 168
107 129 170
97 120 163
91 116 161
77 103 151
60 89 143
51 82 137
52 82 140
51 82 141
53 84 145
50 80 129
49 78 136
48 78 134
46 75 133
48 77 136
47 76 138
47 75 138
48 76 132
56 81 135
68 88 136
103 122 167
111 129 169
147 164 195
159 175 201
173 188 207
177 191 208
217 233 255
217 233 255
104 126 171
57 91 150
57 91 145
57 90 138
57 90 136
57 91 146
58 92 139
57 91 137
58 92 135
59 94 148
60 95 147
60 95 147
59 93 139
59 93 138
57 91 134
60 94 140
60 95 145
60 94 141
60 95 144
61 96 152
61 95 143
61 95 151
61 96 152
61 96 150
61 96 139
61 96 146
60 95 145
61 97 149
61 95 142
61 96 152
61 96 147
58 93 132
59 94 137
60 96 149
61 96 149
60 95 140
61 96 145
62 97 149
61 97 143
61 96 140
60 95 142
62 97 149
60 95 143
60 95 140
59 94 139
61 96 144
61 96 148
60 95 143
60 96 137
61 96 147
62 97 153
62 97 154
59 93 140
61 97 147
61 96 145
61 96 148
61 96 149
61 95 143
60 95 139
60 95 138
62 97 159
60 95 150
60 94 144
60 95 145
60 95 141
60 95 140
62 97 155
62 97 147
60 95 149
59 93 138
59 94 145
60 95 143
61 96 151
60 95 147
61 96 148
60 95 142
59 93 139
60 95 143
59 94 144
61 97 148
59 94 139
59 92 139
58 92 144
59 93 134
61 96 154
60 95 153
60 95 145
58 92 142
59 93 143
58 92 135
58 92 138
58 93 142
57 91 140
57 91 136
57 90 141
56 89 136
56 89 144
53 84 127
52 84 135
111 131 172
217 233 255
217 233 255
163 178 195
95 109 127
96 111 135
93 110 143
87 106 139
82 100 133
77 95 128
79 97 130
78 97 130
94 113 145
81 100 136
82 102 140
97 115 145
98 119 152
103 123 157
90 110 143
105 127 161
118 138 161
104 124 149
120 139 164
119 139 163
121 142 164
120 139 161
126 147 173
131 151 168
134 155 174
135 155 177
132 152 174
134 154 171
138 159 176
146 166 187
147 166 183
144 165 178
139 158 171
140 161 179
146 166 180
141 161 174
140 161 175
141 161 178
142 161 168
148 168 180
151 171 176
159 180 192
166 187 202
159 179 189
159 180 197
159 179 191
160 180 186
162 182 188
158 178 184
166 186 194
164 184 195
165 185 199
159 179 190
163 184 179
167 187 193
173 193 199
168 187 182
168 188 190
165 186 194
172 192 200
169 190 198
166 187 195
167 186 186
169 188 193
171 190 194
174 194 190
172 192 197
167 188 182
170 191 190
171 191 189
172 192 196
177 196 198
169 190 188
169 189 185
172 191 188
174 193 203
172 192 195
172 192 191
166 187 182
172 192 192
172 192 192
172 192 195
173 192 187
172 192 200
174 194 195
173 193 182
169 188 190
171 190 183
176 195 199
171 192 192
169 188 183
171 190 184
172 191 194
170 190 194
166 186 178
169 188 186
168 187 172
171 190 188
168 188 178
171 190 188
167 186 184
171 190 195
166 185 190
172 191 194
168 187 188
172 191 194
162 181 171
168 188 183
169 188 194
165 184 177
164 183 174
166 184 183
165 183 186
164 184 172
167 187 188
173 191 188
165 183 172
163 182 174
160 178 172
165 184 175
168 186 184
161 179 174
163 182 175
166 186 178
171 190 183
165 183 172
162 181 169
165 183 184
163 183 184
158 176 168
162 180 171
168 187 186
166 185 183
155 173 171
161 178 172
157 175 180
164 182 169
164 181 187
156 174 166
160 178 166
159 177 172
150 167 168
154 172 161
162 181 160
155 172 168
154 172 166
157 174 175
192 207 228
192 207 227
191 207 226
190 206 226
191 207 227
192 207 228
193 208 228
191 207 228
191 207 228
191 207 228
192 207 228
191 207 228
192 207 228
191 207 228
191 207 228
191 207 228
191 207 228
191 207 228
191 207 228
191 207 228
190 206 228
191 207 228
190 206 228
191 207 228
191 207 228
190 206 228
191 207 228
191 207 228
189 206 228
191 207 228
191 207 228
190 206 228
190 206 228
190 206 228
191 207 228
190 206 228
189 206 228
189 206 228
189 206 228
189 206 228
190 206 228
190 206 228
189 206 228
189 206 228
189 206 228
188 205 228
188 205 228
189 206 228
189 206 228
189 206 228
189 206 228
189 205 228
188 205 228
189 206 228
189 205 228
189 205 228
189 205 228
188 205 228
189 206 228
189 205 228
189 206 228
188 205 228
189 206 228
189 206 228
187 205 228
189 206 228
188 205 228
187 205 228
188 205 228
188 205 228
188 205 228
188 205 228
187 205 228
187 205 228
189 206 228
188 205 228
187 204 228
187 205 228
187 205 228
187 205 228
187 204 228
188 205 228
187 205 228
187 205 228
187 205 228
186 204 228
187 205 228
186 204 228
186 204 228
187 205 228
187 204 228
186 204 228
188 205 228
186 204 228
187 205 228
187 205 228
187 205 228
186 204 228
187 204 228
186 204 228
186 204 228
186 204 228
187 205 228
187 204 228
185 204 228
187 205 228
186 204 228
186 204 228
184 203 227
185 203 227
183 201 227
176 194 219
171 190 217
165 183 210
162 180 206
154 173 202
145 164 193
148 168 200
141 161 191
125 146 182
125 146 181
113 134 172
111 133 172
109 132 173
90 115 159
81 107 157
61 90 144
60 88 134
52 82 140
52 82 135
49 78 132
50 81 140
51 81 135
49 79 138
49 79 138
48 76 132
46 75 128
46 74 133
43 70 124
44 71 128
43 70 129
63 85 135
82 102 147
106 124 161
121 139 177
147 163 193
164 179 200
167 180 197
218 234 255
214 230 252
52 84 138
55 88 140
56 88 133
56 89 147
58 92 141
58 92 141
57 91 145
58 92 144
59 93 150
60 95 150
60 94 149
59 94 144
60 95 143
61 96 154
59 94 142
59 94 146
60 95 140
61 96 151
60 95 147
60 94 130
59 93 134
61 96 148
60 95 144
59 94 139
60 95 141
60 95 134
59 94 126
61 96 149
60 95 143
60 94 134
60 95 142
60 95 142
60 94 141
61 97 151
60 95 141
59 94 135
59 94 136
62 97 150
60 94 136
62 97 157
60 95 141
61 96 147
60 95 138
61 97 151
61 96 152
59 94 145
61 96 142
61 96 139
61 96 149
61 96 149
60 94 139
61 96 142
60 95 147
59 94 133
61 96 141
60 94 135
62 98 156
60 95 137
60 95 144
60 95 144
60 95 139
61 96 147
61 96 147
60 94 139
60 94 137
59 94 146
61 96 151
61 97 145
60 95 149
60 95 141
61 96 142
59 94 137
61 96 149
60 95 140
61 96 145
59 94 139
60 94 142
61 95 144
60 95 142
59 94 138
59 94 143
59 93 144
60 95 141
58 93 145
58 93 141
59 94 137
59 93 136
60 94 145
57 91 139
59 94 157
59 93 137
58 92 140
56 89 136
59 93 143
55 88 139
57 91 140
55 86 134
55 88 134
55 87 140
53 81 126
211 227 249
218 234 255
126 140 152
97 112 127
90 105 128
80 95 125
80 97 128
83 100 133
72 91 126
76 93 125
85 103 133
100 119 151
90 109 140
95 115 145
101 120 152
103 122 153
110 130 160
102 121 145
103 123 153
108 129 153
114 134 158
113 132 151
118 137 163
121 142 166
108 130 158
124 143 163
122 142 163
126 147 161
140 160 179
145 164 174
127 148 167
120 139 164
137 157 175
143 164 174
152 172 184
138 158 177
151 171 187
147 167 176
146 167 182
143 164 174
149 170 181
156 176 194
149 169 180
157 178 188
157 177 193
150 171 165
154 174 182
156 176 183
159 180 188
160 179 185
156 177 185
154 174 188
166 186 197
167 187 201
162 181 186
165 185 197
159 178 182
162 182 180
163 182 195
165 185 191
170 190 185
169 189 182
172 193 204
167 186 186
170 189 195
167 187 186
171 191 199
171 190 199
172 192 192
170 190 186
170 190 188
165 185 186
170 190 188
171 192 186
171 191 192
174 194 196
168 188 184
169 189 192
172 191 191
170 190 189
171 191 191
174 194 192
169 189 185
170 189 186
172 192 191
169 188 191
170 189 178
170 190 184
172 192 199
169 188 181
169 188 177
172 191 195
174 194 197
171 191 184
171 191 187
169 188 188
172 191 196
170 190 181
165 183 178
168 187 183
174 194 191
169 187 187
169 189 190
169 189 181
172 191 188
168 187 180
168 187 188
168 187 183
165 184 177
166 185 180
170 189 190
166 185 171
171 190 191
166 185 181
164 183 163
172 191 187
172 191 196
166 184 178
166 184 171
168 187 186
160 180 171
165 184 175
169 187 184
168 187 188
161 180 169
160 179 175
165 183 187
158 176 172
164 183 188
158 177 161
161 180 174
158 176 168
162 180 175
160 178 166
163 181 171
160 178 180
156 173 172
163 181 177
161 180 174
156 173 160
162 180 177
158 177 166
157 174 155
162 179 175
157 174 166
161 179 169
161 179 168
156 175 171
162 180 177
158 175 166
192 207 226
192 207 224
190 206 227
190 206 224
192 207 226
191 206 225
192 207 227
192 207 228
192 207 228
191 207 227
192 207 227
192 208 228
192 207 228
191 207 228
191 207 227
192 207 228
191 207 227
191 207 227
192 207 228
191 207 228
191 207 228
191 207 228
190 206 228
190 206 228
191 207 228
192 207 228
192 207 228
191 207 228
191 207 228
192 207 228
191 207 228
190 206 228
190 206 228
192 207 228
190 206 228
190 206 228
191 207 228
190 206 228
190 207 228
191 207 228
190 206 228
190 206 228
190 206 228
190 207 228
190 206 228
191 207 228
190 206 228
189 205 228
190 206 228
190 206 228
190 206 228
189 206 228
190 206 228
189 206 228
190 206 228
189 206 228
189 206 228
189 206 228
190 206 228
190 206 228
188 205 228
190 206 228
189 206 228
189 206 228
189 206 228
189 206 228
189 206 228
189 206 228
188 205 228
188 205 228
189 206 228
189 206 228
188 205 228
188 205 228
188 205 228
189 206 228
188 205 228
188 205 228
188 205 228
188 205 228
188 205 228
188 205 228
189 205 228
188 205 228
187 205 228
188 205 228
188 205 228
189 206 228
188 205 228
188 205 228
188 205 228
188 205 228
187 205 228
188 205 228
187 205 228
188 205 228
188 205 228
188 205 228
188 205 228
188 205 228
187 204 228
189 206 228
186 204 228
188 205 228
187 205 228
187 204 228
188 205 228
186 204 228
184 202 226
182 199 222
179 197 223
172 190 215
171 190 217
167 185 209
163 181 209
154 173 203
152 171 198
140 160 190
138 158 189
129 149 180
122 142 175
115 137 175
108 130 167
88 112 160
76 103 153
81 106 150
54 84 138
50 81 130
51 82 140
52 83 137
51 80 127
49 79 138
49 78 133
50 80 136
47 76 129
45 73 128
45 72 126
45 72 126
45 73 129
44 71 129
39 64 119
41 67 122
67 86 132
85 104 146
107 124 159
136 152 183
163 178 200
166 181 194
209 224 245
197 213 236
53 85 141
58 92 142
57 90 143
56 90 133
56 89 134
58 92 147
58 92 141
58 91 140
60 94 140
59 93 144
60 95 144
58 93 140
60 95 145
61 96 150
59 93 139
60 94 141
60 94 142
60 95 141
61 97 152
61 96 146
61 97 151
61 96 148
58 93 138
60 94 140
61 96 151
60 95 141
61 95 140
60 94 141
60 95 139
60 95 139
59 94 137
59 94 137
62 98 155
59 94 133
61 96 145
61 97 151
60 95 143
59 94 136
60 96 143
62 97 147
60 94 135
60 95 136
61 96 147
59 94 139
61 96 149
60 95 139
61 96 137
61 96 150
59 93 127
61 96 144
60 95 144
62 97 148
61 96 147
60 95 141
61 95 148
59 94 139
61 96 136
61 96 149
60 95 136
61 96 148
60 95 139
59 93 130
60 95 141
59 93 127
60 94 138
59 94 139
61 96 146
61 96 150
59 93 137
60 96 143
60 94 145
60 95 147
59 93 141
60 95 138
59 93 141
59 94 143
60 95 138
59 93 137
59 94 137
59 93 139
58 93 140
59 93 142
59 94 147
59 94 139
59 93 146
59 95 151
60 95 151
59 94 141
58 91 141
56 88 129
58 92 137
58 92 145
58 92 135
57 91 138
57 91 139
55 87 141
55 88 141
56 89 142
53 84 133
52 83 132
184 199 222
209 224 246
98 113 132
91 105 123
73 89 120
81 97 127
70 87 119
80 96 126
79 96 127
76 96 136
78 98 135
84 104 140
79 99 132
87 106 138
90 110 138
95 115 147
92 111 140
90 110 137
109 129 158
105 125 157
116 136 161
117 137 163
112 133 163
109 129 149
104 124 147
129 150 175
127 147 170
130 151 170
129 149 170
126 146 165
123 144 162
134 154 173
146 167 179
139 159 174
141 162 169
135 155 166
143 164 179
145 165 173
151 170 183
152 170 189
152 172 186
151 172 182
153 173 187
151 171 181
154 174 178
157 177 180
158 178 182
157 177 182
155 174 184
159 180 187
159 178 178
155 175 183
159 179 190
164 184 195
158 177 172
159 180 188
167 187 194
170 190 191
169 189 194
169 189 191
166 186 183
163 184 184
166 186 189
169 188 190
168 187 173
170 190 191
167 187 181
172 192 191
170 190 187
172 192 188
174 193 194
170 189 187
173 193 186
170 189 187
169 190 178
172 191 188
168 188 185
169 189 189
170 191 193
169 190 190
175 195 195
170 189 191
172 192 190
170 189 197
175 194 200
171 191 185
170 190 195
170 189 181
168 188 192
166 185 187
176 195 192
173 192 181
171 191 191
170 190 191
171 190 174
172 191 185
172 191 191
165 184 169
171 190 174
167 185 183
174 193 188
171 190 195
169 189 195
172 190 186
166 185 174
169 187 180
169 188 178
167 186 180
174 193 187
163 182 168
170 188 183
170 189 187
171 190 186
168 187 187
169 187 181
165 184 180
170 189 191
166 185 183
162 181 175
167 185 183
164 182 177
159 178 174
166 185 183
165 184 175
161 180 171
167 186 181
163 181 171
168 186 188
161 179 165
163 181 168
166 184 180
163 182 174
166 186 184
162 181 165
162 180 172
169 187 190
158 175 166
162 179 169
160 178 166
165 183 172
157 175 163
154 172 156
160 178 169
159 178 165
159 177 178
161 179 169
149 166 163
160 178 168
160 177 181
161 179 168
191 206 223
191 207 226
191 206 221
191 206 221
191 207 227
189 205 221
190 206 223
190 206 221
192 207 225
191 206 224
191 207 225
191 206 224
191 207 227
191 207 225
189 205 225
192 207 227
193 208 227
191 207 226
191 207 226
191 207 227
192 207 227
191 207 227
191 206 226
191 207 227
191 207 227
192 207 228
192 207 228
192 207 228
191 207 228
191 207 228
191 207 228
191 207 227
192 207 228
192 207 228
192 207 227
190 206 228
192 207 228
190 207 228
192 207 228
192 207 228
191 207 228
191 207 228
191 207 228
191 207 228
191 207 228
191 207 228
191 207 228
190 207 228
190 206 228
192 207 228
191 207 228
191 207 228
191 207 228
190 206 228
191 207 228
190 206 228
191 207 228
190 206 228
191 207 228
190 206 228
190 206 228
189 206 228
189 206 228
190 206 228
190 206 228
189 206 228
190 206 228
190 206 228
189 206 228
190 206 228
189 206 228
190 206 228
189 206 228
189 206 228
189 206 228
190 206 228
189 206 228
189 206 228
187 205 228
189 206 228
189 206 228
188 205 228
188 205 228
190 206 228
189 206 228
189 206 228
190 206 228
188 205 228
189 206 228
190 206 228
189 206 228
189 205 228
189 206 228
188 205 228
188 205 228
188 205 228
189 206 228
189 206 228
189 206 228
188 205 228
189 206 228
190 206 228
188 205 228
188 205 228
188 205 228
188 205 228
189 206 228
186 204 227
182 199 222
181 199 222
181 198 222
173 191 215
170 188 211
163 180 204
161 179 207
161 180 206
140 160 190
145 164 191
139 158 190
122 143 175
114 136 174
111 133 174
104 126 165
84 108 151
76 101 146
52 82 135
52 83 142
52 82 135
51 82 132
50 80 133
50 80 129
51 81 131
49 78 121
49 78 135
46 74 120
47 76 130
44 70 121
42 69 124
44 71 125
43 70 125
42 68 127
39 64 118
38 62 116
54 77 133
96 113 153
137 152 180
158 174 199
172 186 202
195 210 226
169 185 212
55 88 146
56 88 139
53 85 130
54 87 136
58 92 143
60 94 145
58 92 142
59 93 146
58 93 145
59 93 143
60 94 144
60 95 147
60 95 143
60 94 147
60 94 134
60 95 149
59 94 139
59 94 145
59 94 141
60 94 141
61 96 146
60 94 149
60 95 146
61 96 146
61 96 146
61 95 146
60 95 149
60 94 137
61 96 149
62 97 148
60 95 139
60 95 142
60 94 141
60 95 138
61 96 148
60 94 147
61 96 143
61 96 141
61 96 146
61 97 145
60 95 142
61 96 143
60 95 136
60 95 147
60 95 144
62 97 152
61 96 149
61 96 139
62 97 149
61 96 149
60 95 139
60 95 137
60 96 143
60 95 137
60 94 135
60 95 137
61 96 149
61 96 147
60 95 148
61 96 147
60 94 142
60 95 134
58 93 130
61 96 146
59 94 134
59 94 133
61 96 146
60 95 137
60 95 143
59 94 137
61 96 144
60 94 139
59 94 141
59 94 136
60 94 144
60 95 137
59 94 134
60 94 146
59 94 144
60 95 148
59 93 142
60 95 142
59 93 141
59 94 143
59 94 144
57 91 132
59 94 147
58 92 138
57 90 132
57 91 133
58 92 147
58 91 146
58 92 145
56 89 130
57 91 139
56 89 141
53 84 133
54 85 126
53 84 134
51 82 136
159 175 203
182 197 215
94 108 128
92 108 132
79 95 119
74 88 114
75 92 123
73 90 125
65 81 108
72 90 120
85 103 135
78 97 127
80 98 128
82 101 135
94 114 143
100 121 150
101 120 149
80 99 132
93 114 145
94 114 144
108 129 155
119 139 164
118 138 166
116 137 163
115 135 157
115 135 156
123 143 158
115 134 157
126 145 161
133 153 166
132 154 180
136 157 174
135 155 157
145 165 172
139 158 167
147 167 177
148 169 179
149 169 180
147 168 175
150 171 169
153 173 186
152 173 189
148 169 181
155 175 190
153 173 178
156 176 177
166 186 184
154 173 181
155 174 175
158 179 185
161 181 182
161 180 179
160 179 184
162 181 178
165 185 187
167 187 188
162 182 177
172 191 187
162 182 185
170 191 194
168 188 183
165 186 190
166 185 179
169 189 194
166 187 182
164 185 178
166 187 184
172 192 188
167 186 175
166 186 184
173 193 197
169 189 178
169 189 192
170 190 188
167 187 183
170 189 190
168 187 185
172 192 192
172 192 191
171 191 188
171 191 182
171 191 183
171 190 192
167 187 174
175 194 191
173 193 187
167 186 186
175 195 194
169 189 181
169 189 188
174 193 192
168 187 186
171 190 183
168 188 184
173 192 196
172 191 186
170 189 177
169 187 180
169 188 183
171 190 181
173 192 187
168 188 181
170 188 178
164 183 177
164 184 175
169 188 177
169 188 183
162 181 166
170 189 174
165 185 183
168 187 183
174 192 194
166 184 171
169 188 186
166 185 178
165 184 178
158 177 177
169 188 183
165 182 178
165 184 175
166 186 186
175 194 192
160 178 168
164 184 172
164 182 180
163 182 172
167 185 178
164 182 163
166 184 174
164 183 181
160 179 169
166 186 171
162 180 174
168 186 180
158 176 161
160 178 172
165 183 171
166 184 175
162 181 175
157 174 166
158 176 168
154 172 163
157 176 169
160 179 175
166 185 181
157 174 163
163 181 169
160 178 168
152 169 160
157 174 175
190 205 217
189 205 218
190 205 218
190 205 219
192 207 224
190 205 220
189 205 218
190 206 219
189 205 220
191 206 221
189 205 221
190 206 221
189 205 218
190 206 221
191 207 223
189 205 217
190 206 223
190 205 219
190 206 220
190 205 220
190 205 221
190 206 223
188 205 223
192 207 226
191 206 226
190 206 224
191 207 227
190 206 225
190 206 221
190 206 225
190 206 225
193 208 227
191 207 226
192 207 228
191 207 226
191 206 225
191 207 227
190 206 226
191 207 227
191 206 226
190 206 225
192 207 228
192 207 227
192 207 228
191 207 227
190 206 227
191 206 227
191 207 227
191 207 228
191 207 228
191 207 228
191 207 228
191 207 228
192 207 228
192 207 228
190 206 228
191 207 228
193 208 228
190 206 228
191 207 228
191 207 228
191 207 228
192 207 228
191 207 228
191 207 228
191 207 228
190 206 228
191 207 228
188 205 228
190 206 228
190 207 228
191 207 228
192 207 228
190 206 228
190 206 228
190 206 228
190 206 228
191 207 228
190 206 228
189 206 228
190 206 228
191 207 228
190 206 228
190 206 228
190 206 228
189 206 228
190 206 228
190 206 228
190 206 228
190 206 228
189 206 228
189 206 228
190 206 228
189 206 228
190 206 228
190 206 228
188 205 228
190 206 228
189 206 228
189 206 228
188 205 228
189 205 228
189 206 228
189 206 228
190 206 228
190 206 228
188 204 227
184 201 223
187 203 226
183 199 222
181 197 220
180 197 220
163 181 206
167 185 210
151 169 196
152 170 198
142 161 191
130 150 181
127 147 180
124 144 176
114 135 169
103 125 158
93 116 156
75 101 149
63 91 136
52 83 134
52 82 129
52 82 135
51 82 135
51 81 134
49 78 128
48 77 123
47 75 124
48 76 126
47 75 126
44 72 117
45 72 123
43 70 121
43 71 123
42 68 121
41 67 119
41 67 121
37 61 114
45 67 118
70 89 133
124 139 169
134 149 172
161 176 192
184 198 214
130 148 178
53 85 136
53 84 138
55 88 141
55 87 129
56 89 139
59 93 140
59 93 145
59 94 139
60 94 143
59 94 146
59 93 142
60 94 136
58 92 135
59 94 139
60 95 147
59 94 138
59 93 138
61 97 149
61 96 151
59 94 145
60 95 135
59 93 134
59 93 139
58 92 122
60 95 138
61 96 150
61 96 139
62 97 154
61 96 151
61 96 145
61 95 143
60 95 143
60 95 139
61 96 137
60 95 140
61 96 143
62 97 151
60 95 140
62 98 154
62 97 144
62 98 154
61 97 151
60 94 142
61 96 141
60 95 136
60 95 137
59 94 136
61 96 141
61 96 147
61 96 145
61 96 145
61 96 145
60 95 148
61 95 137
61 96 144
61 96 142
60 95 143
60 95 136
61 96 144
61 97 151
60 94 142
61 97 152
61 96 149
60 94 140
59 94 130
60 95 142
60 95 137
62 97 146
60 94 141
59 93 146
59 94 143
59 94 134
57 91 127
59 93 137
60 95 136
59 94 143
59 94 135
59 94 141
58 92 133
60 96 147
59 93 139
60 94 139
59 93 138
59 94 139
59 94 145
59 93 138
60 94 140
61 96 154
59 93 140
59 93 145
58 92 139
56 89 128
56 89 135
54 86 127
56 89 131
57 90 144
56 88 139
55 87 138
53 85 128
53 85 137
150 166 195
163 177 196
92 106 120
81 94 118
82 99 128
73 89 123
70 86 117
69 88 124
66 83 116
73 91 126
71 89 118
87 107 139
81 101 135
88 109 146
86 105 131
93 113 142
104 124 156
98 118 151
94 114 141
106 124 147
110 129 145
118 138 163
119 139 165
125 144 165
126 146 164
118 138 159
131 150 163
125 145 162
120 140 156
128 147 153
135 155 173
135 156 172
136 156 170
143 162 175
133 152 164
147 167 177
146 166 175
145 166 172
150 170 184
154 174 179
143 163 178
152 172 177
150 170 173
161 180 183
148 168 173
153 173 177
158 177 179
153 172 168
158 178 182
163 183 196
161 181 190
159 178 177
156 175 174
161 181 186
160 179 181
160 179 174
164 184 192
163 182 177
162 182 174
162 182 187
164 184 182
161 181 180
166 186 186
168 188 191
172 192 189
166 187 179
165 185 172
164 184 185
169 190 183
169 189 181
170 189 189
170 189 182
171 191 180
171 190 182
171 190 184
169 189 187
171 189 180
168 188 171
170 190 191
171 190 190
172 191 181
168 189 187
168 188 183
174 193 196
173 193 188
171 190 189
169 188 186
167 187 180
171 191 183
169 188 180
171 190 181
172 192 187
170 189 181
169 188 187
171 189 181
174 194 186
169 189 180
173 192 188
172 191 184
171 191 180
173 192 187
170 190 183
172 191 192
174 192 190
166 185 172
170 189 172
170 190 178
167 185 183
166 184 174
169 189 178
168 186 172
161 179 161
168 187 177
168 187 180
169 188 178
164 183 171
164 183 177
169 187 178
174 193 188
166 184 178
165 185 169
161 180 165
162 180 177
167 186 180
163 183 171
167 185 183
162 181 174
166 184 184
164 182 180
158 176 169
163 181 169
152 170 155
160 179 161
164 182 171
164 182 180
152 170 163
168 187 178
159 176 174
158 175 166
159 176 155
165 183 169
162 179 172
158 175 163
148 166 141
161 179 175
164 183 172
155 173 156
166 184 183
160 178 171
166 183 177
188 204 216
190 205 214
188 204 213
189 205 217
188 204 213
189 204 214
187 203 208
189 205 217
191 206 218
189 205 219
189 204 216
192 207 223
188 204 218
189 205 217
190 206 221
188 204 216
190 205 219
188 204 214
190 205 216
190 206 223
190 205 220
190 205 219
189 205 220
190 206 220
188 204 214
190 205 219
190 205 220
190 205 219
190 206 224
189 204 217
190 206 221
190 205 220
190 206 223
190 206 220
190 206 223
191 206 220
191 206 224
191 207 225
191 207 224
190 206 221
191 206 224
190 205 220
191 207 225
191 206 223
191 206 226
190 206 223
191 206 225
189 205 221
189 205 221
191 207 225
191 207 226
190 206 224
191 207 228
190 206 224
191 207 227
189 205 221
190 206 227
192 207 226
191 207 228
191 207 226
191 207 228
190 206 226
191 207 228
193 208 227
190 206 228
190 206 226
191 207 228
191 207 228
191 207 228
192 207 228
192 208 228
192 207 228
191 207 227
192 207 228
190 206 227
191 207 227
191 207 228
191 206 227
192 207 228
192 207 228
192 207 228
190 206 228
191 207 228
191 207 228
190 206 228
191 207 228
191 207 228
190 206 228
191 207 228
190 206 228
190 206 228
191 207 228
190 206 228
190 207 228
191 207 228
191 207 228
191 207 228
190 206 228
191 207 228
190 206 228
191 207 228
190 206 228
190 206 228
191 207 228
190 206 228
191 207 228
189 205 227
188 204 227
187 204 225
183 200 222
180 197 219
174 191 214
163 180 204
165 182 208
157 175 200
154 172 194
143 161 192
145 164 191
137 155 184
114 134 168
109 129 162
104 126 167
98 120 163
77 102 140
59 87 127
51 81 127
51 81 131
51 81 128
50 80 131
50 80 125
50 79 130
49 78 120
48 77 129
48 77 126
45 73 122
44 70 120
43 71 120
45 72 123
40 65 115
41 67 121
38 62 115
39 65 117
39 64 115
34 57 105
52 71 118
107 121 155
121 135 159
153 168 183
172 186 195
100 121 162
53 85 133
54 85 130
56 89 139
57 91 142
59 93 143
59 93 145
57 91 139
58 92 138
58 91 137
57 91 141
59 93 145
59 94 139
59 93 139
60 94 139
58 92 134
61 96 150
60 94 138
60 95 144
59 93 133
58 93 128
59 94 145
59 94 138
59 94 139
60 95 139
61 96 142
60 95 134
60 95 146
59 94 144
60 95 146
59 94 139
61 96 144
60 95 133
59 94 139
60 95 140
58 92 135
61 96 144
61 96 144
59 94 135
60 95 140
60 95 148
60 94 137
61 96 142
59 94 134
60 95 144
60 96 142
60 95 140
60 95 141
61 96 147
61 96 144
59 94 133
60 95 139
61 96 144
60 95 139
60 96 136
59 94 136
60 95 138
60 95 140
61 96 146
61 97 150
61 96 147
60 95 143
60 96 148
61 95 144
60 95 141
60 94 140
61 96 142
58 93 135
61 96 149
59 93 132
60 94 139
60 95 143
59 94 137
60 95 144
60 95 144
61 96 146
60 95 146
59 93 137
60 95 145
59 94 143
60 94 146
60 94 136
59 93 149
57 91 132
58 93 134
57 90 125
58 92 140
59 94 146
59 93 141
57 90 126
56 88 125
57 91 135
59 93 146
56 89 129
56 88 128
56 89 134
57 91 140
56 89 137
54 86 130
53 84 133
52 82 123
116 133 162
142 157 173
91 102 115
82 97 119
68 81 103
51 65 90
68 83 112
58 77 115
64 80 110
69 86 119
75 95 134
73 91 119
85 105 139
92 110 136
84 104 137
99 119 142
83 102 128
93 114 145
103 122 147
105 124 145
112 132 151
107 126 150
118 137 164
122 142 164
120 139 156
125 145 161
123 142 154
117 136 156
121 141 156
134 154 169
126 145 158
133 153 161
144 163 176
136 156 171
137 155 171
141 160 164
141 161 171
145 165 181
145 164 176
150 170 174
147 167 170
159 178 186
154 175 178
149 170 173
159 179 187
156 175 182
154 173 174
148 168 169
153 173 161
154 174 172
159 179 178
159 179 177
155 176 173
157 176 173
164 183 186
168 188 195
164 184 182
170 189 183
162 183 185
163 184 178
169 189 188
166 186 181
163 182 180
165 184 171
166 186 177
163 183 181
164 184 178
168 187 181
169 188 190
172 191 193
169 189 180
169 189 182
174 193 192
171 191 188
168 187 180
172 191 186
171 191 179
175 194 191
172 191 178
171 190 187
170 190 180
173 192 191
166 186 183
174 193 190
167 187 172
170 191 186
171 190 183
171 191 188
171 190 187
175 193 186
170 189 184
169 189 186
168 187 172
169 189 172
168 188 172
172 191 190
172 191 175
169 188 177
171 189 184
168 187 174
173 192 184
162 181 165
169 187 174
175 194 192
167 185 184
167 186 175
170 188 183
168 186 174
166 185 175
169 187 180
167 186 169
167 187 186
170 188 178
166 185 183
160 179 166
169 187 183
168 186 178
165 183 180
163 182 169
164 182 177
161 181 151
163 181 163
158 176 163
163 181 172
161 180 169
158 176 169
164 183 177
167 185 181
162 180 161
169 187 183
159 178 163
166 186 174
159 178 165
165 183 180
165 183 169
165 184 181
152 170 160
162 180 172
162 179 168
166 184 180
160 177 163
159 177 174
153 169 165
156 173 161
155 173 166
163 181 161
157 174 166
164 182 174
160 179 175
157 174 163
189 204 213
189 205 217
190 205 214
187 203 207
188 203 211
190 205 220
188 204 212
188 203 213
188 204 213
186 202 206
188 204 214
189 205 218
189 204 214
186 203 209
190 205 219
190 205 216
188 204 213
190 205 219
189 205 216
189 204 213
188 204 216
188 204 214
188 204 214
190 205 218
189 205 218
188 204 212
190 205 219
191 206 221
188 203 208
191 206 220
189 205 218
189 204 214
190 206 220
188 204 217
190 205 219
189 205 219
189 205 218
189 205 217
190 206 223
189 205 220
191 206 223
187 203 211
189 205 217
191 207 224
189 205 219
192 207 223
190 205 220
190 205 220
189 205 218
191 206 223
191 206 223
192 207 226
190 205 218
189 205 220
190 206 225
190 206 224
190 206 223
189 205 219
190 206 223
191 206 225
189 204 220
192 207 226
190 206 221
191 206 224
189 205 220
190 206 221
190 206 225
190 206 224
189 205 223
191 207 227
190 206 221
191 207 226
190 206 223
190 206 221
189 205 221
188 204 219
191 207 225
191 207 227
189 205 224
189 205 223
191 206 226
192 207 227
191 206 225
192 207 228
190 206 225
190 206 226
188 205 221
191 206 226
191 207 227
191 207 227
190 206 226
191 207 226
191 207 228
191 207 227
191 207 226
191 207 228
191 207 228
192 207 228
191 206 225
190 206 225
190 206 227
192 207 228
191 207 228
191 207 226
191 207 227
191 207 228
187 203 223
187 203 225
185 201 222
182 199 220
178 194 213
175 192 212
167 184 204
162 179 201
151 168 190
150 167 193
138 156 186
129 148 177
125 144 175
123 142 173
106 127 158
102 123 159
90 112 146
73 98 139
54 83 135
51 81 126
51 81 128
51 82 130
50 79 126
51 82 136
50 79 127
49 78 123
47 75 124
45 73 116
45 73 113
45 73 122
42 67 112
41 67 113
43 69 116
40 66 116
41 66 117
38 62 109
34 56 103
38 62 112
50 69 112
75 90 126
133 147 168
147 162 172
159 173 178
84 106 142
52 83 134
56 88 132
55 88 133
57 90 132
59 93 144
58 91 139
58 92 135
58 92 141
59 93 138
57 91 124
58 93 137
59 93 142
58 92 135
58 92 141
61 95 147
59 93 137
59 94 141
61 96 152
60 94 133
58 92 130
60 94 139
60 95 138
61 95 144
61 96 139
59 93 134
61 96 142
61 95 145
61 97 147
59 93 126
60 95 143
60 94 141
60 95 143
61 96 142
58 93 131
60 95 137
60 95 139
61 96 149
60 95 136
61 97 150
60 95 142
60 95 140
60 95 143
60 94 140
59 93 136
60 95 142
60 95 135
60 95 137
60 94 137
61 96 149
59 94 135
61 96 141
59 94 142
60 95 142
60 95 136
61 96 147
58 93 126
61 96 141
60 95 147
60 95 142
60 95 139
59 93 136
61 95 136
60 95 137
59 94 144
60 95 139
60 95 139
61 96 142
60 95 139
60 94 139
59 93 131
60 95 137
61 95 143
60 94 143
60 95 141
59 93 137
58 92 131
60 94 143
59 94 140
59 94 133
58 93 130
58 92 133
59 93 142
58 92 137
59 93 142
59 92 132
58 92 131
57 91 136
57 91 136
55 88 120
57 91 130
57 91 126
59 93 142
57 91 139
55 87 129
57 90 135
56 89 140
55 87 138
54 86 139
52 83 133
52 83 130
79 100 135
111 124 130
77 91 103
84 97 112
76 91 118
66 82 109
68 84 116
63 79 104
64 81 110
57 76 103
67 85 118
63 81 113
68 87 122
84 102 124
86 105 125
85 104 130
86 106 136
90 110 132
99 117 133
105 123 140
99 119 141
105 125 139
115 134 153
129 148 156
117 138 155
115 135 149
123 141 151
124 144 158
133 153 173
121 140 150
129 149 154
134 153 159
144 164 172
136 156 162
139 158 169
140 160 169
141 161 171
145 165 161
150 169 174
149 168 174
142 162 164
147 167 165
151 171 170
155 176 176
160 180 188
153 173 175
155 175 173
156 176 172
160 180 186
152 171 173
157 176 178
159 178 181
164 183 176
163 182 180
167 186 190
156 175 172
166 186 190
166 185 179
165 185 177
165 184 179
161 181 174
164 184 186
165 185 188
164 183 177
164 184 179
164 184 178
167 187 180
167 187 176
169 190 187
165 185 173
169 189 179
172 191 186
173 192 184
167 187 180
173 193 190
169 189 187
172 191 187
170 190 174
172 191 174
175 194 189
174 194 188
170 190 181
170 190 181
171 190 184
172 192 187
172 191 189
176 195 195
167 188 174
165 185 166
173 192 181
168 188 174
169 189 183
170 189 180
167 187 175
172 192 190
170 189 175
167 186 175
168 187 169
166 185 172
171 189 180
167 185 172
169 188 175
160 178 163
167 185 166
166 186 171
167 186 172
169 188 181
167 185 174
173 192 192
168 187 181
167 186 172
170 188 186
166 185 169
164 183 166
165 184 171
165 183 174
167 186 184
169 189 168
169 187 177
171 190 181
163 182 166
167 187 175
170 190 186
159 176 163
167 185 190
163 181 174
167 186 172
168 187 178
159 177 169
164 183 165
162 181 172
157 175 166
163 182 163
155 172 160
161 180 181
166 184 171
160 178 171
161 179 175
157 175 169
165 182 177
167 185 181
160 178 166
155 174 161
159 177 172
161 180 177
157 175 171
157 174 161
154 172 161
155 173 155
149 166 142
184 201 199
189 205 214
188 204 211
188 204 211
186 202 204
186 202 206
188 203 208
189 204 212
187 203 206
187 203 207
187 203 208
189 205 213
188 203 211
187 203 208
189 204 213
189 204 213
186 202 207
190 205 217
187 203 207
187 203 208
187 203 211
188 204 212
189 205 214
186 202 206
188 203 209
188 204 211
191 206 216
190 205 216
189 204 213
190 205 217
189 205 216
190 205 213
189 205 218
187 203 208
189 205 218
187 203 208
188 203 207
189 204 214
188 204 213
188 204 211
190 205 217
190 205 217
188 204 211
188 204 212
189 204 216
188 203 211
189 205 216
190 206 220
189 205 217
189 205 216
189 204 216
188 204 213
188 204 214
186 202 208
189 204 216
189 205 218
190 206 220
189 204 214
189 205 218
188 204 214
190 205 217
190 206 223
189 205 219
190 205 219
190 206 223
188 203 211
189 205 218
188 204 216
190 206 221
188 204 218
189 205 220
187 204 214
193 207 221
189 205 219
191 206 220
192 207 224
189 205 218
191 207 224
191 206 223
190 206 223
191 206 223
189 205 217
190 205 218
189 205 220
189 205 218
190 206 223
190 206 224
188 204 217
190 205 219
191 206 223
190 205 221
190 206 223
189 205 219
190 206 223
189 205 219
189 205 220
190 206 224
190 205 220
188 204 217
190 206 223
191 206 221
190 206 223
188 204 216
190 206 225
190 206 224
188 204 219
188 203 218
187 203 219
184 200 216
178 194 209
174 191 209
179 195 215
167 183 200
161 178 197
153 171 194
146 163 183
139 156 183
125 144 175
113 133 163
117 137 168
103 124 160
98 119 153
78 102 137
63 90 131
51 81 127
52 82 131
52 83 128
50 79 132
50 80 126
50 79 120
47 76 111
50 80 132
47 75 124
48 76 120
45 73 119
45 73 116
41 66 106
44 71 120
43 69 114
36 60 105
39 63 108
37 60 108
37 60 109
32 53 100
30 51 93
69 85 123
118 132 158
141 156 169
158 173 175
50 80 124
55 87 137
57 90 139
57 90 135
56 88 129
58 91 137
58 92 137
57 90 130
58 92 142
57 90 131
59 93 139
59 94 147
59 93 142
60 95 140
59 94 133
60 94 137
59 94 139
58 93 128
60 95 145
59 93 138
59 94 144
60 94 140
59 94 134
59 94 138
60 95 145
61 95 143
60 95 144
60 95 146
60 95 137
59 93 133
59 93 133
60 95 143
61 96 142
61 96 139
61 96 141
60 95 142
61 96 149
61 96 142
61 95 143
60 95 141
62 97 151
60 94 136
60 94 134
60 94 141
60 94 143
60 95 140
60 94 139
58 93 134
61 95 137
60 95 139
60 95 137
60 95 133
59 93 129
61 96 145
60 94 141
59 94 138
60 95 149
60 95 141
60 94 136
61 96 145
60 95 141
61 96 147
60 95 144
58 92 130
59 94 142
60 94 131
59 94 138
60 95 143
59 93 135
60 94 139
60 95 138
60 94 145
60 95 146
60 94 137
59 94 139
60 95 141
61 95 144
60 96 146
59 93 139
59 93 141
60 95 140
60 95 146
60 95 135
58 93 127
57 91 131
58 93 135
58 92 133
60 94 142
58 91 128
59 93 144
58 91 135
57 91 137
57 91 127
55 87 125
56 89 133
56 89 131
55 86 133
55 87 128
51 81 127
55 88 134
53 85 130
52 83 133
97 110 114
80 94 118
63 75 95
71 85 113
45 58 84
68 86 119
68 84 109
59 75 99
45 64 97
54 72 107
73 92 126
78 99 131
64 83 112
80 100 123
82 100 124
84 106 135
95 112 132
99 119 141
103 123 139
93 112 134
109 130 146
108 126 141
118 139 160
119 138 147
120 140 152
124 143 154
125 145 152
144 164 176
137 158 161
133 153 162
139 159 175
123 143 149
132 152 155
138 158 168
137 156 162
139 159 158
144 164 164
142 161 171
143 163 168
152 171 175
153 174 173
148 168 173
143 162 151
149 169 172
158 176 177
162 181 178
155 174 168
156 176 179
161 181 187
159 179 178
153 175 176
153 172 172
165 184 178
154 175 170
164 183 171
156 175 165
171 190 186
163 184 178
168 188 180
167 188 187
170 189 182
166 185 179
165 184 186
169 189 187
165 184 180
166 186 171
166 186 172
168 188 179
169 189 177
169 188 183
165 184 179
171 189 185
171 191 178
165 184 170
166 186 169
168 188 168
171 189 190
165 185 172
168 188 182
169 188 185
170 189 182
173 192 188
173 192 180
172 191 182
168 187 173
167 187 184
171 191 189
172 192 181
165 185 168
171 189 172
168 188 171
172 192 183
169 189 177
171 190 186
166 185 169
167 186 174
170 189 183
166 186 175
171 190 184
172 191 181
168 186 165
168 187 172
170 189 178
163 181 169
167 185 172
166 184 168
167 186 180
168 186 180
165 183 168
171 190 187
162 181 166
162 181 165
164 183 166
167 187 172
163 182 163
159 177 160
165 183 169
169 188 187
163 182 172
168 186 172
168 187 180
168 186 174
163 181 168
165 184 171
165 182 174
161 180 161
163 181 171
159 176 160
161 180 168
168 186 172
165 182 171
167 187 181
159 178 160
160 176 166
157 175 163
160 178 163
159 177 174
163 181 168
155 173 151
161 178 174
160 178 166
167 185 175
157 175 166
158 175 161
160 178 158
161 180 166
152 170 155
159 176 161
165 183 169
186 202 202
185 201 199
187 202 203
187 202 202
188 203 207
185 201 200
184 201 199
185 201 202
191 205 216
188 203 207
185 201 199
186 202 204
189 205 213
188 204 211
189 204 211
186 202 202
185 201 198
189 204 212
188 204 211
189 204 211
187 203 208
188 204 211
189 204 212
187 203 211
188 204 209
186 202 204
187 202 204
190 205 218
189 204 209
188 204 212
187 203 208
189 204 213
189 205 216
189 205 214
191 206 218
189 204 214
190 205 217
186 202 202
188 204 213
185 201 200
190 205 213
188 204 209
187 203 209
188 203 209
188 204 213
188 203 209
189 205 216
187 203 212
189 205 213
186 202 204
191 206 218
187 203 207
189 204 213
188 204 213
188 204 209
188 204 211
190 205 217
189 204 211
191 206 220
188 204 213
188 203 207
183 199 195
189 204 213
189 205 217
187 202 207
187 203 211
186 202 209
189 204 214
186 202 206
187 203 213
189 205 214
188 204 216
190 206 219
189 204 214
187 203 211
189 205 217
189 205 216
188 204 213
188 203 211
188 204 212
187 203 213
188 204 214
189 204 216
188 204 214
190 206 221
189 205 217
187 203 209
188 204 211
187 203 212
189 205 217
188 204 214
189 205 216
187 203 213
187 203 212
188 203 212
188 204 214
190 206 219
189 205 217
189 205 216
187 203 213
189 204 214
190 205 218
188 204 213
188 204 214
186 202 209
187 203 214
186 201 210
181 197 205
182 198 207
174 190 195
169 185 193
172 188 201
165 182 190
163 180 194
158 175 192
138 155 170
147 164 187
130 148 177
128 147 170
122 141 170
107 128 157
89 110 143
74 99 142
54 85 134
52 82 128
51 81 129
51 81 129
49 78 115
51 81 127
49 78 121
47 75 117
47 75 119
46 74 110
47 75 120
45 73 119
41 66 106
42 67 105
40 65 103
38 62 107
41 67 111
39 63 97
36 59 100
33 54 97
35 58 107
31 51 98
60 76 114
103 116 142
127 142 155
151 166 170
52 83 126
52 84 130
54 86 128
55 88 136
57 91 140
57 90 135
60 94 150
58 91 139
57 91 141
59 93 137
58 92 142
57 91 126
60 94 138
58 92 138
60 94 146
57 90 128
60 95 141
59 93 130
58 92 127
59 93 133
59 94 135
59 93 133
60 95 143
59 93 138
60 94 134
61 96 140
60 95 138
60 94 139
61 96 145
61 96 144
61 96 145
60 95 141
59 93 136
59 93 129
60 95 144
60 95 136
59 94 137
60 95 143
60 94 134
60 95 144
61 96 141
61 96 139
59 93 132
60 95 139
60 95 139
60 95 136
60 95 141
59 94 134
60 95 134
57 91 122
59 94 134
61 95 145
60 95 136
59 94 137
61 96 141
61 97 148
59 93 138
61 96 147
60 94 142
59 94 136
59 94 134
60 95 142
59 94 136
59 93 135
59 94 140
59 93 130
59 94 137
58 92 129
59 94 130
59 93 130
59 93 132
60 94 134
59 93 135
60 95 137
58 92 133
60 94 137
60 95 144
59 93 133
59 94 135
59 94 139
60 95 145
61 96 142
59 94 140
59 93 138
57 90 129
60 94 138
60 95 144
59 94 138
58 92 136
59 93 138
58 91 133
58 91 133
58 92 131
58 92 127
56 89 137
53 85 121
57 90 138
55 87 128
53 85 118
54 86 123
52 83 126
51 82 126
74 89 95
80 94 108
75 89 114
68 83 109
54 71 105
50 67 95
53 70 102
53 70 98
55 72 101
68 87 119
54 72 98
63 81 116
76 95 123
81 99 119
86 106 132
77 98 124
84 103 134
103 122 139
93 111 132
95 113 135
107 127 143
103 123 140
123 142 151
113 132 148
119 138 153
118 137 143
127 147 161
125 145 157
131 150 161
124 144 152
132 152 158
132 152 154
135 155 161
142 161 163
146 166 164
139 158 165
140 158 166
151 171 178
147 167 173
135 154 159
143 162 167
147 167 157
154 173 178
152 171 165
156 176 171
163 182 179
146 165 161
159 179 181
157 176 161
163 183 173
151 170 168
160 180 179
154 174 173
158 178 171
151 171 159
156 175 148
161 180 185
162 182 173
162 181 177
161 181 169
166 185 170
165 185 176
163 182 178
167 186 176
165 184 172
166 186 175
165 185 168
167 187 178
164 183 171
169 190 185
169 188 177
165 184 171
168 187 171
174 193 190
171 190 184
171 191 181
167 186 167
167 187 178
173 192 182
171 191 169
174 192 187
170 189 181
167 187 172
166 184 176
171 190 171
172 191 178
172 192 190
165 184 163
171 190 180
170 189 184
170 189 178
170 190 175
165 184 166
170 188 175
168 188 166
168 187 168
162 182 168
166 185 165
172 191 177
165 184 171
170 189 175
168 187 171
172 191 186
170 190 175
163 181 168
168 187 172
167 186 165
168 185 172
161 181 161
164 183 177
165 183 166
167 186 168
167 186 174
163 182 174
170 188 184
161 180 166
164 183 168
161 179 169
167 185 174
161 180 165
166 184 178
165 184 174
164 182 169
161 180 171
166 185 175
167 186 175
161 180 171
164 183 163
167 185 174
162 179 169
157 175 160
161 180 158
159 176 168
158 177 151
159 177 161
164 182 172
161 178 172
164 182 165
154 172 153
157 176 161
159 177 165
160 178 174
158 175 161
155 174 163
159 177 166
151 168 148
158 176 166
161 179 175
163 180 175
185 201 199
186 202 203
188 203 204
186 202 203
186 202 202
186 202 200
186 202 202
185 201 198
187 203 206
184 200 196
190 205 214
190 205 214
189 204 208
186 201 200
186 201 202
184 201 198
186 202 203
186 201 203
185 201 199
187 202 200
186 202 204
184 200 195
187 202 200
185 201 199
186 202 204
186 202 203
188 203 211
189 204 214
187 203 207
186 201 200
186 202 204
187 203 208
188 203 211
183 199 192
187 202 204
185 201 199
186 201 200
187 202 206
187 202 206
183 200 194
186 201 199
187 202 206
187 203 207
185 201 202
187 202 206
184 200 195
187 202 204
185 201 199
186 202 204
186 202 204
185 201 199
186 202 206
187 203 209
186 202 206
188 204 207
185 201 200
188 204 212
185 201 202
185 202 204
186 202 209
188 203 211
187 203 206
188 204 209
189 204 213
185 201 200
187 202 202
187 203 208
187 203 208
189 204 214
185 201 202
186 202 206
187 203 207
186 202 206
185 201 206
186 202 206
186 202 208
187 203 209
187 203 211
186 202 203
187 203 211
186 202 208
190 205 214
186 202 204
186 202 207
186 202 207
190 205 218
187 202 206
190 205 213
186 202 207
187 202 207
187 203 209
188 203 211
186 202 206
188 204 212
188 203 209
186 202 206
188 204 212
187 203 209
188 204 212
189 205 213
186 202 204
189 205 219
188 204 211
186 202 204
186 201 207
184 200 208
185 201 209
177 194 197
185 201 207
171 187 193
172 189 197
168 184 201
167 184 196
159 175 193
149 166 178
136 154 161
138 156 178
133 151 171
120 138 161
98 118 152
114 133 165
86 109 147
77 101 142
58 86 128
53 84 133
50 79 115
49 78 111
48 77 104
46 74 115
48 77 121
49 78 120
47 75 116
45 73 116
46 73 120
43 69 108
45 72 113
40 65 107
41 66 108
39 64 102
39 63 107
38 62 101
37 60 98
32 52 97
36 59 101
29 48 92
55 70 104
102 116 140
127 141 147
135 150 157
51 81 131
56 88 141
54 87 131
51 82 123
54 86 128
57 90 144
56 89 130
58 92 133
57 91 133
58 92 137
58 92 135
59 93 141
60 94 144
59 93 142
60 95 148
60 94 137
61 96 149
59 93 135
59 93 136
59 92 132
59 93 138
59 93 135
59 93 128
59 93 131
59 93 136
60 95 141
60 95 151
60 95 143
59 93 135
60 95 141
59 94 139
59 93 134
59 93 130
60 95 138
61 96 143
60 95 142
60 94 134
60 95 139
60 95 131
61 96 137
60 95 136
61 96 147
61 96 141
60 94 137
60 94 137
61 96 144
60 95 137
58 92 134
61 96 143
61 95 135
59 94 131
60 95 136
60 94 136
60 96 148
60 95 140
59 94 127
60 94 145
60 94 137
58 92 129
60 94 142
62 97 150
60 95 141
60 94 137
59 93 130
59 94 130
59 94 134
60 95 138
57 91 124
59 93 132
60 95 137
60 95 132
60 94 136
59 93 137
61 95 147
59 94 139
59 94 130
61 95 134
58 92 134
60 94 147
58 92 135
59 93 132
61 95 150
60 95 144
57 91 133
60 94 142
58 91 135
58 92 128
57 90 121
57 91 135
58 92 139
57 91 128
60 94 139
58 91 138
57 91 133
55 87 127
55 88 130
55 87 120
55 87 135
50 81 117
53 84 133
50 80 117
49 78 113
78 91 106
69 81 81
65 77 93
56 69 82
53 67 91
71 87 115
52 69 100
58 74 102
54 72 99
54 74 102
67 86 112
70 87 117
83 102 129
70 89 119
77 96 117
86 104 125
85 104 121
93 112 124
97 116 129
94 113 124
101 120 139
112 131 152
109 129 137
121 141 159
111 130 141
110 129 133
126 146 154
112 131 140
117 136 134
120 139 153
138 157 156
135 154 152
138 158 164
146 166 151
136 155 152
140 160 164
143 162 169
142 161 154
141 161 159
148 168 159
146 165 158
143 163 156
149 168 169
155 173 173
151 171 166
154 172 174
150 169 158
154 173 163
158 177 165
157 176 171
156 176 171
152 172 165
160 179 174
157 176 173
162 182 174
162 181 175
168 187 176
162 182 181
165 185 173
166 185 183
161 182 177
167 187 173
165 185 165
166 187 177
164 184 175
164 184 169
165 184 178
168 188 178
162 182 172
167 187 174
172 192 186
165 184 179
172 192 189
169 188 167
168 188 183
170 188 180
168 188 177
167 186 169
168 188 172
162 181 167
172 191 178
170 190 178
169 187 176
171 190 175
169 188 177
170 189 170
170 190 174
166 186 177
171 190 177
171 189 168
167 187 174
167 186 168
168 186 177
171 190 174
172 191 180
169 188 178
167 186 174
167 187 169
170 190 183
170 188 174
165 184 168
161 179 166
168 186 171
161 180 165
170 189 172
167 185 163
164 182 166
169 189 165
168 185 171
167 186 174
170 189 184
162 179 161
169 187 168
171 191 184
167 185 183
165 184 160
162 181 172
168 186 172
162 181 161
166 184 165
162 180 161
165 183 174
157 174 158
168 186 175
162 180 168
161 178 165
161 178 169
168 186 171
164 183 169
166 184 180
160 179 153
166 185 183
158 176 169
163 182 168
164 182 169
163 181 177
155 173 155
159 176 168
160 178 161
163 182 172
161 179 172
157 174 158
158 175 161
152 170 160
148 165 148
155 172 163
160 179 160
158 175 165
157 174 166
185 201 198
183 199 192
187 202 204
185 201 200
185 201 196
185 201 198
187 202 203
185 201 196
185 201 200
188 203 206
187 202 202
184 200 196
187 203 208
186 202 202
185 200 194
186 202 200
186 202 204
188 203 206
187 202 203
185 201 198
183 199 187
186 202 204
183 200 194
187 203 208
186 202 202
184 200 194
188 203 208
184 200 194
186 202 202
186 202 204
185 201 199
188 203 209
185 201 196
188 204 208
184 199 192
187 203 207
186 202 202
187 202 200
184 200 198
183 199 194
187 203 206
185 201 198
188 204 207
186 202 204
186 201 199
181 198 188
186 202 206
183 199 190
185 201 199
187 202 202
184 200 198
189 204 208
184 200 195
187 202 206
188 204 211
185 201 199
185 201 196
186 201 206
187 203 207
186 202 200
186 202 203
187 202 203
186 202 203
185 201 196
183 199 194
186 202 200
187 202 204
184 200 195
186 202 204
186 202 200
184 200 196
186 202 204
186 202 203
184 200 191
184 200 195
187 202 207
187 203 206
185 201 196
185 201 198
185 201 204
187 203 207
188 203 207
186 202 203
187 203 207
185 201 199
188 204 212
186 202 202
189 204 211
188 203 206
185 201 202
186 202 203
187 203 207
189 205 213
185 202 203
185 201 202
187 203 207
184 200 195
190 205 214
187 203 211
184 200 199
187 203 207
185 201 196
186 202 207
185 201 200
185 201 206
181 198 192
183 200 200
181 196 197
176 192 196
173 189 196
165 182 182
168 185 187
162 179 177
158 175 185
150 168 181
139 156 163
132 151 168
128 146 163
129 147 168
103 122 147
103 123 153
80 104 144
63 89 125
58 87 127
51 80 125
50 79 118
49 79 120
49 79 125
49 78 117
48 77 113
49 78 121
47 75 112
46 73 109
43 70 112
44 70 101
43 70 105
43 69 115
42 67 104
40 64 101
37 61 95
37 60 104
36 58 95
32 53 91
29 48 83
28 46 84
30 44 75
91 102 124
125 138 148
124 139 144
51 81 126
54 86 132
54 86 125
56 88 133
55 88 126
56 89 132
56 89 130
58 92 135
59 93 137
59 94 143
58 91 131
58 92 130
58 92 134
60 94 139
60 94 142
57 91 131
58 92 130
60 95 147
59 94 132
60 94 140
58 93 136
61 97 146
60 94 135
60 94 137
60 94 133
59 93 130
60 95 139
60 95 136
60 94 138
60 94 133
61 95 142
57 91 119
60 95 139
60 95 133
59 94 128
60 94 137
59 94 132
60 94 136
59 93 134
60 94 129
59 94 140
61 96 137
60 94 138
60 95 135
60 95 132
59 93 130
60 94 134
59 93 129
60 94 143
61 96 139
59 94 124
61 97 150
59 93 125
60 94 139
59 93 130
61 96 144
60 95 139
60 95 139
60 94 138
59 94 129
59 93 133
60 94 136
59 94 132
60 95 142
60 94 134
60 94 139
60 95 139
60 95 137
61 95 139
58 92 134
60 95 149
60 94 138
59 94 135
58 92 124
59 93 130
58 92 125
59 93 138
59 94 139
59 93 141
60 94 138
59 93 136
59 93 124
59 93 139
59 94 140
58 92 137
57 91 134
59 93 141
59 93 138
59 93 138
57 91 136
59 93 139
57 91 126
57 90 127
57 91 133
56 89 129
57 91 139
55 87 127
55 87 130
55 87 133
53 84 127
53 84 129
49 78 120
68 82 99
61 70 78
56 67 90
44 56 73
56 68 84
53 69 93
49 66 91
67 84 112
59 75 103
61 80 113
70 89 116
62 81 102
67 86 105
77 95 121
71 89 118
64 85 110
82 100 111
78 97 110
89 109 131
94 112 126
100 118 126
110 128 137
105 124 144
125 143 147
117 136 142
112 132 145
127 146 154
134 153 157
126 145 157
128 147 150
129 148 146
134 152 158
140 159 160
142 161 164
129 148 149
127 147 136
138 158 162
135 155 151
141 161 156
136 155 144
154 173 174
150 169 173
152 172 177
151 171 167
148 168 156
157 178 163
158 177 171
159 179 176
159 179 171
161 180 181
152 171 165
157 176 158
159 179 170
158 176 176
156 176 164
169 188 180
164 183 180
162 182 168
161 180 159
163 183 178
170 188 182
160 180 163
166 186 175
168 187 176
170 189 187
170 188 174
164 183 178
167 186 172
169 188 180
169 189 174
167 186 172
166 184 169
168 189 179
169 189 177
169 188 167
170 190 181
169 188 183
168 187 180
162 182 160
170 189 174
171 189 170
178 197 196
169 188 171
170 190 174
174 193 182
169 188 172
168 187 168
170 189 179
167 186 167
172 192 178
167 187 166
170 190 188
170 189 171
169 188 165
174 193 183
170 189 177
165 185 163
166 185 163
164 183 163
165 184 155
172 192 180
171 189 171
167 186 171
166 185 163
170 190 172
168 187 165
170 189 172
162 181 156
164 182 178
165 183 169
169 188 181
166 186 166
168 186 178
167 185 166
164 182 168
165 183 174
168 187 174
167 187 174
167 185 175
166 185 174
164 183 174
161 179 165
161 178 161
168 187 166
161 179 161
163 181 171
165 183 175
159 177 166
162 180 161
157 175 148
162 181 163
159 178 168
165 184 174
165 182 171
155 172 160
163 181 166
165 183 171
163 180 174
161 178 165
161 179 160
158 176 156
165 183 174
165 184 158
159 177 155
152 169 158
154 172 158
153 170 153
161 179 165
152 170 155
185 201 198
185 201 196
183 200 192
183 199 188
186 202 200
182 199 187
185 201 196
184 200 191
183 199 186
184 200 192
185 201 198
184 200 192
182 198 187
186 202 199
185 201 198
186 202 199
186 201 199
186 202 199
185 201 198
181 198 180
187 202 203
185 200 196
186 202 200
185 200 194
184 200 194
186 201 198
188 203 204
184 200 195
182 198 183
180 197 181
187 203 206
182 198 188
185 201 198
184 200 188
186 202 202
188 203 200
183 199 190
186 201 199
185 201 198
185 201 200
186 202 199
183 199 190
185 201 199
184 200 194
181 198 186
187 202 204
186 202 198
182 198 187
188 203 204
186 201 202
184 200 194
185 201 196
185 201 200
185 201 200
188 203 207
186 201 196
182 198 187
185 200 195
186 202 200
184 200 191
184 200 196
185 201 199
186 201 196
186 202 203
186 201 200
184 200 192
185 201 195
188 203 207
185 200 198
184 200 196
186 202 200
182 198 187
186 201 199
184 200 195
186 202 200
185 201 198
186 201 196
185 201 195
185 201 196
185 201 195
186 202 203
187 202 207
185 200 194
184 201 198
186 201 199
186 201 198
185 201 199
186 202 200
181 198 186
184 200 196
183 199 192
184 200 196
184 201 198
183 199 191
183 199 188
182 199 187
186 201 203
182 198 184
184 200 196
181 197 181
185 201 202
182 198 190
185 201 200
182 198 188
182 199 193
183 199 197
180 197 197
174 190 181
172 189 180
171 188 184
167 184 184
158 175 178
158 175 176
139 157 164
147 164 171
135 152 158
139 157 161
125 143 153
128 146 163
97 118 137
88 110 139
94 114 144
79 102 132
50 80 122
50 79 120
49 79 113
48 77 117
49 79 118
49 78 121
47 75 110
48 75 112
48 76 119
46 74 110
44 70 103
46 73 111
41 66 107
44 71 111
42 67 108
40 64 103
35 57 94
34 57 96
35 57 100
31 51 86
31 51 87
29 48 85
28 46 76
83 93 113
123 136 138
116 132 144
52 83 125
54 86 124
57 90 135
56 88 127
56 88 128
58 91 137
57 91 135
58 91 136
57 91 136
59 93 141
58 91 123
58 92 127
59 92 139
59 93 141
59 93 135
58 92 132
58 92 132
57 91 132
58 93 138
61 95 142
58 93 131
59 94 135
60 94 137
58 92 130
59 93 137
60 94 137
60 95 129
59 93 128
60 95 145
60 94 139
59 94 136
60 94 132
60 94 139
61 96 144
59 94 130
60 94 140
60 95 142
59 94 136
61 96 147
59 94 136
60 95 137
60 95 139
60 95 141
59 93 131
60 95 141
60 94 135
60 95 139
60 95 141
60 95 143
62 97 147
59 94 134
60 95 142
61 96 144
62 97 143
60 95 135
60 94 139
61 96 149
60 96 146
60 95 138
60 94 130
61 96 137
59 93 133
59 94 133
59 93 128
61 95 147
60 95 134
62 97 153
60 94 133
60 94 139
59 93 142
58 93 133
58 92 122
59 93 131
60 95 134
60 95 141
59 93 136
58 92 127
60 94 137
59 94 131
60 94 140
59 94 138
58 92 128
59 93 137
56 88 113
57 90 130
57 90 131
58 91 134
59 93 133
59 93 135
59 92 136
58 92 137
57 91 142
57 90 128
53 85 116
57 91 138
57 90 133
54 86 123
56 88 129
55 86 136
51 81 120
51 81 118
48 76 118
78 91 98
62 72 79
38 51 62
40 53 70
45 59 77
48 65 95
56 73 102
48 66 96
61 79 110
61 78 106
72 91 115
65 85 101
71 90 111
69 87 104
79 96 113
85 104 118
91 110 114
93 111 117
90 109 121
94 114 121
112 131 136
110 130 142
98 117 116
104 122 126
105 124 122
120 138 141
119 137 137
124 144 151
115 135 137
116 135 141
127 146 141
129 148 153
132 152 155
132 151 152
139 158 146
142 160 148
145 164 163
135 154 155
150 169 162
141 161 154
146 165 158
143 162 145
138 156 150
151 170 163
157 176 175
154 174 163
149 167 151
158 179 163
158 176 168
154 175 162
154 175 178
149 168 151
154 173 164
157 176 157
161 181 168
159 178 168
156 175 169
162 182 174
162 182 172
168 187 178
164 183 167
159 180 172
170 189 177
166 185 179
167 187 176
162 181 155
162 181 172
166 186 182
166 185 178
164 183 170
171 190 180
166 185 172
169 187 181
167 186 172
165 184 155
169 189 165
168 186 165
165 184 158
164 183 162
171 190 175
167 187 168
169 188 177
167 187 177
163 182 161
173 192 183
164 184 154
168 187 166
167 187 169
168 186 172
169 187 171
172 190 181
165 185 160
167 186 163
166 185 168
163 182 166
171 190 181
170 189 180
166 185 165
166 186 158
166 185 163
171 190 178
170 188 180
167 186 166
169 187 171
164 182 175
167 185 172
166 184 171
168 185 168
164 182 163
161 179 165
168 186 166
162 180 153
160 179 171
163 182 161
160 179 151
160 179 165
164 182 161
169 187 177
163 182 158
167 185 175
166 183 172
169 188 183
167 186 166
162 180 168
160 179 172
160 178 160
160 177 158
163 181 169
162 180 168
166 184 174
161 180 163
162 179 156
162 181 161
161 179 160
160 178 158
162 180 166
158 176 151
156 173 150
164 183 172
155 173 153
159 177 163
152 170 148
155 173 146
157 173 148
155 173 156
152 168 150
152 169 155
158 176 161
154 171 148
184 200 194
185 200 194
184 200 195
184 200 192
184 200 195
184 200 196
185 201 195
183 199 191
183 199 188
183 200 195
184 200 191
184 200 191
183 199 190
185 200 191
183 199 187
183 199 187
185 201 195
183 199 190
179 196 178
183 199 190
184 199 188
183 199 188
183 199 190
182 198 184
183 199 187
184 199 190
182 198 184
189 203 206
184 200 194
185 201 199
184 200 192
185 201 199
181 197 180
185 201 196
184 200 195
184 200 192
185 201 194
183 198 188
185 201 198
183 199 190
182 199 188
185 201 196
183 199 190
183 199 188
183 199 187
187 202 203
183 199 191
183 199 191
182 198 181
184 200 190
182 198 186
180 196 178
180 197 180
187 202 203
185 201 196
186 202 200
181 198 186
186 201 196
185 201 198
180 197 180
184 200 194
182 199 191
182 199 188
185 201 194
184 200 192
184 200 191
181 198 188
185 201 198
183 199 190
185 201 198
181 198 181
181 198 183
182 198 186
185 201 195
184 200 192
186 202 199
185 201 195
182 198 186
186 202 202
182 198 184
182 198 191
185 200 195
183 199 190
181 198 183
185 200 194
182 199 188
183 199 192
181 197 184
183 199 190
181 197 183
185 201 199
184 200 191
182 198 187
183 199 187
183 199 191
185 201 196
179 196 178
184 200 195
183 199 186
183 199 191
180 196 172
184 200 192
182 198 187
184 200 192
183 199 191
177 193 180
180 195 195
177 193 187
176 192 188
169 186 172
165 181 175
152 169 151
146 164 154
158 175 174
145 162 162
140 157 167
124 142 144
135 152 157
114 134 148
115 134 156
97 117 127
92 113 139
63 89 119
51 80 118
51 80 118
51 81 116
48 76 104
49 77 102
47 75 106
47 75 114
47 76 112
48 76 112
44 70 100
42 68 99
43 69 95
43 69 104
42 68 102
39 63 97
40 65 101
37 60 96
34 56 94
35 57 87
32 53 83
30 49 83
30 49 80
26 43 76
62 73 96
119 133 132
111 127 132
51 80 122
52 84 123
56 88 128
55 87 128
56 89 126
56 89 122
57 90 132
60 94 139
59 93 143
60 94 141
56 89 123
56 89 118
58 93 135
58 93 132
59 94 142
59 93 139
59 93 139
59 93 143
59 93 138
59 93 136
58 92 136
58 92 131
60 95 140
60 94 142
59 94 137
60 95 136
59 93 138
59 94 133
58 93 133
58 92 127
60 94 139
60 94 133
59 94 131
60 94 133
59 93 135
62 97 141
60 94 129
60 94 129
60 94 139
59 93 126
60 95 143
60 95 139
59 93 127
60 94 139
60 94 137
59 94 137
59 94 131
59 94 134
60 95 136
60 94 140
60 94 134
60 94 136
55 88 108
61 96 144
61 96 141
58 92 127
59 94 135
60 95 134
61 96 147
59 93 130
59 94 130
62 97 149
61 96 135
60 94 135
59 94 130
60 94 131
59 94 136
60 95 136
60 95 139
59 93 133
61 95 140
60 95 134
59 93 134
59 94 139
60 95 141
59 93 134
58 91 124
59 93 135
57 91 129
58 91 129
59 92 131
59 93 144
60 94 139
57 91 136
57 91 125
59 93 129
59 93 135
58 91 138
59 93 141
58 92 135
57 89 120
57 91 132
59 93 145
57 90 135
56 89 128
54 85 121
54 86 134
55 87 130
50 81 111
53 85 125
52 83 126
49 78 117
54 69 81
69 81 71
60 72 83
59 73 93
39 53 78
56 72 85
49 65 84
41 58 85
41 59 84
48 68 98
50 69 88
67 84 97
61 78 95
71 89 106
83 101 121
90 109 132
90 108 124
82 101 115
86 105 111
92 111 120
114 135 142
98 117 118
115 133 138
106 126 141
117 136 136
118 135 144
120 139 139
124 142 146
132 151 158
127 146 134
131 150 139
133 151 143
135 153 148
129 148 142
138 157 156
131 151 153
139 159 157
144 163 169
140 158 144
147 166 161
146 165 156
147 166 149
149 169 166
150 168 164
149 168 160
152 170 171
153 172 151
155 173 170
156 176 162
148 168 146
155 173 163
156 175 162
157 176 166
159 178 169
161 180 163
163 183 158
165 184 175
162 181 171
158 178 171
161 180 158
163 182 173
162 181 159
165 184 161
166 186 173
166 185 163
166 185 162
168 187 173
165 184 166
169 189 177
170 189 176
164 183 164
164 183 156
171 191 184
171 190 176
167 185 170
170 190 177
168 188 172
171 190 180
165 185 164
166 185 165
166 186 169
171 189 176
171 191 182
169 189 174
166 185 163
172 191 171
172 191 169
171 190 176
170 190 177
168 187 177
175 193 183
170 189 174
167 186 171
168 187 169
171 190 175
167 186 166
171 190 181
169 188 172
167 186 163
166 185 165
165 184 161
171 190 178
166 185 161
168 187 180
169 188 178
165 184 163
168 187 175
162 181 160
166 183 163
166 184 171
170 189 174
167 186 171
163 181 156
159 177 150
167 186 160
167 185 174
161 180 161
162 181 158
160 178 163
160 178 155
161 180 165
158 176 153
158 176 160
165 182 168
165 184 165
159 177 150
164 182 163
167 185 171
155 173 160
163 181 165
161 179 165
159 177 146
167 185 171
156 173 153
158 176 158
162 179 163
161 180 155
161 179 165
157 174 146
158 176 160
152 169 144
152 170 158
157 175 156
153 171 156
155 172 161
157 175 158
154 171 161
157 173 153
158 175 160
182 198 186
183 199 187
184 200 194
182 199 187
182 199 188
183 199 187
183 199 191
182 198 181
186 201 198
183 199 190
184 200 190
183 199 188
186 201 198
183 199 191
183 199 187
182 198 183
183 198 183
183 199 187
182 198 186
182 199 187
183 199 190
187 202 202
181 197 178
185 200 194
179 196 175
184 199 187
179 195 172
182 198 187
184 200 188
183 199 186
181 197 177
182 198 184
185 201 198
183 199 187
181 197 178
182 198 184
187 202 198
181 197 180
185 201 198
182 198 186
183 199 187
184 200 192
185 201 195
185 200 194
180 197 177
183 200 191
181 197 178
182 198 186
183 199 187
181 196 175
184 200 192
183 199 186
182 198 184
182 198 184
181 198 184
183 199 186
183 199 190
180 196 177
181 197 177
183 199 190
178 195 171
177 194 172
180 196 177
181 197 184
181 198 183
175 193 156
184 199 190
186 201 196
180 197 177
182 198 188
185 200 194
179 195 177
179 196 177
182 198 187
183 200 191
183 199 190
181 198 184
180 197 181
182 198 181
181 197 181
182 198 186
181 198 184
182 198 183
176 193 165
179 196 171
177 194 169
179 196 177
180 197 180
178 195 171
183 199 190
180 196 175
180 196 177
183 199 187
181 197 181
180 197 183
179 195 174
182 198 183
183 199 187
183 199 190
183 199 188
176 193 175
176 192 169
182 199 190
176 194 169
180 197 183
176 192 174
176 193 170
178 194 177
169 185 168
168 183 167
159 176 156
159 176 166
144 161 161
147 164 159
146 164 156
141 159 151
136 153 149
123 141 146
105 124 144
112 132 153
89 110 126
64 89 111
66 91 129
51 80 115
49 78 105
51 80 119
47 76 109
50 79 113
48 76 105
49 77 114
49 78 107
48 76 116
45 72 105
43 70 108
43 68 104
44 71 110
41 66 97
41 66 93
39 64 99
37 60 89
36 58 93
33 55 85
31 52 82
26 44 66
25 41 64
32 46 69
63 74 85
103 115 109
113 129 140
51 81 124
55 86 132
53 85 122
53 85 120
55 87 128
58 92 141
55 87 118
57 91 127
58 92 141
57 91 130
59 92 141
59 93 138
59 93 135
59 94 138
57 90 127
59 94 145
60 94 142
57 90 127
58 92 123
58 92 129
59 93 128
59 92 128
59 93 135
59 93 138
60 95 142
59 93 139
60 94 138
58 92 131
60 95 137
59 94 132
61 95 144
61 96 144
60 94 127
59 93 134
59 93 129
60 95 133
59 94 139
60 95 136
59 93 134
59 94 136
59 93 131
60 94 132
59 93 129
60 95 136
59 93 130
60 94 135
60 94 131
61 96 143
59 94 135
60 94 135
61 96 137
60 95 139
60 95 140
61 95 135
60 95 136
61 95 140
59 94 124
59 93 132
59 94 131
59 93 135
58 92 130
60 94 134
61 95 139
59 93 135
59 94 133
59 93 123
60 94 144
61 95 136
60 95 142
59 94 134
61 96 142
58 92 134
58 92 129
58 91 135
58 93 140
59 94 142
59 92 140
58 92 131
56 89 129
59 94 141
59 94 135
58 92 135
59 93 136
58 92 133
57 91 130
58 92 139
57 91 123
57 90 120
58 92 135
58 92 133
56 89 124
57 90 135
56 89 131
57 90 129
55 88 125
55 88 130
56 89 127
56 88 135
51 82 121
54 86 121
50 79 108
45 73 105
61 78 96
65 76 75
46 56 74
59 70 88
40 55 65
43 60 78
38 54 70
48 66 89
45 63 93
53 70 87
54 74 101
58 75 96
62 81 103
67 86 107
71 91 111
80 99 115
79 96 99
90 110 121
90 110 125
96 114 123
93 112 121
106 124 139
115 134 145
105 125 135
123 142 138
117 136 145
120 140 132
122 141 140
113 133 129
120 139 137
134 151 148
124 142 150
132 150 136
141 160 156
131 150 134
132 152 151
134 154 144
147 167 157
145 163 159
138 157 148
133 152 140
147 166 152
154 173 163
149 168 157
148 168 165
156 175 171
151 171 166
152 171 156
160 180 173
157 176 161
160 179 165
159 178 160
156 175 162
160 179 164
158 177 170
161 180 167
158 177 161
164 183 163
162 182 177
162 181 157
166 184 172
160 179 159
165 184 173
162 182 161
164 182 167
161 181 159
161 180 166
162 182 160
166 185 163
166 185 154
167 186 178
172 191 179
168 187 165
163 183 164
169 187 176
168 187 168
168 187 163
167 186 166
167 186 172
169 189 183
167 187 172
166 186 161
171 189 166
170 189 169
166 185 165
166 185 168
170 190 177
171 190 169
169 187 172
168 188 161
168 187 161
174 193 183
163 182 166
167 186 160
166 185 155
168 187 166
169 188 168
170 189 172
166 187 158
163 181 160
162 179 155
169 188 165
170 189 171
168 186 169
159 177 155
164 181 160
166 185 166
167 186 168
166 185 151
163 182 163
162 181 153
163 181 163
168 186 166
164 181 166
164 182 151
165 183 168
163 182 168
164 182 160
161 180 161
164 183 171
165 183 165
158 175 156
170 188 177
162 180 153
162 181 163
165 182 171
166 185 172
162 179 161
158 175 150
159 178 158
163 181 160
164 183 153
158 176 141
154 171 150
166 184 175
157 174 158
157 175 151
162 180 153
159 176 163
166 185 171
157 175 160
162 180 165
157 175 153
160 176 161
158 176 160
163 181 169
150 167 150
155 170 153
156 174 151
181 198 181
184 199 187
183 198 188
184 200 194
183 199 186
180 197 177
185 200 194
182 198 183
182 198 184
181 197 174
182 198 180
181 197 177
182 198 181
185 201 194
181 197 178
180 197 174
182 198 178
180 197 178
187 202 199
182 198 186
181 197 180
179 196 174
184 200 194
183 199 186
182 198 180
180 196 178
181 197 178
183 199 188
182 198 181
177 194 166
184 200 190
179 196 177
183 199 187
181 198 184
180 197 175
178 195 171
180 197 177
182 199 186
181 198 183
180 197 178
179 195 171
183 199 186
181 197 180
182 198 183
179 195 172
183 199 186
182 198 181
182 198 183
181 197 181
184 199 188
183 199 190
180 197 181
180 197 178
175 192 156
182 198 183
183 199 188
180 196 172
177 194 169
181 197 178
182 198 184
178 195 174
181 197 177
181 197 177
179 195 172
182 198 180
182 198 181
179 196 174
180 196 175
179 195 172
184 200 188
181 197 180
179 196 172
180 196 174
181 198 180
177 194 169
179 196 177
181 197 180
183 199 188
181 198 181
182 197 181
182 198 183
178 195 169
180 197 183
184 199 186
179 196 174
178 195 171
179 196 174
182 198 181
177 193 161
179 195 172
183 199 184
181 196 178
180 197 178
177 194 168
177 194 168
182 198 183
174 192 161
181 197 175
178 195 169
181 197 177
180 196 180
179 194 184
182 197 184
178 195 174
177 194 167
175 191 171
174 190 161
174 190 167
170 187 173
162 179 152
164 181 166
154 171 157
144 161 139
144 161 156
139 157 146
138 155 151
127 145 139
105 124 136
125 142 137
97 118 126
95 116 113
86 108 122
63 89 119
54 83 111
51 80 119
49 78 110
47 76 105
50 79 110
48 76 109
48 77 108
49 78 113
46 72 98
44 70 100
44 70 106
41 67 103
41 66 94
42 67 97
37 61 88
36 59 91
40 63 94
40 64 99
35 57 90
31 51 83
31 51 75
26 43 72
31 46 70
59 71 77
110 122 113
108 122 114
50 81 123
51 81 118
52 84 119
55 88 126
57 90 131
56 89 131
57 91 133
58 91 133
56 89 121
57 90 132
56 89 124
58 92 135
56 89 131
58 92 133
56 90 125
59 94 144
59 93 129
58 93 134
58 92 125
58 92 116
58 92 127
59 93 131
57 90 121
59 94 131
59 94 139
59 93 130
59 93 136
60 94 133
61 95 136
60 95 139
61 96 144
59 94 132
59 93 130
59 93 129
61 97 145
61 95 133
60 94 137
58 91 130
59 93 126
59 94 129
59 93 129
59 93 130
59 93 131
59 93 135
60 94 138
60 95 137
59 93 131
59 94 131
59 93 139
60 95 137
60 94 131
59 94 135
59 94 135
59 93 131
60 95 133
60 95 136
60 95 139
59 93 135
60 94 137
58 92 120
60 95 138
60 94 142
59 93 135
59 93 127
61 96 140
58 93 130
59 94 129
60 94 136
59 92 132
59 93 131
61 96 139
57 91 126
59 93 126
59 93 135
59 93 131
59 93 132
59 93 130
59 93 134
60 94 132
58 91 133
58 92 135
60 95 144
59 92 137
59 92 134
57 91 119
57 91 126
56 89 131
57 91 126
58 91 132
56 89 122
55 88 122
56 89 124
56 88 120
57 90 126
52 83 111
55 88 131
55 88 123
55 87 129
50 80 112
52 84 117
51 81 124
49 79 111
62 77 76
61 73 68
45 55 58
51 61 58
33 46 58
33 47 59
43 60 77
48 64 76
35 54 80
50 67 82
59 75 87
69 87 107
69 87 98
67 84 94
81 99 102
88 107 114
84 103 123
83 101 113
108 127 135
106 125 123
102 121 123
101 120 128
99 118 115
118 136 146
106 125 122
118 137 144
121 140 139
118 137 145
122 142 134
122 141 145
118 136 132
134 152 145
138 157 154
138 157 156
144 163 151
133 151 146
139 157 159
143 163 156
142 161 149
143 163 157
143 163 150
147 165 145
143 162 148
145 163 144
153 172 170
156 176 170
158 177 174
153 172 144
153 172 163
160 179 161
148 167 151
153 173 158
159 177 156
156 175 161
158 177 157
159 177 151
167 186 177
162 181 167
157 176 158
159 179 153
162 181 164
165 184 170
163 182 172
158 176 154
153 172 147
162 181 157
167 185 166
164 182 171
163 182 151
167 186 178
163 183 154
165 184 164
162 181 159
168 187 168
165 184 161
168 188 171
170 189 171
171 190 175
169 187 166
172 191 172
171 191 183
165 185 165
167 186 164
169 188 171
169 187 180
167 186 156
168 188 174
167 185 166
167 186 168
170 189 168
165 184 158
163 181 156
169 187 168
169 188 172
163 180 153
165 183 166
169 188 163
167 186 163
168 186 171
161 179 160
169 187 165
165 184 171
165 183 169
169 188 169
165 184 155
159 178 155
164 183 161
165 183 168
168 186 177
171 190 175
164 182 160
165 183 158
162 180 151
166 185 163
164 183 168
164 182 156
166 183 163
168 186 169
159 176 151
163 179 166
159 177 158
157 176 151
168 187 175
164 182 163
147 166 139
159 177 155
161 179 158
167 184 178
162 179 165
156 173 141
160 178 158
156 174 158
159 176 156
158 176 155
157 175 158
161 179 153
159 178 156
152 170 137
156 174 153
164 183 161
160 178 161
161 178 156
162 179 166
161 180 165
158 175 158
153 170 146
161 178 160
157 175 161
155 173 158
181 197 180
182 198 181
180 196 180
179 196 172
183 199 184
180 197 177
179 196 171
179 196 172
180 196 171
183 199 187
184 200 188
177 194 161
182 198 178
182 198 186
185 200 190
181 197 178
182 198 181
180 197 177
179 195 169
179 196 171
177 194 165
177 193 166
183 198 181
179 196 171
179 196 172
180 196 174
181 197 180
178 195 169
175 193 158
180 196 175
182 198 178
183 198 181
180 196 174
177 194 163
177 194 163
180 196 172
183 199 188
179 196 171
180 197 177
179 195 174
178 195 165
181 198 180
179 195 168
182 197 177
180 197 177
180 197 174
180 196 172
179 196 169
179 195 177
179 196 171
181 197 175
178 194 165
179 195 177
179 196 168
181 197 177
180 196 174
178 195 163
175 193 156
180 196 174
176 193 158
178 195 171
178 195 168
179 195 174
181 197 177
179 195 168
180 196 178
179 195 171
177 194 163
181 197 177
175 192 156
184 199 186
180 197 177
175 192 156
179 195 172
176 193 166
177 194 168
180 197 178
176 193 163
180 196 174
176 193 156
176 193 165
180 196 174
178 194 171
176 193 160
177 194 161
178 194 166
179 195 172
176 193 156
181 197 177
178 194 163
175 192 160
178 195 171
177 194 169
179 195 171
182 198 177
177 194 168
175 192 158
177 194 169
176 193 160
176 193 168
175 192 156
176 193 165
175 192 166
172 189 151
174 191 157
175 191 157
169 185 162
173 189 169
163 180 146
163 180 154
155 172 156
156 174 159
150 167 150
145 162 144
141 158 139
136 153 148
122 140 134
111 131 120
118 137 127
114 133 123
100 121 117
73 98 109
69 94 107
48 77 101
49 78 106
48 77 103
48 76 114
48 76 109
47 75 102
48 76 109
45 72 93
45 71 103
45 72 102
44 71 95
41 66 97
40 64 96
36 59 90
40 65 95
40 64 96
37 61 93
34 56 88
30 49 77
30 50 78
28 46 72
28 46 71
23 38 52
68 80 83
113 126 108
126 142 131
47 75 110
52 82 115
54 87 118
58 91 141
54 86 116
56 89 133
57 90 130
57 90 115
57 91 129
56 89 122
57 90 133
60 94 142
58 92 127
59 94 139
60 94 141
58 92 134
58 93 129
56 89 117
58 92 132
60 94 133
59 93 130
58 91 119
60 95 141
58 91 123
59 93 138
59 93 131
59 93 129
57 91 119
59 93 131
61 95 137
59 93 134
60 95 138
60 95 131
59 93 131
59 94 137
59 94 134
60 94 129
60 95 140
59 94 132
59 94 139
61 96 141
59 93 138
60 94 131
58 92 125
59 93 123
59 94 128
59 93 129
60 94 136
59 93 131
60 94 129
60 94 126
60 94 142
59 93 129
59 93 135
59 94 135
60 94 131
59 93 133
60 95 133
60 94 137
61 95 134
58 92 130
60 94 139
59 94 132
58 92 136
60 95 134
59 93 135
57 91 122
59 93 132
59 93 134
60 95 140
58 92 132
59 93 128
58 93 135
60 94 139
58 91 125
59 92 134
59 93 139
59 93 131
57 90 123
56 89 109
58 92 125
60 94 143
58 91 129
58 91 120
60 94 135
58 92 128
57 90 125
58 91 127
56 89 121
56 90 129
57 90 137
57 90 125
57 90 126
55 87 129
56 89 125
54 87 122
57 89 129
53 84 110
55 88 131
52 83 116
47 75 112
48 76 109
72 87 88
70 81 72
46 59 60
42 53 61
47 59 65
48 61 76
44 61 76
41 57 83
41 59 81
59 76 82
45 61 75
58 76 82
47 65 81
64 82 95
79 96 96
69 88 99
81 100 115
86 102 110
86 104 115
98 116 124
106 125 125
114 133 131
97 115 121
108 126 119
106 124 117
112 131 122
108 127 129
123 141 126
119 137 145
128 146 136
124 142 135
119 138 135
134 153 137
132 151 136
134 152 148
132 151 138
142 160 152
146 164 151
137 155 145
138 158 151
141 159 124
148 167 142
145 164 156
150 169 158
136 156 145
147 166 149
153 173 153
151 170 137
153 172 159
151 170 162
159 178 160
153 171 149
151 170 144
162 180 156
159 179 164
157 177 152
156 176 155
157 176 154
160 178 169
156 176 151
159 178 155
164 182 155
156 175 158
163 182 152
164 183 162
163 182 168
166 184 167
165 185 164
167 186 166
160 179 137
164 183 164
170 189 178
163 183 156
166 185 170
167 186 167
166 185 158
160 179 164
164 183 164
168 187 170
167 186 151
166 185 168
164 183 150
170 189 174
169 189 161
170 188 171
166 184 169
167 186 166
165 185 146
162 181 156
168 188 161
166 185 158
164 183 158
168 186 168
169 189 171
170 188 174
165 184 158
168 187 168
164 183 160
168 187 166
163 182 148
166 184 168
163 182 165
167 185 158
169 187 174
167 186 178
166 185 169
172 189 174
166 186 158
163 182 163
165 183 171
165 184 163
165 184 165
165 183 160
164 183 166
163 181 153
161 178 158
169 187 171
162 180 153
168 186 166
164 182 153
168 186 163
161 179 165
161 178 166
164 183 153
164 182 166
158 176 155
162 180 165
160 178 146
165 183 169
162 181 163
163 180 153
159 177 155
161 179 160
160 178 153
158 177 148
165 184 172
159 177 156
158 176 151
161 179 151
158 176 148
155 172 163
160 178 168
157 175 163
153 170 153
146 162 131
159 177 161
159 176 169
156 174 155
156 173 156
182 198 180
179 195 168
179 195 171
185 201 192
182 198 181
184 199 190
184 199 186
179 196 174
175 192 158
180 197 175
181 198 184
179 196 168
178 195 163
177 194 171
183 198 183
179 196 172
183 199 186
182 198 181
179 195 165
176 193 160
182 198 180
179 195 172
178 195 175
177 194 168
178 195 171
180 196 175
181 197 177
180 196 171
181 197 180
182 198 180
182 198 183
177 194 163
183 198 183
179 196 172
179 195 171
180 196 174
179 195 171
180 196 169
179 195 165
180 197 174
178 194 169
181 197 177
178 195 168
179 195 169
179 195 172
179 196 171
180 196 172
178 195 168
181 197 178
179 195 168
179 195 166
181 197 178
182 197 177
181 197 177
177 194 165
174 191 150
175 192 158
178 194 165
181 197 177
178 194 163
181 197 178
174 192 153
173 191 146
181 197 174
178 195 168
177 194 166
177 193 165
173 190 139
177 194 160
175 192 155
178 195 166
181 197 177
177 194 163
173 190 148
175 192 151
177 194 165
178 194 168
175 192 156
179 195 174
175 192 161
178 194 165
172 190 146
175 191 160
176 193 163
177 194 161
179 195 172
178 194 169
174 191 158
179 195 166
176 192 158
175 193 158
174 191 155
176 193 166
172 189 151
174 191 163
174 191 155
175 191 161
177 194 166
176 192 168
175 192 156
175 192 155
174 191 150
174 191 155
172 189 160
174 190 163
173 190 158
171 189 142
167 183 149
163 179 141
170 186 164
156 173 140
152 169 142
148 165 134
140 156 134
138 155 137
127 145 123
130 148 139
109 128 119
110 130 117
102 123 102
94 114 110
84 105 116
58 85 88
51 81 116
49 78 109
50 79 106
49 78 108
48 77 109
48 76 98
46 73 100
47 75 106
44 70 90
43 69 94
46 73 100
43 69 100
42 68 94
38 62 88
39 62 88
37 60 72
37 59 85
35 57 86
33 53 81
28 47 70
28 46 60
27 45 67
45 59 61
74 86 64
114 127 118
139 155 135
48 75 102
49 78 114
53 85 110
56 88 125
55 86 121
56 88 118
56 89 128
57 90 132
58 92 134
56 88 130
58 91 131
57 90 127
58 92 131
58 91 132
58 91 125
59 93 134
57 90 127
59 93 132
57 91 127
59 93 132
58 92 135
59 92 130
59 93 133
58 92 129
58 92 130
59 93 121
59 93 120
60 94 142
60 94 141
59 92 133
60 94 133
58 92 122
60 94 137
59 92 133
61 96 143
60 94 139
59 93 135
58 92 123
59 94 131
59 93 125
58 92 125
58 93 131
58 92 129
58 92 118
59 94 131
57 90 122
60 94 134
60 95 133
59 93 129
59 93 125
59 94 137
59 93 125
58 92 123
61 95 136
59 93 136
59 93 135
60 95 137
60 95 140
60 94 141
58 92 122
58 91 120
58 92 130
59 93 129
57 91 120
59 93 131
60 94 131
61 96 144
60 95 139
59 93 134
58 91 123
60 95 141
59 94 136
60 95 138
59 94 133
60 94 137
58 92 127
58 92 133
58 92 131
59 93 137
59 93 131
59 94 138
59 93 136
59 92 137
59 93 138
59 93 131
57 90 138
58 91 131
58 92 138
58 91 126
56 88 123
58 91 137
56 89 131
56 89 125
55 87 119
56 89 118
53 85 110
56 89 126
55 87 123
53 84 132
50 79 112
51 81 116
47 74 114
73 86 77
59 69 47
49 61 44
37 51 56
39 52 51
49 64 68
50 66 75
41 55 59
38 57 69
52 70 80
47 66 87
64 81 86
61 79 93
59 75 84
62 81 89
77 95 101
79 98 105
92 110 114
95 114 122
85 103 107
100 119 119
105 125 109
115 132 138
106 123 129
110 127 130
113 131 114
113 129 118
125 143 140
122 141 149
122 141 132
123 142 133
126 146 129
135 153 152
137 157 144
132 150 121
138 157 139
139 159 142
142 161 154
135 153 133
134 153 138
134 152 137
134 154 140
143 163 144
148 167 147
153 171 163
148 167 140
150 169 148
150 169 155
158 178 159
156 175 166
151 170 151
160 179 170
157 177 153
156 174 156
162 182 175
163 182 170
160 179 163
164 183 171
164 183 155
158 178 157
162 181 152
158 177 151
164 183 156
163 182 157
165 184 164
165 184 162
159 179 175
168 188 174
158 178 141
163 183 149
168 188 163
166 184 165
169 188 161
167 187 169
165 184 162
164 183 160
167 186 167
171 189 175
170 189 166
166 185 167
168 187 165
170 189 175
160 179 158
167 186 155
172 192 177
166 185 165
168 187 161
168 187 163
165 185 163
165 183 158
168 188 172
163 182 151
162 182 151
168 187 172
168 187 163
162 181 161
166 185 151
167 186 158
165 184 155
170 188 166
164 183 150
165 185 161
163 182 163
166 185 158
163 181 161
166 185 160
162 179 156
160 178 144
166 184 158
165 184 150
165 183 158
157 175 142
156 174 133
167 185 165
166 184 156
168 186 165
164 182 163
161 180 156
158 175 161
168 186 165
159 178 153
164 183 158
164 183 155
160 179 168
159 176 163
164 182 172
157 176 137
160 177 158
162 181 160
154 171 144
158 176 156
164 182 171
161 178 144
146 162 137
159 178 151
158 177 155
165 182 171
163 180 166
166 184 175
161 177 161
156 174 146
151 168 142
160 176 161
158 176 150
160 177 151
157 175 146
157 175 156
149 165 141
163 180 158
180 197 175
179 196 172
179 196 174
180 196 171
180 196 171
179 195 168
180 196 174
177 194 161
180 196 174
181 197 175
182 198 180
178 195 163
181 197 175
179 195 174
181 197 178
179 195 172
175 192 153
183 199 188
182 198 184
179 195 171
178 194 161
176 193 156
176 193 158
174 191 151
178 195 163
175 192 156
179 196 172
178 195 166
179 196 172
178 195 166
179 196 172
178 195 166
178 194 163
178 195 171
178 195 161
179 196 169
177 194 161
177 194 165
182 198 180
175 192 153
175 192 153
177 193 163
179 195 171
171 188 144
180 196 174
176 193 161
175 192 151
181 197 175
175 191 148
179 196 174
175 192 153
178 195 165
174 192 156
179 195 166
176 193 155
176 193 160
175 192 153
171 189 135
173 190 142
180 196 171
175 192 150
174 191 151
174 192 153
173 190 155
170 188 133
174 191 148
171 189 150
172 190 141
176 193 155
168 186 133
173 190 146
177 194 163
177 194 165
175 192 155
177 194 165
180 196 171
175 192 155
172 190 142
177 194 160
173 190 150
169 187 129
174 191 144
173 190 156
174 192 150
174 191 153
176 193 160
171 188 144
176 192 165
174 191 153
172 190 141
173 190 148
174 192 155
174 191 153
174 191 155
176 192 158
174 191 150
169 187 141
168 186 133
170 187 135
173 189 158
173 190 153
165 183 129
174 191 148
174 190 161
172 189 146
167 184 138
165 181 139
162 178 124
164 181 143
156 173 129
155 171 137
153 170 149
148 165 138
139 158 122
135 152 137
129 148 127
125 142 132
118 136 125
112 131 120
91 113 110
89 110 121
74 97 107
61 86 97
53 81 110
49 78 109
49 78 104
47 75 97
49 77 103
48 76 95
48 76 104
46 74 96
45 72 97
44 70 87
41 66 88
42 67 88
40 64 74
41 67 93
41 65 81
36 58 86
34 55 75
33 54 70
29 49 58
30 50 64
28 46 64
24 40 56
55 68 60
101 115 94
120 134 116
143 158 146
48 78 101
50 80 107
54 86 117
54 85 116
56 89 129
56 90 136
57 90 126
57 91 129
56 90 127
58 92 132
58 92 129
58 92 131
59 92 131
58 92 124
58 93 132
57 91 123
58 92 127
58 92 128
58 92 129
57 91 119
59 93 130
58 92 126
57 91 123
60 94 131
57 91 128
60 94 132
58 92 134
59 92 129
60 94 138
59 93 132
59 93 127
58 92 124
59 93 130
58 91 123
58 91 119
60 94 128
59 93 128
60 95 142
59 94 130
60 95 135
58 92 128
59 93 127
59 93 126
58 92 137
60 94 125
58 92 124
60 95 136
59 93 130
59 94 134
58 92 125
60 95 133
59 93 136
60 94 134
58 93 129
59 94 139
60 95 139
60 95 143
58 92 127
58 92 122
58 92 125
59 93 130
60 95 137
60 94 129
60 94 134
59 94 129
58 93 124
58 91 121
60 94 136
59 93 131
60 94 132
58 91 117
58 91 136
57 91 117
57 91 117
59 93 128
59 93 126
60 95 130
59 94 136
59 94 136
58 92 124
58 91 129
57 91 131
56 89 117
59 92 138
58 92 140
56 89 121
58 92 138
57 90 125
57 90 130
57 90 135
55 88 121
57 90 119
55 87 120
55 87 126
55 87 130
55 87 122
55 88 115
53 84 120
52 83 113
51 81 111
45 73 95
45 72 105
75 88 88
63 73 70
60 71 70
57 68 57
63 76 62
45 59 46
45 60 63
34 49 45
38 57 62
48 64 76
51 69 76
59 77 78
62 81 93
64 82 93
81 98 101
65 82 88
74 90 89
96 114 123
75 93 101
86 103 97
92 109 109
97 116 110
101 120 127
104 122 112
117 135 130
114 131 112
111 130 109
115 134 123
123 140 127
125 144 127
128 145 142
122 140 131
124 142 131
129 148 136
135 154 133
133 152 140
140 158 147
139 158 147
138 157 123
140 158 138
138 157 152
143 161 148
140 160 148
144 164 146
148 168 154
148 167 132
147 166 152
148 167 159
148 167 147
152 171 148
155 174 157
153 172 148
151 170 142
162 180 164
154 173 140
159 179 154
158 177 154
163 181 161
159 178 156
161 180 157
163 182 152
161 180 160
161 180 163
161 180 158
160 180 156
154 172 147
162 182 160
158 178 157
165 184 162
164 183 157
167 186 163
167 185 154
165 183 158
168 188 164
165 184 163
165 183 158
164 184 156
167 186 159
161 179 153
167 186 168
165 184 158
166 184 165
168 187 163
163 182 154
167 186 161
165 184 155
165 184 152
164 182 156
172 189 174
162 182 150
161 181 142
164 182 161
163 182 146
166 184 150
168 186 169
164 183 160
164 182 156
167 185 153
164 183 151
166 186 161
166 184 158
155 174 142
167 186 153
166 185 160
167 186 160
167 185 169
163 181 155
161 179 153
165 183 155
163 182 155
165 184 155
161 180 150
158 176 144
162 180 160
159 177 156
167 184 171
163 181 160
161 180 151
161 178 156
161 178 155
159 177 146
162 180 161
163 181 151
158 176 146
159 177 163
162 179 165
167 186 169
155 172 155
157 174 146
151 169 135
159 177 153
162 181 158
158 175 155
155 173 142
157 176 146
163 180 166
154 171 146
160 178 155
158 176 146
160 177 158
155 172 161
154 171 137
154 172 148
153 170 153
154 171 151
155 173 150
156 173 146
151 168 153
152 170 150
178 195 166
178 195 166
178 195 169
178 195 166
177 194 160
178 195 169
178 194 163
177 194 161
176 193 151
178 195 165
179 196 169
178 195 168
179 195 166
180 196 174
178 194 165
175 191 150
178 194 168
179 196 168
179 195 172
177 194 168
173 191 148
176 193 153
177 194 163
180 196 175
178 195 166
177 194 165
176 193 158
177 193 166
179 195 166
174 191 150
176 193 156
175 192 156
176 193 158
170 188 139
175 192 151
175 192 158
174 191 144
178 194 169
171 189 144
176 193 158
173 190 151
177 194 161
173 190 142
176 193 153
176 193 156
174 192 151
175 192 153
181 197 172
172 190 139
175 192 153
177 193 161
173 190 141
171 188 131
174 191 150
176 193 155
177 193 168
173 190 148
177 193 158
177 193 160
173 190 144
174 191 150
177 193 156
175 192 151
174 191 148
174 191 153
177 193 161
173 190 141
172 190 142
170 187 137
175 192 156
177 193 163
180 196 175
172 189 150
171 189 141
173 190 144
169 187 133
169 187 137
172 189 139
180 196 171
173 191 144
174 191 151
172 189 151
169 186 139
172 189 144
173 190 142
172 189 144
173 190 150
167 186 125
169 187 139
168 186 118
169 186 142
177 194 166
171 188 141
174 191 150
170 187 142
169 186 137
166 184 123
171 189 141
166 184 127
173 189 155
167 184 144
168 185 127
171 188 146
163 180 121
167 184 135
164 181 125
164 181 133
159 177 127
158 175 117
152 169 118
154 171 116
160 177 147
139 158 118
133 150 120
133 151 114
113 132 92
112 132 106
115 134 89
113 132 109
101 121 94
91 112 95
74 97 101
66 92 101
54 81 108
50 79 100
47 76 105
50 78 106
47 75 105
46 72 96
46 73 98
45 72 94
45 72 95
43 68 87
46 73 99
41 66 91
44 70 93
43 68 94
37 60 84
35 57 73
38 61 86
36 58 82
32 53 72
29 47 55
27 44 61
30 47 47
39 53 45
104 117 101
125 139 115
134 147 131
45 73 101
51 81 104
53 85 115
52 83 114
53 85 119
56 89 127
56 88 123
56 88 119
57 90 123
57 90 124
58 92 130
57 90 117
58 92 134
58 92 130
58 92 133
59 93 135
57 90 134
58 92 131
59 93 141
57 91 126
58 91 122
57 91 113
59 93 134
58 91 127
60 94 130
59 93 126
59 93 120
61 95 144
59 93 135
59 94 124
59 93 132
59 92 127
58 92 120
59 92 125
59 94 132
58 91 122
60 94 137
57 91 118
59 93 129
60 94 129
58 91 127
58 93 132
59 93 130
58 91 133
59 94 137
59 94 125
60 95 140
59 93 127
58 92 126
59 93 133
58 93 120
60 94 131
60 94 133
60 94 131
60 95 144
60 95 145
60 94 137
58 92 122
59 94 135
59 92 129
59 93 134
60 94 136
59 93 135
59 94 131
57 90 115
57 90 117
59 93 126
58 92 123
58 92 122
58 92 132
58 92 128
59 93 136
58 92 126
58 92 136
60 94 132
58 92 122
58 92 126
59 93 135
56 89 122
60 94 143
58 91 130
56 89 114
58 92 137
57 90 129
58 91 130
58 92 131
56 88 122
58 92 130
57 90 117
57 91 124
54 86 125
55 88 126
55 87 116
53 84 108
57 90 130
57 89 126
53 84 116
55 86 133
53 84 116
51 81 115
49 78 106
47 75 107
86 99 91
68 78 59
46 58 47
51 63 54
48 60 60
38 52 53
39 52 57
43 59 71
54 71 79
48 65 69
65 83 72
53 71 76
68 84 86
61 78 81
63 80 86
78 95 97
93 110 106
80 98 104
87 104 104
87 105 99
86 103 103
106 124 119
96 115 114
111 128 117
116 134 129
114 132 134
120 138 113
111 130 124
123 140 132
123 141 123
113 132 123
123 141 132
130 149 128
133 152 138
129 148 144
136 154 140
138 156 141
135 153 132
144 161 148
129 148 116
145 163 139
153 170 152
138 155 136
143 161 146
151 170 146
143 162 144
151 169 146
158 177 156
149 169 149
151 170 145
148 166 133
152 171 137
154 173 146
149 168 141
154 173 148
157 177 149
158 177 162
153 172 139
163 181 169
161 181 151
161 180 153
161 181 141
158 177 134
162 181 154
163 183 152
165 184 165
165 184 152
162 181 157
166 185 159
162 182 153
159 178 142
156 175 140
164 183 160
163 183 156
167 186 163
162 181 162
162 181 146
169 188 163
161 181 150
166 185 161
169 187 169
165 184 153
164 183 155
166 184 151
169 187 165
164 183 153
165 182 163
162 180 133
166 185 161
160 179 150
164 184 153
160 180 148
173 192 175
162 180 144
168 187 169
162 181 163
163 181 148
164 183 155
165 185 155
163 182 151
163 181 158
165 183 163
163 181 158
160 179 146
160 179 156
166 185 156
160 178 155
161 180 148
166 184 155
170 189 174
154 173 141
163 181 146
165 183 169
162 180 156
163 182 153
165 182 161
161 178 156
160 179 151
163 181 161
160 178 151
162 180 156
166 184 168
161 180 158
160 178 150
160 178 151
164 182 156
156 174 146
160 178 151
163 181 155
165 184 156
158 175 146
164 182 160
162 180 165
159 178 150
157 175 146
161 179 166
155 172 146
155 173 141
160 178 146
161 180 151
159 177 150
156 172 151
156 174 153
157 174 151
148 165 146
152 170 151
148 165 137
157 174 156
158 175 158
181 197 175
178 195 168
178 195 169
173 190 148
180 196 171
178 194 163
179 195 169
178 195 166
174 191 151
175 192 153
180 196 171
175 192 156
177 193 160
179 195 169
171 188 135
177 193 156
176 193 156
176 193 156
176 193 156
176 193 160
177 194 161
175 192 151
177 194 161
177 193 156
174 191 151
174 191 144
174 191 151
177 194 161
175 192 160
172 189 144
176 193 158
175 192 156
176 193 156
179 196 168
173 190 142
177 194 158
173 191 148
175 192 153
172 189 139
179 195 166
172 189 137
176 193 158
175 192 148
173 190 148
174 191 151
175 192 151
174 191 148
169 188 131
177 194 161
172 190 142
178 194 165
174 191 146
171 189 139
170 188 133
175 192 155
172 190 141
172 189 139
173 190 150
177 193 161
172 190 137
176 193 158
172 189 137
169 187 137
172 190 141
176 193 160
171 189 133
172 189 137
173 190 148
173 190 148
173 190 146
173 191 146
173 190 139
174 191 148
169 187 135
174 191 150
170 188 125
169 188 129
171 188 144
172 189 144
168 187 127
169 187 131
170 188 137
165 183 121
163 182 107
166 185 112
172 189 141
168 186 129
168 185 129
173 191 148
168 186 127
175 191 148
166 184 123
169 187 137
167 185 131
171 189 137
171 189 142
167 186 121
169 187 127
164 182 116
167 185 127
163 181 125
163 180 118
165 183 125
166 184 137
167 185 133
166 184 131
164 181 129
157 175 114
157 173 126
154 171 126
154 171 123
136 156 102
138 157 105
136 155 104
128 147 102
123 142 100
113 133 84
111 130 101
104 123 99
106 126 101
88 108 91
73 95 100
61 86 88
57 84 97
49 78 102
50 78 108
48 76 104
47 75 101
44 70 87
43 69 84
44 70 86
44 70 92
43 69 81
42 68 80
42 67 89
42 68 98
39 63 84
39 63 75
38 61 83
38 61 72
32 53 53
29 47 69
31 50 66
32 52 62
35 50 44
65 79 51
108 121 100
132 148 121
152 167 142
81 101 129
52 82 107
53 85 111
53 85 111
56 88 117
56 88 121
55 87 116
57 90 124
56 89 123
57 90 125
57 90 126
58 92 127
57 91 117
57 90 127
57 91 126
58 93 129
57 91 126
58 92 124
59 93 133
59 92 126
58 91 123
57 91 120
60 94 134
60 94 134
59 93 129
58 92 129
58 91 123
59 93 130
59 93 119
59 93 137
59 93 132
58 92 131
59 94 138
57 91 125
60 95 136
60 94 138
60 94 137
60 95 136
58 92 130
59 93 133
58 92 133
58 92 123
58 93 134
61 95 137
58 92 121
59 92 127
59 93 130
58 92 130
59 93 133
59 94 139
59 93 130
60 95 134
60 94 127
60 94 145
60 94 136
60 95 136
57 91 115
60 94 134
58 92 117
59 93 129
60 94 137
60 95 135
58 91 126
61 96 138
60 94 133
59 93 134
58 91 118
60 94 134
59 93 127
58 91 117
57 90 114
59 93 130
57 91 110
59 92 134
58 92 120
57 91 118
60 94 132
58 91 123
59 93 129
56 89 131
58 92 129
59 93 133
60 94 133
58 92 125
58 92 127
56 89 125
56 88 120
57 90 130
58 91 129
54 86 110
56 88 116
58 92 126
56 88 115
55 87 121
55 87 121
52 84 116
52 82 107
53 84 117
53 84 116
51 81 121
45 73 105
66 88 117
110 123 115
69 80 72
45 56 53
49 60 65
44 56 45
45 58 65
46 60 59
38 57 69
48 64 54
57 73 74
56 73 83
58 75 71
64 81 75
67 85 88
68 86 99
79 96 94
85 102 94
81 99 88
82 99 95
88 104 91
90 107 111
105 122 107
103 122 117
107 126 111
108 125 114
117 134 131
112 131 124
126 143 134
115 132 111
114 131 123
123 140 122
115 132 118
121 139 125
133 151 150
132 151 120
135 153 130
129 147 140
133 151 134
133 152 117
141 160 143
149 167 152
144 163 152
138 156 140
144 162 150
147 167 141
143 162 140
157 176 163
146 166 142
148 168 140
142 160 135
143 162 136
151 169 135
155 174 144
159 178 145
152 171 140
157 175 144
145 165 142
156 176 145
161 179 155
161 180 152
160 179 149
159 177 138
157 176 144
163 181 158
159 177 145
162 182 154
160 178 155
164 182 157
161 180 152
159 177 142
162 181 157
167 186 166
165 184 159
168 187 158
161 181 147
160 179 162
164 183 152
169 187 163
165 184 163
166 185 169
165 184 156
169 188 161
168 186 165
168 187 161
167 186 158
161 181 139
168 186 162
169 187 158
166 185 150
165 184 148
167 185 158
163 182 155
167 186 163
165 184 141
158 177 137
166 185 158
164 183 158
158 177 144
163 182 161
161 179 137
164 183 153
163 182 153
159 177 148
164 183 161
162 181 146
162 181 135
166 185 163
163 182 151
166 186 155
163 182 150
162 180 142
161 179 160
160 179 150
170 188 171
163 181 148
161 180 144
165 183 156
165 184 161
165 183 158
160 177 153
163 182 156
160 178 144
162 180 158
158 176 142
165 182 166
156 173 153
154 172 135
162 181 141
156 174 141
166 183 161
161 179 158
164 183 144
161 180 153
157 174 144
149 167 141
168 186 163
161 179 156
161 179 172
161 179 155
153 170 135
162 180 156
156 174 142
154 172 151
152 169 142
156 174 148
157 174 150
156 173 148
158 175 144
155 172 151
176 193 158
180 196 171
176 193 155
175 192 153
178 194 160
174 192 156
174 192 153
176 193 161
179 195 161
176 193 156
173 191 150
178 194 168
178 194 163
173 191 144
175 192 153
173 190 148
175 192 148
179 195 165
172 190 139
175 192 150
172 190 144
179 195 168
174 192 148
175 192 150
175 192 148
178 194 161
178 195 166
178 194 163
173 190 148
175 192 151
173 190 146
172 190 142
173 190 142
172 189 148
178 194 163
178 194 160
171 189 133
168 186 129
176 193 156
173 190 141
171 188 139
169 187 127
173 190 146
171 189 133
171 189 135
173 191 144
172 189 139
169 188 125
171 189 135
176 192 155
168 186 127
173 190 144
175 192 151
171 189 135
165 183 112
171 189 133
170 187 129
168 187 121
168 186 116
169 188 127
178 194 163
168 187 129
173 190 144
168 186 127
174 191 146
170 187 133
167 185 114
165 183 123
172 189 142
171 189 139
168 186 127
170 187 129
170 188 131
169 187 133
174 191 144
171 188 129
164 184 112
168 187 127
166 184 114
168 186 123
169 186 123
168 186 125
167 185 114
170 187 137
171 188 135
168 185 135
165 184 112
170 187 137
164 182 118
167 184 133
168 186 133
165 183 118
168 186 135
168 186 125
169 187 133
163 183 107
160 179 104
162 180 107
167 185 121
164 182 118
164 182 116
161 179 123
166 184 127
166 185 127
161 179 112
166 183 133
164 181 121
157 174 118
148 166 89
151 168 107
142 161 88
142 159 108
137 154 101
127 144 100
127 145 79
123 141 97
109 128 98
94 114 95
103 123 82
98 119 79
83 105 94
75 96 87
75 99 91
58 84 102
46 73 84
47 75 104
47 74 99
47 74 94
46 74 96
44 70 90
43 69 79
45 71 95
44 71 87
44 70 82
40 64 78
40 64 90
38 62 73
38 62 77
35 56 67
37 59 75
33 55 55
33 55 67
28 46 45
25 42 44
45 59 42
82 95 70
111 126 101
140 155 128
163 176 160
116 132 150
51 81 114
51 81 103
56 88 116
55 87 123
56 89 131
55 88 118
57 90 128
56 88 113
57 90 123
57 91 125
57 90 119
57 90 126
58 91 130
58 92 117
57 90 121
57 91 123
58 91 126
57 90 127
57 91 117
58 92 125
58 92 127
59 93 130
59 93 126
58 93 133
59 92 128
59 93 138
60 94 129
60 94 134
60 94 134
60 94 135
60 95 132
59 93 129
59 94 133
57 91 125
58 91 115
60 95 138
58 91 134
59 93 130
59 93 131
59 93 124
57 90 120
59 93 126
59 94 136
59 93 127
58 92 122
58 92 124
59 93 130
60 95 138
59 93 129
58 92 129
57 91 134
59 93 130
59 93 130
59 92 124
59 94 130
59 93 125
59 93 129
60 94 126
59 93 137
60 94 133
59 93 129
58 91 125
57 91 122
59 93 129
60 95 136
58 92 127
59 93 125
56 90 124
58 92 126
58 92 131
58 91 122
58 91 127
57 91 126
59 94 133
59 93 136
59 93 139
59 92 130
59 92 132
57 90 122
56 89 120
58 92 132
57 90 132
57 91 118
55 87 119
56 89 115
57 90 129
57 90 128
56 87 124
56 89 120
57 89 126
54 86 112
56 88 126
54 86 122
54 86 117
53 85 112
53 84 117
54 85 112
50 79 103
52 82 111
46 74 97
107 122 143
136 147 149
75 86 78
68 81 62
46 58 50
56 68 29
47 60 53
49 63 52
52 67 57
42 59 77
55 69 54
54 69 62
53 70 77
57 73 67
71 87 86
66 84 81
71 90 83
79 96 89
85 103 101
84 102 95
96 112 113
103 121 106
90 107 106
97 115 96
105 123 116
111 129 129
116 134 121
106 124 98
117 135 108
107 126 105
121 138 128
114 132 123
118 136 114
116 133 116
129 147 129
129 147 133
137 155 136
134 152 133
134 152 121
138 156 142
127 145 121
140 159 136
142 161 132
136 155 138
146 164 147
145 163 136
144 162 132
150 168 141
148 167 128
149 168 152
149 167 148
154 173 144
152 170 135
150 168 139
155 174 141
151 169 130
157 176 143
156 174 145
161 180 154
162 180 166
151 170 154
156 176 140
158 177 154
160 179 142
161 180 164
161 181 157
158 177 148
162 180 165
161 180 149
158 178 150
164 183 149
163 182 157
162 181 145
162 181 153
161 180 142
163 182 156
162 180 156
165 184 144
166 186 156
164 183 168
168 187 156
160 178 135
163 182 147
163 182 149
167 186 155
164 183 148
166 184 155
164 183 152
161 180 152
161 179 149
167 186 156
162 181 151
166 185 163
167 185 151
168 186 153
166 184 155
168 187 171
165 183 159
171 189 169
163 181 163
158 176 150
163 181 156
163 181 146
159 179 139
164 182 153
165 183 158
164 182 150
159 177 139
160 178 148
164 182 151
166 184 177
159 178 153
163 182 151
165 183 158
164 182 150
161 180 142
157 176 135
162 180 156
161 178 153
158 176 150
166 183 160
164 182 168
154 173 142
158 175 142
164 182 156
159 177 146
154 171 141
161 179 158
166 184 158
157 175 141
163 181 160
164 182 158
161 179 155
157 174 137
156 173 146
149 166 137
149 167 131
162 180 155
156 173 148
155 174 137
158 175 142
155 172 151
157 175 142
148 165 133
156 174 141
155 172 150
158 175 158
148 164 135
158 176 148
158 174 150
178 194 158
176 193 160
178 194 165
176 193 153
175 192 150
177 194 163
179 195 169
175 192 153
175 193 156
172 190 139
176 193 155
175 192 150
178 194 161
170 188 129
175 192 153
174 191 153
175 192 151
173 191 146
170 188 131
170 188 133
173 190 148
173 190 141
171 189 135
176 192 155
173 191 144
171 189 135
170 188 139
171 189 137
172 189 133
174 191 148
171 188 135
175 192 153
171 189 135
177 193 158
175 192 151
170 188 135
167 185 118
171 189 133
174 191 146
172 190 141
169 187 127
171 189 139
175 192 155
167 185 114
168 187 121
172 190 144
171 188 141
169 187 127
172 189 144
172 189 137
170 188 131
170 188 141
169 187 127
168 186 123
173 190 139
167 185 114
170 188 133
168 186 121
172 189 133
169 187 121
168 186 123
170 187 131
166 185 109
170 188 131
168 186 127
169 186 125
169 186 123
165 183 109
169 187 125
164 182 112
167 185 123
165 183 112
167 185 116
167 185 125
163 181 104
167 185 109
166 185 112
165 184 107
165 184 123
164 182 102
167 185 125
167 185 123
165 183 116
165 184 112
158 178 91
166 184 125
165 184 112
165 184 121
164 183 121
162 181 109
163 180 121
157 175 102
160 179 97
162 180 112
163 182 114
159 178 94
160 178 107
158 177 97
159 178 97
159 177 104
156 174 112
155 174 91
159 176 109
159 178 102
157 175 91
159 177 109
149 168 85
151 170 79
151 170 99
149 167 93
147 165 100
149 167 105
138 155 97
132 150 96
129 147 98
125 144 94
116 134 80
107 126 93
114 134 69
90 111 85
89 110 83
82 103 81
76 98 89
64 88 87
52 79 87
46 74 91
49 77 96
48 76 101
47 75 95
47 74 91
45 72 87
40 65 76
40 64 79
42 67 93
37 60 73
41 65 81
38 62 82
39 62 76
35 57 62
37 60 79
33 53 54
33 53 63
28 46 37
40 59 51
69 84 57
94 108 85
130 145 114
145 161 123
175 188 186
143 158 177
51 82 113
51 82 110
53 84 118
54 86 112
55 86 116
55 88 127
57 90 130
56 89 120
56 89 124
55 87 113
58 91 134
58 92 125
58 91 119
55 88 118
58 91 124
59 93 120
57 91 126
57 90 120
59 92 129
57 90 120
58 91 117
58 92 130
57 91 125
60 94 136
57 90 122
59 93 136
58 92 122
59 94 135
60 95 136
59 93 132
57 91 115
59 93 130
59 94 129
60 94 129
59 93 122
58 92 130
58 92 121
60 94 137
59 93 129
59 93 127
58 93 128
59 94 131
60 94 140
58 91 119
58 91 126
59 93 126
58 91 127
58 92 127
59 94 130
60 95 133
60 95 134
60 94 135
60 94 139
59 94 129
60 94 126
60 94 130
61 96 134
61 95 136
58 92 126
60 94 134
59 93 134
58 92 120
59 93 124
58 92 118
60 94 141
55 87 109
60 94 126
58 91 127
59 93 128
57 90 125
59 93 129
58 91 118
58 91 129
58 91 126
56 89 104
58 92 124
58 91 128
59 93 129
58 92 132
58 92 137
58 91 127
57 89 125
59 92 122
57 90 125
54 86 112
58 92 131
56 88 120
55 87 113
55 88 120
56 88 112
56 89 123
58 91 132
54 86 116
54 85 117
54 85 117
51 81 108
54 86 113
53 84 113
50 79 112
45 71 94
137 151 165
148 160 164
79 92 62
74 86 59
57 66 60
51 63 48
52 65 54
67 79 48
37 49 39
43 57 54
47 62 48
55 72 66
55 70 68
65 82 78
67 84 79
64 82 74
74 91 86
86 103 90
75 94 90
92 108 84
79 97 96
91 109 106
104 120 99
100 118 89
108 126 109
100 119 97
118 136 115
112 130 98
116 134 124
124 142 122
123 140 125
126 144 138
123 140 111
125 143 121
119 138 111
126 143 113
124 143 115
139 157 133
131 149 122
147 165 145
143 161 152
133 150 129
139 158 127
144 162 135
152 170 150
143 161 135
148 167 141
148 167 137
143 161 131
149 167 145
148 166 142
156 174 144
148 167 141
149 168 134
160 179 158
151 170 136
155 174 155
160 179 154
159 178 160
159 177 145
152 171 145
154 172 131
164 183 154
162 181 156
165 182 148
160 178 155
157 176 147
168 187 163
167 185 156
159 179 133
165 183 159
161 180 150
159 177 141
164 184 154
167 186 165
162 180 139
159 178 144
165 184 155
165 184 149
157 176 140
166 184 155
165 184 153
169 187 168
161 180 148
158 178 128
163 182 146
168 187 156
162 181 144
166 184 150
161 179 144
169 187 167
166 183 155
168 187 160
165 184 144
162 181 151
168 187 148
163 182 148
171 189 169
160 179 142
165 183 153
162 179 153
165 183 150
167 185 160
167 185 163
160 178 142
161 180 141
163 181 153
165 183 153
162 179 148
166 184 158
156 175 144
159 177 139
160 179 150
158 177 135
168 186 168
164 181 150
159 176 146
157 175 146
162 180 150
160 178 141
161 179 148
155 173 137
157 175 146
157 175 135
158 177 144
159 176 155
163 181 156
156 174 129
159 178 142
156 174 150
157 175 139
158 176 139
156 173 142
159 178 142
158 176 153
164 182 168
155 173 146
157 174 156
144 159 127
158 175 155
155 172 151
150 167 139
157 175 150
153 170 146
153 171 144
157 174 156
157 174 151
154 171 141
149 167 139
148 165 133
178 194 163
177 193 163
173 191 142
174 191 148
175 192 153
174 191 151
178 194 161
177 193 155
173 191 142
175 192 151
173 190 139
173 190 144
173 190 146
172 190 144
173 190 144
174 191 144
172 189 139
167 186 121
167 185 116
173 190 151
173 191 141
171 188 135
167 185 125
172 189 141
172 190 137
174 191 148
172 189 135
169 186 131
172 189 135
171 188 133
170 188 135
171 189 133
171 189 135
171 189 142
168 186 127
170 188 125
168 186 121
170 187 131
170 188 139
174 191 144
172 190 142
169 187 121
164 184 102
169 187 121
169 187 127
171 188 137
172 189 137
169 187 129
168 186 118
170 187 133
169 187 121
169 187 125
170 187 135
167 185 123
167 186 121
165 183 112
168 186 118
163 183 109
169 187 125
165 183 121
165 184 109
165 183 112
169 187 127
168 185 127
165 183 118
169 186 125
163 182 99
163 182 104
163 183 109
161 180 97
167 185 118
166 185 114
166 184 118
165 183 107
162 181 104
167 185 121
165 183 112
163 181 112
162 181 99
164 182 112
163 182 104
164 182 114
163 182 109
162 182 102
162 181 94
158 178 91
160 180 85
159 178 85
162 181 91
163 182 104
166 183 116
162 181 102
158 177 94
158 177 88
160 179 97
158 177 94
161 181 99
161 180 104
161 180 104
162 180 102
158 176 94
158 177 94
158 177 97
152 170 82
154 173 88
152 172 85
147 165 79
143 162 64
153 172 95
146 165 87
144 162 88
145 163 88
128 146 97
126 145 66
133 151 92
124 143 91
124 143 79
112 131 68
93 112 79
94 115 71
85 107 78
82 103 83
74 97 76
61 86 88
52 79 98
48 76 95
45 71 79
45 71 90
45 71 88
44 70 92
44 70 82
41 66 77
43 68 85
40 65 75
40 65 81
42 67 81
39 62 71
39 62 78
37 59 70
32 53 66
35 57 60
33 53 60
30 50 55
54 71 48
79 97 56
112 127 90
126 140 97
144 159 128
190 202 207
175 189 207
54 85 121
50 80 102
51 82 107
54 86 109
55 87 112
55 87 117
58 92 138
56 89 126
57 91 128
56 89 125
55 88 118
56 89 122
58 91 122
59 92 132
58 92 125
58 92 129
57 91 122
58 91 124
57 90 120
59 93 129
58 92 121
58 92 123
57 91 120
60 94 131
59 93 129
58 92 130
57 90 124
57 90 122
57 90 110
59 93 123
57 90 125
58 92 119
59 93 124
56 89 115
57 90 120
59 93 125
57 90 117
59 92 125
58 91 117
59 94 131
59 93 133
59 94 136
57 91 119
59 93 131
58 91 127
59 93 131
58 92 122
59 93 127
60 94 124
59 93 121
60 95 137
59 94 127
58 91 117
58 92 119
60 95 137
59 93 127
59 93 133
58 92 114
59 93 127
57 91 122
61 96 145
58 92 125
59 93 131
58 92 128
58 91 130
58 92 121
59 93 136
58 91 119
59 93 132
57 90 114
58 91 115
58 92 128
59 93 130
60 94 133
59 93 131
57 90 121
58 92 130
58 91 123
58 92 131
56 89 104
60 93 139
57 91 121
58 92 125
58 92 128
58 91 123
58 92 129
58 91 125
54 86 122
58 90 131
57 90 129
52 84 101
55 87 126
56 88 123
54 85 120
53 84 113
54 85 114
53 83 109
51 81 103
48 77 103
48 76 98
167 181 199
191 203 215
76 87 71
74 86 65
57 69 44
45 58 33
45 59 53
52 65 42
58 71 47
49 65 44
54 69 63
56 74 73
55 72 63
57 73 84
66 82 71
65 81 60
65 82 74
84 100 76
81 97 87
72 90 90
97 114 78
94 113 98
97 114 81
105 121 111
99 116 93
104 121 101
107 124 94
110 127 108
114 132 114
117 134 116
113 131 126
108 126 116
124 142 121
126 143 107
133 151 121
125 143 126
124 142 111
127 144 118
132 150 137
141 160 144
130 149 117
145 162 142
142 160 131
146 165 139
136 154 117
139 158 127
142 161 116
157 175 150
148 166 142
149 167 144
148 166 140
154 173 138
151 170 140
158 176 150
157 175 143
147 166 126
152 171 135
157 175 148
152 171 134
155 173 141
151 170 134
159 177 140
152 172 131
154 173 149
160 179 146
159 178 144
156 174 148
155 174 139
164 182 163
167 185 158
159 178 131
162 180 159
160 178 134
160 180 146
158 177 145
163 182 158
161 180 150
162 182 153
163 181 146
168 187 155
166 185 154
161 180 153
157 176 124
165 184 163
168 186 158
161 180 137
165 183 148
167 186 151
167 185 156
165 184 154
168 186 161
167 185 149
165 183 153
161 179 150
165 183 156
166 185 146
162 181 155
158 177 125
162 180 146
161 180 144
161 180 139
161 179 146
159 177 141
167 185 168
165 184 163
164 182 144
166 184 160
166 184 160
160 178 151
157 175 135
162 181 153
161 179 148
165 183 150
163 182 151
159 177 151
164 182 150
169 188 153
168 186 163
165 183 148
159 175 153
163 181 150
164 183 151
156 174 131
164 182 165
163 181 158
164 182 153
162 180 146
165 183 161
156 174 150
164 183 151
154 172 137
160 178 151
157 175 153
158 176 153
159 176 160
147 165 123
160 178 161
154 172 148
164 182 168
151 169 141
158 176 146
157 175 129
153 170 144
148 165 135
155 172 146
150 167 146
156 173 151
158 175 141
154 170 153
150 167 133
174 191 144
172 189 141
173 190 139
174 192 151
170 188 133
174 191 144
174 190 141
171 188 133
172 190 139
172 189 139
169 187 123
169 187 129
169 188 129
170 188 139
168 187 125
172 189 137
174 191 142
171 188 137
173 190 139
177 193 156
172 190 139
171 189 131
170 188 139
168 186 123
170 188 137
169 187 123
171 189 137
171 188 141
168 186 121
167 185 123
164 183 109
172 189 135
169 187 125
168 186 125
172 189 129
168 186 123
165 184 107
169 186 123
169 187 123
168 186 121
164 183 112
168 186 123
165 184 116
166 184 112
167 185 116
166 184 109
166 184 109
165 183 109
162 182 104
165 183 114
165 184 114
168 186 121
167 185 116
165 183 114
167 185 116
164 183 102
165 184 112
167 185 123
167 185 114
164 183 99
163 182 94
167 185 118
165 183 102
161 181 85
161 180 97
163 182 97
163 182 99
161 180 99
162 181 91
164 183 109
161 180 99
162 182 99
166 184 112
162 182 88
163 182 107
165 183 112
162 181 94
162 181 97
165 183 109
164 182 112
163 182 107
161 180 85
164 183 104
164 182 97
161 180 94
160 179 68
160 180 91
160 179 88
156 176 75
155 175 72
160 180 99
159 179 88
155 173 82
157 177 82
161 180 97
152 172 64
155 174 82
159 177 91
159 178 88
152 172 60
148 168 56
150 170 60
157 176 82
151 169 68
151 171 60
152 171 82
147 165 72
151 170 81
148 166 81
144 162 60
141 160 67
146 164 94
132 151 68
123 143 48
115 134 60
119 139 87
107 127 65
106 125 62
95 115 69
101 120 60
88 109 80
74 97 76
79 100 75
67 90 82
59 82 79
59 83 89
46 73 84
44 70 79
47 74 88
42 68 87
44 70 73
42 67 79
42 67 75
41 65 76
39 63 63
39 63 76
39 63 73
39 62 71
35 56 59
33 54 54
34 55 60
33 54 46
36 56 45
61 77 39
95 111 75
111 126 75
143 159 101
143 157 127
211 224 240
190 203 220
48 77 89
51 81 101
52 82 113
53 84 104
54 86 119
54 86 108
54 86 115
56 89 121
57 91 130
55 87 108
57 91 116
57 90 122
58 91 125
58 91 127
57 90 123
55 88 116
55 87 111
58 91 122
58 93 128
57 89 121
58 92 129
57 91 120
56 89 125
58 91 122
58 92 128
58 91 132
59 93 124
57 90 122
59 93 122
58 92 118
57 90 115
56 89 105
59 93 129
58 92 119
58 93 122
55 88 114
57 91 118
57 91 111
59 94 129
59 94 133
60 94 131
59 93 127
56 89 113
58 92 126
58 92 130
58 92 126
59 94 134
60 94 129
58 91 127
61 95 138
60 95 134
58 92 124
58 92 122
57 91 121
59 92 118
58 92 125
59 93 127
59 93 121
59 92 129
58 92 119
59 93 129
58 92 127
60 94 142
59 94 131
60 94 132
59 92 135
58 92 133
58 91 119
57 90 122
57 90 119
60 93 132
57 91 123
57 89 121
59 93 124
57 90 126
59 93 124
57 90 122
57 90 119
59 93 130
57 90 113
56 89 120
57 91 126
57 90 115
58 92 132
59 93 129
59 93 132
54 85 111
56 88 112
54 86 120
56 88 117
58 91 134
55 87 115
56 88 119
54 87 104
55 87 124
54 85 112
52 82 117
51 80 109
51 81 112
49 77 111
205 218 236
215 227 245
74 86 63
77 89 48
69 81 71
67 78 54
51 65 41
42 57 45
52 67 50
43 56 42
54 69 56
61 78 60
49 67 65
71 87 68
62 79 67
67 83 77
81 97 73
65 82 79
80 97 73
88 104 83
85 103 79
89 106 87
93 110 95
94 112 95
91 109 88
97 116 104
116 134 119
109 126 97
109 126 116
115 132 107
111 130 109
129 146 126
134 152 123
124 143 116
133 151 115
128 147 119
133 151 127
131 150 121
137 155 133
130 148 119
145 164 132
132 150 110
137 155 128
130 148 119
139 158 127
143 162 129
152 170 138
145 163 129
146 164 133
142 159 116
142 161 117
146 164 129
147 165 137
146 163 143
150 168 144
158 176 147
147 166 130
156 174 135
160 179 146
158 177 144
153 172 141
158 176 134
151 169 137
150 169 122
157 177 140
164 183 153
158 177 127
152 171 123
161 180 153
166 184 159
163 182 137
157 175 147
157 176 142
163 181 161
159 179 129
157 177 139
158 177 135
160 179 148
166 184 158
165 185 156
157 175 134
163 182 148
168 186 156
164 183 151
160 179 141
163 182 151
162 180 148
169 187 160
163 182 146
160 178 139
164 183 151
164 182 139
167 185 165
167 185 161
163 182 148
168 186 163
164 182 156
164 183 139
164 182 146
164 182 148
161 178 148
163 181 155
165 184 156
160 178 139
161 179 131
163 182 144
164 182 153
160 179 139
160 179 156
168 186 156
160 179 146
166 185 160
168 186 168
163 181 150
167 186 156
161 179 151
161 180 146
155 172 150
159 177 153
164 182 142
155 172 139
151 168 135
159 178 137
161 179 144
160 177 148
154 171 139
162 179 144
153 171 127
160 178 146
160 178 153
159 177 150
163 180 158
160 178 151
155 173 137
156 174 142
160 178 153
153 170 137
160 178 153
157 174 148
163 181 161
160 178 156
151 169 144
162 180 158
153 171 142
152 169 139
151 168 146
152 168 137
156 174 150
156 173 141
147 164 137
170 188 133
171 189 133
175 192 155
172 190 141
173 191 151
167 186 116
172 189 137
172 189 135
174 191 142
172 190 139
170 188 129
169 187 121
168 186 129
173 190 141
167 185 127
171 188 133
172 189 135
174 191 148
171 189 137
169 187 123
170 188 127
166 184 116
166 185 118
168 187 125
170 188 133
171 188 135
170 188 133
168 187 123
167 186 118
167 185 118
164 183 109
165 184 109
165 183 104
168 186 123
172 189 135
167 185 125
167 186 121
164 183 102
167 185 118
169 186 123
166 184 109
163 182 91
170 187 129
166 184 112
165 183 104
165 184 114
169 187 121
160 180 75
164 183 104
167 186 116
164 182 102
165 184 112
163 182 102
162 182 102
163 181 94
161 180 94
163 182 102
162 181 94
163 182 102
164 182 99
159 179 82
164 182 91
160 179 82
163 182 102
162 182 91
165 184 102
163 181 97
160 179 91
156 176 68
159 178 72
160 179 94
159 179 72
161 181 99
163 182 104
160 179 97
158 178 82
161 181 91
162 180 91
157 176 79
159 178 94
157 177 72
161 180 88
160 180 82
154 174 51
149 169 39
151 170 68
151 172 32
156 177 64
156 176 72
157 177 68
160 179 91
154 174 72
154 174 75
154 174 72
150 170 64
153 173 56
150 170 60
151 171 60
153 173 60
146 165 39
148 168 22
149 169 68
150 170 51
153 173 56
149 169 45
146 166 51
146 165 45
150 169 39
140 159 45
141 160 28
141 159 44
138 157 58
125 143 56
119 136 56
117 136 57
118 138 57
103 124 71
104 122 55
92 112 66
97 116 76
86 105 76
71 92 79
73 95 71
73 94 83
72 95 91
69 91 82
49 76 89
44 71 88
44 70 80
43 69 74
43 69 78
43 69 87
42 67 63
42 67 87
40 64 53
40 65 67
38 62 64
38 61 60
38 61 69
34 55 52
34 56 60
35 55 45
53 72 58
78 94 42
100 115 42
127 144 97
149 166 109
146 161 112
185 206 108
179 199 122
54 79 86
52 82 103
52 82 108
52 82 106
52 83 107
54 86 111
54 86 107
56 88 115
55 87 108
55 88 117
56 89 117
56 89 115
56 89 111
59 93 137
57 90 123
57 91 121
55 87 106
57 90 118
58 91 124
57 91 122
57 90 125
58 92 130
57 91 118
58 92 119
60 94 138
59 93 136
58 91 137
57 90 127
58 92 122
59 93 125
59 92 132
58 92 131
58 92 126
58 91 119
58 92 122
61 95 139
59 94 139
59 93 130
58 91 124
60 95 139
57 90 115
57 91 114
58 92 121
57 91 122
58 92 122
57 91 125
60 94 139
59 93 126
58 92 122
60 94 129
59 94 130
58 92 129
59 92 125
60 94 135
58 92 126
60 94 130
58 92 121
59 93 131
59 93 125
57 90 114
58 92 128
58 92 125
57 90 126
60 94 136
59 93 127
59 92 135
57 91 120
58 91 125
58 92 126
58 91 124
57 91 122
59 92 134
59 93 124
57 90 122
59 92 134
57 90 122
58 91 123
57 90 117
58 92 126
57 90 128
57 90 129
57 89 119
57 90 130
57 90 123
59 93 133
56 89 118
58 91 121
57 89 124
56 88 120
56 90 118
55 88 113
53 85 112
55 86 112
54 85 117
53 83 120
53 84 110
52 83 107
50 79 101
48 77 101
53 79 95
187 206 142
187 208 122
110 125 86
82 93 75
73 83 74
60 72 42
45 59 39
62 73 45
52 66 47
66 79 55
63 79 43
53 71 53
57 71 37
60 75 54
72 86 54
61 75 58
84 101 82
79 95 73
76 92 71
82 99 82
90 107 90
81 99 92
91 108 89
101 118 87
103 120 101
103 120 107
98 115 82
115 133 104
112 130 104
107 124 109
109 126 90
105 123 95
126 145 112
122 140 99
123 142 118
121 138 122
125 143 122
140 158 122
131 149 117
133 151 112
141 160 129
129 146 122
134 152 119
134 153 107
146 163 143
139 156 131
137 156 125
145 165 117
147 166 131
141 159 129
155 173 147
146 164 137
150 169 140
146 165 137
142 160 110
151 171 144
147 165 128
152 171 145
159 178 141
157 176 141
159 178 148
154 173 142
155 175 142
162 180 152
155 174 136
157 176 136
165 183 157
159 177 146
159 178 138
161 178 138
160 179 151
166 185 153
161 180 151
161 179 142
163 181 144
154 172 135
160 178 148
165 184 141
158 176 142
167 185 155
157 175 129
163 181 151
165 184 142
163 182 139
164 183 145
163 182 137
163 181 151
161 181 139
163 182 150
164 182 141
160 179 144
164 183 150
162 180 148
170 188 168
163 182 139
165 184 148
166 185 163
163 181 148
161 180 139
156 176 137
161 180 153
165 184 148
159 178 151
164 183 156
161 179 142
168 185 165
155 173 141
159 177 142
162 180 139
161 179 146
158 177 150
159 177 135
161 180 153
162 179 161
161 179 150
157 174 144
158 176 141
159 177 144
158 176 131
166 185 153
165 183 146
164 182 161
154 171 131
157 175 139
162 179 146
164 182 165
163 181 160
160 177 139
157 175 151
157 175 144
163 181 150
158 176 139
159 177 146
161 178 150
153 171 139
150 167 131
153 170 142
159 177 155
154 172 141
155 172 142
153 170 151
164 182 158
148 165 131
157 175 151
158 177 142
148 165 133
151 168 135
157 174 142
147 164 141
160 176 158
174 191 146
174 191 150
170 188 129
169 187 127
170 188 127
171 189 131
169 188 127
170 187 131
173 190 141
168 186 118
172 189 137
167 186 118
170 187 131
169 187 127
169 187 118
169 187 125
166 184 102
162 181 94
166 185 109
167 185 116
172 189 139
170 187 123
168 186 118
166 184 109
167 185 104
169 187 125
165 184 107
165 183 107
165 184 112
168 186 116
167 186 116
168 186 118
164 182 109
168 186 118
164 183 99
168 186 118
164 183 99
161 179 94
163 182 97
162 182 97
165 184 107
165 184 112
165 183 107
164 182 104
161 181 85
163 183 94
167 186 114
166 184 107
159 179 64
158 178 85
164 182 102
159 179 72
156 176 82
158 178 85
159 179 75
160 180 85
162 181 85
156 176 56
157 177 75
162 181 94
161 180 88
164 182 104
161 180 85
157 177 75
158 177 72
157 177 64
158 178 68
158 177 85
160 179 85
159 178 75
157 177 82
154 175 56
156 176 75
158 178 68
153 173 64
159 179 75
157 177 56
156 177 56
158 177 79
153 174 39
157 177 64
152 173 51
154 175 39
154 173 64
151 172 32
152 172 45
148 168 45
150 171 39
152 173 56
150 171 32
150 170 32
152 172 64
151 172 39
150 171 32
150 169 0
149 170 39
153 174 39
148 169 0
145 165 32
143 164 22
147 167 0
145 167 22
142 162 0
143 163 0
143 163 0
147 168 0
143 164 0
140 159 22
139 159 0
136 155 0
139 159 0
126 145 28
125 145 30
129 148 40
124 145 48
120 140 37
107 127 45
107 125 52
102 121 48
90 110 56
95 114 62
78 98 68
71 91 72
70 92 85
54 77 65
61 83 76
54 78 78
48 73 85
43 69 77
42 66 79
43 68 57
44 70 81
41 66 77
41 65 71
41 65 67
42 66 68
39 62 57
37 60 57
37 59 58
40 59 42
36 57 51
66 84 37
72 90 35
78 94 41
114 132 68
139 156 104
146 162 104
147 166 60
174 197 0
176 199 0
95 116 69
52 83 103
52 83 113
50 80 102
54 86 119
52 82 115
56 88 126
53 85 110
54 85 110
55 88 125
54 85 108
58 92 130
58 91 124
56 89 119
56 89 112
56 88 118
58 92 128
55 87 110
54 87 103
56 89 108
54 87 112
59 93 128
58 92 125
58 92 129
57 91 127
58 92 127
57 91 116
60 94 138
59 93 119
58 92 121
58 92 122
58 91 125
59 93 124
59 93 119
59 93 130
58 92 122
59 93 118
58 92 120
59 93 118
57 90 120
57 91 118
59 93 127
59 93 127
58 92 118
60 95 133
58 92 126
60 94 137
58 93 125
59 93 136
57 90 120
59 93 129
59 93 127
59 94 124
57 91 114
57 91 115
56 89 117
60 94 136
55 88 114
57 90 117
58 92 118
58 92 123
58 92 117
58 92 124
56 88 117
59 92 126
58 91 121
60 95 134
57 91 116
58 92 122
58 92 125
57 90 117
58 92 134
56 89 115
57 90 121
59 93 124
60 94 127
57 89 123
58 92 136
58 91 128
57 90 120
57 91 115
56 89 115
56 90 109
57 90 127
53 85 110
55 87 115
56 89 117
55 87 109
56 88 116
54 85 108
56 88 126
54 86 116
53 84 103
53 85 115
53 84 108
52 82 108
51 80 97
51 81 105
48 77 101
80 101 68
175 198 0
173 197 0
136 154 82
88 100 71
60 72 35
70 81 59
68 81 35
56 68 29
57 71 49
50 64 42
58 74 49
63 79 46
64 79 60
51 67 53
65 81 61
60 77 76
66 81 68
79 95 69
78 96 80
92 109 75
93 110 80
94 109 98
95 112 82
111 128 89
94 112 99
97 114 92
102 119 87
111 129 96
112 129 104
108 126 96
108 126 108
117 134 114
111 127 90
119 137 106
125 142 120
129 147 107
120 138 109
122 140 103
133 151 115
132 150 121
133 150 108
131 148 102
141 159 128
144 163 127
138 156 115
140 158 134
131 148 110
137 155 119
147 165 131
152 170 142
151 170 135
142 160 114
141 160 123
154 173 138
148 166 125
149 168 121
148 167 141
154 173 137
152 170 127
151 169 131
150 169 128
156 173 140
155 173 147
154 172 131
155 173 139
159 177 153
155 174 130
153 171 120
162 179 140
163 182 146
154 173 126
161 179 131
161 180 137
157 176 139
162 182 129
158 176 143
166 184 151
166 185 160
166 183 150
161 180 127
159 178 121
158 177 132
160 179 137
162 181 131
163 181 146
164 183 149
164 182 156
164 182 142
159 177 133
165 184 158
160 177 133
161 181 139
160 178 151
165 184 135
155 173 123
161 180 134
155 173 137
160 178 144
166 184 153
164 183 150
160 178 142
158 176 137
160 178 144
154 172 123
163 181 141
161 178 141
166 184 146
163 181 148
161 179 151
160 179 137
159 178 142
156 174 133
165 183 148
162 180 146
154 171 142
155 173 148
161 179 150
161 179 141
151 168 129
158 176 123
159 178 135
155 173 129
158 176 150
161 178 156
164 182 142
158 176 158
157 175 142
152 170 125
157 175 133
161 179 165
156 173 131
161 179 146
150 167 127
150 168 131
157 174 129
156 173 153
149 165 139
155 172 135
146 163 135
149 166 129
144 160 129
156 174 139
163 181 146
154 172 141
158 175 156
155 172 129
157 175 146
143 160 116
155 173 131
158 176 146
172 189 133
169 187 133
170 188 133
171 189 135
169 187 123
165 183 112
170 187 118
167 185 116
167 186 116
167 186 116
166 185 114
168 186 123
166 185 109
166 185 118
167 185 112
164 184 102
166 184 114
170 187 125
167 185 121
166 184 114
165 183 109
167 185 121
162 182 97
166 184 107
162 182 99
164 183 97
166 184 116
162 181 97
162 181 91
163 182 104
161 180 79
168 186 118
166 184 112
165 184 102
157 177 68
164 182 104
159 179 82
161 180 85
163 182 99
166 184 107
169 186 127
163 182 97
163 183 99
163 182 97
163 182 88
159 180 79
158 178 68
163 181 99
160 180 79
161 180 88
160 179 85
159 178 72
161 181 88
160 179 85
154 175 39
157 177 60
160 180 82
155 176 56
159 179 75
160 179 82
157 177 64
157 177 68
159 179 72
155 175 45
154 175 60
150 171 45
154 175 39
157 177 45
155 175 32
154 174 60
155 175 45
156 176 60
154 175 22
153 174 39
157 177 51
152 173 32
154 175 45
152 174 22
152 172 51
151 171 51
152 172 39
152 173 32
150 171 0
153 173 22
149 169 22
152 173 22
148 169 0
147 168 0
149 170 0
150 171 0
151 172 0
146 167 0
146 167 0
146 167 0
150 171 0
145 165 0
144 165 0
146 167 0
142 164 0
145 165 0
144 164 0
150 171 0
144 164 0
146 167 0
139 158 0
139 160 0
142 162 0
139 159 0
140 160 0
129 149 0
135 154 0
129 148 16
122 141 28
122 141 42
116 135 36
117 136 55
112 130 56
105 124 64
99 118 56
102 123 71
86 106 59
89 109 69
70 90 58
70 91 66
66 89 67
58 79 67
50 74 68
47 71 71
44 70 78
43 69 77
39 62 64
44 70 77
40 64 57
43 69 82
39 63 72
39 63 62
37 60 61
34 55 54
38 59 49
40 59 38
53 72 37
64 83 48
87 103 25
109 127 60
121 138 74
140 158 94
145 160 118
161 182 45
173 197 0
173 197 0
114 136 64
48 76 90
51 81 90
52 83 109
53 84 116
53 84 115
54 85 114
52 83 104
57 89 118
56 89 115
58 91 128
55 88 113
56 88 117
58 91 124
57 89 115
58 91 125
58 92 128
58 91 124
57 90 118
56 89 112
58 92 128
57 90 129
58 91 122
57 90 122
56 90 122
57 91 122
58 92 119
59 93 127
59 93 125
59 93 129
57 91 115
59 93 131
58 91 126
59 94 139
59 92 121
56 89 117
59 93 135
58 91 122
58 92 129
58 93 125
58 93 122
57 91 120
59 92 124
59 93 122
59 93 126
57 91 122
58 92 118
56 89 114
58 92 131
60 94 127
58 92 125
60 95 130
57 91 127
58 91 126
60 94 135
58 92 122
56 90 105
57 90 114
57 90 115
57 91 123
60 94 129
56 88 120
61 95 130
58 92 120
57 91 123
59 92 124
58 92 122
58 92 118
56 89 118
58 92 123
57 90 119
58 92 121
58 91 125
56 89 105
56 89 120
58 91 130
56 89 119
56 88 111
57 90 121
55 87 111
55 87 108
56 89 115
57 90 134
57 91 118
55 88 116
56 88 111
55 88 113
57 90 119
55 87 123
55 88 125
57 90 125
53 84 113
53 84 112
53 84 110
54 85 110
52 82 115
49 78 91
49 77 93
47 75 96
128 149 63
173 197 0
175 198 0
161 183 48
84 94 69
71 84 41
81 93 72
53 66 45
59 72 45
72 85 41
59 73 41
61 76 45
71 86 48
76 93 68
53 67 49
65 81 64
68 83 53
84 101 58
69 85 60
75 93 76
80 97 65
86 102 75
93 109 93
89 105 85
107 124 83
99 117 90
106 124 92
104 121 94
105 121 79
113 130 113
110 127 95
115 133 97
112 130 93
123 140 111
122 141 108
113 131 95
127 144 120
137 155 117
130 146 110
137 155 121
133 151 108
138 156 126
131 150 115
139 156 123
146 164 134
131 148 126
132 150 109
134 153 95
141 160 105
140 158 118
150 168 126
148 167 136
148 167 121
148 166 139
143 161 132
144 163 124
154 172 122
148 165 133
154 172 146
153 171 134
153 171 142
159 177 143
158 176 135
154 172 139
154 172 139
141 160 99
157 175 135
153 173 130
156 175 135
158 176 145
152 170 126
159 178 137
161 180 139
161 179 154
157 176 128
154 173 129
164 183 142
154 173 124
161 179 144
158 176 123
158 175 145
163 181 146
157 176 131
161 180 142
166 184 153
156 174 135
166 184 153
166 185 155
162 180 148
155 173 136
161 180 153
166 184 161
162 181 143
156 174 127
161 179 133
165 183 150
156 174 137
159 178 133
163 180 142
161 179 133
161 179 137
156 174 139
161 180 142
160 178 137
163 180 146
162 180 142
165 183 146
158 176 141
158 177 142
163 182 146
162 180 146
157 175 146
161 180 137
157 175 150
163 181 156
160 178 142
153 172 125
160 178 146
160 178 137
155 173 139
159 176 141
155 173 135
158 176 148
155 172 135
160 178 141
157 175 146
163 180 151
154 171 137
159 176 127
159 177 150
157 175 131
165 183 160
159 177 151
159 176 160
153 170 131
163 180 165
158 176 135
154 171 133
156 174 146
157 175 137
148 165 135
154 171 144
155 173 141
152 170 129
149 166 139
158 176 144
162 180 161
155 172 156
148 165 131
158 175 150
148 166 116
167 186 118
170 187 123
169 187 121
172 190 141
163 182 99
165 184 104
168 187 118
168 186 129
168 186 118
164 183 107
167 185 116
166 185 112
168 186 123
167 185 114
165 184 104
169 187 123
171 189 135
162 182 91
161 181 88
169 187 121
162 180 104
164 183 99
168 186 116
168 186 116
165 184 102
163 182 99
164 183 102
162 181 88
167 185 114
162 182 85
162 182 91
160 180 82
163 182 91
163 182 88
160 179 85
159 179 82
166 184 109
159 179 79
160 180 85
160 179 72
162 181 97
158 178 72
160 179 79
160 180 75
159 179 85
157 177 72
161 180 82
159 178 68
157 177 72
158 178 68
159 179 64
161 180 82
154 175 51
161 180 88
156 177 64
159 178 75
156 176 51
157 177 64
158 178 60
160 179 75
155 175 39
157 177 32
151 171 32
157 177 39
155 175 32
151 172 32
151 172 0
151 172 32
152 173 22
154 174 22
151 173 22
152 173 0
151 173 0
150 171 0
150 171 0
152 173 0
153 173 0
149 170 0
149 169 0
150 171 0
151 172 0
147 168 0
148 169 0
149 169 0
151 172 0
149 170 0
146 168 0
150 171 0
148 169 0
145 166 0
148 168 0
147 168 0
146 167 0
148 168 0
146 167 0
148 168 0
147 168 0
145 165 0
145 166 0
144 164 0
148 168 0
142 162 0
137 157 0
138 159 0
136 156 0
146 166 0
133 154 0
139 158 0
135 155 0
138 157 0
134 154 0
135 153 0
118 137 22
121 141 44
129 149 41
106 125 39
98 117 28
101 120 61
96 117 62
95 114 55
82 102 55
71 91 60
82 101 54
77 97 65
55 78 66
55 77 70
58 80 65
52 74 68
48 72 73
50 73 76
39 63 69
45 70 72
42 65 59
39 62 59
37 59 62
39 62 61
42 65 61
42 62 46
45 65 46
61 80 38
65 84 51
82 100 52
100 118 39
123 140 63
139 157 101
157 174 121
142 158 104
173 196 22
174 198 0
174 198 0
150 171 30
48 77 88
52 82 98
52 83 98
54 86 113
53 84 117
56 88 118
52 83 108
54 86 109
55 86 110
57 90 121
56 89 111
57 90 119
58 91 126
55 87 116
57 91 125
57 90 119
57 91 121
58 91 119
58 92 130
56 89 116
57 91 121
58 91 116
57 90 117
58 92 130
58 92 113
58 91 109
59 93 127
57 90 124
58 92 126
59 93 126
58 92 122
57 90 118
55 87 98
56 90 117
59 93 119
60 94 122
58 91 126
59 93 126
57 90 120
56 89 111
58 91 122
58 92 121
58 91 121
58 92 118
57 91 124
58 92 126
58 91 125
58 92 129
59 93 125
58 91 122
58 91 122
59 94 133
57 91 122
58 92 127
56 90 117
59 93 127
56 90 118
57 90 117
56 89 111
56 90 117
58 92 122
56 88 126
58 92 127
56 90 118
58 91 118
60 93 135
58 91 114
58 92 123
57 91 112
59 92 122
57 90 113
56 90 119
57 90 116
57 91 122
59 93 132
59 92 136
59 93 130
55 88 106
58 91 121
54 85 103
56 88 113
57 90 120
57 91 120
54 86 106
57 89 126
55 87 104
55 87 114
55 87 116
53 84 103
54 87 102
55 88 121
53 84 108
55 88 121
52 83 106
50 79 101
50 80 96
47 76 95
47 75 88
148 170 40
173 196 0
175 198 0
173 197 0
97 111 65
97 110 88
80 91 60
70 83 57
57 72 46
56 71 40
66 81 57
55 71 45
58 73 50
60 76 55
57 71 31
63 78 38
68 84 59
71 86 63
72 87 69
84 101 68
87 104 82
87 103 61
91 106 74
103 120 81
90 109 70
108 126 72
96 113 75
104 121 98
96 115 89
107 124 101
116 134 94
109 126 109
126 143 99
116 134 107
115 133 100
123 140 105
132 149 115
123 140 109
136 154 112
133 151 110
128 145 121
134 152 105
134 152 117
139 156 129
129 147 105
140 158 123
138 157 122
141 159 121
137 155 102
144 162 136
151 170 139
142 160 117
147 165 136
150 168 129
143 161 116
140 159 122
141 160 117
143 161 124
149 167 126
145 163 123
149 168 130
150 169 119
151 169 131
154 173 135
155 174 134
152 170 123
147 165 104
159 177 143
154 172 123
147 166 111
157 175 137
156 174 128
160 178 148
153 172 125
162 181 137
164 182 140
161 179 146
162 180 137
162 180 139
162 181 146
158 175 133
155 174 131
161 179 139
162 180 142
165 184 139
162 181 137
161 179 139
167 185 142
157 176 129
163 182 142
155 173 127
164 183 141
160 179 141
161 179 137
166 183 158
165 183 156
162 180 135
160 178 141
160 177 142
158 177 135
164 183 148
169 187 158
159 178 131
160 178 144
159 177 142
162 180 133
159 178 137
159 178 133
165 183 150
162 180 137
164 181 146
162 179 160
158 176 135
157 174 148
163 181 155
158 176 139
161 179 133
156 173 137
156 173 131
158 176 133
156 175 129
160 178 144
163 181 144
162 179 148
153 170 133
159 177 151
157 175 139
162 179 153
157 175 131
158 175 137
154 173 137
155 173 135
156 173 146
159 176 142
152 170 131
161 178 158
155 172 131
155 173 135
146 163 129
154 172 139
157 175 135
148 164 131
152 169 131
152 169 133
147 164 118
157 173 150
154 171 141
149 166 118
152 170 116
153 170 141
153 169 133
168 186 114
166 185 109
170 188 127
169 187 123
167 184 109
166 184 107
166 185 116
163 182 102
164 182 104
165 184 107
168 186 121
161 180 79
166 185 114
165 183 112
162 181 88
163 182 99
164 183 99
165 184 104
164 183 97
162 181 94
166 185 104
164 183 88
160 180 85
159 178 85
160 180 79
159 178 72
159 179 68
163 182 97
165 183 104
159 178 79
165 184 107
160 179 94
161 181 85
161 181 82
158 178 68
162 182 91
162 181 94
159 178 79
163 182 82
160 179 82
155 176 45
156 177 68
158 178 56
157 177 64
156 177 60
157 177 60
155 176 51
157 177 45
158 177 51
156 177 39
157 177 51
154 174 45
158 177 64
155 176 32
155 175 22
154 175 39
157 177 51
154 174 22
153 174 32
152 173 32
152 173 22
152 173 22
151 172 0
151 172 0
151 172 22
152 174 0
151 172 0
151 172 0
148 169 0
155 176 0
150 170 0
150 172 0
146 168 0
152 172 0
151 173 0
153 173 0
150 172 0
150 171 0
148 170 0
148 169 0
149 170 0
151 172 0
151 173 0
151 172 0
148 168 0
142 162 0
147 167 0
146 166 0
145 165 0
149 169 0
144 165 0
149 170 0
146 167 0
147 167 0
145 166 0
142 163 0
146 167 0
143 163 0
144 165 0
147 169 0
139 159 0
138 158 0
139 159 0
139 160 0
139 160 0
135 154 0
130 150 0
134 155 0
135 155 0
123 141 0
125 144 0
127 147 0
126 146 0
117 136 32
117 136 28
104 123 45
111 131 38
101 119 42
108 128 53
93 111 42
81 101 60
94 112 42
83 102 49
73 93 61
71 90 67
68 86 67
57 78 61
51 73 68
48 68 53
54 75 67
43 66 63
46 68 55
42 68 74
42 65 62
53 73 53
48 67 56
44 64 56
48 69 41
62 81 50
79 96 38
84 102 27
98 116 27
109 127 32
127 146 57
149 168 85
141 156 109
150 170 64
175 198 0
174 197 0
173 197 0
172 196 16
60 84 84
49 78 94
50 79 97
52 82 99
55 88 114
54 85 108
54 86 115
55 87 121
56 89 112
57 90 115
56 88 114
56 88 103
54 86 114
56 88 115
57 90 118
56 89 111
58 92 132
56 89 112
59 93 129
57 90 122
58 92 131
58 91 120
58 91 120
59 93 118
55 88 108
58 92 116
58 91 119
57 89 118
58 91 133
59 92 125
58 92 129
57 90 119
58 91 122
59 93 131
57 89 117
56 89 118
58 91 122
57 90 114
59 92 120
58 91 115
57 91 121
58 91 112
57 90 114
58 92 124
59 93 131
59 93 124
57 90 111
57 91 121
59 93 122
57 90 120
56 88 107
58 92 115
57 91 119
59 93 134
58 91 124
59 92 126
58 92 121
57 90 108
58 92 118
58 92 118
58 91 117
60 94 134
59 92 122
57 91 121
57 89 118
58 92 122
58 92 125
57 90 116
58 91 121
56 89 111
58 92 122
58 91 121
60 95 131
57 90 126
56 89 119
56 89 112
58 91 123
56 90 108
57 90 117
58 91 117
56 88 104
57 89 117
57 91 129
57 90 127
55 87 114
54 86 103
57 90 123
56 89 120
53 85 107
54 85 110
57 90 117
51 81 100
53 85 113
52 83 102
52 83 100
50 80 83
47 75 88
72 96 83
174 197 0
172 196 0
175 198 0
174 197 0
137 155 51
86 96 64
76 89 51
72 85 42
55 69 34
62 75 42
70 83 34
56 67 39
69 83 55
60 74 38
69 85 48
74 88 35
74 88 63
64 80 35
70 84 56
84 100 60
86 101 77
79 96 72
86 103 64
99 115 78
98 116 71
99 115 85
108 126 76
104 120 93
108 125 92
107 123 101
117 135 87
122 140 111
115 132 109
117 133 109
125 143 106
124 141 110
124 141 96
130 148 107
122 139 108
127 145 87
126 144 100
129 146 114
124 143 97
137 156 108
131 150 116
129 148 88
139 157 125
140 157 110
140 159 114
140 159 107
141 160 112
145 162 124
141 159 121
142 161 118
151 169 133
146 164 128
146 164 109
150 168 139
150 168 127
151 170 134
146 164 132
158 176 131
152 170 141
153 171 127
148 166 127
148 166 122
152 171 115
154 172 127
156 175 120
151 169 122
158 176 139
158 176 138
159 178 137
157 176 127
157 175 129
156 174 133
155 174 121
151 169 118
155 173 130
159 177 129
161 179 139
164 183 139
156 173 133
162 181 144
160 178 142
156 175 123
155 173 125
149 168 114
157 176 139
160 178 141
158 177 123
156 174 133
160 178 135
153 172 104
163 180 144
159 178 123
161 179 150
162 181 139
157 175 127
157 175 129
161 179 150
156 174 137
159 177 142
162 180 144
160 178 141
158 176 141
163 180 150
155 172 135
155 173 131
154 172 133
164 182 151
159 177 129
157 175 141
153 171 127
150 168 137
154 172 131
159 176 137
156 174 133
157 174 142
166 183 151
158 176 139
156 173 127
157 175 133
158 176 144
164 182 158
151 169 121
158 176 142
155 173 137
162 180 142
156 174 131
143 160 125
153 171 125
158 176 146
157 174 142
158 176 133
151 168 131
152 170 135
155 171 144
148 165 125
147 164 116
151 169 129
156 175 139
147 165 116
163 180 148
156 173 142
150 166 133
152 169 139
151 168 127
161 179 148
154 171 141
144 161 123
167 185 118
162 182 99
166 185 112
165 183 97
166 185 114
163 182 91
166 184 107
166 185 109
167 185 121
164 183 102
164 183 97
162 182 88
164 183 97
161 180 75
164 183 99
164 183 97
164 183 94
160 180 91
166 184 104
164 183 99
157 178 64
163 182 94
161 180 94
161 181 79
162 182 85
162 181 91
161 180 97
161 180 72
157 177 68
157 177 60
158 178 72
160 180 82
161 180 79
159 179 60
161 181 79
155 175 56
160 180 88
161 181 82
156 176 51
158 177 68
158 177 60
161 180 75
161 180 75
154 175 0
157 176 51
153 174 32
156 176 51
156 177 39
157 177 32
151 172 0
154 175 32
152 173 0
152 173 0
154 175 32
150 171 0
152 173 0
155 175 0
154 174 0
152 174 0
154 175 0
153 174 0
150 172 0
152 173 0
155 175 0
152 172 0
152 173 0
148 170 0
154 175 0
151 172 0
151 172 0
149 169 0
151 172 0
152 173 0
152 173 0
151 172 0
150 171 0
149 169 0
150 171 0
151 172 0
147 168 0
151 171 0
145 165 0
148 169 0
150 170 0
147 168 0
148 169 0
146 167 0
149 170 0
147 167 0
146 167 0
145 166 0
146 167 0
142 162 0
144 164 0
145 166 0
141 162 0
147 168 0
137 157 0
142 163 0
149 169 0
143 163 0
139 159 0
138 157 0
141 162 0
134 154 0
136 156 0
138 159 0
138 158 0
134 154 0
127 146 0
130 149 0
132 151 0
129 148 16
120 139 16
108 127 22
114 132 28
109 127 42
103 122 41
105 125 36
102 122 56
96 114 50
75 95 56
74 93 50
69 89 55
75 93 41
61 82 71
56 75 58
58 79 63
49 70 55
49 70 38
46 68 49
44 66 52
52 71 45
51 72 56
52 72 38
53 72 47
59 77 46
63 81 52
65 84 40
81 98 38
88 106 25
109 127 36
121 139 42
137 155 53
142 161 72
135 151 85
165 188 32
173 197 0
172 196 0
173 196 0
174 197 0
107 127 60
46 74 83
50 79 99
51 81 100
52 83 110
56 88 106
53 83 108
54 86 109
57 89 115
57 91 120
57 89 120
56 88 123
58 91 118
56 88 118
55 88 122
57 90 121
56 89 117
56 89 118
57 90 115
57 90 115
56 89 116
58 92 115
58 92 122
58 92 126
59 93 129
57 89 112
58 91 119
59 92 130
57 90 115
57 91 113
58 92 120
57 90 114
57 91 127
56 89 119
59 94 129
59 93 121
57 90 127
56 88 118
58 92 126
58 92 127
59 93 130
58 92 118
58 91 124
59 93 130
57 91 124
59 93 131
58 92 122
57 90 118
57 90 113
59 93 120
58 92 119
59 93 126
59 93 118
58 91 129
57 90 113
56 90 117
57 90 122
58 92 127
56 89 109
57 90 115
57 90 122
59 93 122
58 91 122
56 88 117
58 92 115
58 93 121
56 89 114
59 92 130
57 91 115
56 89 114
61 95 139
57 90 120
56 88 109
55 87 108
58 92 127
56 89 118
57 91 126
58 91 118
56 88 109
57 90 132
56 89 122
56 89 115
54 86 110
55 88 118
57 90 123
55 87 115
53 85 96
54 85 108
53 83 107
54 85 109
52 83 108
55 88 116
53 84 105
51 81 91
49 78 81
50 80 113
45 72 80
121 143 71
173 197 0
171 195 0
174 197 0
174 197 0
167 189 39
97 111 70
93 107 53
84 97 20
66 76 38
69 81 36
64 77 39
68 82 44
69 83 41
68 84 46
61 74 33
71 86 54
78 94 48
69 84 54
78 94 32
63 79 62
76 93 72
97 113 74
90 107 81
97 114 82
82 99 59
106 123 82
101 118 81
102 120 79
105 122 85
103 120 84
108 126 95
110 128 89
99 116 82
115 132 102
119 136 98
128 144 108
122 140 109
121 138 85
130 147 105
129 146 94
124 141 101
125 143 108
131 148 105
125 143 105
130 148 100
135 153 97
141 158 115
128 145 116
141 160 115
145 163 119
145 164 119
142 159 128
137 154 109
149 168 129
152 170 137
140 159 108
150 168 124
144 163 112
146 164 118
144 163 120
154 172 136
150 167 130
150 167 134
154 174 132
156 174 117
151 169 134
151 169 131
151 170 115
153 172 129
156 174 137
154 172 134
152 170 116
157 175 134
154 173 128
155 173 129
152 170 119
164 182 147
157 176 131
150 168 128
158 176 134
154 173 108
155 173 136
153 171 129
159 177 123
155 173 127
161 179 146
161 180 135
161 178 141
161 180 135
161 179 141
159 178 142
158 176 137
162 181 121
159 177 131
158 176 125
158 176 141
156 175 127
159 177 142
162 180 141
161 178 139
158 177 125
160 178 133
160 179 131
161 179 137
159 177 146
154 172 127
154 173 127
156 174 131
165 183 139
163 181 141
159 178 123
156 175 121
158 176 141
157 175 129
155 172 141
157 175 135
158 175 146
159 178 123
164 182 144
154 172 131
152 169 133
159 178 137
156 174 139
160 178 142
156 174 131
157 175 137
158 176 137
151 169 125
159 178 133
155 173 135
157 175 142
158 174 142
156 174 137
157 175 141
150 168 129
157 174 142
155 172 139
150 167 131
153 172 135
155 172 144
155 172 127
156 173 139
152 169 139
156 173 141
155 173 133
152 168 137
151 168 141
148 164 129
153 170 139
148 165 135
142 159 123
166 185 107
166 185 116
166 185 112
161 180 91
164 182 104
164 183 99
161 180 88
166 184 104
161 180 75
163 182 88
166 185 104
161 181 82
161 180 94
158 178 68
160 180 75
159 179 88
164 183 102
163 182 94
160 180 85
162 182 85
160 180 68
160 180 68
160 179 85
156 177 64
157 178 56
160 179 64
158 178 72
158 178 68
162 181 85
159 179 68
154 175 56
158 178 75
161 181 75
156 176 60
157 177 45
156 176 51
155 176 32
155 176 39
156 177 0
154 174 32
152 173 0
155 175 32
155 176 32
154 175 0
152 173 0
155 176 0
156 177 0
153 174 0
152 173 0
153 173 0
153 174 0
154 174 0
152 172 0
150 171 0
153 174 0
154 175 0
152 173 0
151 172 0
152 173 0
152 174 0
152 174 0
147 168 0
150 172 0
153 174 0
152 174 0
150 171 0
150 171 0
149 171 0
151 172 0
149 170 0
149 170 0
147 169 0
152 173 0
149 171 0
151 172 0
150 171 0
152 173 0
150 170 0
151 171 0
151 171 0
145 165 0
146 167 0
149 170 0
146 167 0
146 167 0
144 165 0
143 164 0
147 168 0
149 169 0
147 168 0
142 164 0
142 162 0
141 162 0
148 169 0
142 162 0
145 166 0
144 164 0
146 167 0
141 162 0
139 159 0
140 161 0
136 156 0
136 156 0
138 158 0
136 156 0
141 161 0
131 151 0
135 155 0
133 153 0
124 144 0
131 151 0
127 146 0
125 143 16
114 132 0
112 129 16
112 131 36
108 127 39
98 115 36
102 121 32
99 119 39
102 119 32
79 97 44
76 95 53
77 96 46
70 89 39
61 81 56
62 81 45
50 70 50
52 72 52
55 72 44
51 71 49
49 70 42
54 74 54
53 72 39
58 76 40
64 81 43
58 76 43
59 76 37
79 97 38
91 108 38
96 114 35
111 129 32
128 147 52
138 157 45
134 152 60
147 166 60
173 197 0
173 197 0
175 197 0
173 197 0
174 198 0
155 178 21
48 77 82
50 79 94
52 82 95
53 83 98
53 84 99
53 84 111
55 87 114
56 89 120
55 88 110
55 87 101
54 85 113
56 89 121
58 91 130
57 90 120
57 90 117
57 89 123
56 89 116
58 92 127
55 87 111
58 91 121
57 91 119
59 93 131
57 91 121
57 90 113
57 90 115
56 89 115
56 90 111
57 91 118
55 87 114
58 92 115
59 93 125
58 92 121
58 91 115
59 92 124
59 92 126
58 91 114
56 89 118
58 91 125
56 89 112
58 91 117
58 91 122
58 92 115
58 92 127
58 92 129
60 94 134
57 91 117
59 93 126
58 92 126
58 91 120
58 91 127
58 92 117
54 86 102
58 92 126
58 93 124
58 92 118
56 89 115
58 91 118
57 90 121
57 90 118
58 92 127
57 90 115
56 89 111
58 91 120
59 93 135
56 89 112
57 90 117
58 91 126
57 90 122
56 89 113
56 89 100
56 89 116
56 89 109
57 90 117
57 90 114
53 85 95
56 88 110
56 89 121
56 89 114
50 80 92
56 89 115
53 84 96
55 87 109
54 86 111
55 88 106
54 86 118
53 83 119
54 85 104
54 85 117
53 83 110
53 83 110
50 80 94
51 81 103
51 81 101
48 77 86
46 73 88
47 75 83
158 181 22
175 198 0
173 196 0
174 197 0
173 197 0
171 195 0
109 123 65
77 89 61
79 93 45
51 64 29
71 84 39
59 70 19
76 89 44
55 69 42
69 82 24
63 77 53
54 70 50
67 83 46
59 73 45
78 93 51
79 95 51
84 100 62
74 89 51
91 106 62
91 107 72
102 118 98
97 114 78
96 113 73
101 117 70
103 119 89
99 115 68
99 115 75
116 132 96
111 128 78
112 130 85
115 132 85
116 132 98
125 143 90
118 136 83
130 148 104
134 151 104
123 140 87
133 151 102
136 154 111
131 150 102
133 151 95
131 149 102
131 150 97
137 153 113
135 152 116
142 160 106
131 150 106
145 162 121
144 162 122
138 156 102
144 162 114
150 168 137
149 167 124
151 170 132
151 169 129
154 174 122
152 170 124
148 166 111
154 173 124
149 167 110
147 165 116
151 170 124
154 172 118
148 165 115
155 173 118
152 170 125
153 170 140
153 172 138
151 168 123
153 171 124
159 177 127
155 174 116
161 180 135
152 170 111
157 176 122
158 176 127
160 179 142
159 177 147
161 179 137
164 182 141
161 179 129
158 177 112
161 180 125
160 178 140
157 175 135
166 184 135
158 178 123
158 177 118
165 183 144
154 172 131
160 178 135
157 174 137
158 176 121
163 181 135
165 184 148
154 172 129
159 177 131
158 176 133
155 173 116
158 177 125
157 176 133
159 177 135
155 172 125
158 176 135
159 175 141
150 169 114
161 179 148
156 174 127
153 170 139
156 172 142
156 174 141
157 175 116
152 170 127
158 176 135
156 174 125
160 178 153
152 170 127
152 170 123
152 170 129
154 172 123
154 171 133
152 169 135
158 174 142
162 179 146
158 177 133
159 177 125
155 172 127
157 176 129
151 169 127
151 169 127
150 167 129
157 175 150
157 174 135
148 164 121
144 161 116
151 168 129
153 171 123
148 166 129
147 164 123
153 170 135
153 171 133
147 164 131
149 166 123
152 170 121
149 167 123
152 169 137
151 168 131
164 182 97
161 181 85
159 180 75
158 178 68
165 183 97
161 181 88
163 182 94
161 181 82
163 182 97
165 184 104
163 182 91
162 181 82
159 178 79
158 178 60
161 181 79
155 176 56
162 181 88
160 179 85
156 176 60
156 177 56
158 178 75
158 178 79
156 176 68
155 175 51
157 176 60
158 178 68
157 177 60
158 178 60
156 176 56
156 176 51
155 176 32
155 175 45
152 173 39
154 174 0
153 173 22
150 171 0
153 174 32
153 174 22
153 176 0
152 173 0
152 174 0
152 174 0
153 173 0
149 170 0
155 176 0
152 173 0
152 173 0
153 174 0
152 173 0
155 176 0
151 172 0
153 174 0
152 173 0
149 171 0
152 173 0
148 169 0
151 172 0
153 174 0
148 169 0
151 172 0
152 172 0
153 174 0
148 169 0
148 168 0
148 169 0
151 171 0
151 172 0
146 167 0
148 169 0
149 170 0
150 170 0
152 173 0
151 171 0
150 170 0
152 173 0
149 170 0
146 167 0
146 167 0
147 168 0
149 169 0
147 169 0
148 169 0
148 169 0
149 170 0
148 169 0
148 169 0
146 167 0
147 167 0
148 169 0
145 166 0
149 170 0
149 169 0
143 163 0
141 162 0
144 165 0
141 162 0
144 165 0
147 166 0
142 162 0
136 157 0
140 161 0
137 158 0
141 160 0
136 156 0
139 159 0
133 152 0
135 156 0
131 151 0
128 148 0
125 144 0
126 145 0
124 141 0
122 139 0
111 129 0
117 134 22
116 134 22
108 127 39
107 126 31
99 118 42
96 113 35
83 101 51
89 106 39
82 101 49
75 92 39
83 100 44
69 86 53
62 80 37
61 80 50
69 88 45
60 77 53
60 78 50
59 77 50
51 70 54
52 70 46
61 78 42
65 83 42
65 83 35
81 97 32
85 102 25
91 108 31
108 126 26
114 133 44
143 162 48
140 159 56
149 166 99
166 188 22
173 196 0
174 197 0
176 198 0
175 198 0
171 195 0
171 194 0
63 88 70
50 80 99
51 82 101
51 81 102
53 85 107
52 83 98
53 85 104
53 85 105
55 87 113
57 90 114
55 88 116
54 86 98
54 86 102
56 89 110
58 92 127
56 89 106
56 89 103
57 90 132
56 89 115
56 90 114
56 89 114
56 89 108
57 90 118
56 89 108
55 88 104
57 91 121
57 91 116
58 91 122
59 93 127
57 90 114
57 91 119
57 90 115
58 91 122
57 91 114
56 90 112
59 93 122
59 93 117
56 89 114
57 90 109
58 92 123
57 91 118
57 90 118
59 94 126
58 92 120
57 90 122
57 90 120
57 91 120
58 91 117
58 92 111
58 91 120
57 89 114
59 93 127
59 93 126
58 91 121
56 88 117
57 91 121
58 92 130
58 92 114
57 91 118
56 88 121
57 90 117
60 94 133
58 91 118
59 93 131
57 90 120
57 90 117
58 92 118
56 89 114
55 87 113
57 90 127
56 88 106
58 91 122
54 86 111
57 91 115
57 90 124
56 89 110
59 92 135
57 91 118
54 86 104
55 87 112
56 89 114
54 86 110
54 86 107
55 87 118
53 84 102
55 87 111
53 83 108
55 87 114
53 84 115
53 84 103
51 81 105
48 76 84
52 82 99
48 76 81
47 74 87
75 98 78
173 197 0
173 197 0
173 196 0
173 197 0
172 195 0
174 197 0
152 172 42
102 115 78
67 78 51
69 82 43
74 85 52
57 72 26
74 87 58
81 95 44
71 85 38
75 90 50
60 74 40
74 89 48
81 97 37
80 95 61
77 92 55
87 102 61
85 101 53
88 104 64
89 105 65
95 112 77
89 105 61
99 114 72
110 127 75
109 126 92
112 129 78
114 132 94
118 136 84
113 131 99
116 133 88
118 135 89
122 138 104
121 139 88
123 139 101
115 132 93
119 137 75
115 132 99
130 147 94
122 139 84
130 148 107
131 148 96
137 156 102
133 150 119
133 150 104
139 157 108
133 151 102
137 155 106
144 162 106
140 159 87
149 167 114
145 163 113
145 164 113
147 166 118
145 163 104
144 162 108
148 166 114
146 163 119
153 172 125
147 165 103
149 167 118
145 163 110
153 172 120
148 167 108
151 170 108
159 177 137
152 171 122
146 165 114
152 170 123
153 170 127
154 172 118
152 171 104
159 176 133
152 170 129
155 174 116
159 177 133
158 176 140
157 174 135
157 174 132
158 176 137
161 179 139
153 172 109
152 170 123
159 178 123
154 172 107
154 172 121
159 177 137
160 178 131
160 178 127
161 180 123
154 172 131
157 176 123
159 177 137
158 176 142
157 175 129
162 179 142
158 176 123
157 175 127
160 178 139
155 173 116
162 181 144
154 172 121
156 175 123
152 170 114
162 180 129
162 181 125
163 179 142
154 172 116
152 171 114
158 176 135
162 180 133
156 174 129
154 172 129
155 172 125
158 176 125
152 169 114
161 179 139
160 178 142
154 172 127
156 174 127
157 175 142
159 178 141
162 180 148
159 176 148
159 176 129
154 171 137
159 177 133
159 176 146
150 166 129
149 167 114
152 169 123
158 175 141
151 168 129
152 167 144
151 167 135
147 164 127
151 167 139
151 169 127
156 174 135
150 168 118
145 161 129
148 165 112
149 166 121
150 166 139
147 163 116
148 164 123
152 169 139
143 159 127
160 179 88
162 181 91
162 181 91
162 181 91
162 182 85
162 182 91
162 182 82
160 180 85
161 181 88
158 178 56
160 179 82
160 180 72
157 178 45
158 177 68
157 177 68
157 177 64
157 177 56
154 175 45
157 177 60
158 178 56
158 178 60
155 176 45
154 174 22
158 178 64
155 176 51
154 174 32
153 174 32
156 176 32
154 175 39
152 173 32
153 174 0
154 175 0
155 175 0
154 175 0
153 174 0
152 172 0
154 175 0
152 173 0
156 176 0
154 174 0
153 174 0
153 175 0
154 175 0
152 174 0
155 176 0
154 175 0
152 173 0
152 172 0
150 171 0
155 176 0
150 172 0
152 173 0
152 173 0
153 173 0
151 172 0
151 171 0
154 175 0
154 174 0
151 172 0
149 170 0
149 169 0
148 168 0
148 169 0
153 173 0
152 172 0
150 171 0
151 171 0
150 171 0
152 173 0
146 167 0
148 170 0
151 172 0
149 170 0
148 168 0
151 172 0
149 171 0
146 167 0
149 171 0
146 167 0
146 167 0
149 170 0
145 165 0
151 171 0
149 170 0
141 162 0
147 168 0
146 166 0
147 168 0
144 165 0
143 164 0
142 163 0
140 161 0
142 162 0
141 162 0
144 164 0
137 158 0
141 161 0
136 157 0
144 165 0
140 160 0
135 155 0
141 161 0
139 158 0
134 154 0
128 149 0
132 152 0
134 154 0
129 149 0
137 157 0
116 136 0
117 136 0
131 150 0
123 141 0
123 142 16
117 135 0
110 128 28
105 123 21
105 121 16
106 124 27
103 121 32
88 105 50
76 93 36
75 93 38
78 95 36
74 92 36
81 99 51
76 94 53
73 90 45
67 85 45
70 87 50
63 80 42
67 83 21
69 86 40
57 75 32
64 82 42
64 81 27
81 98 38
95 113 30
97 114 25
102 120 38
125 144 21
126 144 0
143 163 22
136 153 79
127 144 45
172 196 0
172 196 0
174 197 0
172 195 0
175 197 0
172 197 0
173 196 0
129 150 36
47 75 82
51 82 98
50 80 99
52 82 103
52 83 91
54 86 107
55 87 109
56 88 105
57 89 113
52 83 94
57 90 113
55 87 104
55 88 114
57 90 114
56 89 112
57 90 116
55 87 102
58 91 113
57 90 119
57 90 121
57 90 121
56 89 108
57 90 125
57 91 120
57 90 118
57 90 116
58 92 119
57 91 119
59 93 127
57 90 118
58 92 124
57 91 117
56 89 108
58 91 119
57 91 119
57 90 128
57 91 119
56 88 99
57 90 120
59 93 127
58 91 121
55 87 105
58 91 123
58 92 122
59 93 122
56 89 114
55 88 115
56 88 115
59 92 118
58 91 117
59 92 125
57 90 117
57 90 113
56 88 120
56 90 113
58 91 125
58 92 121
58 91 111
56 90 114
58 92 125
57 90 110
58 91 117
59 93 115
56 90 118
56 90 120
57 90 112
56 88 110
56 89 110
57 90 119
57 90 118
54 86 103
54 86 112
56 88 119
57 90 117
54 86 103
58 92 118
57 90 117
56 89 108
54 85 105
56 88 113
58 92 125
54 85 107
55 87 119
55 87 107
54 86 116
53 84 110
53 84 116
54 85 113
52 82 105
51 81 103
51 81 95
50 80 100
48 76 81
51 81 98
123 144 51
174 198 0
171 195 0
171 194 0
175 198 0
174 197 0
175 198 0
172 196 0
115 130 64
89 103 62
86 99 42
76 88 23
80 93 62
56 70 34
81 95 44
74 87 20
79 92 26
74 88 53
70 84 40
70 83 36
67 82 54
75 90 51
72 89 42
84 99 51
80 96 60
81 97 45
103 119 82
92 109 79
87 103 50
96 112 76
101 116 83
100 116 63
102 119 65
105 121 81
112 129 77
115 133 92
119 136 94
120 136 87
133 151 96
112 127 93
119 135 94
126 143 104
121 139 93
124 141 98
123 141 86
136 153 108
135 153 103
134 151 102
139 156 105
134 152 95
130 147 90
141 159 107
136 154 102
145 163 111
148 166 123
150 168 108
145 163 113
139 158 100
141 160 96
141 159 109
155 173 130
142 160 97
142 159 113
142 160 103
148 166 122
150 168 115
152 171 118
139 156 97
153 172 112
144 161 108
147 166 105
149 167 115
151 169 112
146 164 112
152 171 121
153 171 109
156 173 126
149 167 120
150 169 104
157 175 114
153 171 112
158 175 133
154 171 118
149 167 112
159 178 134
157 174 123
152 170 115
159 177 123
157 176 121
157 175 133
155 173 129
156 174 112
155 172 116
156 175 112
151 168 123
158 176 141
158 176 127
157 176 129
158 176 116
153 171 112
152 169 125
154 172 121
159 178 127
157 176 131
159 177 125
154 172 125
153 171 129
155 173 135
163 181 150
160 179 135
157 175 131
156 174 127
152 170 121
157 176 116
157 175 131
163 181 144
160 177 142
153 171 127
152 169 116
149 167 121
162 180 141
160 178 127
157 175 137
155 172 137
160 178 139
153 171 129
151 169 121
151 169 118
154 172 127
157 174 127
156 173 133
161 178 151
156 173 135
151 169 135
158 175 133
156 174 129
153 171 127
152 170 118
158 176 133
149 167 107
150 167 131
147 165 118
151 169 133
152 170 125
150 167 109
159 176 146
148 164 127
151 169 129
145 161 131
150 167 129
148 165 118
143 159 125
152 169 127
162 181 94
161 181 88
160 180 79
164 182 94
163 182 91
160 179 85
157 178 60
158 178 72
162 181 85
160 180 68
157 177 68
157 177 56
155 176 51
158 178 72
155 176 51
156 176 45
156 176 45
153 174 0
155 175 32
155 176 32
156 177 45
156 176 51
154 175 22
156 176 32
156 176 32
154 175 22
156 176 0
154 175 0
154 174 0
153 174 0
153 174 0
154 175 0
152 173 0
155 176 0
154 175 0
154 175 0
154 175 0
152 173 0
149 170 0
152 172 0
152 173 0
153 174 0
153 174 0
153 174 0
152 173 0
152 173 0
155 176 0
150 171 0
152 172 0
151 172 0
150 170 0
153 174 0
151 172 0
152 172 0
153 174 0
154 174 0
152 173 0
153 174 0
152 172 0
148 169 0
155 176 0
150 172 0
151 172 0
151 171 0
147 168 0
149 170 0
146 167 0
148 168 0
150 171 0
150 170 0
149 169 0
150 170 0
148 169 0
148 169 0
150 172 0
149 169 0
149 170 0
148 169 0
144 165 0
142 162 0
150 171 0
148 169 0
147 168 0
144 164 0
149 170 0
146 166 0
143 164 0
142 163 0
144 164 0
145 166 0
139 160 0
143 165 0
141 162 0
144 164 0
146 167 0
143 163 0
140 161 0
138 158 0
133 155 0
140 160 0
136 157 0
131 151 0
138 158 0
129 149 0
133 152 0
131 151 0
129 149 0
125 144 0
127 146 0
133 153 0
128 146 0
121 139 0
124 143 0
114 132 0
107 125 0
112 131 16
118 135 16
113 130 0
107 125 45
97 116 42
93 110 39
85 102 32
75 91 31
88 104 28
75 93 32
79 96 50
81 98 42
64 83 50
60 77 31
61 79 40
71 88 46
64 83 45
74 91 33
69 86 28
80 96 38
75 92 31
88 104 20
96 112 25
104 122 26
116 135 21
125 145 16
138 158 0
134 154 32
128 145 72
165 187 39
172 196 0
174 197 0
173 196 0
172 196 0
173 197 0
171 195 0
170 194 0
170 193 31
55 82 70
50 79 93
48 77 93
53 84 102
54 84 94
51 81 95
57 90 120
55 87 111
55 86 107
54 86 111
56 88 112
57 90 117
55 87 112
55 87 110
58 91 118
58 91 129
57 90 117
56 89 105
58 91 120
56 89 114
56 89 112
56 89 115
57 91 114
54 86 109
57 90 118
58 92 122
56 88 113
57 91 114
57 90 114
56 90 108
58 92 117
59 93 131
56 89 112
56 89 108
55 87 110
56 88 115
58 92 124
59 93 133
58 92 121
57 90 118
57 90 120
58 92 128
59 92 129
58 92 118
58 92 126
57 90 120
58 92 122
59 93 122
57 90 115
57 90 106
57 89 114
59 93 115
57 90 108
59 93 129
58 92 121
58 92 115
57 90 108
57 91 108
55 87 103
58 91 126
56 89 115
57 91 121
56 89 110
59 93 122
57 90 111
57 90 110
56 88 114
56 89 113
58 91 118
58 91 123
57 90 123
56 89 108
57 91 127
57 91 117
56 89 111
55 88 111
56 89 118
56 89 118
54 86 105
54 86 104
55 87 117
54 85 113
54 86 104
56 88 120
57 90 121
53 84 107
53 83 101
55 87 109
51 82 101
52 82 103
51 81 97
50 79 101
46 73 99
53 76 68
161 184 37
173 197 0
174 197 0
170 193 0
173 196 0
171 195 0
173 196 0
172 195 0
150 171 32
84 97 54
88 99 62
76 87 38
83 96 38
76 89 28
85 98 27
79 93 27
67 80 21
81 95 32
72 86 38
83 99 40
67 82 41
77 94 52
87 103 59
94 111 60
86 103 57
103 120 58
97 113 49
84 99 53
99 116 79
117 133 74
95 111 66
113 130 80
102 119 57
114 131 84
110 126 83
112 128 88
119 135 94
125 142 91
117 133 78
114 130 84
119 136 98
123 141 93
126 144 83
123 140 79
124 142 83
134 151 98
134 151 98
134 151 117
129 146 99
135 153 88
141 159 116
131 148 94
133 149 102
128 145 98
139 159 95
134 151 101
147 165 124
138 156 102
145 163 113
145 163 114
141 160 96
144 162 110
152 170 128
147 165 104
148 166 122
149 167 103
148 166 122
145 163 123
143 162 105
149 166 125
158 176 124
149 167 121
152 170 99
154 172 124
157 176 131
154 172 115
153 171 106
156 174 130
156 174 135
154 171 133
152 171 121
155 174 123
156 174 122
153 171 124
156 175 121
150 169 104
158 176 114
154 172 131
157 176 127
157 177 122
160 179 121
160 177 141
156 175 125
154 172 107
156 174 131
161 180 133
154 171 118
159 176 127
152 170 116
154 172 123
156 174 131
149 167 127
156 174 116
157 175 133
156 174 137
155 172 135
160 177 148
151 169 121
158 176 129
150 168 129
150 168 112
162 179 141
155 174 114
158 176 133
151 169 125
155 173 133
156 174 127
157 176 127
150 168 131
158 176 135
152 170 99
160 178 142
158 176 137
152 170 123
158 175 137
159 176 141
152 169 144
152 170 127
147 165 116
155 173 133
157 176 123
157 174 139
152 171 121
153 169 133
151 168 129
158 175 146
159 177 125
156 173 135
148 165 129
154 171 133
147 165 102
142 159 114
149 166 133
144 161 127
152 168 144
155 173 137
153 170 123
145 162 127
146 162 118
149 166 131
142 158 114
152 169 131
154 171 131
162 181 85
161 181 82
156 177 68
157 177 60
160 179 72
161 180 79
158 178 56
160 179 56
158 178 64
155 175 39
156 176 56
156 176 39
157 177 51
153 174 39
159 179 60
156 177 22
157 178 45
155 175 22
153 173 32
155 176 0
155 175 0
153 175 0
154 175 0
153 175 0
151 173 0
154 174 0
153 175 0
153 174 0
154 174 0
153 175 0
153 174 0
151 172 0
154 174 0
151 172 0
155 175 0
150 171 0
154 175 0
150 171 0
153 173 0
156 176 0
154 174 0
151 173 0
149 169 0
152 174 0
153 173 0
152 173 0
153 173 0
153 174 0
154 175 0
153 173 0
151 172 0
153 173 0
151 172 0
151 172 0
153 174 0
151 172 0
151 172 0
150 171 0
149 170 0
147 168 0
153 174 0
148 168 0
150 172 0
151 172 0
151 172 0
150 171 0
150 171 0
148 169 0
149 170 0
145 165 0
145 166 0
146 167 0
148 168 0
145 166 0
145 166 0
144 165 0
149 170 0
144 164 0
147 166 0
142 163 0
143 164 0
149 170 0
143 164 0
149 170 0
143 164 0
145 165 0
143 164 0
146 166 0
143 164 0
144 165 0
141 161 0
146 167 0
142 164 0
144 164 0
142 163 0
136 157 0
141 161 0
141 162 0
140 160 0
138 158 0
128 148 0
138 158 0
134 154 0
136 156 0
131 150 0
120 139 0
130 149 0
126 145 0
131 150 0
129 148 0
120 140 0
127 145 0
120 138 0
111 130 0
113 132 0
115 133 0
111 128 16
113 130 0
95 112 16
106 123 0
96 112 30
101 118 28
76 95 45
78 94 42
87 104 40
81 98 31
81 96 31
71 89 32
74 90 43
61 78 49
77 93 35
79 95 37
67 84 27
88 105 27
82 97 14
87 104 45
90 108 40
105 122 19
117 135 16
121 139 16
133 153 0
128 147 0
136 154 56
136 153 64
171 195 0
174 197 0
172 195 0
171 195 0
171 195 0
171 195 0
173 196 0
171 194 0
171 195 0
100 123 68
46 73 81
51 81 96
52 83 107
53 84 102
53 84 97
51 82 89
54 87 102
54 86 104
57 90 118
56 89 114
55 86 108
57 89 113
56 89 108
55 88 102
55 87 107
57 90 111
56 89 117
56 89 95
57 90 120
57 90 119
56 89 108
56 89 114
58 91 123
55 88 100
58 91 123
58 91 124
58 91 119
54 87 106
57 90 111
57 90 118
58 92 125
56 89 114
56 89 106
58 92 123
57 90 113
57 91 114
56 89 120
59 92 125
58 91 122
57 90 117
57 90 113
57 90 124
57 90 114
57 91 117
56 89 113
57 91 114
56 88 107
55 88 107
56 89 113
57 91 127
60 94 126
57 91 114
57 91 110
57 90 114
57 90 111
55 87 108
57 90 110
59 93 125
58 91 117
56 89 113
58 91 122
55 88 108
56 88 107
57 90 121
57 91 115
57 90 121
56 89 113
55 87 111
56 89 106
56 88 111
57 91 123
56 89 112
56 89 118
54 86 108
53 85 113
57 90 119
53 84 100
54 86 108
53 83 101
55 88 106
53 84 100
54 86 104
54 85 98
53 84 101
53 85 105
54 85 108
51 81 95
53 84 97
48 76 90
51 82 98
48 77 91
42 68 72
116 137 53
170 194 0
171 195 0
170 194 0
171 195 0
171 195 0
168 192 0
171 195 0
171 194 0
171 196 0
113 127 87
91 104 50
85 98 45
69 80 43
77 89 64
68 83 31
72 85 28
62 75 33
72 86 18
59 74 27
75 88 28
78 92 16
72 88 50
87 101 35
71 86 38
89 104 38
90 105 39
96 112 62
87 102 60
101 117 52
95 111 58
102 118 68
105 122 87
103 120 66
110 127 77
108 124 76
113 129 86
120 135 72
110 127 78
118 135 83
122 139 88
127 144 80
120 138 84
111 129 75
121 139 79
135 152 88
136 154 103
127 144 97
126 143 75
133 150 105
129 147 88
138 155 99
136 154 109
140 158 93
142 160 109
135 152 88
142 160 97
141 159 102
141 158 98
131 147 101
143 161 97
144 161 99
138 156 106
146 164 101
148 166 114
147 164 118
145 162 97
143 161 109
151 169 126
147 165 115
150 168 109
154 171 124
156 174 132
152 170 114
147 165 103
153 171 123
146 164 108
148 167 99
155 173 110
147 165 102
155 172 104
158 177 130
156 174 125
155 173 122
157 176 116
150 168 102
151 169 114
148 165 102
155 172 116
149 167 107
156 174 125
154 172 112
156 175 121
152 170 114
154 172 133
156 175 116
157 175 122
157 176 123
156 174 131
155 172 137
155 173 107
148 167 109
146 164 114
153 172 116
154 171 121
148 165 102
154 173 127
151 169 121
148 166 114
152 170 114
154 171 137
156 174 125
153 171 123
159 178 127
154 172 123
157 175 131
159 178 131
153 172 129
153 171 112
153 171 121
152 170 116
150 168 127
156 173 133
151 170 116
150 168 123
158 177 125
154 172 129
153 170 125
153 171 129
151 169 118
155 172 139
157 174 135
154 171 133
149 167 135
153 170 131
156 173 129
150 167 129
155 173 135
154 172 137
154 171 142
151 168 112
152 168 135
152 169 131
149 167 125
150 167 131
150 166 116
160 177 139
147 163 131
148 166 116
149 165 123
151 167 133
157 174 150
152 169 137
147 164 129
160 179 68
162 180 85
158 178 64
157 178 64
156 176 51
159 179 64
156 176 39
155 175 51
157 177 56
158 177 60
156 177 45
155 176 32
155 176 32
154 175 32
152 173 0
153 174 0
154 175 0
154 174 0
154 175 0
153 174 0
153 174 0
152 174 0
155 176 0
155 175 0
152 174 0
153 174 0
151 172 0
153 174 0
151 172 0
153 173 0
154 174 0
152 173 0
153 173 0
153 174 0
153 174 0
152 173 0
149 170 0
153 174 0
153 174 0
152 174 0
152 173 0
154 175 0
153 174 0
150 171 0
152 172 0
151 172 0
153 173 0
153 174 0
153 173 0
151 171 0
151 172 0
151 173 0
150 171 0
151 172 0
151 172 0
150 172 0
151 171 0
148 169 0
148 169 0
145 167 0
150 171 0
147 168 0
149 170 0
154 175 0
152 173 0
152 172 0
150 170 0
152 172 0
149 169 0
149 170 0
149 168 0
146 167 0
147 169 0
146 167 0
147 167 0
144 165 0
148 168 0
143 163 0
148 168 0
147 168 0
147 167 0
147 168 0
147 168 0
148 168 0
144 165 0
147 167 0
142 163 0
140 161 0
137 158 0
139 159 0
138 159 0
140 160 0
139 160 0
139 160 0
133 153 0
136 157 0
132 153 0
139 158 0
141 162 0
132 152 0
134 154 0
127 148 0
129 149 0
136 155 0
134 153 0
126 145 0
130 149 0
127 147 0
127 146 0
122 141 0
119 137 0
114 133 0
114 132 0
123 142 0
111 129 0
112 129 0
112 130 0
110 128 0
108 125 22
98 115 16
97 115 0
98 115 0
88 105 16
80 95 32
81 96 31
79 95 35
77 94 45
84 100 21
71 86 28
93 108 0
81 96 39
77 93 34
86 100 16
87 103 25
89 105 21
103 120 0
107 124 17
114 131 21
123 141 14
126 145 16
138 158 0
135 153 22
136 153 72
163 184 45
172 196 0
172 196 0
171 194 0
172 195 0
171 194 0
170 194 0
170 194 0
174 198 0
169 193 0
166 188 19
51 79 76
50 80 98
51 81 97
50 80 87
52 83 90
52 83 99
54 86 96
55 87 107
54 86 107
56 88 110
54 86 117
54 85 94
55 86 114
54 87 104
54 87 102
53 85 99
55 87 106
54 86 109
57 90 109
55 87 108
57 91 119
55 87 113
56 89 113
57 91 115
56 89 113
54 86 98
57 90 120
57 90 114
58 92 125
56 88 102
55 88 97
57 90 118
58 91 114
57 91 118
56 89 114
57 91 117
57 90 117
58 92 120
57 90 113
58 92 122
56 89 103
57 90 122
57 90 118
58 91 115
56 89 107
54 85 99
57 90 117
58 91 125
55 87 111
57 90 113
57 91 118
56 89 103
58 91 121
57 90 115
57 90 113
55 88 103
58 91 114
55 87 102
56 89 100
54 86 115
58 91 116
57 89 114
57 89 113
56 89 117
55 87 105
56 88 122
57 91 110
57 90 118
55 88 110
55 87 105
56 88 112
56 88 114
56 89 111
56 88 114
56 89 113
56 89 103
57 89 111
55 88 103
53 84 99
55 87 110
52 83 111
53 84 100
53 83 108
54 85 110
51 82 102
52 83 97
52 83 95
50 80 99
52 82 98
52 83 96
48 76 87
42 67 60
156 179 35
172 195 0
170 193 0
170 194 0
174 197 0
173 197 0
171 195 0
173 196 0
173 196 0
173 196 0
154 174 51
89 100 62
81 95 44
87 101 54
82 95 27
74 86 47
79 92 30
80 93 30
60 74 36
66 79 41
82 97 40
73 86 38
70 83 44
85 102 40
73 89 40
85 102 48
83 100 54
95 110 58
91 107 59
91 107 48
102 119 68
104 120 57
104 120 60
116 134 85
113 129 73
114 131 64
117 134 84
106 123 85
124 142 76
118 134 76
120 137 67
111 128 79
122 139 70
116 133 75
128 145 91
129 146 92
127 144 91
118 137 70
130 148 87
130 148 95
134 152 90
133 151 75
130 149 91
142 160 98
140 158 117
143 161 104
139 156 106
139 157 103
142 160 102
136 153 79
146 164 125
143 161 100
144 162 96
149 168 115
139 156 88
139 157 91
147 164 107
141 159 102
138 155 99
145 162 115
142 161 102
146 164 90
150 168 110
157 176 122
150 167 116
151 169 101
151 169 110
157 175 127
152 170 113
154 172 119
157 176 116
153 171 99
155 174 107
153 171 121
147 165 116
152 170 112
153 170 120
155 173 114
160 179 116
153 171 104
155 174 116
162 179 125
150 168 112
157 175 121
147 165 109
150 167 121
154 172 107
153 171 102
152 170 116
154 172 127
155 173 114
150 168 91
156 173 127
157 175 123
152 170 118
156 174 123
156 174 129
154 172 121
146 164 112
149 167 121
153 171 123
151 169 121
155 173 121
152 169 118
162 180 137
156 173 133
147 165 107
152 170 125
155 173 131
152 169 121
151 170 118
155 173 112
157 175 118
149 166 112
148 166 107
152 170 114
156 173 137
149 166 121
150 167 116
154 172 125
154 172 114
154 171 125
158 175 141
154 172 129
154 172 129
154 171 135
152 170 121
147 165 114
155 172 133
148 166 109
154 171 137
154 172 133
150 167 121
143 159 121
143 159 121
151 168 114
151 168 109
145 162 118
152 169 135
145 161 112
138 154 112
146 163 104
141 157 125
149 165 131
157 177 60
159 179 68
157 177 56
156 176 45
156 177 51
157 178 60
153 174 0
157 177 32
154 175 22
158 178 45
157 177 22
154 175 0
154 175 0
154 174 0
154 175 0
154 175 0
151 172 0
155 176 0
152 173 0
153 173 0
155 175 0
150 171 0
152 173 0
154 175 0
153 173 0
154 175 0
152 173 0
152 173 0
152 173 0
152 173 0
153 174 0
153 174 0
152 172 0
153 174 0
151 172 0
152 173 0
152 172 0
153 174 0
156 176 0
152 173 0
150 172 0
152 174 0
151 171 0
151 172 0
150 171 0
148 168 0
152 173 0
152 173 0
152 173 0
151 171 0
150 170 0
149 170 0
151 172 0
152 173 0
149 170 0
149 170 0
148 169 0
148 169 0
149 169 0
147 168 0
147 168 0
146 167 0
150 171 0
148 169 0
150 171 0
147 169 0
149 170 0
150 171 0
149 169 0
148 169 0
149 170 0
148 168 0
146 167 0
151 172 0
149 169 0
140 161 0
145 166 0
150 170 0
146 167 0
145 166 0
147 168 0
146 167 0
145 166 0
142 162 0
142 162 0
138 159 0
147 167 0
141 161 0
142 162 0
144 165 0
140 161 0
141 162 0
138 158 0
127 147 0
134 154 0
138 158 0
131 151 0
135 155 0
141 161 0
134 153 0
130 150 0
136 157 0
133 152 0
128 148 0
128 147 0
123 141 0
127 145 0
132 151 0
128 146 0
129 148 0
120 139 0
116 133 0
110 129 0
111 129 0
109 127 0
110 127 0
108 125 0
100 117 0
100 116 0
100 116 0
91 107 9
91 106 0
97 113 16
80 97 31
88 104 31
83 98 28
92 107 31
77 91 20
78 94 22
70 85 27
88 103 16
88 103 21
85 100 21
79 94 0
85 101 14
104 121 22
107 123 0
108 125 0
123 142 0
135 155 0
134 153 0
125 141 39
146 166 39
170 195 0
172 195 0
172 196 0
172 195 0
169 193 0
171 194 0
174 197 0
172 195 0
171 195 0
171 195 0
173 196 0
113 135 42
50 79 84
50 80 93
51 81 86
52 83 102
54 85 105
51 81 100
54 85 105
55 87 113
56 88 115
57 90 116
53 84 97
54 86 98
56 89 110
56 88 105
54 85 99
56 89 109
56 88 110
55 87 108
56 88 109
56 88 109
56 88 105
56 88 112
58 91 111
55 87 112
56 89 112
57 91 117
57 91 122
57 90 108
56 90 110
56 89 103
58 91 114
57 91 112
59 93 121
60 94 130
55 87 105
55 88 113
58 92 118
57 91 120
58 91 115
56 88 113
57 91 111
57 90 114
59 93 126
55 87 103
57 89 111
56 89 111
58 91 115
57 90 107
57 90 125
56 88 115
57 90 120
53 85 99
56 89 117
56 89 107
56 88 111
58 92 125
57 91 110
54 86 97
57 90 107
55 87 108
57 90 115
57 90 116
54 86 100
57 90 120
58 91 118
56 88 117
56 89 115
56 89 109
58 91 111
54 86 109
53 84 100
57 90 113
58 91 121
55 87 114
55 87 109
53 84 99
56 88 120
54 86 98
52 83 100
53 84 97
55 87 117
55 87 108
51 81 103
50 81 87
49 79 83
51 81 96
50 80 92
49 78 96
48 77 86
47 75 85
110 132 56
171 195 0
171 194 0
169 193 0
166 189 0
173 197 0
169 194 0
173 197 0
172 195 0
172 195 0
171 195 0
171 195 0
123 140 53
90 103 52
76 87 61
83 95 37
68 81 48
75 89 16
82 95 32
82 97 34
86 99 16
82 97 44
74 90 56
78 94 39
82 97 44
97 112 50
86 103 55
96 111 52
80 95 44
94 109 31
100 115 64
84 101 50
110 127 61
103 120 62
99 114 47
107 123 66
108 125 53
100 117 46
119 136 77
116 132 65
111 128 70
105 121 83
115 132 64
114 132 73
125 141 87
123 140 79
133 150 88
120 136 80
121 138 88
129 147 76
128 145 90
134 150 83
121 138 77
125 143 78
137 156 93
136 154 98
138 155 97
131 147 90
135 152 87
130 148 87
144 162 108
129 147 77
142 161 95
132 149 92
138 156 94
147 165 110
136 154 89
144 162 101
139 156 106
140 158 100
145 162 123
144 162 93
147 164 103
149 167 117
156 175 118
154 173 107
150 168 97
144 163 104
154 172 108
159 177 120
149 167 118
158 175 121
155 174 114
151 170 97
145 164 97
153 170 123
152 171 118
150 167 99
149 168 112
148 166 104
155 173 116
150 168 107
147 165 109
150 167 109
153 172 97
156 174 118
156 174 121
154 171 114
150 169 101
150 168 118
152 170 112
152 171 102
150 168 109
151 169 118
153 172 109
151 169 118
153 170 116
158 176 129
154 173 112
151 168 123
163 181 142
152 170 112
152 169 112
150 168 107
154 171 129
157 175 129
153 170 133
148 166 109
153 170 123
150 168 123
152 170 97
158 175 131
147 164 112
151 169 114
149 167 123
153 171 118
156 174 133
161 179 133
148 166 116
141 158 104
153 170 123
146 164 112
154 171 131
148 165 123
147 165 121
156 173 129
149 166 109
151 169 121
144 161 125
158 175 148
147 164 125
154 172 125
151 168 118
150 167 123
145 163 114
149 167 125
144 161 112
143 160 114
148 165 121
154 170 137
153 170 131
151 168 131
141 157 121
149 165 123
142 159 121
154 176 32
153 175 0
157 177 56
155 176 39
153 174 0
155 175 0
152 173 22
154 175 0
152 173 0
153 175 0
153 173 0
151 172 0
151 173 0
153 174 0
154 175 0
151 172 0
153 174 0
153 174 0
154 175 0
154 175 0
152 173 0
152 173 0
155 176 0
152 173 0
151 172 0
154 174 0
151 171 0
149 170 0
151 172 0
153 174 0
150 171 0
154 175 0
153 174 0
150 171 0
153 174 0
155 176 0
152 174 0
148 169 0
152 173 0
151 172 0
152 173 0
152 173 0
152 172 0
151 172 0
152 172 0
149 169 0
149 170 0
151 172 0
150 171 0
149 169 0
152 173 0
149 170 0
150 171 0
148 169 0
147 168 0
149 169 0
148 168 0
153 173 0
149 169 0
149 170 0
148 168 0
149 170 0
146 167 0
147 168 0
148 169 0
146 166 0
147 167 0
150 172 0
147 168 0
146 167 0
144 165 0
143 164 0
144 165 0
148 169 0
147 167 0
149 169 0
143 163 0
146 166 0
148 168 0
143 164 0
145 164 0
140 161 0
143 164 0
142 163 0
141 162 0
140 160 0
145 165 0
138 157 0
143 162 0
140 160 0
136 156 0
136 157 0
133 153 0
139 159 0
134 154 0
148 168 0
137 158 0
137 158 0
131 151 0
129 148 0
131 151 0
127 146 0
137 157 0
137 156 0
121 139 0
132 151 0
128 147 0
132 151 0
132 150 0
119 138 0
125 143 0
121 138 0
126 144 0
109 126 0
117 135 0
118 136 0
105 121 0
110 125 0
111 128 0
108 125 0
94 110 0
95 111 0
95 111 0
93 108 32
92 108 16
95 110 27
82 96 14
93 108 0
87 102 16
78 92 16
89 104 0
93 107 10
88 105 0
108 125 0
95 111 16
103 120 0
113 131 16
119 138 0
125 144 0
131 149 0
130 148 0
124 140 32
165 187 22
170 194 0
170 194 0
168 192 0
172 195 0
173 196 0
168 191 0
169 193 0
173 196 0
167 190 0
167 192 0
173 196 0
158 181 42
51 80 99
47 76 83
51 82 90
50 80 86
55 87 110
56 88 120
53 85 101
51 82 93
54 86 99
55 87 106
55 87 110
52 82 93
55 87 102
55 87 111
55 87 112
53 85 91
55 88 113
53 85 97
57 90 117
57 90 109
57 91 105
55 86 108
55 87 103
54 86 105
57 91 103
57 90 117
56 89 111
55 88 102
58 91 115
55 87 103
56 89 110
57 90 118
54 87 108
56 88 107
57 91 115
57 90 108
58 91 122
55 88 108
58 91 118
59 93 121
55 87 111
58 92 121
57 91 117
57 90 114
56 89 108
56 89 115
57 91 117
56 89 107
58 92 124
58 92 115
57 91 112
58 91 122
56 88 108
57 90 111
56 89 113
55 87 97
56 88 117
57 90 115
57 90 117
55 88 108
55 87 111
56 90 110
54 86 99
55 88 116
55 88 112
57 89 112
56 88 103
56 89 110
57 91 108
56 89 115
54 86 105
55 88 112
55 88 105
55 87 100
54 86 105
53 85 103
55 87 106
52 82 101
56 88 112
54 86 104
52 82 86
52 82 93
53 84 106
53 85 95
51 81 87
50 81 93
51 81 93
50 79 87
46 73 89
56 81 63
164 186 35
172 195 0
169 192 0
170 193 0
169 193 0
169 192 0
169 193 0
169 192 0
168 193 0
170 193 0
171 194 0
170 193 0
163 186 28
110 123 68
87 98 65
89 102 50
92 104 59
75 88 46
78 92 32
70 83 32
57 70 28
82 96 26
83 96 33
79 94 16
89 103 36
79 94 40
87 102 36
93 109 63
85 100 33
92 107 22
86 102 42
98 114 82
94 109 51
102 119 53
99 115 60
110 127 55
104 121 63
109 125 68
101 116 75
115 130 82
117 133 81
121 139 98
115 131 57
118 135 60
122 139 86
122 140 69
124 140 66
124 140 84
126 143 80
135 153 82
123 140 72
131 148 86
124 141 83
131 148 82
130 148 85
135 153 91
133 150 93
136 154 93
129 148 51
142 160 99
138 157 100
145 163 99
136 153 84
132 150 85
146 164 104
147 165 94
145 163 111
145 162 109
142 160 93
140 159 110
146 163 117
149 167 108
152 170 111
151 169 112
150 168 101
143 161 95
152 170 114
142 160 88
157 175 116
148 167 106
148 166 119
150 168 112
155 174 127
154 172 121
152 170 112
152 171 104
155 173 109
156 174 127
148 165 116
155 173 118
147 164 116
152 170 112
150 169 104
150 167 107
152 170 112
154 172 118
146 164 107
154 171 121
153 171 107
157 175 116
153 171 118
154 173 123
152 170 116
151 168 107
157 174 131
153 171 116
151 169 107
159 178 129
161 179 131
162 180 129
155 173 129
156 174 123
155 174 104
151 170 109
150 167 116
151 168 123
154 172 118
151 168 116
152 169 112
152 170 112
151 169 118
153 171 116
149 167 99
153 171 112
147 166 104
149 166 121
140 157 97
154 172 121
151 169 112
146 164 104
158 175 137
147 166 107
151 168 129
147 164 116
152 168 129
141 159 91
150 167 121
154 171 135
155 173 125
147 164 114
154 172 127
146 163 114
152 168 131
147 164 123
148 164 125
142 158 116
141 158 104
142 159 114
148 164 123
148 164 133
147 164 116
147 162 123
145 162 114
145 161 123
145 161 116
154 175 0
155 175 39
153 174 0
155 175 32
153 174 0
154 174 0
150 171 0
153 174 0
155 176 0
152 173 0
152 173 0
152 172 0
154 175 0
153 174 0
151 172 0
153 174 0
152 173 0
152 172 0
154 174 0
153 174 0
155 175 0
155 176 0
154 175 0
153 173 0
149 169 0
153 174 0
154 174 0
148 169 0
152 172 0
154 175 0
153 174 0
151 172 0
151 172 0
151 173 0
152 172 0
151 172 0
153 173 0
150 170 0
153 174 0
150 171 0
151 172 0
154 175 0
152 172 0
150 171 0
153 174 0
151 172 0
152 173 0
151 171 0
150 171 0
152 173 0
148 168 0
147 168 0
148 169 0
148 169 0
152 173 0
149 170 0
150 171 0
151 172 0
151 172 0
149 169 0
151 171 0
148 168 0
147 167 0
144 164 0
148 169 0
147 168 0
149 169 0
145 166 0
151 171 0
148 168 0
148 169 0
150 170 0
144 165 0
145 166 0
145 164 0
141 162 0
144 165 0
145 166 0
144 165 0
143 164 0
144 165 0
135 154 0
140 161 0
143 163 0
143 164 0
145 165 0
136 157 0
139 160 0
142 162 0
144 164 0
138 159 0
142 162 0
140 160 0
143 163 0
139 160 0
134 153 0
140 160 0
134 154 0
128 147 0
130 150 0
135 154 0
133 153 0
130 149 0
127 148 0
124 143 0
127 145 0
127 146 0
126 145 0
126 145 0
127 146 0
123 141 0
124 144 0
119 138 0
118 136 0
118 135 0
113 131 0
101 117 0
103 119 0
112 129 0
98 114 0
103 118 0
96 111 0
95 109 0
109 125 0
105 120 0
102 117 28
84 99 22
95 110 22
96 112 0
93 108 0
85 99 16
92 107 0
96 111 16
102 118 0
104 120 0
103 120 0
121 139 0
135 153 0
127 146 0
128 146 0
128 145 39
143 164 0
167 191 0
173 196 0
167 192 0
169 193 0
169 193 0
168 192 0
168 192 0
172 196 0
172 194 0
168 191 0
167 190 0
169 192 0
171 194 0
123 144 39
49 77 75
51 81 87
52 83 96
53 83 103
52 82 92
54 86 99
54 86 95
53 84 99
53 84 98
55 86 101
54 87 101
54 86 103
54 86 102
55 87 103
55 87 110
54 86 110
54 85 109
53 84 97
57 90 113
56 88 109
56 89 114
56 88 120
55 88 109
56 88 108
56 89 109
56 88 111
57 90 118
53 84 106
57 90 110
56 88 111
58 91 108
58 91 118
57 90 117
56 88 107
58 91 123
54 87 92
56 88 121
55 87 115
58 92 125
57 90 121
55 88 103
55 88 108
58 92 122
57 90 120
57 90 114
56 89 102
57 90 115
56 88 108
56 89 107
55 88 105
55 88 105
57 91 117
58 91 117
56 88 108
55 88 102
58 92 120
56 88 113
55 88 120
55 87 110
55 87 103
57 90 113
57 89 119
56 89 109
56 88 102
57 89 118
54 86 108
56 89 108
56 88 114
55 88 109
53 85 100
55 87 106
55 87 109
55 86 110
54 85 99
53 84 104
53 84 90
53 84 97
55 86 90
54 85 106
52 83 100
55 87 110
52 83 102
52 82 102
50 80 91
50 79 86
50 79 95
47 75 86
46 73 80
111 133 59
171 195 0
168 191 0
170 194 0
168 191 0
167 190 0
170 193 0
170 192 0
170 193 0
166 189 0
170 194 0
167 190 0
168 191 0
168 190 0
146 165 32
103 116 70
90 102 71
77 88 38
84 99 38
79 92 16
66 79 35
82 95 27
74 88 17
84 99 35
90 104 22
83 98 38
85 100 21
83 97 42
85 100 32
90 105 42
95 110 27
91 107 51
85 101 61
93 109 52
92 108 37
105 121 55
106 122 42
115 131 72
102 118 57
112 129 58
108 125 53
111 127 65
105 122 59
120 137 66
116 133 72
113 129 65
112 129 51
121 138 68
129 147 66
130 146 79
129 146 87
128 146 91
131 147 78
130 148 87
125 140 97
134 151 70
130 148 75
134 150 88
127 144 81
137 155 85
136 154 98
141 159 90
143 161 110
142 160 92
141 159 91
132 149 80
140 157 97
135 152 81
133 150 97
139 156 79
144 161 97
147 164 101
144 162 95
148 166 97
143 161 90
142 160 91
147 164 116
142 160 97
149 167 114
142 160 85
148 166 94
144 162 97
145 162 97
147 165 97
146 164 91
150 168 108
150 168 118
147 165 93
150 167 112
153 171 107
152 170 99
147 166 88
146 164 88
157 175 109
153 171 118
147 166 91
149 166 104
149 167 112
155 173 125
152 170 109
149 166 109
149 166 107
155 173 125
153 171 112
157 175 135
153 171 104
153 171 107
151 168 127
147 164 94
159 177 133
156 173 116
152 170 118
155 173 129
151 168 125
147 163 125
151 169 116
148 165 109
139 156 102
147 165 102
152 170 112
156 174 104
149 167 112
149 166 112
151 168 109
153 171 118
154 171 131
156 174 127
150 168 109
146 163 102
148 165 125
153 170 123
157 174 127
153 171 112
155 172 123
150 168 125
150 168 118
150 168 112
150 167 121
153 172 118
151 168 135
142 159 116
146 163 116
147 163 125
151 167 127
149 166 112
148 165 109
143 159 121
147 164 118
155 172 144
147 164 116
142 159 109
149 166 112
143 159 116
151 169 116
149 165 131
150 166 129
153 174 22
154 175 0
154 174 0
153 174 0
154 175 0
153 174 0
155 175 0
155 176 0
154 175 0
153 174 0
157 176 0
153 174 0
153 174 0
154 174 0
150 171 0
152 173 0
154 175 0
154 175 0
153 173 0
150 171 0
152 173 0
153 173 0
154 175 0
151 172 0
154 175 0
151 171 0
153 174 0
156 176 0
153 173 0
152 172 0
151 172 0
152 172 0
151 172 0
148 169 0
153 173 0
151 173 0
151 172 0
154 176 0
148 168 0
151 172 0
151 172 0
153 174 0
151 172 0
151 171 0
153 174 0
147 167 0
149 170 0
151 172 0
150 171 0
151 172 0
153 173 0
154 174 0
149 170 0
146 167 0
148 169 0
151 172 0
150 171 0
152 173 0
150 170 0
150 170 0
149 170 0
148 170 0
150 171 0
148 168 0
145 166 0
151 172 0
147 168 0
149 170 0
146 167 0
148 168 0
145 166 0
148 169 0
144 165 0
140 160 0
145 166 0
142 162 0
144 164 0
143 163 0
141 161 0
147 167 0
145 165 0
144 164 0
145 164 0
146 167 0
143 163 0
139 159 0
141 162 0
137 156 0
138 158 0
134 154 0
140 161 0
140 160 0
137 157 0
139 159 0
134 154 0
136 156 0
142 161 0
139 158 0
133 152 0
129 149 0
135 155 0
126 144 0
119 138 0
133 152 0
129 148 0
123 142 0
128 148 0
126 145 0
116 134 0
117 134 0
125 143 0
130 148 0
113 131 0
122 140 0
107 124 0
111 127 0
116 133 0
115 131 0
111 128 0
108 124 0
104 120 0
111 128 0
99 114 0
100 115 0
99 115 0
98 113 0
95 110 0
85 99 16
88 102 0
97 111 0
96 111 16
103 119 0
105 121 0
104 120 0
116 133 0
122 140 0
123 141 0
125 144 0
129 148 0
127 145 0
124 141 32
168 191 0
170 193 0
170 193 0
171 194 0
171 194 0
169 193 0
169 193 0
166 190 0
168 191 0
172 195 0
171 193 0
166 190 0
171 195 0
172 196 0
163 185 0
68 91 61
50 80 80
48 77 86
51 81 92
53 84 100
49 78 79
53 84 105
50 80 80
51 81 97
56 89 104
52 83 88
54 85 99
56 88 104
55 87 97
54 85 101
55 87 111
54 86 101
56 89 111
55 87 109
54 86 108
54 85 105
55 87 108
55 87 119
54 86 105
52 83 100
57 90 110
56 89 109
55 87 106
55 88 103
56 88 109
57 90 114
57 90 113
57 90 110
56 88 115
58 91 121
57 90 117
56 88 110
57 90 121
54 87 95
57 90 115
57 90 120
57 91 115
56 88 111
54 86 100
57 89 117
56 88 108
58 92 115
55 88 100
54 86 107
56 88 102
56 89 107
55 87 110
55 87 103
56 89 108
55 87 105
55 88 114
56 88 115
55 87 114
56 88 115
55 87 103
58 92 118
54 86 105
56 89 105
57 90 117
53 85 108
54 86 105
54 86 108
59 92 122
54 87 98
58 91 115
57 90 115
56 89 122
54 85 100
56 89 112
54 86 104
52 83 91
55 87 104
54 86 105
53 84 107
53 84 104
46 74 79
53 84 103
52 82 98
52 82 100
49 78 88
49 77 86
44 71 68
65 88 74
160 184 18
165 188 0
166 190 0
167 191 0
166 189 0
165 188 0
167 190 0
167 191 0
168 192 0
170 192 0
166 189 0
167 191 0
166 190 0
172 195 0
171 195 0
113 129 52
97 110 62
81 93 44
86 99 54
77 88 36
82 96 49
76 89 32
85 99 34
77 90 22
83 96 28
83 98 38
78 91 10
88 102 28
89 105 31
88 103 36
90 104 19
99 114 31
100 115 52
102 118 53
84 99 56
108 122 62
106 125 58
104 120 61
109 125 72
105 121 66
115 131 80
106 122 60
111 128 74
109 126 70
111 127 77
121 137 61
120 137 52
115 133 61
111 126 53
125 143 85
125 142 61
124 141 74
125 142 68
125 142 77
131 148 87
126 143 76
133 151 68
134 152 90
138 156 109
142 159 101
138 156 88
142 158 87
140 157 102
143 162 91
147 165 82
146 163 106
134 152 82
142 160 102
145 162 96
145 163 79
138 156 87
139 158 64
143 161 105
140 157 98
153 171 102
143 160 110
147 165 99
148 166 102
148 167 97
140 158 80
149 167 98
146 164 104
145 162 104
143 162 85
155 174 107
147 165 91
151 169 111
146 163 98
151 168 116
153 171 114
151 169 107
147 164 107
152 171 104
150 169 99
156 174 112
153 171 118
152 170 116
157 175 135
153 171 112
154 172 114
147 165 91
151 169 118
149 167 109
155 173 118
148 166 109
159 176 131
148 165 109
152 169 121
156 174 127
149 166 104
151 169 109
160 178 121
153 170 131
152 169 112
151 168 114
149 166 116
147 164 114
155 173 118
150 167 112
151 169 104
149 167 102
145 162 102
155 173 123
148 165 107
147 163 114
155 172 123
151 168 116
150 167 118
155 173 112
148 166 123
151 169 107
141 158 94
147 165 118
146 164 104
155 173 133
152 169 135
146 163 112
158 176 139
151 169 133
147 164 125
152 169 131
138 154 112
150 167 123
137 153 109
146 163 118
138 155 97
140 156 112
144 160 127
155 171 133
146 163 116
145 163 112
147 163 133
148 165 121
150 167 131
153 171 118
145 163 112
155 174 0
154 174 0
153 174 0
154 175 0
155 175 0
155 175 0
153 174 0
153 174 0
153 175 0
153 174 0
153 174 0
154 175 0
153 173 0
151 172 0
152 173 0
153 174 0
150 171 0
153 173 0
151 172 0
153 173 0
153 175 0
152 173 0
152 174 0
151 172 0
151 171 0
152 173 0
151 172 0
150 172 0
154 174 0
150 171 0
150 171 0
154 175 0
152 174 0
152 173 0
150 172 0
151 172 0
150 171 0
154 175 0
150 171 0
148 169 0
150 171 0
152 172 0
148 169 0
149 169 0
150 171 0
148 169 0
146 167 0
149 170 0
151 172 0
148 169 0
152 173 0
147 168 0
148 169 0
150 171 0
148 169 0
148 169 0
144 165 0
148 169 0
148 169 0
144 165 0
147 167 0
144 165 0
150 170 0
147 166 0
145 165 0
137 158 0
148 168 0
143 163 0
146 167 0
142 162 0
144 164 0
143 163 0
144 164 0
145 165 0
141 162 0
143 164 0
140 160 0
142 163 0
147 167 0
142 162 0
143 164 0
139 160 0
145 165 0
139 159 0
143 163 0
141 161 0
140 159 0
141 161 0
142 161 0
140 160 0
141 161 0
135 155 0
138 158 0
144 164 0
142 161 0
137 157 0
138 157 0
133 152 0
134 153 0
133 153 0
134 153 0
135 154 0
135 154 0
122 141 0
132 151 0
130 149 0
129 148 0
123 141 0
127 146 0
123 142 0
123 141 0
115 133 0
118 137 0
120 138 0
107 125 0
117 134 0
117 134 0
121 138 0
105 122 0
114 130 0
111 127 0
97 112 0
98 114 0
91 106 0
109 125 0
93 109 0
87 102 0
106 121 0
100 114 0
92 108 0
106 122 0
111 128 0
105 121 0
106 122 0
115 132 0
124 142 0
122 139 0
125 142 0
129 147 0
110 125 22
164 186 22
169 192 0
165 189 0
170 193 0
170 193 0
169 192 0
169 192 0
165 188 0
168 192 0
168 191 0
169 192 0
166 190 0
170 193 0
168 192 0
169 192 0
168 192 0
137 160 53
46 73 76
49 78 81
51 80 96
50 79 86
51 81 86
52 83 101
51 81 94
55 87 107
55 86 99
55 87 99
54 85 104
55 87 107
55 88 103
57 90 112
56 88 114
57 90 108
57 90 108
52 83 95
55 86 113
56 89 112
55 86 102
56 88 108
56 89 108
56 88 117
55 87 98
54 86 95
54 87 103
59 92 123
56 89 118
58 91 119
54 86 97
57 90 105
57 90 118
55 88 114
54 86 86
56 89 112
57 90 115
58 91 115
57 91 107
57 90 110
57 90 111
57 90 112
55 88 100
57 90 108
57 90 118
56 88 112
55 87 111
54 86 102
57 90 111
55 88 107
56 89 95
56 89 110
56 89 108
54 86 102
56 89 111
56 88 113
55 88 110
56 89 113
55 87 103
53 84 93
55 88 92
55 87 108
56 89 108
53 85 103
58 91 122
56 89 127
55 87 111
55 88 108
57 90 111
51 82 94
52 84 105
54 86 99
51 82 95
51 82 91
52 83 92
52 83 102
53 83 101
53 83 88
49 78 94
55 87 103
50 80 93
50 80 91
49 78 84
49 78 86
49 78 84
46 74 71
142 165 37
168 191 0
165 188 0
169 192 0
168 192 0
168 192 0
162 186 0
171 194 0
168 191 0
164 187 0
169 193 0
168 191 0
167 190 0
169 192 0
167 189 0
169 192 0
156 178 0
89 102 32
95 107 65
92 104 52
77 90 40
85 99 22
77 91 48
74 87 45
71 84 40
80 93 10
83 97 27
88 101 31
83 97 39
82 94 28
80 94 28
105 121 39
93 108 31
103 118 51
94 110 44
101 116 45
94 108 58
106 121 57
103 119 54
109 125 57
102 116 48
107 122 60
114 131 64
108 124 68
113 129 69
117 133 85
122 139 60
122 139 32
125 142 63
114 131 81
126 142 75
135 153 83
125 141 83
125 142 72
119 137 61
128 146 67
131 148 66
130 148 77
127 144 68
137 155 85
128 146 65
128 145 71
136 155 76
138 156 79
133 151 72
143 160 85
133 151 70
146 164 91
136 153 66
143 160 116
134 152 72
137 155 75
137 155 77
142 160 85
144 163 82
139 157 72
145 162 106
140 157 92
148 166 99
146 163 90
143 161 82
143 161 103
146 164 88
146 164 88
142 159 112
141 159 99
151 169 116
153 171 116
151 169 107
149 166 111
151 168 116
153 171 99
146 164 97
146 164 97
150 167 102
148 166 104
149 167 104
153 171 112
149 167 109
140 157 91
152 169 121
149 166 112
143 161 102
150 167 112
154 173 121
155 173 116
148 165 97
146 164 109
150 167 112
152 170 121
157 175 129
155 172 123
151 168 109
155 173 118
151 169 118
157 175 137
152 170 112
154 171 112
159 177 131
148 167 94
146 164 104
150 167 104
152 170 116
148 165 112
150 167 118
149 166 118
145 162 99
152 170 116
156 173 123
143 160 102
143 159 114
151 169 114
150 169 123
151 169 116
146 163 116
147 164 109
154 171 127
148 165 109
147 164 109
149 167 116
146 163 107
152 169 129
149 167 102
146 162 116
146 162 107
150 166 118
152 170 114
152 169 135
156 174 123
146 163 121
147 163 121
145 161 118
140 156 99
149 167 116
149 166 121
147 164 118
140 156 102
152 173 0
155 176 0
152 173 0
153 175 0
154 175 0
155 175 0
155 175 0
153 173 0
152 172 0
153 174 0
155 175 0
151 172 0
154 174 0
153 173 0
150 171 0
152 173 0
151 171 0
152 173 0
149 170 0
152 173 0
154 174 0
151 172 0
154 174 0
150 170 0
153 173 0
150 171 0
151 172 0
150 171 0
148 169 0
153 174 0
151 172 0
152 173 0
151 172 0
150 170 0
151 172 0
152 173 0
150 171 0
151 172 0
145 166 0
151 172 0
148 168 0
151 171 0
148 169 0
151 172 0
150 171 0
148 169 0
149 169 0
147 168 0
150 171 0
151 172 0
148 169 0
152 173 0
149 170 0
149 171 0
149 169 0
151 172 0
147 167 0
146 166 0
149 170 0
148 169 0
148 168 0
149 170 0
151 172 0
146 167 0
150 170 0
145 165 0
146 166 0
145 166 0
147 168 0
145 166 0
145 166 0
140 160 0
148 168 0
139 159 0
141 161 0
146 167 0
145 165 0
145 166 0
145 165 0
143 164 0
141 160 0
141 161 0
145 165 0
143 164 0
138 158 0
140 159 0
139 160 0
143 163 0
143 164 0
137 157 0
139 158 0
139 160 0
138 157 0
145 165 0
129 149 0
133 153 0
134 153 0
130 150 0
130 149 0
137 157 0
131 150 0
136 156 0
130 149 0
131 150 0
128 146 0
129 149 0
127 145 0
126 145 0
131 150 0
124 142 0
120 138 0
117 135 0
120 137 0
116 133 0
116 133 0
118 134 0
106 123 0
103 119 0
107 124 0
117 134 0
105 121 0
103 120 0
110 125 0
99 116 0
98 114 0
106 120 0
96 112 0
94 108 0
107 123 0
96 111 0
102 117 0
111 127 0
111 127 0
115 132 0
114 131 0
132 150 0
119 136 0
113 130 0
108 123 0
155 176 0
167 190 0
170 193 0
168 191 0
171 194 0
164 187 0
166 190 0
167 190 0
167 190 0
169 192 0
166 189 0
163 186 0
168 192 0
166 189 0
166 189 0
168 192 0
167 191 0
167 191 0
103 124 56
49 78 84
46 74 68
47 75 82
51 81 80
53 84 102
52 83 99
53 84 94
52 82 90
54 86 95
54 86 105
54 86 109
56 88 94
56 88 101
55 86 100
52 84 91
56 88 98
55 87 108
56 88 105
55 87 95
54 86 86
54 86 95
57 89 115
57 89 114
56 88 108
55 87 100
55 87 92
56 89 110
55 88 100
54 87 112
54 86 86
56 89 108
58 92 121
54 86 94
55 88 108
56 89 105
55 87 111
55 87 103
58 91 125
55 87 108
55 88 111
56 88 110
54 86 97
54 86 113
58 91 117
55 87 107
55 87 107
54 86 90
56 89 118
55 88 100
55 87 103
56 88 111
55 88 107
56 88 113
54 86 100
57 90 114
55 88 106
55 88 108
57 89 110
55 88 114
54 86 100
54 86 102
54 87 100
55 87 103
53 84 112
53 84 107
51 82 93
54 86 103
52 83 94
54 85 106
56 89 108
54 86 97
55 87 108
53 84 105
54 86 102
55 86 102
54 86 100
54 86 102
53 84 96
50 80 100
46 74 71
50 79 93
50 80 73
47 74 79
42 67 61
101 123 64
166 188 0
168 192 0
166 189 0
161 183 0
164 188 0
169 192 0
164 187 0
165 189 0
167 190 0
166 189 0
167 191 0
168 192 0
167 189 0
169 193 0
169 192 0
166 190 0
167 190 0
151 171 60
102 114 68
94 107 39
83 95 42
88 101 31
79 90 32
80 93 45
81 95 22
77 90 28
76 90 32
68 81 28
89 104 22
90 104 25
91 106 28
93 107 36
97 111 36
100 116 58
93 109 42
97 113 42
102 118 44
101 116 42
106 121 41
113 129 58
103 117 54
112 128 53
102 118 55
111 128 62
110 126 53
122 138 62
115 131 68
111 127 52
120 135 82
120 137 73
121 137 61
128 144 82
124 141 82
126 142 84
130 147 68
129 146 80
136 155 86
120 137 67
128 145 71
133 149 85
135 152 79
132 149 101
136 153 82
127 144 83
124 142 76
131 149 70
139 156 94
139 156 103
140 158 88
139 156 68
136 154 80
136 155 97
139 157 74
150 168 106
136 153 82
139 156 81
147 165 99
143 161 85
146 164 91
143 160 79
143 161 94
146 164 85
137 155 75
148 166 91
151 168 104
145 162 102
142 160 91
144 161 97
146 164 97
148 166 104
145 163 94
144 163 85
157 174 127
147 165 91
156 174 123
145 163 88
151 168 114
154 172 109
141 159 91
155 173 118
143 161 85
150 167 114
148 166 112
148 166 91
151 169 94
151 169 109
153 172 102
153 171 123
144 161 88
152 170 97
152 169 116
156 174 125
152 169 107
154 172 112
150 168 109
152 170 118
151 168 112
144 160 109
147 164 109
142 159 97
153 172 114
153 170 121
149 166 116
146 163 114
149 165 97
148 165 109
154 171 107
147 164 116
152 169 127
147 164 104
149 167 112
152 170 109
142 160 85
148 164 114
145 162 114
147 165 109
150 167 114
142 158 104
153 170 131
149 167 118
150 168 109
143 160 99
148 166 109
151 168 116
144 162 88
153 170 123
144 161 107
142 159 104
146 163 104
144 160 116
144 160 112
146 162 112
150 167 127
143 160 97
146 163 102
153 170 112
144 160 123
153 173 0
152 173 0
155 176 0
153 174 0
153 174 0
153 174 0
153 173 0
152 173 0
152 173 0
155 175 0
153 174 0
153 174 0
151 172 0
154 175 0
153 173 0
152 172 0
151 172 0
151 172 0
150 170 0
152 172 0
152 172 0
150 170 0
150 171 0
150 170 0
154 174 0
151 172 0
151 172 0
147 168 0
152 172 0
151 172 0
153 173 0
151 172 0
151 171 0
152 173 0
148 169 0
150 171 0
149 170 0
150 170 0
149 170 0
147 168 0
150 171 0
149 170 0
151 172 0
145 166 0
149 171 0
150 171 0
147 169 0
150 170 0
151 172 0
148 169 0
149 169 0
147 167 0
149 170 0
146 167 0
147 168 0
144 165 0
145 166 0
148 169 0
150 170 0
147 167 0
146 167 0
146 166 0
151 171 0
147 167 0
145 166 0
143 162 0
146 166 0
144 165 0
147 167 0
145 166 0
147 167 0
145 165 0
145 165 0
150 170 0
142 162 0
144 164 0
144 164 0
139 159 0
141 160 0
144 164 0
140 160 0
139 160 0
141 161 0
141 161 0
136 156 0
137 156 0
142 163 0
137 157 0
139 159 0
141 161 0
140 160 0
133 152 0
140 161 0
137 156 0
134 154 0
136 156 0
138 157 0
136 156 0
135 155 0
134 152 0
132 151 0
125 144 0
128 147 0
131 150 0
132 151 0
124 143 0
122 141 0
121 139 0
120 138 0
124 142 0
116 134 0
115 132 0
121 139 0
113 131 0
117 134 0
106 123 0
119 136 0
118 135 0
113 131 0
116 133 0
104 120 0
106 121 0
100 116 0
111 127 0
104 119 0
105 120 0
111 127 0
92 107 0
111 127 0
103 118 0
111 125 0
113 130 0
115 131 0
114 131 0
125 142 0
117 135 0
123 140 0
119 135 0
136 155 22
164 187 0
168 191 0
166 189 0
167 190 0
163 186 0
164 187 0
167 190 0
166 189 0
165 188 0
165 189 0
167 190 0
165 188 0
166 189 0
167 190 0
171 194 0
167 191 0
166 190 0
162 186 0
155 178 24
56 83 73
51 81 84
52 82 76
51 80 89
51 81 70
51 82 92
51 82 83
53 84 93
55 87 97
54 85 97
53 84 101
53 83 101
55 87 102
54 86 98
53 84 97
53 84 87
56 88 100
55 87 100
56 88 105
53 84 88
57 90 108
56 89 99
57 89 113
56 89 105
55 87 102
55 89 105
55 87 103
56 89 109
55 88 103
55 86 103
56 89 114
55 88 102
56 88 118
56 89 105
54 86 110
53 84 91
56 89 103
57 90 107
57 90 120
57 90 124
54 86 100
58 92 110
54 86 100
55 87 102
55 88 108
57 89 114
55 87 97
55 88 92
56 89 103
57 90 111
54 87 97
56 88 102
54 86 99
55 87 103
55 88 98
54 86 95
56 88 103
55 88 110
56 89 115
57 90 107
54 86 103
55 88 111
53 85 93
54 86 105
52 83 92
55 87 103
55 87 100
54 85 100
55 87 115
53 85 98
52 82 97
54 85 99
53 84 98
54 86 101
52 83 95
54 86 102
49 79 77
54 86 105
54 85 95
51 81 89
51 80 90
49 77 91
49 78 81
61 84 49
156 179 16
161 184 0
165 189 0
160 183 0
163 185 0
161 184 0
161 184 0
164 186 0
168 191 0
168 191 0
168 192 0
161 185 0
170 193 0
168 191 0
165 188 0
168 191 0
163 186 0
169 191 0
164 187 0
133 152 58
95 107 68
80 92 42
76 88 36
96 109 44
86 99 43
81 94 38
79 93 21
71 84 27
69 82 45
71 85 21
93 108 22
98 113 41
86 101 28
103 118 42
96 110 21
101 115 48
87 102 48
99 113 39
102 118 54
105 121 55
102 117 51
95 110 35
106 122 32
105 121 42
105 120 60
111 127 70
111 128 64
113 129 48
116 132 68
122 138 45
120 137 66
120 137 62
128 145 63
121 138 64
113 129 48
118 135 60
128 145 80
118 134 70
125 142 66
129 145 87
129 145 88
129 146 86
124 142 54
128 145 83
125 141 72
138 157 72
130 147 80
134 152 88
135 153 77
141 160 75
136 153 81
145 163 87
144 161 91
135 153 75
137 153 83
139 158 63
145 163 91
144 162 94
143 160 94
143 160 99
141 159 88
143 160 109
151 168 91
144 162 99
145 163 94
147 165 101
148 166 79
147 164 94
144 161 107
145 162 102
145 162 88
143 160 97
149 168 94
149 167 97
149 166 104
146 164 97
142 160 97
149 167 107
148 165 104
155 173 114
149 166 112
149 166 107
154 172 102
147 165 102
153 171 114
147 165 94
143 161 88
149 167 104
148 166 97
150 168 97
150 167 97
153 171 118
150 167 109
148 165 91
152 169 118
152 170 112
151 169 94
143 160 112
151 169 102
153 170 109
152 170 97
153 170 121
145 161 114
149 166 118
155 172 129
145 162 112
148 165 99
143 161 102
149 167 112
159 177 127
147 164 102
145 161 114
150 167 104
143 159 107
146 163 97
143 161 94
147 163 99
152 168 125
144 161 121
151 168 118
148 166 102
144 160 112
143 159 104
143 159 116
142 159 107
144 160 104
147 163 118
147 162 123
142 158 104
148 165 123
152 169 125
151 169 125
151 167 114
136 153 99
138 155 94
144 160 104
144 160 127
147 164 118
154 175 0
152 171 0
153 174 0
153 174 0
152 173 0
153 174 0
154 175 0
153 174 0
153 174 0
152 173 0
151 172 0
153 174 0
153 173 0
153 174 0
152 173 0
151 172 0
153 174 0
154 174 0
151 171 0
152 172 0
154 175 0
147 168 0
150 171 0
153 173 0
152 172 0
152 173 0
151 172 0
152 173 0
153 174 0
152 172 0
147 168 0
151 171 0
151 171 0
152 173 0
148 170 0
150 171 0
151 171 0
152 173 0
151 172 0
152 172 0
150 171 0
147 168 0
150 170 0
146 166 0
147 168 0
146 166 0
150 171 0
147 167 0
149 170 0
148 168 0
146 165 0
147 168 0
148 168 0
146 167 0
151 171 0
148 169 0
148 169 0
145 166 0
150 170 0
149 169 0
142 162 0
144 164 0
144 164 0
145 166 0
143 164 0
147 167 0
141 161 0
138 158 0
140 160 0
144 164 0
141 161 0
146 166 0
144 164 0
144 164 0
147 167 0
140 161 0
149 169 0
136 156 0
141 160 0
139 159 0
145 165 0
137 158 0
143 163 0
140 160 0
134 155 0
135 155 0
140 160 0
141 161 0
135 154 0
137 156 0
139 159 0
140 160 0
139 159 0
132 152 0
133 151 0
129 149 0
137 156 0
134 154 0
137 156 0
131 150 0
134 153 0
136 154 0
135 154 0
125 144 0
126 145 0
119 138 0
124 142 0
126 145 0
133 152 0
123 140 0
119 136 0
122 139 0
123 141 0
118 135 0
109 126 0
117 134 0
114 131 0
115 132 0
115 131 0
110 127 0
107 122 0
106 122 0
104 120 0
110 126 0
109 124 0
103 119 0
116 133 0
106 122 0
106 121 0
104 119 0
108 124 0
105 120 0
112 128 0
123 139 0
120 137 0
116 132 0
109 125 0
135 152 39
164 187 0
167 190 0
162 185 0
165 188 0
164 186 0
166 188 0
162 184 0
166 190 0
164 187 0
160 183 0
161 184 0
163 186 0
164 187 0
166 189 0
161 185 0
163 186 0
165 187 0
163 186 0
159 182 0
166 190 0
136 157 24
48 77 78
51 81 80
49 78 87
52 82 97
51 82 97
52 82 98
53 84 89
54 85 103
53 84 102
54 86 100
51 81 91
54 86 103
54 86 95
53 83 93
52 83 100
53 85 105
55 86 104
53 85 100
54 86 100
56 88 110
56 88 94
52 83 93
54 86 99
56 88 114
56 88 100
55 88 106
55 87 104
56 88 106
57 90 102
57 90 107
54 86 102
53 84 102
57 90 114
57 90 115
55 88 100
56 88 107
56 88 103
56 89 102
55 87 105
54 85 102
53 85 92
56 89 114
57 90 113
53 85 90
55 88 100
56 88 110
56 88 115
54 85 90
53 84 102
56 89 102
55 88 103
56 88 111
59 93 126
54 86 103
56 88 111
56 89 111
55 87 97
55 87 107
54 86 103
54 85 103
53 85 108
56 88 106
53 84 92
52 83 90
55 87 102
54 86 105
55 87 107
55 87 99
53 84 102
51 81 91
52 82 92
53 84 96
54 85 105
53 84 103
53 84 99
49 78 84
50 79 83
47 75 90
50 79 99
49 79 89
49 78 83
53 79 89
131 153 35
159 181 0
154 177 0
165 189 0
156 179 0
164 187 0
161 184 0
160 182 0
158 180 0
162 186 0
156 178 0
162 185 0
160 184 0
168 191 0
169 192 0
164 186 0
163 186 0
164 187 0
161 183 0
167 191 0
169 192 0
120 137 40
79 90 60
99 111 72
94 107 40
78 91 39
76 87 36
81 92 28
75 89 16
77 89 48
84 97 20
79 93 16
94 108 21
98 112 22
83 97 22
95 110 27
91 106 42
99 114 38
95 109 52
106 122 49
95 109 54
108 124 39
99 114 50
94 109 45
108 124 52
109 126 32
115 131 62
112 128 32
103 119 62
108 124 56
115 131 45
116 132 66
121 137 64
121 137 72
118 134 64
114 131 53
131 148 72
127 142 77
128 146 68
123 141 63
131 148 68
122 139 65
137 154 79
131 148 58
134 151 74
130 147 58
141 159 91
135 153 81
135 151 78
138 157 51
144 161 98
141 159 79
137 156 79
137 155 80
143 160 82
137 155 76
145 163 91
140 158 75
140 158 79
147 164 90
142 160 85
136 154 84
140 158 68
138 154 85
139 156 81
146 164 82
154 172 109
142 159 85
149 167 91
145 162 99
144 162 68
145 162 107
142 160 88
146 164 94
142 160 85
146 164 94
142 159 91
147 164 99
155 173 114
147 165 102
151 168 99
151 169 94
154 171 116
152 170 107
145 164 97
150 168 109
148 165 99
145 162 94
149 166 107
154 171 107
148 166 85
146 162 107
146 163 102
152 171 104
150 166 118
152 169 112
147 166 82
141 158 91
146 163 97
147 164 112
153 171 118
148 166 107
144 161 97
159 177 123
144 161 102
148 165 112
147 164 112
141 157 107
145 164 82
147 163 121
151 169 102
152 169 125
140 157 99
150 168 104
152 169 114
145 163 91
145 161 102
146 164 99
144 162 91
153 171 121
146 162 107
144 160 107
146 164 104
144 162 97
148 167 102
150 167 102
141 157 99
150 167 129
151 169 123
152 170 114
137 154 94
137 153 102
138 154 102
152 169 118
139 156 102
145 161 118
139 155 99
139 155 109
139 155 112
154 174 0
154 174 0
152 173 0
154 174 0
152 173 0
152 172 0
152 173 0
150 171 0
152 173 0
151 171 0
153 174 0
152 174 0
148 169 0
153 174 0
153 173 0
153 174 0
153 173 0
152 172 0
154 174 0
150 171 0
151 171 0
153 174 0
152 172 0
152 172 0
151 171 0
153 173 0
151 171 0
150 171 0
150 171 0
150 171 0
154 174 0
150 171 0
149 169 0
148 168 0
149 170 0
151 172 0
150 171 0
150 171 0
149 170 0
151 172 0
149 170 0
152 172 0
148 169 0
150 170 0
148 169 0
149 170 0
149 170 0
148 169 0
150 171 0
150 171 0
145 166 0
149 171 0
143 163 0
145 166 0
143 163 0
148 167 0
147 167 0
148 169 0
143 163 0
146 165 0
146 166 0
145 165 0
149 169 0
148 168 0
143 164 0
148 168 0
143 163 0
145 165 0
143 163 0
142 161 0
145 165 0
142 162 0
146 166 0
138 158 0
144 164 0
141 161 0
138 159 0
140 160 0
136 155 0
144 165 0
142 162 0
141 160 0
142 162 0
134 155 0
139 160 0
141 161 0
140 159 0
132 151 0
140 160 0
140 160 0
137 157 0
139 158 0
129 148 0
133 152 0
135 154 0
137 156 0
133 152 0
137 156 0
131 150 0
125 144 0
139 159 0
123 142 0
136 155 0
126 143 0
126 144 0
129 148 0
121 138 0
123 141 0
123 140 0
117 134 0
109 126 0
124 143 0
116 133 0
125 143 0
109 126 0
112 129 0
116 133 0
114 132 0
106 121 0
107 123 0
116 132 0
101 117 0
111 127 0
106 122 0
106 122 0
95 109 0
109 124 0
103 118 0
110 126 0
113 130 0
110 126 0
103 119 0
122 138 0
124 142 0
119 137 0
118 135 0
122 139 0
156 178 0
161 184 0
163 185 0
160 184 0
164 186 0
162 184 0
164 187 0
160 183 0
164 187 0
161 184 0
164 187 0
156 178 0
162 185 0
161 183 0
165 188 0
166 189 0
159 182 0
154 177 0
157 180 0
159 182 0
162 185 0
159 182 0
120 143 51
48 77 76
47 75 63
52 83 101
52 83 95
52 83 88
50 79 87
50 79 84
53 84 90
50 80 84
55 87 104
55 86 110
55 87 97
53 84 91
54 86 86
55 86 96
54 86 96
56 88 111
56 89 105
54 85 95
56 89 106
55 87 97
56 88 103
54 86 93
54 86 98
55 88 105
53 85 90
55 88 107
56 88 113
56 88 103
56 88 102
53 85 110
57 89 111
54 87 102
54 85 94
54 86 93
56 89 108
51 82 86
56 89 108
53 85 94
56 89 115
54 86 97
56 89 100
53 85 90
54 86 100
55 87 113
57 89 115
53 85 99
53 85 99
54 87 102
55 86 100
53 84 97
54 86 97
54 85 107
54 85 97
53 84 92
55 88 100
54 86 109
53 85 101
52 83 105
53 85 98
54 86 100
55 86 95
53 85 101
54 86 103
55 88 103
54 85 104
54 85 106
52 83 95
51 81 94
53 83 106
49 79 88
51 82 87
54 85 98
51 81 91
49 78 95
51 81 90
51 81 97
49 78 84
46 74 80
48 76 74
114 135 65
152 174 0
156 180 0
159 181 0
159 182 0
151 174 0
160 182 0
155 178 0
155 177 0
163 186 0
163 186 0
167 190 0
157 178 0
161 182 0
160 182 0
165 188 0
158 180 0
163 185 0
157 180 0
161 183 0
161 183 0
162 185 0
164 187 0
112 126 51
79 91 53
79 92 27
82 95 37
93 106 9
92 107 31
78 90 35
85 97 18
81 95 30
92 105 28
92 108 22
93 106 35
96 110 28
89 103 35
87 101 36
96 111 22
105 120 27
99 114 27
101 116 47
94 109 35
101 117 47
111 126 42
101 116 28
87 101 38
107 122 50
120 137 53
114 131 36
113 129 53
117 134 64
114 130 57
113 129 61
106 121 42
119 136 60
125 140 72
130 148 61
123 139 62
116 131 64
118 135 45
132 150 56
122 138 66
129 146 63
136 154 62
130 148 51
127 144 77
133 151 66
131 148 82
134 151 85
131 148 65
140 158 77
134 152 75
131 148 63
133 150 75
132 150 64
141 158 97
135 152 82
131 147 82
139 157 64
139 157 75
141 159 64
140 157 87
148 166 94
140 158 82
149 167 97
139 157 85
144 163 72
141 159 88
139 155 94
154 171 116
145 163 91
145 163 75
146 164 82
143 162 88
152 170 102
148 165 104
143 161 85
149 168 85
142 159 91
137 153 97
144 161 94
145 162 88
145 162 104
143 159 97
146 164 88
150 168 99
146 163 94
140 158 91
147 165 99
147 165 107
150 167 94
146 163 85
150 167 97
151 168 94
146 163 102
150 167 97
150 167 109
146 162 85
137 153 94
145 163 107
147 164 82
139 155 91
146 164 94
144 160 97
142 160 91
143 161 99
149 167 104
142 159 104
152 169 114
150 168 102
140 158 88
151 168 118
148 165 109
141 158 94
143 160 94
146 164 99
138 154 102
145 162 107
146 163 114
145 161 109
146 164 97
144 161 112
152 168 125
143 160 104
151 168 116
150 167 118
141 156 112
144 161 99
149 165 112
140 155 107
146 163 109
152 169 125
144 162 94
135 151 94
143 160 109
144 160 116
142 158 109
145 161 116
133 150 91
150 171 0
154 174 0
152 173 0
152 172 0
149 170 0
151 172 0
151 172 0
153 174 0
150 171 0
154 175 0
150 171 0
150 170 0
152 172 0
152 172 0
153 173 0
152 173 0
150 171 0
154 174 0
153 174 0
152 172 0
151 172 0
151 172 0
150 171 0
148 168 0
150 170 0
151 172 0
150 171 0
151 172 0
149 170 0
150 171 0
153 173 0
149 171 0
149 169 0
152 172 0
149 170 0
149 169 0
148 169 0
149 170 0
151 172 0
150 170 0
148 169 0
146 167 0
147 168 0
148 168 0
149 169 0
150 171 0
150 171 0
149 170 0
149 170 0
150 169 0
149 170 0
150 171 0
146 167 0
144 164 0
148 168 0
146 167 0
148 168 0
150 169 0
148 168 0
150 170 0
145 166 0
145 165 0
145 165 0
144 164 0
146 165 0
148 167 0
146 167 0
149 169 0
145 166 0
139 158 0
137 156 0
142 163 0
144 164 0
143 163 0
143 163 0
140 160 0
137 157 0
144 164 0
138 158 0
136 155 0
143 162 0
141 161 0
143 162 0
138 158 0
143 162 0
138 158 0
134 154 0
137 157 0
138 157 0
143 162 0
137 156 0
136 156 0
128 147 0
138 157 0
135 154 0
132 152 0
132 150 0
131 149 0
138 157 0
124 143 0
125 144 0
130 149 0
128 146 0
132 150 0
126 144 0
123 141 0
122 140 0
127 146 0
126 144 0
126 143 0
116 132 0
118 135 0
112 129 0
120 138 0
108 125 0
112 129 0
115 132 0
115 131 0
108 124 0
109 125 0
107 123 0
103 119 0
108 124 0
105 121 0
113 128 0
104 120 0
102 118 0
111 126 0
111 127 0
116 132 0
113 130 0
120 136 0
114 130 0
107 124 0
111 127 0
124 141 0
154 176 0
160 183 0
162 185 0
166 189 0
162 185 0
165 187 0
158 180 0
163 186 0
163 185 0
155 177 0
155 178 0
163 184 0
150 172 0
163 187 0
164 187 0
158 181 0
163 185 0
157 179 0
158 181 0
159 182 0
156 179 0
158 180 0
158 181 0
154 176 0
85 110 66
48 76 72
47 75 68
52 82 95
50 79 91
50 80 80
53 84 96
50 79 86
52 83 95
52 82 91
53 84 88
50 80 82
52 82 103
53 84 89
51 81 85
52 83 90
55 87 103
53 85 86
52 83 86
53 84 99
52 83 95
55 87 100
53 84 88
52 83 88
54 85 97
54 86 109
56 89 113
54 86 95
54 86 105
55 87 97
55 87 97
54 87 97
55 87 102
56 89 100
54 85 89
57 90 107
55 87 102
55 87 105
53 85 94
54 86 110
53 85 97
56 88 105
55 87 97
54 86 95
55 87 99
55 87 97
56 89 110
55 87 111
52 83 88
51 82 88
55 87 100
54 87 99
54 86 97
51 82 88
52 83 92
54 86 103
57 90 117
56 89 102
55 87 97
52 84 90
52 83 84
55 87 105
52 83 91
53 84 102
54 85 105
53 83 103
52 83 91
52 83 91
50 80 84
54 86 88
53 84 95
53 85 96
52 82 96
54 86 98
49 78 83
50 79 97
47 74 72
46 74 72
43 68 65
83 104 58
162 185 0
155 179 0
155 177 0
155 177 0
154 176 0
156 178 0
158 180 0
160 181 0
157 179 0
158 181 0
160 183 0
154 175 0
160 182 0
164 187 0
152 175 0
162 185 0
158 179 0
154 176 0
160 182 0
158 181 0
157 180 0
158 181 0
162 185 0
152 173 32
116 131 68
92 105 16
75 87 32
93 106 45
81 92 22
96 111 36
81 94 0
86 97 28
87 102 0
73 87 38
86 99 22
84 97 14
89 103 22
88 102 26
78 91 22
92 107 36
95 110 40
97 111 27
94 110 14
95 110 45
110 127 50
104 120 37
108 125 32
115 130 63
99 115 45
106 122 28
107 122 45
122 138 58
116 131 53
115 131 36
125 142 70
112 128 62
124 141 45
118 134 58
121 138 51
127 144 52
122 139 48
126 143 53
128 146 62
130 148 45
135 152 80
124 141 60
126 142 77
131 148 44
135 152 79
131 148 66
132 150 60
138 155 64
134 151 76
135 153 58
129 146 56
134 151 64
144 161 91
141 159 60
138 153 97
128 145 62
138 157 56
137 154 79
135 153 68
143 159 94
135 153 75
138 155 79
144 161 91
145 161 77
133 151 60
142 161 68
152 169 99
148 165 99
140 157 82
144 161 82
139 157 82
139 156 79
138 155 79
146 163 94
148 166 91
145 162 97
145 161 102
139 156 68
141 159 72
149 167 107
148 166 97
146 164 91
152 170 109
143 161 82
145 163 97
150 167 109
149 167 94
145 162 99
150 167 97
151 169 114
144 162 82
142 159 85
137 153 91
144 161 99
148 166 97
144 163 79
147 166 85
142 159 91
146 163 102
143 160 91
148 166 94
145 162 97
141 158 88
137 153 91
141 158 91
147 164 97
144 162 104
149 165 116
143 161 107
141 157 104
144 161 97
151 168 118
143 159 99
144 160 114
147 163 107
139 155 82
143 161 94
151 169 118
141 156 109
146 163 114
146 163 99
139 155 104
143 160 97
143 160 104
146 163 109
141 158 97
146 163 94
149 167 118
142 158 102
142 158 109
142 159 107
142 157 114
146 162 116
138 155 91
145 162 109
145 161 104
154 175 0
154 173 0
151 171 0
153 173 0
153 173 0
152 173 0
152 173 0
152 173 0
152 172 0
153 174 0
154 174 0
150 171 0
153 174 0
152 172 0
150 171 0
150 170 0
152 172 0
150 171 0
151 172 0
150 170 0
149 169 0
149 171 0
148 169 0
150 170 0
150 171 0
149 169 0
151 171 0
150 171 0
150 171 0
148 168 0
150 171 0
149 170 0
147 168 0
148 169 0
149 170 0
149 169 0
149 169 0
149 170 0
147 167 0
150 171 0
150 171 0
151 171 0
147 167 0
152 172 0
148 168 0
147 167 0
146 167 0
147 167 0
149 169 0
146 167 0
150 171 0
146 166 0
145 165 0
147 167 0
147 167 0
146 167 0
150 169 0
150 169 0
143 163 0
145 165 0
145 166 0
145 166 0
146 167 0
144 165 0
147 167 0
145 164 0
144 164 0
145 164 0
140 160 0
146 166 0
142 162 0
140 159 0
145 165 0
140 159 0
135 154 0
144 164 0
141 161 0
134 154 0
143 162 0
142 162 0
140 160 0
141 160 0
137 157 0
141 161 0
132 151 0
129 148 0
139 159 0
138 158 0
138 158 0
135 154 0
132 151 0
131 150 0
134 153 0
134 153 0
139 158 0
130 148 0
130 148 0
135 154 0
131 149 0
129 148 0
133 152 0
121 140 0
123 142 0
133 151 0
120 138 0
127 145 0
127 144 0
120 139 0
124 141 0
122 139 0
116 132 0
118 136 0
119 136 0
113 130 0
112 128 0
118 134 0
118 135 0
115 131 0
110 126 0
112 129 0
109 125 0
106 123 0
111 127 0
109 124 0
110 125 0
98 113 0
112 129 0
110 125 0
117 134 0
118 133 0
108 124 0
113 130 0
122 138 0
116 133 0
116 131 0
150 170 0
158 179 0
158 180 0
157 180 0
157 179 0
165 188 0
162 184 0
153 175 0
159 182 0
162 185 0
163 185 0
158 181 0
165 187 0
159 182 0
155 179 0
161 183 0
153 177 0
155 177 0
153 175 0
155 178 0
162 185 0
160 183 0
152 174 0
152 174 0
149 171 0
147 169 0
75 98 66
48 77 71
49 78 90
49 78 82
51 82 76
50 80 86
50 80 89
51 82 76
52 83 91
54 86 101
53 85 103
53 85 92
55 86 93
54 85 96
51 81 84
52 83 94
54 86 97
51 81 97
54 85 86
52 83 97
54 86 97
55 88 109
54 87 100
56 88 102
54 85 98
53 84 105
55 86 107
54 85 98
55 87 102
55 88 103
54 86 93
53 83 99
52 83 99
54 85 95
58 91 106
57 89 114
54 86 102
55 87 112
55 87 110
57 91 103
55 87 108
57 89 117
54 86 99
56 88 97
52 83 95
54 86 100
56 88 103
54 86 97
55 87 114
53 84 100
53 84 97
54 86 99
57 90 110
54 85 99
55 87 99
55 87 109
55 87 108
53 83 93
52 82 94
54 86 102
53 84 90
54 86 105
49 79 95
56 89 106
54 85 97
54 86 103
53 83 100
50 80 79
51 81 90
54 86 100
50 80 78
50 80 78
50 79 89
50 80 86
51 80 83
44 70 68
47 75 90
78 98 60
148 170 22
145 167 0
157 179 0
157 179 0
156 178 0
152 174 0
151 172 0
156 178 0
154 177 0
153 175 0
154 176 0
159 181 0
150 172 0
148 170 0
157 178 0
156 177 0
159 182 0
149 171 0
158 180 0
157 180 0
160 181 0
159 181 0
159 182 0
159 181 0
159 180 0
151 171 32
93 104 64
87 99 28
91 103 42
85 98 22
77 88 36
87 100 32
87 99 42
93 107 38
80 93 28
79 92 14
81 94 17
88 102 27
83 95 22
100 115 28
103 117 34
97 111 16
99 113 27
99 114 0
90 106 31
97 114 16
105 120 39
97 112 20
105 120 38
108 125 28
106 122 38
117 134 39
113 129 56
116 132 32
112 128 42
114 129 66
115 130 48
121 138 39
116 131 64
122 138 39
109 125 48
122 138 65
121 138 59
129 147 51
121 137 62
119 135 56
128 146 56
126 143 62
124 141 63
128 146 70
132 149 74
125 143 57
127 144 77
137 154 82
137 154 77
135 153 45
141 158 73
132 149 68
127 144 53
136 154 72
135 153 68
132 149 51
143 161 72
127 143 51
127 143 77
144 162 72
142 159 94
143 160 82
139 158 60
142 160 72
144 161 85
147 165 97
140 156 94
142 161 79
144 162 79
140 157 91
144 161 88
138 155 85
138 156 85
138 155 79
138 156 75
152 169 112
150 168 91
143 160 75
147 164 91
141 158 85
139 156 82
143 161 91
148 166 91
146 163 97
147 165 99
145 163 82
154 170 109
144 162 91
144 162 88
133 150 72
144 161 91
145 162 94
139 155 94
148 165 99
143 161 72
152 170 114
140 157 85
144 162 97
147 165 99
144 161 94
143 160 91
150 167 116
141 158 94
144 160 109
144 162 102
149 167 102
140 157 72
142 160 97
144 162 88
141 157 85
139 156 107
148 166 112
144 161 91
148 165 102
148 164 118
137 153 91
147 165 104
140 157 99
150 167 123
138 155 104
146 163 109
145 163 99
137 153 99
147 163 127
145 161 118
149 167 107
137 154 91
151 168 109
146 164 97
140 155 118
138 155 99
143 161 94
137 153 112
143 159 109
137 154 97
154 175 0
152 173 0
150 171 0
152 173 0
152 173 0
152 173 0
153 173 0
150 171 0
152 173 0
153 173 0
153 174 0
151 172 0
149 170 0
148 169 0
148 169 0
151 172 0
154 174 0
152 172 0
152 172 0
152 173 0
152 172 0
153 173 0
151 171 0
153 174 0
149 170 0
152 172 0
150 170 0
151 170 0
152 171 0
149 170 0
150 171 0
147 168 0
148 168 0
148 169 0
149 169 0
146 167 0
148 168 0
147 167 0
149 169 0
149 169 0
148 169 0
152 172 0
147 166 0
149 168 0
147 168 0
150 170 0
150 170 0
148 169 0
149 169 0
148 168 0
148 168 0
141 161 0
147 168 0
149 169 0
142 162 0
147 167 0
143 163 0
146 166 0
144 164 0
144 165 0
143 162 0
144 164 0
141 161 0
144 163 0
139 159 0
149 168 0
143 163 0
144 164 0
142 162 0
143 163 0
143 162 0
143 163 0
139 159 0
141 161 0
142 162 0
141 160 0
144 163 0
139 159 0
141 160 0
139 157 0
136 157 0
133 152 0
140 160 0
140 160 0
139 158 0
133 153 0
141 159 0
135 155 0
134 153 0
127 145 0
131 150 0
140 159 0
137 157 0
135 153 0
132 151 0
130 149 0
134 153 0
127 145 0
133 152 0
128 147 0
121 138 0
127 145 0
132 151 0
133 151 0
125 143 0
121 139 0
124 142 0
120 136 0
128 146 0
121 138 0
118 136 0
118 135 0
119 137 0
118 135 0
116 132 0
116 134 0
118 135 0
112 129 0
116 132 0
112 128 0
110 126 0
112 128 0
111 126 0
99 114 0
113 128 0
109 124 0
109 125 0
110 125 0
111 126 0
112 128 0
109 124 0
115 131 0
116 132 0
103 119 0
150 171 0
160 181 0
161 182 0
156 179 0
157 178 0
161 184 0
152 174 0
154 176 0
157 178 0
155 176 0
160 182 0
159 180 0
162 184 0
151 173 0
155 176 0
160 181 0
158 180 0
153 175 0
156 178 0
160 182 0
148 170 0
160 182 0
154 176 0
150 173 0
152 174 0
150 172 0
155 178 0
135 156 21
67 91 59
47 76 90
49 78 86
52 83 92
50 80 86
49 79 75
51 82 94
50 81 74
51 81 87
53 83 88
52 83 84
52 83 100
53 84 98
52 83 95
53 85 93
53 84 95
55 87 105
54 86 102
52 83 86
52 82 91
50 80 84
56 88 103
53 85 86
53 85 94
53 84 84
53 85 98
53 84 93
53 84 97
54 86 97
54 86 103
54 86 94
52 84 92
53 85 99
55 87 99
53 85 102
55 86 111
53 85 92
52 83 90
55 88 105
55 87 108
53 85 97
55 88 102
56 89 114
54 85 105
53 85 86
55 87 102
56 88 110
55 87 97
55 88 107
55 87 119
55 88 114
54 85 100
53 83 102
54 86 94
53 84 105
54 86 103
53 84 95
53 84 100
53 85 109
54 86 101
53 85 91
55 88 96
54 86 97
53 84 98
54 85 103
51 81 86
51 81 92
50 80 74
52 82 96
51 80 89
49 78 86
49 78 87
47 75 85
50 80 74
46 74 69
63 86 73
136 157 18
150 173 0
152 174 0
153 174 0
156 179 0
157 180 0
154 176 0
150 172 0
150 172 0
146 167 0
146 168 0
148 170 0
152 174 0
151 174 0
153 175 0
149 170 0
157 179 0
147 168 0
155 176 0
153 175 0
160 182 0
156 178 0
155 176 0
156 177 0
164 187 0
163 185 0
155 177 0
146 166 39
91 102 64
83 95 53
90 102 42
89 101 32
89 103 39
88 101 46
89 101 0
81 94 27
95 108 28
86 99 18
93 106 0
95 108 22
99 114 22
91 104 16
96 110 45
85 100 16
95 109 32
111 127 32
98 113 31
100 116 22
109 124 32
105 120 28
110 126 35
117 133 38
107 124 48
102 117 33
99 114 32
116 132 33
121 138 45
107 122 47
121 137 46
113 129 48
117 133 45
121 138 42
114 130 62
129 145 74
120 135 51
124 142 28
127 144 62
121 138 45
127 143 65
134 151 68
130 148 53
121 138 51
124 140 55
134 150 72
120 137 51
127 144 75
129 146 64
135 152 68
134 150 75
137 154 82
134 151 72
135 153 66
130 148 45
129 146 64
139 158 56
145 162 88
136 153 56
135 152 75
143 160 79
135 151 82
146 164 79
142 159 91
134 151 79
141 158 72
137 155 60
149 167 88
138 156 56
140 159 68
140 158 85
149 166 104
145 163 91
147 166 79
141 158 82
141 160 72
144 161 94
141 158 82
147 165 88
151 170 104
148 166 91
151 169 97
146 163 79
144 162 82
140 157 88
153 171 85
144 162 79
142 159 82
146 163 88
147 165 97
144 161 79
146 163 97
144 162 72
138 155 79
142 159 85
141 160 85
144 161 75
148 166 99
134 151 68
148 165 97
146 163 107
155 173 109
150 167 104
142 159 88
141 158 102
139 155 99
143 161 107
143 159 107
137 155 79
140 157 82
134 149 97
140 157 99
143 159 99
143 159 102
146 163 107
146 164 97
144 161 109
142 159 104
139 156 91
149 166 109
147 163 109
145 162 102
140 156 97
140 156 116
149 166 118
142 160 97
141 157 112
146 162 112
134 151 99
144 160 116
137 153 85
138 154 94
137 154 88
139 155 112
153 173 0
154 174 0
154 175 0
152 173 0
155 176 0
152 173 0
153 174 0
153 174 0
154 173 0
153 174 0
155 175 0
153 174 0
153 174 0
151 173 0
152 173 0
149 169 0
152 172 0
150 171 0
151 172 0
152 172 0
150 170 0
152 172 0
148 168 0
151 171 0
148 169 0
149 169 0
146 167 0
150 170 0
151 172 0
151 171 0
151 171 0
151 172 0
149 169 0
148 169 0
145 165 0
151 171 0
152 172 0
147 166 0
146 167 0
149 170 0
149 168 0
148 169 0
149 169 0
146 165 0
149 169 0
150 170 0
148 169 0
150 170 0
146 166 0
145 165 0
147 166 0
144 164 0
145 165 0
145 165 0
142 162 0
146 167 0
145 165 0
144 164 0
148 169 0
148 168 0
144 164 0
145 164 0
145 164 0
141 161 0
145 165 0
141 160 0
141 160 0
143 163 0
144 164 0
142 161 0
143 163 0
140 160 0
139 158 0
145 164 0
141 160 0
142 161 0
140 160 0
144 163 0
140 160 0
141 161 0
138 158 0
139 158 0
145 164 0
139 158 0
133 152 0
141 160 0
142 161 0
134 153 0
134 152 0
135 153 0
135 154 0
132 151 0
126 145 0
133 151 0
128 146 0
128 148 0
130 149 0
123 141 0
118 136 0
121 138 0
123 141 0
125 142 0
128 144 0
121 138 0
121 138 0
130 148 0
118 137 0
125 142 0
119 136 0
123 140 0
123 141 0
123 140 0
118 134 0
119 136 0
113 131 0
110 126 0
110 126 0
116 131 0
113 129 0
106 121 0
106 121 0
103 118 0
112 127 0
114 130 0
113 128 0
95 110 0
111 128 0
115 131 0
110 126 0
113 128 0
119 135 0
113 129 0
108 123 0
146 166 0
164 186 0
162 184 0
162 184 0
158 179 0
152 174 0
157 179 0
157 180 0
153 174 0
154 175 0
156 178 0
151 173 0
152 173 0
153 175 0
155 177 0
155 176 0
149 171 0
159 181 0
150 172 0
150 171 0
152 174 0
156 178 0
151 172 0
141 163 0
143 165 0
155 177 0
149 171 0
148 170 0
141 161 0
147 168 18
56 83 76
45 72 73
50 79 82
48 77 74
48 77 71
46 74 65
51 81 80
54 85 96
53 84 93
50 79 88
54 86 98
51 82 87
50 80 80
51 82 76
52 84 86
54 86 103
53 84 91
54 85 105
53 84 98
54 86 100
53 84 93
53 84 88
52 83 84
52 83 90
53 84 98
52 83 95
52 83 90
52 83 94
55 87 95
52 83 80
56 89 105
53 85 90
53 84 105
55 88 111
55 87 107
52 83 94
54 85 97
54 86 100
53 84 94
53 84 95
53 84 88
52 83 98
55 87 94
55 87 100
54 86 102
52 82 90
55 88 100
51 81 82
56 88 109
54 85 110
54 86 90
52 83 100
55 88 106
52 83 94
54 85 92
52 82 94
53 84 103
52 82 97
50 79 91
51 82 88
50 80 82
51 81 96
52 83 94
53 84 105
52 82 90
52 83 90
50 81 89
52 83 86
48 76 84
51 81 83
51 82 91
45 72 66
46 73 65
56 79 66
139 160 30
150 172 0
144 167 0
144 165 0
149 171 0
139 161 0
144 165 0
150 171 0
145 166 0
157 179 0
149 171 0
149 171 0
148 169 0
154 176 0
146 167 0
157 179 0
145 167 0
151 173 0
152 174 0
151 172 0
155 176 0
151 172 0
154 175 0
154 174 0
157 178 0
154 174 0
157 179 0
155 177 0
160 182 0
141 159 0
96 109 66
85 96 39
87 99 32
89 102 39
94 106 35
88 101 41
87 101 32
90 104 25
92 105 36
92 105 28
85 98 22
94 107 22
91 106 0
89 103 27
87 100 16
104 118 32
94 109 36
99 113 0
100 115 16
107 122 48
93 108 32
100 115 28
116 132 38
108 125 27
110 125 22
110 125 51
112 128 36
107 123 36
121 137 53
119 136 45
117 132 32
114 130 45
120 138 42
122 138 42
121 138 48
127 144 44
122 139 53
124 141 48
124 140 48
127 145 28
127 144 51
127 145 67
125 142 36
128 143 62
118 135 39
127 144 53
128 144 53
128 145 60
135 153 45
131 147 79
135 153 66
133 150 68
135 153 62
138 156 72
137 153 75
140 158 68
136 153 79
135 153 53
142 161 79
139 156 75
141 158 68
134 151 64
141 158 71
141 158 79
135 153 45
134 152 82
141 157 79
143 160 99
139 155 94
141 159 82
142 159 88
150 168 88
145 163 79
135 152 75
140 157 75
144 161 85
144 161 85
142 160 88
139 156 79
142 159 91
140 158 85
145 163 79
138 154 88
146 164 82
139 155 85
141 159 64
143 160 91
149 167 104
134 152 64
139 156 72
144 162 79
151 169 91
140 156 94
138 156 88
140 157 91
143 160 94
144 162 102
145 162 94
151 169 109
146 163 104
143 160 97
145 162 102
144 160 97
143 159 94
137 153 91
145 162 88
141 157 94
140 157 91
143 160 97
144 161 102
145 162 107
145 162 104
138 154 88
138 155 88
144 160 99
148 164 114
147 164 107
142 159 82
140 156 109
137 152 97
138 155 79
137 154 94
144 160 114
140 157 85
137 153 99
141 157 94
142 159 99
135 151 85
147 163 107
142 159 91
138 153 116
136 153 85
141 157 94
154 174 0
152 173 0
152 172 0
153 173 0
154 174 0
153 172 0
150 171 0
152 171 0
153 173 0
152 172 0
150 171 0
152 172 0
149 170 0
152 173 0
150 171 0
151 171 0
151 170 0
151 171 0
152 172 0
149 169 0
149 169 0
150 171 0
150 170 0
152 172 0
149 168 0
149 169 0
146 166 0
147 167 0
149 169 0
149 170 0
147 166 0
150 170 0
146 167 0
148 168 0
149 170 0
150 170 0
151 171 0
151 171 0
148 168 0
150 170 0
149 168 0
146 166 0
145 166 0
145 165 0
152 172 0
146 165 0
152 173 0
146 166 0
146 167 0
146 165 0
147 168 0
146 166 0
146 166 0
146 166 0
145 165 0
146 166 0
142 162 0
144 164 0
143 162 0
143 162 0
143 162 0
142 163 0
147 165 0
146 166 0
145 165 0
139 158 0
148 167 0
138 159 0
138 157 0
143 161 0
141 161 0
139 158 0
139 157 0
143 162 0
138 157 0
140 160 0
144 164 0
144 163 0
139 158 0
131 150 0
140 160 0
139 158 0
136 155 0
132 151 0
130 148 0
128 147 0
137 156 0
137 155 0
132 150 0
134 153 0
137 156 0
136 154 0
130 148 0
135 153 0
130 149 0
134 152 0
128 147 0
129 148 0
126 144 0
129 148 0
129 148 0
125 143 0
126 144 0
116 133 0
122 139 0
125 143 0
125 143 0
126 144 0
130 147 0
118 136 0
121 139 0
126 142 0
115 132 0
117 134 0
112 128 0
116 132 0
113 130 0
113 129 0
114 130 0
108 124 0
118 134 0
117 133 0
112 127 0
113 128 0
113 128 0
111 126 0
107 123 0
103 117 0
112 128 0
114 130 0
109 123 0
96 110 0
145 165 0
158 180 0
157 178 0
154 175 0
151 172 0
157 178 0
151 173 0
151 171 0
155 177 0
151 173 0
154 176 0
147 168 0
156 178 0
154 174 0
158 180 0
150 173 0
157 178 0
160 183 0
148 168 0
149 170 0
153 176 0
148 169 0
152 173 0
144 166 0
147 168 0
137 158 0
139 160 0
149 170 0
146 167 0
149 171 0
159 181 0
111 132 35
59 83 62
46 73 61
48 77 67
49 79 87
50 80 83
51 80 97
50 79 86
51 82 84
51 81 79
52 83 87
55 87 106
52 83 88
50 79 82
53 84 86
54 85 96
52 83 86
54 86 99
52 83 94
55 87 113
52 83 97
51 82 88
54 85 91
54 85 92
55 87 103
53 85 82
53 85 97
52 84 90
54 85 92
54 86 93
52 83 86
54 86 102
55 87 105
53 84 100
50 80 76
54 85 113
55 87 102
54 85 93
52 83 76
53 84 95
53 85 94
54 86 97
52 83 86
53 84 86
53 84 86
53 85 105
54 85 105
52 83 94
54 85 86
54 86 97
55 86 100
52 83 95
52 84 82
54 86 99
53 84 99
50 80 84
51 81 84
54 86 106
52 83 101
49 78 84
53 84 93
48 76 76
49 79 86
50 80 86
49 78 92
53 84 91
50 80 92
51 81 89
48 76 88
49 78 87
46 73 58
48 76 82
57 83 75
135 156 40
149 170 0
141 162 0
141 162 0
142 163 0
142 163 0
144 166 0
143 163 0
149 169 0
144 165 0
160 181 0
148 169 0
140 161 0
148 168 0
151 173 0
146 167 0
153 174 0
147 168 0
149 171 0
155 176 0
151 172 0
148 167 0
149 169 0
155 176 0
150 171 0
151 172 0
155 177 0
154 175 0
154 175 0
149 170 0
154 175 0
146 166 22
99 112 56
83 93 56
86 98 39
86 98 22
102 116 23
91 103 22
77 90 16
78 90 28
84 98 21
84 97 22
87 100 16
95 111 36
88 101 0
96 110 9
98 111 22
97 110 0
92 105 0
99 113 30
93 108 32
103 118 0
104 118 42
101 116 22
111 127 45
113 129 36
118 135 36
119 135 42
117 134 32
115 131 45
116 133 28
118 135 31
118 135 45
121 137 57
130 147 16
116 132 22
128 145 48
122 139 42
131 147 60
132 148 67
124 141 60
128 145 63
122 139 60
130 148 58
125 142 45
130 146 51
121 137 58
132 150 60
127 143 60
128 144 51
128 145 56
134 151 79
143 160 68
133 149 79
132 149 56
125 142 42
134 151 68
141 159 72
128 145 56
135 153 68
141 159 79
137 155 56
138 155 75
141 158 94
139 156 72
140 158 68
135 152 72
139 157 81
140 157 64
136 153 85
136 154 72
138 154 82
145 162 91
143 161 72
142 160 79
137 156 60
142 159 85
138 155 60
139 156 85
143 161 68
145 164 79
141 158 82
145 162 82
141 159 79
146 164 94
142 160 82
142 158 91
147 165 97
136 153 82
141 158 102
142 159 97
147 165 94
140 157 82
145 162 94
142 160 94
147 164 109
139 156 75
141 158 82
144 161 94
143 161 85
140 157 82
141 158 94
137 153 85
145 162 104
140 156 91
143 161 88
138 153 99
144 161 99
148 164 107
150 167 97
139 155 97
139 156 88
144 160 102
142 160 88
142 159 79
139 156 99
143 161 94
148 165 114
142 159 99
140 156 107
145 161 114
139 155 99
126 142 72
144 161 99
145 161 114
135 150 102
139 156 99
141 157 107
129 145 88
147 164 102
136 152 102
134 149 114
135 151 102
131 147 79
153 173 0
152 173 0
152 173 0
151 172 0
154 175 0
151 172 0
153 173 0
151 172 0
149 170 0
154 175 0
152 172 0
152 172 0
152 173 0
147 168 0
150 171 0
149 169 0
149 169 0
149 169 0
152 173 0
150 171 0
151 172 0
150 170 0
151 172 0
151 171 0
151 172 0
152 172 0
147 167 0
149 170 0
151 171 0
148 169 0
148 169 0
149 169 0
147 167 0
148 168 0
148 168 0
149 169 0
149 169 0
151 171 0
146 166 0
150 171 0
148 168 0
144 164 0
143 163 0
145 166 0
149 169 0
149 169 0
145 165 0
147 167 0
143 164 0
142 162 0
146 165 0
141 161 0
149 170 0
146 166 0
143 163 0
145 164 0
145 165 0
145 165 0
143 163 0
144 164 0
143 163 0
144 164 0
145 165 0
140 159 0
137 156 0
143 162 0
142 162 0
145 165 0
146 166 0
140 159 0
133 152 0
140 160 0
142 162 0
143 162 0
138 158 0
137 156 0
136 156 0
143 162 0
138 158 0
143 162 0
139 158 0
145 163 0
138 158 0
134 153 0
134 154 0
134 153 0
139 158 0
137 156 0
140 157 0
135 153 0
133 152 0
130 149 0
127 145 0
127 145 0
129 147 0
135 154 0
132 151 0
134 151 0
133 152 0
129 147 0
130 148 0
129 147 0
129 148 0
117 134 0
122 140 0
128 145 0
119 136 0
119 135 0
119 137 0
122 139 0
115 132 0
119 136 0
118 135 0
120 136 0
113 128 0
114 130 0
111 127 0
113 129 0
103 118 0
113 129 0
109 124 0
105 120 0
114 129 0
107 122 0
114 129 0
120 136 0
103 117 0
116 130 0
115 130 0
102 115 0
106 121 0
152 171 0
155 176 0
152 173 0
156 176 0
152 174 0
159 180 0
149 170 0
152 173 0
151 171 0
157 178 0
154 175 0
152 173 0
151 172 0
152 173 0
146 167 0
150 171 0
152 174 0
144 166 0
150 171 0
140 160 0
145 164 0
142 164 0
147 169 0
153 174 0
152 173 0
145 165 0
147 168 0
141 162 0
143 165 0
144 164 0
140 161 0
144 165 0
138 159 0
124 143 24
58 80 57
45 73 57
47 75 69
46 74 74
48 77 89
51 81 82
51 82 87
52 83 84
51 81 98
49 78 76
49 78 84
49 78 84
52 83 87
52 84 84
51 81 90
54 86 88
51 82 90
53 83 99
51 82 80
52 83 93
50 81 80
51 81 76
55 86 103
53 85 97
52 83 82
55 87 103
54 86 92
52 83 90
52 83 84
56 88 106
53 84 90
52 82 86
54 86 99
51 81 78
55 87 98
53 85 95
52 83 94
51 82 78
55 87 100
54 86 82
52 83 80
55 87 92
52 83 88
53 85 97
52 84 94
52 83 95
52 82 86
53 85 97
52 83 95
53 83 102
52 82 100
53 85 99
52 83 94
55 87 103
50 80 76
52 82 91
49 79 74
53 83 95
50 79 87
50 81 93
51 81 82
52 82 87
48 77 78
51 81 86
49 78 90
49 79 76
50 79 80
47 76 74
44 71 72
49 74 74
129 151 25
140 162 0
135 155 0
144 165 0
145 166 0
143 164 0
137 157 0
143 164 0
138 158 0
142 162 0
144 164 0
141 162 0
150 171 0
136 156 0
145 166 0
138 157 0
143 163 0
138 158 0
149 171 0
141 161 0
148 167 0
149 170 0
145 166 0
147 167 0
149 169 0
145 165 0
150 172 0
146 165 0
151 171 0
151 171 0
151 172 0
150 170 0
150 170 0
141 159 39
96 110 45
88 100 42
86 97 22
89 101 32
83 95 39
88 101 16
88 101 14
82 95 39
97 110 0
85 97 28
89 104 21
99 114 22
100 114 0
96 110 0
99 114 25
98 113 0
103 117 22
103 118 16
101 116 16
100 114 42
109 124 36
106 120 16
111 127 22
100 115 28
115 131 28
108 123 22
111 127 0
114 128 16
112 128 0
108 124 22
115 130 48
118 133 51
114 129 48
117 134 39
116 132 48
114 130 55
130 148 38
119 137 42
127 143 62
131 148 56
118 135 42
124 142 51
126 141 72
115 131 22
124 141 56
129 145 60
129 146 56
127 143 56
133 150 45
133 151 39
125 140 60
139 155 60
125 141 60
126 143 51
129 146 56
139 157 72
141 159 68
132 149 62
136 154 56
134 151 56
137 154 79
141 159 79
130 147 64
145 163 72
142 161 56
129 147 60
148 166 82
134 151 68
142 159 79
137 155 51
139 156 82
141 158 68
141 159 72
134 150 79
141 159 68
138 155 72
140 157 82
137 155 75
149 167 99
139 156 79
139 156 75
142 159 75
140 157 85
144 161 82
144 161 94
143 160 94
145 162 104
135 154 51
146 163 104
139 156 94
141 158 88
142 159 91
140 157 88
140 157 68
139 155 97
142 159 88
147 165 104
133 149 68
148 164 114
140 156 91
142 157 97
139 157 79
137 155 72
141 157 85
144 161 94
137 154 82
141 156 99
145 162 88
146 164 91
146 163 104
136 153 79
144 161 114
149 165 107
144 162 99
136 151 82
142 160 79
139 155 99
140 157 99
143 160 91
144 162 85
135 151 88
143 160 112
131 145 104
132 148 94
140 157 91
143 159 109
142 158 112
140 156 99
133 148 82
139 155 107
129 144 88
151 171 0
151 172 0
150 171 0
152 172 0
151 172 0
152 173 0
149 170 0
153 173 0
150 170 0
152 173 0
151 172 0
150 170 0
153 173 0
152 172 0
152 173 0
148 169 0
151 171 0
153 173 0
148 168 0
152 173 0
148 168 0
150 171 0
150 170 0
151 172 0
149 169 0
150 170 0
149 169 0
146 166 0
149 169 0
145 165 0
149 169 0
148 168 0
149 170 0
149 169 0
149 169 0
146 166 0
148 167 0
149 170 0
149 169 0
148 168 0
145 165 0
147 167 0
149 168 0
147 167 0
146 165 0
146 166 0
150 170 0
144 163 0
140 159 0
147 167 0
147 167 0
143 163 0
144 164 0
147 168 0
148 167 0
146 165 0
147 166 0
147 167 0
143 163 0
148 168 0
137 157 0
147 167 0
143 163 0
140 160 0
140 159 0
143 163 0
145 164 0
140 159 0
143 162 0
140 159 0
138 157 0
145 164 0
141 160 0
141 160 0
147 167 0
141 160 0
138 157 0
136 156 0
138 157 0
141 160 0
144 163 0
137 155 0
136 155 0
135 154 0
135 154 0
135 154 0
143 161 0
131 150 0
137 155 0
136 155 0
132 149 0
134 152 0
132 150 0
128 146 0
132 149 0
128 145 0
131 149 0
131 149 0
133 151 0
122 140 0
128 146 0
120 137 0
126 143 0
123 140 0
124 141 0
124 141 0
122 139 0
117 134 0
118 135 0
107 123 0
117 133 0
114 130 0
121 137 0
112 127 0
108 124 0
107 122 0
122 138 0
112 128 0
100 114 0
113 128 0
111 125 0
105 119 0
107 122 0
110 125 0
111 126 0
112 126 0
114 129 0
100 114 0
106 120 0
116 130 0
148 167 0
152 172 0
159 178 0
158 178 0
156 177 0
153 174 0
152 172 0
151 172 0
146 166 0
147 168 0
151 171 0
144 165 0
147 167 0
151 173 0
146 168 0
152 172 0
151 171 0
144 165 0
148 168 0
142 163 0
149 170 0
151 172 0
148 169 0
144 165 0
144 164 0
147 169 0
133 153 0
140 160 0
142 162 0
143 164 0
142 163 0
138 159 0
134 154 0
129 148 0
138 159 0
123 143 18
69 91 50
48 76 84
51 80 75
49 78 80
49 78 85
50 79 78
49 78 80
47 76 71
50 79 80
52 82 103
50 80 93
52 83 84
52 83 95
53 85 90
49 79 78
52 83 100
49 78 82
52 83 93
52 83 73
52 83 88
52 83 94
52 82 100
54 86 97
51 81 78
51 81 82
55 86 97
54 85 97
53 85 107
53 83 91
53 85 95
52 82 88
53 85 86
53 84 88
53 84 99
53 84 103
53 84 95
52 83 86
50 81 76
52 82 99
52 83 90
51 81 90
52 83 99
51 82 105
52 83 86
53 85 102
54 86 97
51 82 80
52 83 94
49 78 74
53 84 91
51 81 78
52 82 99
50 80 82
52 83 86
51 81 90
51 82 97
50 80 84
49 78 71
51 81 93
50 80 82
53 84 99
49 78 80
53 85 100
48 76 78
50 79 82
47 75 67
46 74 77
67 90 50
123 142 18
127 146 0
141 161 0
128 148 0
133 152 0
140 161 0
134 153 0
135 156 0
138 158 0
144 164 0
136 156 0
135 154 0
134 154 0
141 161 0
141 160 0
137 156 0
143 163 0
149 169 0
133 153 0
143 163 0
142 161 0
149 169 0
142 162 0
145 164 0
143 164 0
137 156 0
153 173 0
148 168 0
149 169 0
144 164 0
149 169 0
140 160 0
147 168 0
147 166 0
148 168 0
146 165 0
87 99 32
102 115 45
82 94 22
82 94 32
90 102 32
98 111 39
95 109 31
90 103 45
79 92 14
83 97 16
82 94 27
93 106 27
92 105 9
94 107 16
92 106 16
102 116 0
95 110 24
87 101 0
102 116 16
93 107 31
102 118 16
98 112 0
110 125 36
106 121 32
106 121 35
110 125 22
106 122 32
115 131 16
113 128 39
107 123 0
115 132 32
119 135 39
112 128 22
118 133 45
118 134 39
128 145 39
124 140 53
120 136 45
119 135 51
123 139 22
126 143 45
119 135 45
119 135 22
123 139 39
128 144 56
127 144 62
125 141 56
128 145 51
138 156 64
139 156 82
127 143 60
120 137 42
131 147 45
124 141 56
130 147 51
133 150 51
132 150 51
131 148 64
141 159 56
136 153 45
133 149 39
137 155 56
132 148 64
129 146 51
134 151 79
145 162 85
130 148 68
146 163 79
132 149 51
139 157 68
142 159 75
136 153 68
146 164 75
142 159 82
133 151 51
145 163 72
144 161 85
138 154 72
134 151 79
136 153 85
143 160 82
138 155 68
146 163 99
141 159 75
149 167 88
137 154 60
139 156 79
149 166 97
149 168 88
133 149 64
133 149 82
140 157 75
143 161 82
147 164 104
136 153 72
142 159 91
145 161 107
145 162 109
148 165 116
141 158 91
141 157 102
137 154 64
145 161 94
136 153 72
134 150 85
135 151 91
139 156 97
137 153 85
140 156 104
139 156 104
136 152 82
135 150 102
140 156 99
145 161 102
137 153 97
145 162 97
142 159 99
147 164 102
141 155 114
131 147 68
137 153 94
137 154 85
144 161 104
128 144 97
137 153 99
134 150 79
133 148 99
140 156 91
141 158 102
132 148 102
151 172 0
154 173 0
151 171 0
152 172 0
153 173 0
152 172 0
151 173 0
151 172 0
152 172 0
149 170 0
150 171 0
151 171 0
154 174 0
149 169 0
153 173 0
150 170 0
148 168 0
153 173 0
150 170 0
151 171 0
151 171 0
151 171 0
150 170 0
151 172 0
145 164 0
147 166 0
151 171 0
150 170 0
149 169 0
150 170 0
152 172 0
148 168 0
151 171 0
151 171 0
149 169 0
149 168 0
148 168 0
148 169 0
148 169 0
146 166 0
145 165 0
148 168 0
146 166 0
145 164 0
144 164 0
146 166 0
140 159 0
144 163 0
143 162 0
151 171 0
144 163 0
146 165 0
140 160 0
144 163 0
140 159 0
146 166 0
147 167 0
146 166 0
146 166 0
143 162 0
147 168 0
144 164 0
142 161 0
142 162 0
145 164 0
146 165 0
146 166 0
141 159 0
138 158 0
140 160 0
140 160 0
138 158 0
140 160 0
129 146 0
140 159 0
139 159 0
137 156 0
135 154 0
129 146 0
129 147 0
134 152 0
133 152 0
136 155 0
138 157 0
133 152 0
131 149 0
133 151 0
136 154 0
130 148 0
131 150 0
132 151 0
128 146 0
133 150 0
128 147 0
131 149 0
127 145 0
125 142 0
123 140 0
125 142 0
123 140 0
134 152 0
121 138 0
125 141 0
129 147 0
125 142 0
115 132 0
128 145 0
125 141 0
117 134 0
119 135 0
117 133 0
119 135 0
110 126 0
119 135 0
113 129 0
109 125 0
111 127 0
113 128 0
113 129 0
109 124 0
108 123 0
96 110 0
114 129 0
112 127 0
110 126 0
101 115 0
107 121 0
105 120 0
105 118 0
148 167 0
148 168 0
139 159 0
152 172 0
144 163 0
144 164 0
145 164 0
149 169 0
140 160 0
148 169 0
148 168 0
149 169 0
138 158 0
144 164 0
139 159 0
145 164 0
141 160 0
148 169 0
140 161 0
137 156 0
136 157 0
143 163 0
149 169 0
141 161 0
147 167 0
140 161 0
143 165 0
134 154 0
138 159 0
132 152 0
142 164 0
132 152 0
134 154 0
135 155 0
122 141 0
131 152 0
131 151 0
129 150 18
76 97 62
46 73 56
46 74 67
49 79 84
48 77 76
47 75 69
49 78 80
51 82 84
50 81 76
51 80 91
50 80 86
50 81 80
54 85 99
48 77 76
52 83 84
50 79 90
53 84 82
50 80 82
53 84 94
53 84 104
53 84 100
51 82 88
52 83 88
52 84 92
52 83 80
53 84 95
55 86 102
51 81 84
52 83 92
54 86 97
50 80 82
55 87 97
52 83 90
49 79 65
53 84 97
52 84 78
54 85 111
54 87 95
51 82 82
51 81 82
52 84 84
55 86 111
54 85 90
50 81 88
55 87 97
49 79 80
53 84 88
54 86 105
51 82 86
51 82 84
51 81 84
52 83 91
55 87 103
48 76 72
52 83 89
50 80 84
50 80 84
51 81 86
49 79 88
46 74 59
48 77 82
50 79 84
47 75 61
47 76 76
46 73 74
82 104 53
120 140 0
129 148 0
121 140 0
136 156 0
129 149 0
141 161 0
130 150 0
120 139 0
129 148 0
131 150 0
139 157 0
139 159 0
135 156 0
131 151 0
134 153 0
132 150 0
130 148 0
136 155 0
148 168 0
141 161 0
145 165 0
135 156 0
141 159 0
142 161 0
140 159 0
137 156 0
134 152 0
141 160 0
142 160 0
141 160 0
141 160 0
148 167 0
145 165 0
140 158 0
139 158 0
148 167 0
150 169 0
144 164 0
103 114 32
92 104 48
90 103 28
84 95 28
88 100 22
81 93 22
87 99 16
96 109 0
98 110 32
92 105 28
90 102 22
88 102 16
88 101 24
94 108 22
100 113 28
101 116 0
99 113 16
96 111 0
103 117 22
95 110 32
102 118 0
104 118 9
109 125 22
105 120 16
110 125 0
115 132 21
110 125 22
100 115 0
111 128 22
109 124 16
119 135 0
115 131 14
107 123 0
122 138 32
119 135 32
121 138 42
128 144 53
122 139 32
128 145 0
122 139 28
117 131 51
126 142 45
118 136 32
132 149 51
115 131 22
125 141 66
138 156 51
126 143 56
126 142 51
125 141 45
129 146 51
127 144 32
133 150 60
135 153 68
128 146 0
130 147 45
132 150 51
136 153 64
131 149 45
134 150 60
134 151 68
134 150 72
133 150 56
139 156 79
133 150 72
137 154 64
133 150 60
122 138 64
126 143 56
140 157 75
138 156 56
131 146 64
127 143 60
140 156 72
140 157 64
133 150 75
134 151 64
134 150 85
141 159 60
141 159 64
141 160 60
143 160 94
141 159 75
141 158 60
135 151 75
133 149 68
140 156 91
141 158 75
130 147 60
140 156 91
140 158 85
138 155 82
136 154 64
130 147 82
146 163 91
148 165 102
136 152 94
140 156 91
142 159 97
133 149 72
135 151 85
137 154 97
138 154 94
141 157 102
147 164 94
132 148 75
137 153 75
136 154 68
139 155 94
135 153 75
142 158 91
138 153 104
141 158 97
140 156 91
138 155 82
130 146 79
139 155 97
136 152 85
139 155 102
137 153 102
127 142 88
141 158 94
137 154 99
139 155 104
140 156 97
139 154 102
139 155 102
133 149 107
133 148 88
152 172 0
153 174 0
152 172 0
151 172 0
149 170 0
151 172 0
152 173 0
150 170 0
152 172 0
153 173 0
152 173 0
151 172 0
150 170 0
148 168 0
149 169 0
150 170 0
151 171 0
151 171 0
150 170 0
143 163 0
151 171 0
151 171 0
150 170 0
151 172 0
150 170 0
153 172 0
149 169 0
148 168 0
147 167 0
147 167 0
145 165 0
148 167 0
150 170 0
145 165 0
146 167 0
150 170 0
146 166 0
149 170 0
153 173 0
147 167 0
148 168 0
148 167 0
147 167 0
148 168 0
148 168 0
145 165 0
144 163 0
148 168 0
144 163 0
147 167 0
145 164 0
146 165 0
140 159 0
147 165 0
144 163 0
140 159 0
141 160 0
146 165 0
140 159 0
146 165 0
140 159 0
143 163 0
146 165 0
138 156 0
144 163 0
146 166 0
142 161 0
138 156 0
140 160 0
142 161 0
137 155 0
141 160 0
143 162 0
137 156 0
138 156 0
134 154 0
135 153 0
141 160 0
137 156 0
137 155 0
140 158 0
138 156 0
136 154 0
141 161 0
132 149 0
132 149 0
138 157 0
129 146 0
138 156 0
128 146 0
129 147 0
134 151 0
137 155 0
128 145 0
122 140 0
129 146 0
130 148 0
121 138 0
125 142 0
120 136 0
129 146 0
126 143 0
126 144 0
120 138 0
123 140 0
123 141 0
122 138 0
114 130 0
122 138 0
112 127 0
117 133 0
119 135 0
113 128 0
117 133 0
123 138 0
111 126 0
112 128 0
107 122 0
102 117 0
106 120 0
110 124 0
105 119 0
107 122 0
103 117 0
107 121 0
106 118 0
106 119 0
120 135 0
155 174 0
148 167 0
147 166 0
149 169 0
149 168 0
155 175 0
136 155 0
146 166 0
151 170 0
145 165 0
138 157 0
144 163 0
142 162 0
135 155 0
150 169 0
143 162 0
141 161 0
143 162 0
141 161 0
138 157 0
138 157 0
143 163 0
126 145 0
141 161 0
138 158 0
138 157 0
130 149 0
134 155 0
137 157 0
137 156 0
131 151 0
134 153 0
131 151 0
125 145 0
138 158 0
128 148 0
127 145 0
122 140 0
134 154 0
128 148 0
91 111 43
43 70 62
44 71 66
46 74 76
47 76 84
49 78 73
49 78 78
48 77 62
49 78 82
53 83 95
50 81 76
54 85 98
51 82 88
53 84 84
50 81 82
52 83 88
51 81 88
51 81 90
51 81 86
53 84 88
52 82 95
54 86 88
53 84 102
49 79 86
50 80 78
52 83 90
52 82 86
51 83 65
54 86 100
53 84 90
52 82 82
52 83 98
53 85 80
53 84 105
52 83 95
53 85 92
52 82 95
52 82 95
52 82 84
53 84 97
49 79 80
52 83 84
53 84 94
50 80 80
50 80 80
52 82 95
49 79 80
51 81 78
52 83 84
49 78 74
52 83 80
49 78 90
49 79 67
49 79 69
47 76 71
52 83 92
48 77 76
48 77 78
48 76 84
46 74 78
51 81 82
46 74 78
44 70 71
86 106 47
119 137 0
116 135 0
116 135 0
124 143 0
135 155 0
127 145 0
125 145 0
127 145 0
123 142 0
126 145 0
129 149 0
129 149 0
133 152 0
130 150 0
127 146 0
132 152 0
140 159 0
129 148 0
138 157 0
130 150 0
134 154 0
136 154 0
131 149 0
137 156 0
134 152 0
134 153 0
145 164 0
139 157 0
132 152 0
138 157 0
140 158 0
143 162 0
136 155 0
136 156 0
136 154 0
140 159 0
139 157 0
135 153 0
142 160 0
141 160 0
109 122 51
84 94 56
86 97 32
83 95 0
94 106 40
82 93 0
87 99 22
92 105 0
87 100 0
89 102 16
90 103 16
93 106 32
89 103 0
83 97 19
102 116 0
103 117 22
107 121 0
101 115 16
100 115 16
102 115 0
100 114 22
105 120 27
115 130 32
116 132 0
111 125 32
105 120 16
104 119 22
120 135 32
107 122 16
113 130 31
118 135 0
112 127 42
116 132 22
119 136 22
118 134 22
122 137 58
120 136 22
121 137 0
117 134 22
116 131 22
127 144 45
120 137 28
127 145 22
127 144 22
118 133 32
128 145 51
132 150 56
133 150 56
120 136 53
132 148 64
135 153 45
130 146 51
136 154 51
130 147 45
133 151 45
133 150 56
138 155 60
126 142 60
122 138 56
137 154 60
139 156 64
127 144 60
131 146 75
126 143 45
139 156 68
141 158 75
134 152 51
135 151 56
130 146 79
128 145 51
143 162 60
138 154 85
135 152 75
142 160 64
144 161 88
141 159 79
132 149 79
135 152 75
138 156 68
134 150 85
135 152 79
133 149 60
140 157 79
149 167 88
138 155 60
138 155 85
135 152 72
142 160 64
137 153 88
141 158 79
129 146 64
142 159 91
141 157 97
135 152 79
132 149 60
136 152 88
144 162 88
142 159 91
138 154 85
135 150 88
138 156 75
138 153 91
139 155 91
139 155 99
136 153 82
146 163 99
139 156 88
135 151 82
145 160 97
140 158 91
143 160 99
146 162 118
132 147 102
136 151 104
132 148 85
140 156 107
128 144 85
137 152 88
136 153 91
138 155 82
141 157 109
130 145 91
139 155 104
127 141 91
133 149 94
132 147 82
128 143 79
136 153 94
154 173 0
151 171 0
151 171 0
152 173 0
152 173 0
152 173 0
154 174 0
151 171 0
152 172 0
146 166 0
149 168 0
151 172 0
152 171 0
148 169 0
152 171 0
150 170 0
149 169 0
151 171 0
149 169 0
147 167 0
148 168 0
147 167 0
151 171 0
150 171 0
148 168 0
147 166 0
148 168 0
147 167 0
149 168 0
151 170 0
146 166 0
148 168 0
149 169 0
144 163 0
148 168 0
145 164 0
152 172 0
144 164 0
150 169 0
149 168 0
146 165 0
150 169 0
145 165 0
150 169 0
146 165 0
143 162 0
146 166 0
146 165 0
144 164 0
142 162 0
147 167 0
148 167 0
145 164 0
146 165 0
147 166 0
144 163 0
143 161 0
142 162 0
147 166 0
138 157 0
144 164 0
142 161 0
142 162 0
143 162 0
143 162 0
142 161 0
140 159 0
144 163 0
139 159 0
139 157 0
137 156 0
136 154 0
136 154 0
136 154 0
132 150 0
140 158 0
138 156 0
135 153 0
140 157 0
139 158 0
130 148 0
133 151 0
140 159 0
133 152 0
136 155 0
126 143 0
136 154 0
135 153 0
136 154 0
132 149 0
130 148 0
132 150 0
129 146 0
128 145 0
129 147 0
129 146 0
122 139 0
127 145 0
123 140 0
126 143 0
124 140 0
125 142 0
133 150 0
125 141 0
127 143 0
133 150 0
116 131 0
119 134 0
118 134 0
112 128 0
118 134 0
113 128 0
120 136 0
115 131 0
115 130 0
108 123 0
111 125 0
104 120 0
104 119 0
108 122 0
109 124 0
118 132 0
114 128 0
101 115 0
91 104 0
107 121 0
123 139 0
150 168 0
151 170 0
153 172 0
144 163 0
145 163 0
136 155 0
147 165 0
146 164 0
143 162 0
147 165 0
147 164 0
146 166 0
143 162 0
140 159 0
140 159 0
141 161 0
139 159 0
131 150 0
133 153 0
138 157 0
141 161 0
131 150 0
136 155 0
135 154 0
148 167 0
138 158 0
136 155 0
132 152 0
137 156 0
128 147 0
123 142 0
127 147 0
128 146 0
131 150 0
130 148 0
133 152 0
127 147 0
131 150 0
121 140 0
126 145 0
130 150 0
106 126 0
109 128 44
57 81 51
46 74 60
43 69 65
48 77 80
47 75 74
49 79 72
48 77 60
49 78 76
49 78 74
49 79 76
49 78 82
49 79 64
49 79 72
51 82 78
51 82 78
50 79 90
51 82 80
47 75 76
52 82 86
50 79 80
50 80 95
50 79 86
53 83 88
50 81 84
49 78 74
52 83 92
51 82 82
47 76 71
51 82 92
52 83 90
54 86 99
48 77 72
47 76 80
52 83 90
53 85 95
53 84 99
50 80 84
53 84 92
50 80 65
52 82 82
49 79 88
50 79 92
51 81 88
49 79 74
50 80 82
49 79 84
51 81 84
51 81 78
49 78 84
51 81 78
47 76 67
47 75 74
51 81 84
48 76 80
51 81 74
44 71 66
48 77 74
48 77 60
47 74 76
57 81 58
107 126 31
131 150 0
120 139 0
122 140 0
116 135 0
127 147 0
131 150 0
114 133 0
122 141 0
118 136 0
129 150 0
133 151 0
130 149 0
134 152 0
133 152 0
128 146 0
124 143 0
143 163 0
129 148 0
134 154 0
131 150 0
142 161 0
134 153 0
138 157 0
138 158 0
128 147 0
125 143 0
128 146 0
130 146 0
141 159 0
137 155 0
142 159 0
136 155 0
134 152 0
126 143 0
138 156 0
133 151 0
133 152 0
130 147 0
128 145 0
134 152 0
144 162 0
142 159 0
125 141 51
78 87 45
80 90 51
91 103 22
85 95 0
94 106 22
92 104 32
82 93 22
100 112 39
90 102 42
90 102 22
87 100 0
99 114 0
101 114 0
91 104 0
92 106 0
100 114 10
100 114 22
100 115 0
105 120 22
102 116 14
98 113 10
102 117 0
99 114 0
104 119 22
113 128 0
112 127 28
103 117 0
104 119 22
113 128 0
115 132 32
114 129 0
116 133 0
121 137 32
120 136 30
120 136 52
122 140 0
128 145 22
112 128 0
121 136 39
127 144 39
121 136 58
134 152 39
118 134 39
122 138 0
124 141 51
120 137 51
125 142 45
120 136 22
129 146 22
126 143 45
120 137 22
122 138 39
123 139 45
132 150 45
126 143 56
120 136 56
130 147 45
134 151 56
128 144 56
138 155 56
141 160 45
136 152 64
137 154 68
135 151 45
141 158 64
139 157 82
133 150 51
138 154 85
136 153 60
133 150 56
132 148 79
141 158 75
137 153 72
141 158 75
139 157 45
137 153 75
135 153 51
132 148 60
141 159 72
137 153 88
139 155 85
135 152 68
144 160 88
140 157 68
136 153 68
132 149 64
145 163 91
120 134 72
136 153 75
135 152 68
138 155 72
136 153 68
144 161 88
137 154 75
142 159 91
134 151 75
133 150 68
138 154 85
135 151 68
134 151 68
141 158 85
134 150 85
142 159 91
133 150 75
135 151 82
139 156 91
136 152 79
140 157 91
136 152 88
147 164 104
130 144 102
133 148 94
134 149 88
133 149 97
143 159 102
133 150 75
143 159 97
144 161 107
136 153 82
130 145 85
137 153 88
130 146 97
142 157 109
137 154 79
138 154 102
137 154 72
150 170 0
152 172 0
153 173 0
152 172 0
151 171 0
148 168 0
148 168 0
151 170 0
151 171 0
154 173 0
149 169 0
151 171 0
151 172 0
152 172 0
150 170 0
150 170 0
150 171 0
149 167 0
149 169 0
151 170 0
149 169 0
151 170 0
148 168 0
146 166 0
149 169 0
143 164 0
151 171 0
150 169 0
145 164 0
148 168 0
145 165 0
147 167 0
148 167 0
145 165 0
147 166 0
148 168 0
146 165 0
148 168 0
145 165 0
147 167 0
150 170 0
150 169 0
146 165 0
145 165 0
148 167 0
143 162 0
146 166 0
143 162 0
146 165 0
147 166 0
140 159 0
144 162 0
146 165 0
139 158 0
145 164 0
143 162 0
145 165 0
143 160 0
135 153 0
143 163 0
142 161 0
139 157 0
141 160 0
144 163 0
137 156 0
139 159 0
144 162 0
141 160 0
139 157 0
140 158 0
139 158 0
139 157 0
138 156 0
140 159 0
144 163 0
139 157 0
136 155 0
135 153 0
135 153 0
133 151 0
133 150 0
137 155 0
138 158 0
130 147 0
138 156 0
130 147 0
131 148 0
130 148 0
130 148 0
135 153 0
129 146 0
136 154 0
123 140 0
131 148 0
130 147 0
127 144 0
125 141 0
125 142 0
128 146 0
125 141 0
118 134 0
121 137 0
125 142 0
118 134 0
124 141 0
123 139 0
107 123 0
115 131 0
126 142 0
113 128 0
113 128 0
112 127 0
107 122 0
110 126 0
105 118 0
113 128 0
108 122 0
105 120 0
100 115 0
108 122 0
109 123 0
111 125 0
105 119 0
94 107 0
95 108 0
133 150 0
142 161 0
137 154 0
139 157 0
138 156 0
142 159 0
141 159 0
136 153 0
144 162 0
143 162 0
137 154 0
137 155 0
134 153 0
128 146 0
132 150 0
135 153 0
143 163 0
139 158 0
142 161 0
134 152 0
126 143 0
135 154 0
133 152 0
139 158 0
141 161 0
128 147 0
128 147 0
135 154 0
135 155 0
132 150 0
118 136 0
130 149 0
127 146 0
129 149 0
125 143 0
129 149 0
121 140 0
116 135 0
118 137 0
115 132 0
125 144 0
116 134 0
112 130 0
113 132 0
125 144 0
108 125 0
75 96 54
48 76 76
46 74 80
48 77 69
48 77 64
48 77 82
46 74 74
52 82 84
49 78 88
50 80 72
49 78 84
48 77 73
51 80 78
47 76 65
47 75 80
50 80 78
51 82 92
52 83 80
51 80 88
50 80 88
51 81 82
51 81 88
51 82 84
50 80 74
51 81 88
50 80 90
52 82 74
50 80 80
52 84 90
51 81 84
51 81 80
53 83 95
53 85 90
53 84 103
48 78 74
50 79 82
51 82 80
52 83 80
52 82 76
48 77 78
49 79 78
50 80 76
48 77 74
48 77 84
51 81 94
51 82 82
50 81 86
50 80 72
48 76 84
46 74 76
47 75 76
48 77 63
48 76 86
50 80 76
48 77 72
44 70 76
41 67 54
73 94 53
103 119 16
123 141 0
115 132 0
116 134 0
105 122 0
120 137 0
109 125 0
122 141 0
126 144 0
117 135 0
129 147 0
127 143 0
129 147 0
131 150 0
122 141 0
129 147 0
125 143 0
126 145 0
132 151 0
119 137 0
127 145 0
131 149 0
125 144 0
136 154 0
133 150 0
129 147 0
129 147 0
127 144 0
136 154 0
131 149 0
120 137 0
136 154 0
127 144 0
121 137 0
133 152 0
118 135 0
140 157 0
126 143 0
128 146 0
137 154 0
138 156 0
141 159 0
128 145 0
135 151 0
137 155 0
128 144 22
101 112 56
94 105 51
84 95 39
79 91 0
93 106 16
86 97 22
102 114 32
79 91 0
79 91 22
93 105 0
84 95 0
92 104 0
83 96 0
102 118 22
101 114 0
85 98 0
96 110 0
103 117 0
101 115 0
108 124 0
104 118 0
102 117 0
107 122 16
98 112 0
113 127 0
111 126 22
111 126 22
117 133 36
111 125 22
105 120 0
111 126 22
117 131 22
118 134 0
121 137 22
113 128 22
120 136 32
121 136 22
112 127 0
118 134 22
122 137 0
126 143 45
120 135 32
124 141 39
126 143 0
120 135 39
125 141 32
126 142 0
127 144 45
133 150 22
129 145 56
131 148 32
122 138 39
126 141 60
129 145 51
129 146 51
135 153 56
127 144 45
131 148 39
126 143 51
138 155 56
132 148 51
126 142 51
135 152 60
132 149 56
138 155 45
128 145 60
134 150 68
134 151 68
133 150 68
135 152 75
136 153 68
142 159 75
139 154 82
137 154 64
141 157 79
128 145 51
146 162 91
139 155 88
132 148 64
139 157 64
140 157 72
135 151 72
140 158 72
146 163 97
137 153 91
131 148 45
130 146 75
135 152 72
136 152 88
140 157 79
141 157 82
144 162 88
145 162 88
139 156 79
136 151 79
139 157 79
141 158 85
140 156 91
135 153 60
138 154 79
140 158 82
134 149 85
137 155 82
129 145 82
135 150 94
130 144 82
135 151 82
139 157 79
139 156 88
135 151 88
135 150 94
138 154 104
135 150 102
139 155 91
130 146 79
135 151 82
145 162 114
138 155 97
135 151 85
145 161 102
134 148 91
139 154 104
142 159 99
135 150 112
140 156 104
152 172 0
149 169 0
150 171 0
146 166 0
154 174 0
149 169 0
153 172 0
153 172 0
153 173 0
151 172 0
150 170 0
152 172 0
151 171 0
149 169 0
152 172 0
150 170 0
150 171 0
151 170 0
152 171 0
148 168 0
149 168 0
147 167 0
149 169 0
150 170 0
148 168 0
148 169 0
146 165 0
149 168 0
149 169 0
148 167 0
147 168 0
147 167 0
150 170 0
147 167 0
150 170 0
147 167 0
146 165 0
148 167 0
148 167 0
147 166 0
140 160 0
144 163 0
144 162 0
146 165 0
146 165 0
142 160 0
145 164 0
141 161 0
138 156 0
144 164 0
144 163 0
142 162 0
149 169 0
144 163 0
145 165 0
143 161 0
140 160 0
143 162 0
141 159 0
143 162 0
138 156 0
145 164 0
142 162 0
142 161 0
139 158 0
136 155 0
142 161 0
145 164 0
135 153 0
139 159 0
137 156 0
139 157 0
141 159 0
134 152 0
137 155 0
136 154 0
143 161 0
139 156 0
134 153 0
140 158 0
131 149 0
134 153 0
133 151 0
132 149 0
133 150 0
128 145 0
128 146 0
130 148 0
128 144 0
123 139 0
126 143 0
129 146 0
128 144 0
126 143 0
128 144 0
131 148 0
128 144 0
128 146 0
122 139 0
122 138 0
125 141 0
116 133 0
110 126 0
116 132 0
113 130 0
126 142 0
113 129 0
113 127 0
116 132 0
113 128 0
115 130 0
121 137 0
106 122 0
113 127 0
110 124 0
121 137 0
107 121 0
103 116 0
104 118 0
112 126 0
108 121 0
108 121 0
100 113 0
103 117 0
138 155 0
133 150 0
138 155 0
135 153 0
143 161 0
129 145 0
132 149 0
139 157 0
139 157 0
137 154 0
133 151 0
137 154 0
131 148 0
141 159 0
140 158 0
127 145 0
137 155 0
135 154 0
134 151 0
122 139 0
133 152 0
135 153 0
129 148 0
130 149 0
130 148 0
143 162 0
129 147 0
121 139 0
132 151 0
131 151 0
119 137 0
127 145 0
124 141 0
119 138 0
122 141 0
115 133 0
135 154 0
122 141 0
128 145 0
123 141 0
122 141 0
113 132 0
122 140 0
116 135 0
120 138 0
113 131 0
109 125 0
96 112 0
90 108 36
52 76 61
47 75 80
46 74 71
47 75 69
44 72 54
50 79 69
46 74 70
50 79 76
48 77 72
47 75 72
46 74 74
49 78 80
50 80 90
49 79 84
47 76 78
50 79 75
51 82 88
49 78 80
52 84 84
51 82 94
50 80 82
53 84 99
51 81 84
48 77 70
47 76 72
48 77 86
49 79 70
51 82 84
54 85 99
50 80 86
51 81 94
51 81 95
49 79 88
52 83 90
55 87 100
50 80 91
46 74 78
51 82 82
50 80 88
48 77 74
46 74 57
48 78 80
50 80 86
45 73 69
48 76 67
47 76 76
48 78 69
48 76 74
47 75 77
47 75 70
45 72 57
45 71 67
48 76 78
58 82 56
90 106 36
107 124 0
98 115 0
115 132 0
105 122 0
111 127 0
121 140 0
105 121 0
119 137 0
122 139 0
118 136 0
117 134 0
112 130 0
122 139 0
125 142 0
113 131 0
128 145 0
124 141 0
121 140 0
131 150 0
135 154 0
133 151 0
127 145 0
122 140 0
133 151 0
130 148 0
140 159 0
138 157 0
129 147 0
133 150 0
123 141 0
124 141 0
138 156 0
126 144 0
121 137 0
123 141 0
127 145 0
122 139 0
133 150 0
127 143 0
126 143 0
135 152 0
133 149 0
124 140 0
135 153 0
139 156 0
131 147 0
122 138 0
131 147 0
104 117 0
99 111 58
76 86 32
75 85 22
86 98 16
87 98 0
84 96 0
81 93 14
95 109 0
87 99 22
93 105 0
104 118 0
95 109 28
95 108 16
91 104 0
94 108 0
99 113 0
98 111 0
99 113 0
107 122 0
105 119 0
108 122 0
122 138 0
109 123 0
100 115 0
111 127 0
115 129 14
111 126 0
113 128 22
114 130 22
110 125 22
117 133 0
120 136 22
121 137 22
117 133 0
120 136 32
111 126 0
121 137 22
121 138 0
119 136 32
122 139 22
121 137 45
120 136 45
128 146 45
121 137 32
124 140 39
122 138 39
115 131 22
129 146 45
129 144 45
124 141 32
134 151 45
128 145 56
133 150 39
128 145 22
134 151 56
126 143 51
129 145 60
126 143 45
129 145 39
133 149 56
127 143 60
137 154 64
133 150 56
139 158 39
142 159 75
129 146 51
139 155 79
131 147 60
133 150 56
140 158 60
126 142 51
133 151 60
129 146 51
137 154 75
135 152 60
139 156 64
131 148 64
129 145 64
135 151 72
135 152 72
138 155 75
140 157 75
119 134 45
127 143 64
134 151 72
129 145 64
135 153 75
139 157 72
145 163 91
138 155 85
148 166 88
136 153 75
132 148 82
128 144 72
141 158 68
127 143 75
140 156 79
128 145 64
134 149 72
135 151 88
138 154 91
129 145 72
141 158 99
142 159 85
136 152 88
139 155 102
124 139 82
125 140 75
141 157 79
133 147 97
126 140 88
134 149 94
121 136 72
128 144 79
137 153 112
129 145 82
139 156 102
138 154 107
117 131 79
119 133 68
137 153 94
133 150 85
126 141 88
151 171 0
154 174 0
151 170 0
151 173 0
152 172 0
149 169 0
149 168 0
152 172 0
146 166 0
152 172 0
150 170 0
149 168 0
146 166 0
150 170 0
150 170 0
148 169 0
148 168 0
152 172 0
150 170 0
146 166 0
149 168 0
151 170 0
149 168 0
146 165 0
147 166 0
151 170 0
147 167 0
151 169 0
147 167 0
148 167 0
147 167 0
147 165 0
147 167 0
144 163 0
148 166 0
146 165 0
148 167 0
147 166 0
147 167 0
147 167 0
141 161 0
147 167 0
146 166 0
145 165 0
149 169 0
148 168 0
148 167 0
146 165 0
145 164 0
145 165 0
141 160 0
140 158 0
141 160 0
142 160 0
139 158 0
140 159 0
146 165 0
142 161 0
143 162 0
138 157 0
141 160 0
142 160 0
143 162 0
139 156 0
142 161 0
141 160 0
137 155 0
139 158 0
140 159 0
131 148 0
134 152 0
133 151 0
140 158 0
134 152 0
139 157 0
136 154 0
132 149 0
135 152 0
137 155 0
137 155 0
130 147 0
132 149 0
131 148 0
130 148 0
134 151 0
136 153 0
131 148 0
131 148 0
127 145 0
131 148 0
130 146 0
128 145 0
128 145 0
132 149 0
130 146 0
122 137 0
125 141 0
119 136 0
123 139 0
121 137 0
121 137 0
117 133 0
121 137 0
121 138 0
124 140 0
104 118 0
115 131 0
119 134 0
119 133 0
114 129 0
110 124 0
113 128 0
112 126 0
112 127 0
116 130 0
115 129 0
101 114 0
111 125 0
110 123 0
106 119 0
95 107 0
97 108 0
127 143 0
130 146 0
137 153 0
133 150 0
132 147 0
143 159 0
135 151 0
131 148 0
126 142 0
136 152 0
134 152 0
123 139 0
128 146 0
130 147 0
121 139 0
132 149 0
129 146 0
131 148 0
128 146 0
127 145 0
129 147 0
139 157 0
138 157 0
133 152 0
137 156 0
136 155 0
127 145 0
124 142 0
122 140 0
127 145 0
133 152 0
126 145 0
134 152 0
122 141 0
127 146 0
127 145 0
106 123 0
121 140 0
128 146 0
121 139 0
114 131 0
129 146 0
115 132 0
102 120 0
109 125 0
119 135 0
121 137 0
112 129 0
105 122 0
100 116 0
93 108 0
97 112 0
57 75 39
44 67 57
46 73 71
44 71 60
48 77 74
47 74 60
46 74 76
49 78 74
49 78 84
46 75 74
49 78 78
50 80 76
49 77 86
48 76 78
50 80 80
49 79 86
47 75 57
48 76 84
50 80 82
49 78 65
50 79 82
53 83 90
50 80 72
49 78 76
49 79 72
50 79 84
52 82 84
50 80 78
51 81 84
48 76 76
49 79 70
48 78 67
47 75 67
49 79 78
48 76 78
50 80 72
50 79 80
47 75 74
48 78 60
50 79 80
47 76 76
44 71 67
50 79 82
48 77 72
46 73 76
45 72 65
48 77 82
45 72 59
45 72 76
46 74 67
43 69 62
72 90 44
95 111 0
103 119 0
96 112 0
111 127 0
94 111 0
106 122 0
122 139 0
102 118 0
101 117 0
101 118 0
116 133 0
112 128 0
126 145 0
116 133 0
117 135 0
118 135 0
132 149 0
124 142 0
122 140 0
123 140 0
116 132 0
127 144 0
127 144 0
126 144 0
130 148 0
138 158 0
123 139 0
134 152 0
124 141 0
118 136 0
134 152 0
126 144 0
131 149 0
128 145 0
129 145 0
125 141 0
135 153 0
131 148 0
131 148 0
129 146 0
132 148 0
135 152 0
128 144 0
136 153 0
126 142 0
128 144 0
132 148 0
130 146 0
130 145 0
123 137 0
139 156 0
112 125 32
85 96 39
92 103 22
80 90 32
86 99 0
83 95 0
90 101 16
86 98 22
96 108 22
90 101 0
89 102 14
94 107 0
103 116 22
89 101 0
100 113 0
100 114 0
98 111 0
97 110 0
100 114 0
101 115 0
106 120 0
100 114 0
102 116 16
114 128 0
111 126 0
104 118 14
109 124 0
117 132 22
111 125 22
104 119 0
120 136 0
111 126 32
110 125 22
123 139 32
112 128 0
118 134 0
115 132 22
116 131 32
123 140 0
127 143 32
119 135 22
124 140 22
118 135 0
121 136 22
119 136 0
120 137 32
124 141 32
126 142 45
122 137 39
122 139 22
124 141 51
130 146 56
131 148 22
122 139 32
124 139 51
128 145 39
126 143 39
130 146 64
136 154 64
135 151 64
137 154 56
125 141 45
129 146 51
131 148 64
126 143 39
131 148 56
133 151 51
127 144 45
136 152 75
135 152 68
133 150 56
137 152 79
127 143 51
138 155 68
131 148 39
135 151 75
131 149 51
136 152 75
137 154 56
134 150 82
142 159 91
130 147 68
138 156 72
133 149 68
142 158 94
140 156 75
134 150 75
127 143 64
137 154 75
128 144 64
134 150 56
142 157 82
140 157 85
129 145 68
134 150 60
132 148 64
127 143 64
131 147 64
136 152 94
138 155 79
133 149 79
123 138 60
137 152 88
127 142 82
139 156 94
130 146 68
135 151 85
132 147 91
130 146 75
135 150 97
139 154 91
146 163 75
132 147 82
138 154 91
134 150 94
136 152 91
127 142 85
128 143 97
134 150 82
116 131 60
138 153 88
137 152 88
130 146 88
151 172 0
150 171 0
151 171 0
148 168 0
152 171 0
151 170 0
150 169 0
151 171 0
151 171 0
152 171 0
151 171 0
148 167 0
150 170 0
151 171 0
149 169 0
147 166 0
151 170 0
151 170 0
148 167 0
147 167 0
150 169 0
149 168 0
147 168 0
149 169 0
149 169 0
149 169 0
147 166 0
145 163 0
142 162 0
149 168 0
148 168 0
147 167 0
148 168 0
147 166 0
149 168 0
147 166 0
148 168 0
145 165 0
146 165 0
146 166 0
146 165 0
144 163 0
143 161 0
147 167 0
147 167 0
146 166 0
144 164 0
147 166 0
148 167 0
146 165 0
148 167 0
145 163 0
140 159 0
145 163 0
142 161 0
140 158 0
140 158 0
135 153 0
133 151 0
142 161 0
141 160 0
139 157 0
144 162 0
138 157 0
139 157 0
141 159 0
138 156 0
143 161 0
142 159 0
136 155 0
141 160 0
135 153 0
136 153 0
136 153 0
139 157 0
140 159 0
136 154 0
138 156 0
139 156 0
131 149 0
131 147 0
136 154 0
135 153 0
135 153 0
133 151 0
127 144 0
130 148 0
133 151 0
122 139 0
134 151 0
125 142 0
132 149 0
129 145 0
127 144 0
125 142 0
122 138 0
130 146 0
127 143 0
124 140 0
116 132 0
118 134 0
134 151 0
111 126 0
117 131 0
117 133 0
123 139 0
111 126 0
119 134 0
103 119 0
113 127 0
116 132 0
106 120 0
111 125 0
112 127 0
103 116 0
104 117 0
102 115 0
97 109 0
99 111 0
85 96 0
99 112 0
134 150 0
139 155 0
130 145 0
127 143 0
121 136 0
134 149 0
123 140 0
135 151 0
137 155 0
135 150 0
133 150 0
138 155 0
126 142 0
138 155 0
124 141 0
122 139 0
132 149 0
126 143 0
135 152 0
132 150 0
132 150 0
122 140 0
122 140 0
127 145 0
124 142 0
129 148 0
129 147 0
135 153 0
132 150 0
125 144 0
127 146 0
130 150 0
126 144 0
134 152 0
126 144 0
110 128 0
115 132 0
124 142 0
99 116 0
120 138 0
118 135 0
118 134 0
127 144 0
111 129 0
108 125 0
103 120 0
106 122 0
110 127 0
113 130 0
112 129 0
105 121 0
102 117 0
93 109 0
92 108 0
94 110 18
63 81 36
45 71 64
39 64 62
47 75 71
45 72 76
49 79 76
45 73 54
49 78 80
47 75 72
49 79 74
47 75 67
49 77 80
49 78 74
47 75 76
50 80 88
48 77 80
51 80 90
49 78 82
49 78 67
47 75 82
51 81 90
50 80 82
52 82 86
48 77 80
47 75 65
49 78 76
51 81 82
48 77 74
50 79 84
47 76 62
48 77 83
49 79 62
49 78 78
49 79 76
49 78 82
51 82 84
49 79 78
47 76 70
47 75 84
48 76 65
44 71 54
46 73 76
44 70 65
44 71 74
41 67 60
44 71 72
42 68 53
68 88 53
75 92 18
98 113 0
88 103 0
98 113 0
98 113 0
100 116 0
111 127 0
105 122 0
94 110 0
114 131 0
104 121 0
93 110 0
111 129 0
115 133 0
112 130 0
105 122 0
110 127 0
106 123 0
115 131 0
115 132 0
118 135 0
128 147 0
125 144 0
121 137 0
114 131 0
130 147 0
121 139 0
124 141 0
122 140 0
121 140 0
131 148 0
132 148 0
126 143 0
121 138 0
129 147 0
105 121 0
119 135 0
121 137 0
131 147 0
127 143 0
116 131 0
128 144 0
126 142 0
114 130 0
117 133 0
120 136 0
124 138 0
124 139 0
117 133 0
126 140 0
128 144 0
134 150 0
133 149 0
124 138 0
116 130 0
88 98 39
76 85 22
86 97 39
76 86 0
93 105 36
87 99 0
98 111 32
86 98 0
89 101 22
81 92 28
94 106 0
98 111 0
97 110 0
93 105 0
97 110 0
99 112 0
98 111 0
101 116 16
103 117 0
100 114 0
105 120 16
107 122 0
107 122 0
102 116 22
102 116 0
102 117 0
109 124 22
105 120 0
119 135 0
112 127 0
111 125 0
111 127 0
119 134 32
102 115 22
116 131 22
115 131 22
116 132 32
115 131 39
110 125 0
118 134 0
133 151 45
114 131 22
131 148 32
125 143 45
126 144 0
120 136 22
120 135 32
127 144 32
118 134 22
127 144 32
122 137 32
126 143 32
121 137 0
123 138 32
125 141 45
123 138 32
132 150 39
125 141 51
132 149 72
131 148 39
136 153 60
124 140 39
126 141 60
129 145 39
127 143 51
132 149 56
134 150 68
129 144 60
130 145 72
129 146 51
123 139 39
128 143 68
136 153 64
136 153 60
136 151 75
132 148 64
134 151 51
135 151 75
135 151 75
135 152 60
136 151 91
130 146 72
130 146 56
135 152 64
134 150 75
132 147 82
136 152 79
127 142 82
136 153 68
126 142 51
137 153 82
134 150 88
135 151 85
134 151 79
143 158 94
133 149 60
127 143 51
137 153 82
132 148 51
132 148 75
135 151 79
131 147 72
132 148 72
131 148 75
129 144 75
124 138 99
133 148 94
138 154 97
121 138 51
133 150 82
119 134 60
128 142 88
135 151 97
133 149 99
133 148 82
138 154 91
127 142 85
129 144 97
124 139 79
137 153 85
128 144 75
152 171 0
151 171 0
151 170 0
151 171 0
150 170 0
149 168 0
151 172 0
148 168 0
150 170 0
149 169 0
151 171 0
148 167 0
148 167 0
151 170 0
150 170 0
148 168 0
148 168 0
149 168 0
150 170 0
149 168 0
152 171 0
148 168 0
150 170 0
148 167 0
144 162 0
149 167 0
147 166 0
146 166 0
144 163 0
147 166 0
147 165 0
143 162 0
147 166 0
150 169 0
146 165 0
147 166 0
146 165 0
146 163 0
150 170 0
144 163 0
143 162 0
145 164 0
147 164 0
142 161 0
150 168 0
146 165 0
142 161 0
141 160 0
142 160 0
144 162 0
144 162 0
142 161 0
142 160 0
142 160 0
141 160 0
142 161 0
146 165 0
147 165 0
139 157 0
138 156 0
143 163 0
135 153 0
133 151 0
141 159 0
140 157 0
139 156 0
135 153 0
141 159 0
132 149 0
139 157 0
136 153 0
131 149 0
130 148 0
133 150 0
134 152 0
137 155 0
132 150 0
131 149 0
135 152 0
135 152 0
130 148 0
133 150 0
133 150 0
132 149 0
122 138 0
129 145 0
131 148 0
131 148 0
128 143 0
127 144 0
131 148 0
129 145 0
119 135 0
135 151 0
123 139 0
124 140 0
123 139 0
124 140 0
121 136 0
114 129 0
116 132 0
116 131 0
119 134 0
123 138 0
113 128 0
113 127 0
107 121 0
121 137 0
112 126 0
115 130 0
105 119 0
114 129 0
110 123 0
100 113 0
101 113 0
103 116 0
96 109 0
83 94 0
96 107 0
115 129 0
128 142 0
125 140 0
130 144 0
125 140 0
136 151 0
125 141 0
135 151 0
125 140 0
132 148 0
123 140 0
134 150 0
137 154 0
129 145 0
125 141 0
120 136 0
137 155 0
117 134 0
134 151 0
125 141 0
132 150 0
124 141 0
121 138 0
137 154 0
123 139 0
133 151 0
123 140 0
123 141 0
122 139 0
133 152 0
123 141 0
118 134 0
120 137 0
124 142 0
116 134 0
122 141 0
128 146 0
127 144 0
121 139 0
113 130 0
126 144 0
114 131 0
111 129 0
108 125 0
117 135 0
122 139 0
122 139 0
99 116 0
113 130 0
102 118 0
108 123 0
103 120 0
96 112 0
102 117 0
92 106 0
83 98 0
101 115 0
102 117 0
83 97 0
49 69 44
44 69 60
42 67 70
40 65 51
45 72 65
47 76 57
45 73 70
47 75 74
44 72 54
45 72 74
45 73 74
44 70 74
46 75 60
47 76 67
46 74 82
49 78 74
47 76 67
47 75 67
49 79 84
43 69 70
46 75 74
46 75 70
49 77 78
47 76 78
51 81 90
45 73 54
49 79 84
49 78 80
46 74 70
48 77 67
47 75 67
48 77 86
48 77 65
48 78 54
47 75 62
46 74 62
46 73 72
45 72 74
44 71 74
45 72 65
44 70 71
44 71 57
52 75 54
50 68 44
87 102 25
89 102 0
92 105 0
93 108 0
92 107 0
95 109 0
97 112 0
88 103 0
100 114 0
105 121 0
104 119 0
114 131 0
112 130 0
94 110 0
104 121 0
114 130 0
120 137 0
115 133 0
116 133 0
114 131 0
114 132 0
109 126 0
115 132 0
112 129 0
122 140 0
119 137 0
120 138 0
126 143 0
123 141 0
114 131 0
120 136 0
125 141 0
122 139 0
105 122 0
121 137 0
108 124 0
118 134 0
122 138 0
118 134 0
119 136 0
123 139 0
123 139 0
126 142 0
119 134 0
129 145 0
117 131 0
113 128 0
122 138 0
123 139 0
129 144 0
121 136 0
125 139 0
112 126 0
123 138 0
125 140 0
109 123 0
126 140 0
125 140 0
112 124 22
82 92 22
69 78 22
89 100 22
88 99 32
85 96 0
85 97 0
98 110 22
91 103 39
93 105 0
91 103 22
85 99 0
100 112 0
95 107 0
93 106 0
87 100 0
94 107 0
102 116 0
103 118 0
100 113 0
108 121 0
105 118 0
96 109 0
106 121 0
101 114 0
105 119 0
113 128 0
112 126 0
109 124 22
110 125 0
107 121 0
111 126 0
116 132 0
110 124 0
106 120 0
122 138 0
113 128 32
115 129 22
117 132 39
114 129 0
114 130 22
124 141 22
121 138 39
120 135 39
118 134 22
123 139 22
126 143 22
123 140 22
123 139 32
118 133 39
121 137 45
116 132 32
122 139 22
126 142 32
127 143 32
130 146 51
138 155 64
123 138 39
134 152 39
124 140 45
134 151 60
134 151 64
129 146 32
123 138 60
130 145 75
127 144 51
129 145 45
124 140 32
125 141 45
129 145 56
135 151 68
128 144 56
124 140 51
132 148 72
139 155 75
127 143 39
135 151 64
131 147 64
129 145 45
126 142 60
131 147 51
134 151 60
132 148 88
133 149 64
130 145 64
121 136 51
138 156 85
135 151 79
132 149 64
137 152 72
136 152 82
126 142 60
132 149 64
135 151 68
132 147 82
129 145 79
138 154 94
135 151 79
134 150 85
123 139 56
131 147 82
138 155 75
130 145 75
138 155 82
127 142 79
125 140 64
129 144 72
131 147 68
133 149 68
135 151 75
122 136 75
121 136 56
128 142 85
129 144 82
128 143 75
130 145 82
130 145 88
131 146 85
137 153 94
128 144 72
150 170 0
152 171 0
147 167 0
149 170 0
150 170 0
151 170 0
149 169 0
146 166 0
149 169 0
145 165 0
149 168 0
149 169 0
149 168 0
149 168 0
149 169 0
148 168 0
150 170 0
147 166 0
149 168 0
150 168 0
149 168 0
148 168 0
152 171 0
147 167 0
148 167 0
148 168 0
147 167 0
147 167 0
147 166 0
146 166 0
147 166 0
143 162 0
149 168 0
147 166 0
145 165 0
147 166 0
144 164 0
142 161 0
141 160 0
141 159 0
145 164 0
151 169 0
145 164 0
148 166 0
140 158 0
145 164 0
146 164 0
139 158 0
147 166 0
148 167 0
142 161 0
140 159 0
142 161 0
143 161 0
139 158 0
138 156 0
140 158 0
138 155 0
143 161 0
144 163 0
142 160 0
140 158 0
133 150 0
134 153 0
140 158 0
141 159 0
140 159 0
138 156 0
141 158 0
133 150 0
139 156 0
136 154 0
138 156 0
132 150 0
135 153 0
131 149 0
137 155 0
142 159 0
133 150 0
136 154 0
132 149 0
133 150 0
129 145 0
135 153 0
132 149 0
132 148 0
141 159 0
130 146 0
129 147 0
122 138 0
125 141 0
126 142 0
127 143 0
127 143 0
127 143 0
121 136 0
122 137 0
112 127 0
128 143 0
122 138 0
118 133 0
121 136 0
121 136 0
119 134 0
115 129 0
113 127 0
109 123 0
110 126 0
113 127 0
113 126 0
109 122 0
108 122 0
106 118 0
102 114 0
92 105 0
100 112 0
80 91 0
100 112 0
122 136 0
129 144 0
114 128 0
123 138 0
129 144 0
112 126 0
125 140 0
120 135 0
125 140 0
120 136 0
116 132 0
115 130 0
124 140 0
133 150 0
118 134 0
120 137 0
121 138 0
133 149 0
121 137 0
116 133 0
117 133 0
129 145 0
130 147 0
127 144 0
126 144 0
125 143 0
117 135 0
133 152 0
131 149 0
122 140 0
123 140 0
121 138 0
122 140 0
131 149 0
115 133 0
131 150 0
123 141 0
117 134 0
110 128 0
117 135 0
122 140 0
114 131 0
114 131 0
126 143 0
114 131 0
111 128 0
101 118 0
114 131 0
103 119 0
103 119 0
102 117 0
101 118 0
117 132 0
102 118 0
107 122 0
81 95 0
97 112 0
95 110 0
83 97 0
85 98 0
86 99 0
80 93 0
69 86 44
37 60 44
42 68 62
43 69 62
46 73 76
48 76 72
44 72 67
46 74 74
48 76 65
44 71 60
46 74 74
48 76 62
44 71 78
48 77 67
46 74 70
45 73 70
45 73 67
46 74 72
47 76 70
48 76 90
48 77 72
45 72 74
46 75 70
45 73 72
49 78 76
46 73 82
46 73 62
47 74 84
48 77 74
46 74 76
45 73 67
44 71 65
42 67 62
47 75 74
47 75 86
46 74 74
44 70 60
44 71 62
43 66 40
66 82 25
85 98 25
77 89 0
75 90 0
85 98 0
87 101 0
86 98 0
91 106 0
77 93 0
92 106 0
80 94 0
103 118 0
110 125 0
103 120 0
109 126 0
97 114 0
113 129 0
106 123 0
102 119 0
108 124 0
113 129 0
107 122 0
120 137 0
113 130 0
115 132 0
125 142 0
135 153 0
120 137 0
114 131 0
110 127 0
115 132 0
119 134 0
107 125 0
117 133 0
114 131 0
120 138 0
127 144 0
121 138 0
124 141 0
121 137 0
115 130 0
119 136 0
119 135 0
122 137 0
132 149 0
117 133 0
123 139 0
120 137 0
130 145 0
131 146 0
119 133 0
110 125 0
123 137 0
118 133 0
113 127 0
122 136 0
117 132 0
115 129 0
108 120 0
114 128 0
105 118 0
114 128 0
110 123 0
97 108 39
76 86 0
80 89 22
81 92 22
92 103 22
81 92 0
92 104 0
88 99 0
101 114 0
98 111 0
91 103 0
89 101 0
101 113 0
98 111 0
105 119 0
100 113 0
107 121 0
101 115 0
103 118 0
100 114 0
95 108 0
119 133 0
98 111 0
102 116 0
108 123 0
107 121 0
107 121 0
120 135 0
105 118 0
115 131 0
110 125 0
115 131 0
110 125 0
110 125 0
116 131 0
116 131 22
110 125 22
117 132 0
114 128 39
121 135 22
126 142 22
118 133 32
127 144 45
119 134 0
123 140 32
133 149 32
115 130 39
125 141 39
121 136 22
127 144 22
119 135 32
119 134 22
121 137 39
131 147 45
124 139 45
126 143 51
124 139 45
126 142 39
119 135 22
119 135 32
128 144 51
118 134 45
131 147 60
128 145 51
121 137 39
133 150 56
136 153 68
122 137 56
126 141 45
122 139 39
116 131 32
132 148 45
135 151 56
137 154 68
138 154 79
136 152 72
131 146 82
128 144 45
128 143 64
128 144 64
135 151 79
128 144 75
131 147 75
131 148 68
138 155 68
140 157 68
133 149 64
127 142 72
128 144 82
139 155 75
132 147 85
132 148 72
133 148 82
139 155 75
130 146 68
126 140 75
124 140 72
131 148 64
129 144 82
133 149 72
131 146 97
128 143 72
134 149 99
133 149 64
139 156 79
127 143 56
125 141 64
127 143 64
122 136 85
129 144 97
124 138 82
121 135 97
139 157 68
139 154 94
116 130 68
120 135 72
126 140 91
126 140 94
151 171 0
147 167 0
153 173 0
152 171 0
150 169 0
151 171 0
152 171 0
150 169 0
149 169 0
147 166 0
147 167 0
149 168 0
151 170 0
146 165 0
149 168 0
151 170 0
150 169 0
146 165 0
150 170 0
149 169 0
145 163 0
148 167 0
148 167 0
144 163 0
147 166 0
149 168 0
146 166 0
148 167 0
148 167 0
148 167 0
148 167 0
145 165 0
145 163 0
142 161 0
145 163 0
144 163 0
144 163 0
146 164 0
147 167 0
147 166 0
149 167 0
147 165 0
147 166 0
140 158 0
148 168 0
146 165 0
140 159 0
141 159 0
143 161 0
144 163 0
142 161 0
143 162 0
146 165 0
143 161 0
141 160 0
137 155 0
146 164 0
138 155 0
139 157 0
139 156 0
137 156 0
138 156 0
137 155 0
139 157 0
141 159 0
134 152 0
140 159 0
144 162 0
133 149 0
140 158 0
133 151 0
136 154 0
138 155 0
130 147 0
131 148 0
128 145 0
136 153 0
130 147 0
134 151 0
136 153 0
124 141 0
127 143 0
138 155 0
127 143 0
129 145 0
132 150 0
125 141 0
126 142 0
130 147 0
124 140 0
126 142 0
118 134 0
118 133 0
124 139 0
108 123 0
130 145 0
118 133 0
120 135 0
117 131 0
122 137 0
114 129 0
118 133 0
113 128 0
121 136 0
115 130 0
113 126 0
113 127 0
104 118 0
107 120 0
98 111 0
108 121 0
99 112 0
101 112 0
92 103 0
94 105 0
93 103 0
112 124 0
127 141 0
127 142 0
130 145 0
122 136 0
126 140 0
122 136 0
126 141 0
126 141 0
121 136 0
117 133 0
116 131 0
117 132 0
123 139 0
123 138 0
125 141 0
138 155 0
123 139 0
116 131 0
133 149 0
107 123 0
132 150 0
116 133 0
124 140 0
127 144 0
132 149 0
122 138 0
124 141 0
133 149 0
118 135 0
120 138 0
115 133 0
114 131 0
128 146 0
131 149 0
121 138 0
129 146 0
110 127 0
107 123 0
113 130 0
118 135 0
105 121 0
125 142 0
108 125 0
115 134 0
121 138 0
117 133 0
104 120 0
114 131 0
106 122 0
98 114 0
104 120 0
105 120 0
102 118 0
98 113 0
92 108 0
87 102 0
86 101 0
95 110 0
78 91 0
86 100 0
83 97 0
79 92 0
90 103 0
74 87 0
72 85 0
56 72 25
60 75 31
39 64 51
43 69 57
45 73 54
45 71 67
43 69 62
44 72 57
44 70 57
43 69 57
48 77 78
47 75 74
43 69 70
49 78 76
47 76 62
45 73 69
44 71 60
48 76 80
43 70 74
46 73 72
45 73 70
47 75 78
45 72 76
43 70 57
47 75 67
45 72 60
44 71 67
44 71 57
41 67 40
43 69 65
38 62 44
39 63 47
43 69 60
41 64 57
58 76 35
62 76 18
70 81 0
82 94 0
52 64 0
81 94 0
73 85 0
82 95 0
93 106 0
100 114 0
107 123 0
87 103 0
92 105 0
97 111 0
104 120 0
101 118 0
102 117 0
106 122 0
94 111 0
96 111 0
96 112 0
113 128 0
102 117 0
102 117 0
119 135 0
105 121 0
121 139 0
110 129 0
116 132 0
116 133 0
115 133 0
108 124 0
123 140 0
127 143 0
121 138 0
124 140 0
113 129 0
117 133 0
128 145 0
121 137 0
125 142 0
122 139 0
108 125 0
122 137 0
108 124 0
114 130 0
113 129 0
122 139 0
121 136 0
109 124 0
116 132 0
122 137 0
114 129 0
115 129 0
120 136 0
106 120 0
110 124 0
111 125 0
119 133 0
110 125 0
116 130 0
117 131 0
113 126 0
120 133 0
113 126 0
113 127 0
117 130 0
107 120 22
94 106 45
75 85 22
77 86 22
78 88 0
84 95 0
83 94 0
91 103 0
90 102 0
86 97 0
101 114 0
84 95 0
101 115 0
96 108 0
99 112 0
101 114 0
98 111 0
102 114 0
107 120 0
105 118 0
105 119 16
107 122 0
99 113 0
99 112 0
109 123 0
104 119 0
111 125 0
114 128 0
102 117 0
114 129 0
108 122 22
121 136 0
122 138 0
119 134 0
120 135 0
123 139 32
116 132 22
113 128 0
116 132 0
124 140 22
114 129 0
117 134 22
123 139 39
115 130 0
121 137 22
112 126 45
118 133 22
125 141 0
120 135 56
122 138 22
123 138 39
128 143 51
117 132 32
128 144 56
111 126 22
134 151 45
127 144 39
121 137 45
130 147 56
134 151 51
133 150 72
133 150 60
115 131 32
127 144 32
128 143 68
133 150 51
134 150 72
130 146 64
131 148 64
129 145 39
132 148 60
131 147 56
126 142 68
122 138 51
130 147 60
137 154 68
131 147 60
124 140 60
135 150 64
131 145 72
132 148 64
132 148 60
128 144 45
125 140 72
125 142 51
132 149 60
136 153 72
139 156 79
127 143 56
126 142 72
123 138 60
137 153 79
138 154 85
135 151 82
122 138 60
119 134 51
137 153 99
134 150 72
131 146 75
134 150 79
127 144 45
127 142 72
132 148 75
129 144 72
134 150 85
128 143 64
122 136 82
131 146 64
132 148 82
129 145 72
122 136 79
126 141 68
127 142 85
132 148 79
137 153 88
133 147 91
121 136 79
145 164 0
151 170 0
148 168 0
151 170 0
149 169 0
150 169 0
150 169 0
149 169 0
148 168 0
152 171 0
148 168 0
148 167 0
150 170 0
148 168 0
149 169 0
149 169 0
149 169 0
148 167 0
148 168 0
149 169 0
149 167 0
146 165 0
147 167 0
150 168 0
148 167 0
149 168 0
146 165 0
146 165 0
149 168 0
148 167 0
148 166 0
146 165 0
142 161 0
142 160 0
141 160 0
147 166 0
145 164 0
143 161 0
143 161 0
144 163 0
145 163 0
145 163 0
141 159 0
142 160 0
148 166 0
141 159 0
144 163 0
142 160 0
144 161 0
144 162 0
142 160 0
143 160 0
140 159 0
144 163 0
142 160 0
139 157 0
141 159 0
133 150 0
141 159 0
143 160 0
134 152 0
136 154 0
140 158 0
135 152 0
140 157 0
136 153 0
137 155 0
132 149 0
137 154 0
135 153 0
131 147 0
128 145 0
130 148 0
136 153 0
134 151 0
135 152 0
136 154 0
126 141 0
130 146 0
135 151 0
134 150 0
124 139 0
136 153 0
130 147 0
125 141 0
128 144 0
127 143 0
123 139 0
131 147 0
132 149 0
125 141 0
119 134 0
124 140 0
126 141 0
125 140 0
117 131 0
118 133 0
113 128 0
123 137 0
115 129 0
113 126 0
115 129 0
110 124 0
117 131 0
117 131 0
116 130 0
107 121 0
106 119 0
110 123 0
97 109 0
100 112 0
93 106 0
91 102 0
96 106 0
102 114 0
108 121 0
117 131 0
107 120 0
118 131 0
119 133 0
121 135 0
110 125 0
119 134 0
119 134 0
108 123 0
117 132 0
123 138 0
116 131 0
113 129 0
126 141 0
127 144 0
123 138 0
124 140 0
124 140 0
116 133 0
127 143 0
113 130 0
135 151 0
118 134 0
126 142 0
113 130 0
121 137 0
118 134 0
106 123 0
132 150 0
114 132 0
120 137 0
119 138 0
127 144 0
120 136 0
121 138 0
116 133 0
115 132 0
117 134 0
119 136 0
113 131 0
114 132 0
121 139 0
118 137 0
124 141 0
116 133 0
116 133 0
104 120 0
108 125 0
102 118 0
101 116 0
108 124 0
104 120 0
98 115 0
111 127 0
96 112 0
88 103 0
90 104 0
99 113 0
81 95 0
101 116 0
81 96 0
71 85 0
85 99 0
66 80 0
84 96 0
79 92 0
82 94 0
59 70 0
63 76 0
54 67 25
45 61 40
40 64 44
38 62 44
44 70 62
43 69 65
42 67 60
43 69 62
42 68 60
43 69 62
46 74 74
42 69 54
44 70 74
44 70 67
45 71 76
42 68 67
44 70 67
45 72 72
43 69 65
42 68 60
41 66 60
43 69 62
47 75 70
42 67 62
42 68 60
36 59 47
38 61 51
36 58 43
60 74 36
62 73 25
56 67 0
54 65 0
85 97 0
74 85 0
73 85 0
75 88 0
71 84 0
86 100 0
96 110 0
77 92 0
85 98 0
85 98 0
91 105 0
103 119 0
99 115 0
93 108 0
109 125 0
101 116 0
109 125 0
109 125 0
102 118 0
107 122 0
105 121 0
113 129 0
115 132 0
114 130 0
108 125 0
114 131 0
121 139 0
107 123 0
128 146 0
108 123 0
105 122 0
117 134 0
117 135 0
118 135 0
113 130 0
122 139 0
122 139 0
108 124 0
112 128 0
120 137 0
128 145 0
114 130 0
117 134 0
119 135 0
121 137 0
123 138 0
121 136 0
121 137 0
123 139 0
103 118 0
128 143 0
117 133 0
112 125 0
115 130 0
117 131 0
116 129 0
102 117 0
114 128 0
109 122 0
117 130 0
116 129 0
108 121 0
126 140 0
113 126 0
102 114 0
106 119 0
106 118 0
107 119 0
93 104 22
82 92 22
75 83 32
73 82 0
86 97 32
90 101 22
83 94 22
91 104 0
90 102 0
80 90 0
106 118 0
97 110 0
104 117 0
90 103 0
106 120 0
87 100 0
103 116 0
101 114 0
104 117 0
99 113 0
105 118 0
98 111 0
109 124 0
94 109 0
116 131 0
116 130 0
111 125 0
95 108 0
94 107 0
110 124 0
118 133 0
118 133 0
120 136 0
113 127 22
114 130 22
122 138 0
109 124 0
117 132 22
112 128 0
122 138 0
123 139 0
120 135 22
121 137 45
124 139 22
122 137 32
115 131 0
132 148 51
122 138 32
117 134 22
120 136 22
124 140 0
127 144 32
122 138 39
124 140 22
125 142 32
125 142 39
134 150 39
129 145 45
125 142 39
134 151 32
122 138 32
119 135 39
117 132 45
120 136 32
130 147 32
126 142 39
122 139 51
121 136 39
126 141 64
129 145 45
126 142 51
127 142 88
135 152 60
130 147 51
127 143 45
126 142 39
124 140 56
129 145 51
134 150 56
127 144 51
138 156 64
129 145 75
126 142 56
137 154 64
129 144 60
123 138 56
133 149 60
124 139 60
126 142 51
134 151 68
129 144 75
129 143 75
135 151 75
132 147 72
131 146 64
128 143 75
131 147 91
131 147 75
125 140 72
126 141 60
118 133 64
131 145 88
129 144 68
127 143 79
130 146 75
131 145 88
120 134 75
122 136 79
124 139 68
130 146 85
118 133 68
124 140 64
135 150 104
128 143 79
126 141 79
147 166 0
149 168 0
150 170 0
150 170 0
151 171 0
148 167 0
154 174 0
151 169 0
151 170 0
152 171 0
148 167 0
146 166 0
150 169 0
148 167 0
146 166 0
150 170 0
148 168 0
149 168 0
149 167 0
147 167 0
150 168 0
145 164 0
146 165 0
146 165 0
146 165 0
148 168 0
146 165 0
148 167 0
148 167 0
145 164 0
142 161 0
150 169 0
147 165 0
144 162 0
148 166 0
143 161 0
145 163 0
141 160 0
143 162 0
141 158 0
139 158 0
141 160 0
144 163 0
143 161 0
143 160 0
141 159 0
147 166 0
142 160 0
139 158 0
139 156 0
141 159 0
138 156 0
141 158 0
140 158 0
138 156 0
139 158 0
138 155 0
142 159 0
140 158 0
137 155 0
134 150 0
135 153 0
138 156 0
136 153 0
139 155 0
139 157 0
138 155 0
134 151 0
132 149 0
134 150 0
137 155 0
136 154 0
139 156 0
128 145 0
132 149 0
142 159 0
135 152 0
134 151 0
130 146 0
136 152 0
136 153 0
126 142 0
130 146 0
125 141 0
129 145 0
135 151 0
121 137 0
119 134 0
123 139 0
128 145 0
125 140 0
124 139 0
122 137 0
124 139 0
118 132 0
120 135 0
119 134 0
118 132 0
112 126 0
113 128 0
120 134 0
121 135 0
108 122 0
106 119 0
110 123 0
100 112 0
90 102 0
98 110 0
92 103 0
93 105 0
85 96 0
87 96 0
95 106 0
106 118 0
118 130 0
111 123 0
116 130 0
101 114 0
113 125 0
122 136 0
110 123 0
109 123 0
118 132 0
125 140 0
119 135 0
116 131 0
121 135 0
115 130 0
125 141 0
126 142 0
117 132 0
114 130 0
110 126 0
117 133 0
116 132 0
125 142 0
128 145 0
115 132 0
119 136 0
116 133 0
129 147 0
118 135 0
118 136 0
118 135 0
131 149 0
121 139 0
120 136 0
127 145 0
118 134 0
113 131 0
112 130 0
123 141 0
109 127 0
120 138 0
124 141 0
122 140 0
116 132 0
106 123 0
111 127 0
117 135 0
117 134 0
114 131 0
114 131 0
116 133 0
113 130 0
109 127 0
108 125 0
113 129 0
97 113 0
110 127 0
86 101 0
105 121 0
95 110 0
96 111 0
89 103 0
94 107 0
93 108 0
94 109 0
87 100 0
79 92 0
64 77 0
78 90 0
66 78 0
65 76 0
64 74 0
61 71 0
65 75 0
54 67 0
59 69 0
50 62 31
62 77 36
48 65 51
33 55 40
37 60 54
38 62 44
42 67 72
42 67 67
41 66 67
43 68 62
42 67 74
42 67 54
41 67 62
39 64 47
37 60 31
41 66 47
45 72 60
40 61 47
39 61 54
54 71 44
54 70 44
65 78 36
44 56 18
48 57 0
71 82 0
73 83 0
60 70 0
71 83 0
62 75 0
70 82 0
86 100 0
68 82 0
70 84 0
92 105 0
96 110 0
73 87 0
88 104 0
92 106 0
102 117 0
78 93 0
95 110 0
90 104 0
104 118 0
110 127 0
112 128 0
109 125 0
110 126 0
94 110 0
114 129 0
101 117 0
110 126 0
107 124 0
110 127 0
112 127 0
108 125 0
117 134 0
122 139 0
117 133 0
124 141 0
111 127 0
115 133 0
119 136 0
125 142 0
118 135 0
95 112 0
117 133 0
118 135 0
112 129 0
123 140 0
123 141 0
124 141 0
119 136 0
126 143 0
110 126 0
120 136 0
105 120 0
118 133 0
113 129 0
116 131 0
116 130 0
118 134 0
108 121 0
108 122 0
109 123 0
112 125 0
109 122 0
120 135 0
109 122 0
108 121 0
114 127 0
115 129 0
109 121 0
110 122 0
108 121 0
90 101 0
103 114 0
93 103 0
106 118 0
93 103 32
82 92 0
78 88 0
83 93 0
87 99 22
93 104 0
91 102 22
90 101 16
91 102 22
82 92 0
88 99 0
92 104 0
101 113 0
94 106 0
100 113 22
96 108 0
97 110 0
95 108 0
99 112 0
107 120 0
97 111 0
107 122 0
103 117 0
103 117 0
115 130 0
105 119 0
109 123 0
107 121 0
110 125 0
100 114 0
109 124 0
106 122 0
114 130 0
115 129 22
113 128 0
114 128 22
123 138 22
121 137 0
122 138 0
122 137 0
111 125 0
114 129 0
120 135 45
120 134 22
121 136 39
122 137 22
120 137 22
116 131 45
114 130 32
121 137 39
120 135 0
130 147 45
128 143 39
124 140 32
124 140 32
123 138 39
129 145 45
118 133 45
112 127 22
122 138 45
120 136 39
125 142 32
131 147 56
120 136 39
119 135 22
129 144 51
120 135 51
128 144 45
120 134 45
127 142 56
129 145 60
125 140 51
123 137 68
123 138 75
123 139 51
127 142 51
123 138 51
128 143 75
133 149 39
135 151 72
123 138 39
124 138 72
123 138 82
128 143 82
132 148 60
130 144 79
124 139 72
127 142 68
128 144 56
137 153 79
124 139 72
132 148 79
132 147 88
124 139 75
122 136 79
125 140 64
130 145 79
127 143 72
117 132 56
123 138 68
132 147 85
124 138 82
130 146 75
127 142 79
134 150 64
132 147 91
133 149 79
120 135 56
128 143 79
135 151 85
127 141 85
134 150 102
136 153 60
149 169 0
146 165 0
151 170 0
148 168 0
145 164 0
150 169 0
147 167 0
149 168 0
148 167 0
150 169 0
148 168 0
149 168 0
148 167 0
149 168 0
148 167 0
150 169 0
150 168 0
152 171 0
147 166 0
151 169 0
150 168 0
147 166 0
149 168 0
147 166 0
150 170 0
147 166 0
146 165 0
143 162 0
149 168 0
145 164 0
143 162 0
144 162 0
150 168 0
147 166 0
148 166 0
143 161 0
144 162 0
144 161 0
142 160 0
142 160 0
144 162 0
146 163 0
145 164 0
142 160 0
145 164 0
143 161 0
141 159 0
144 162 0
142 160 0
141 159 0
139 156 0
134 151 0
141 159 0
144 162 0
140 157 0
139 156 0
143 161 0
136 152 0
141 159 0
138 155 0
137 154 0
140 157 0
135 152 0
142 160 0
131 149 0
138 156 0
136 154 0
134 151 0
134 151 0
137 154 0
137 153 0
132 149 0
133 150 0
134 149 0
136 152 0
129 146 0
134 150 0
133 149 0
127 144 0
133 150 0
124 140 0
124 140 0
124 140 0
132 149 0
123 139 0
133 149 0
127 142 0
129 145 0
122 136 0
125 141 0
126 141 0
124 139 0
121 136 0
119 133 0
121 137 0
123 138 0
117 131 0
119 134 0
115 129 0
115 130 0
112 126 0
112 126 0
102 115 0
105 117 0
106 118 0
106 119 0
98 109 0
97 108 0
81 91 0
85 94 0
86 96 0
101 112 0
99 110 0
114 126 0
112 125 0
113 125 0
112 125 0
110 124 0
107 119 0
123 137 0
120 134 0
112 125 0
122 136 0
112 126 0
121 135 0
115 130 0
119 133 0
118 135 0
117 132 0
128 143 0
124 140 0
112 127 0
116 132 0
121 137 0
122 139 0
128 146 0
119 135 0
121 138 0
115 132 0
117 134 0
119 135 0
121 139 0
125 142 0
121 138 0
124 141 0
121 137 0
122 139 0
127 144 0
107 123 0
127 145 0
121 139 0
129 147 0
122 140 0
116 133 0
114 130 0
120 136 0
117 134 0
118 135 0
117 134 0
117 133 0
116 132 0
111 127 0
103 120 0
114 130 0
113 129 0
104 121 0
117 133 0
108 125 0
96 111 0
99 115 0
102 117 0
100 115 0
92 108 0
84 99 0
92 108 0
90 104 0
87 101 0
86 99 0
79 94 0
97 111 0
83 95 0
68 82 0
71 84 0
60 72 0
72 84 0
72 84 0
58 70 0
65 75 0
73 84 0
61 71 0
53 65 0
57 67 0
51 61 0
47 54 0
55 65 0
48 56 0
56 69 18
66 78 25
46 57 36
29 42 25
47 58 0
40 55 40
61 72 31
41 53 31
63 76 18
69 78 18
56 66 0
54 62 0
66 75 0
59 70 0
49 59 0
52 62 0
62 72 0
83 96 0
75 87 0
69 81 0
58 71 0
59 72 0
72 84 0
86 100 0
74 88 0
77 91 0
87 100 0
86 100 0
86 101 0
78 92 0
88 105 0
85 99 0
94 109 0
102 117 0
92 106 0
97 113 0
99 115 0
113 130 0
101 116 0
102 118 0
107 123 0
115 132 0
93 109 0
95 110 0
110 126 0
118 135 0
115 131 0
112 128 0
122 138 0
112 129 0
105 121 0
117 133 0
118 134 0
123 141 0
121 138 0
115 132 0
124 141 0
132 149 0
107 124 0
124 140 0
118 135 0
119 135 0
116 133 0
121 137 0
110 125 0
111 127 0
122 139 0
119 135 0
114 130 0
110 126 0
113 129 0
121 138 0
116 131 0
110 124 0
112 127 0
110 124 0
105 118 0
116 131 0
117 131 0
114 127 0
109 123 0
104 117 0
112 124 0
107 119 0
103 116 0
105 117 0
104 115 0
88 98 0
95 106 0
103 115 0
108 119 0
95 105 0
95 105 0
86 96 22
71 80 0
61 69 22
85 96 0
75 85 0
80 90 0
75 85 0
84 93 0
90 102 16
94 105 0
88 100 0
97 109 0
88 98 0
93 105 0
91 103 0
90 102 0
98 111 0
97 110 0
99 113 0
89 101 0
105 118 0
101 114 0
99 111 0
115 130 0
98 111 0
105 118 22
109 123 0
101 113 0
114 129 0
112 127 0
101 114 0
111 126 0
111 126 0
113 128 22
114 129 0
109 123 22
114 129 0
108 122 0
115 130 22
110 124 22
123 139 0
106 121 22
124 140 45
119 134 32
122 139 22
113 127 22
123 138 45
124 139 45
115 131 39
122 138 22
121 136 45
129 145 22
126 141 56
121 136 32
114 129 39
128 144 22
133 150 60
120 136 32
123 138 32
126 142 45
118 133 39
133 150 45
133 149 56
120 137 22
119 134 32
122 138 51
123 138 45
131 146 60
125 140 39
119 135 39
123 139 51
134 150 60
130 146 45
124 139 60
124 139 60
126 141 45
130 146 64
123 138 60
119 134 32
124 138 72
122 138 51
127 143 56
131 147 68
128 143 75
116 131 39
132 147 68
132 147 82
127 144 56
124 138 64
120 134 75
127 142 72
131 146 72
132 147 64
132 147 82
127 142 79
134 150 72
124 139 79
122 135 72
124 140 68
115 130 51
127 143 64
123 138 72
129 144 94
123 137 91
125 139 79
121 135 75
132 147 82
125 140 85
122 136 79
119 134 56
118 132 72
143 160 0
142 160 0
143 161 0
140 158 0
146 165 0
142 160 0
146 164 0
152 171 0
149 169 0
150 169 0
151 170 0
149 168 0
150 170 0
146 165 0
150 169 0
146 165 0
149 168 0
149 168 0
146 165 0
151 170 0
146 164 0
147 166 0
148 166 0
148 166 0
149 167 0
146 165 0
142 160 0
146 165 0
143 162 0
145 164 0
145 164 0
143 161 0
146 163 0
145 163 0
145 163 0
143 162 0
143 160 0
142 160 0
145 163 0
142 159 0
145 163 0
141 159 0
133 150 0
144 162 0
143 160 0
141 159 0
138 155 0
143 162 0
141 158 0
133 150 0
143 161 0
142 160 0
138 156 0
140 158 0
138 154 0
138 155 0
134 151 0
132 149 0
136 154 0
140 157 0
136 153 0
138 155 0
143 161 0
136 153 0
131 148 0
135 151 0
136 152 0
133 149 0
131 147 0
134 151 0
132 149 0
129 146 0
131 147 0
131 147 0
128 144 0
128 144 0
128 144 0
127 143 0
131 147 0
127 143 0
126 141 0
122 137 0
123 138 0
123 138 0
124 140 0
122 137 0
128 143 0
128 144 0
126 141 0
117 131 0
119 132 0
126 141 0
120 136 0
117 132 0
115 129 0
113 127 0
112 125 0
115 129 0
110 122 0
121 133 0
110 123 0
114 127 0
106 118 0
103 115 0
91 101 0
83 93 0
87 97 0
80 90 0
91 101 0
92 103 0
107 119 0
103 115 0
111 123 0
109 122 0
104 116 0
116 128 0
108 121 0
104 118 0
108 121 0
107 120 0
112 126 0
111 125 0
114 128 0
121 137 0
120 135 0
131 147 0
128 144 0
117 131 0
119 135 0
130 146 0
120 136 0
120 136 0
114 129 0
118 134 0
111 127 0
112 128 0
117 134 0
126 143 0
119 136 0
114 130 0
121 138 0
125 143 0
119 138 0
126 143 0
127 145 0
116 133 0
120 138 0
109 125 0
120 137 0
119 137 0
113 130 0
126 143 0
121 137 0
113 130 0
117 134 0
121 139 0
133 149 0
120 139 0
113 129 0
116 134 0
119 137 0
111 127 0
115 132 0
111 128 0
121 138 0
107 123 0
105 121 0
119 137 0
94 110 0
104 120 0
114 130 0
95 111 0
98 114 0
99 114 0
87 101 0
93 108 0
86 100 0
98 114 0
84 99 0
87 100 0
101 115 0
74 88 0
79 92 0
74 86 0
84 97 0
74 86 0
79 91 0
76 87 0
69 79 0
74 85 0
75 88 0
60 71 0
74 86 0
41 49 0
70 81 0
52 62 0
55 64 0
58 69 0
65 75 0
57 67 0
59 68 0
64 75 0
70 79 0
54 63 0
82 94 0
60 70 0
66 76 0
63 75 0
66 76 0
50 62 0
61 72 0
79 90 0
67 79 0
77 89 0
59 72 0
78 91 0
77 90 0
86 99 0
85 98 0
86 99 0
83 98 0
86 99 0
97 113 0
86 100 0
96 110 0
99 114 0
92 107 0
82 97 0
93 109 0
104 120 0
108 125 0
102 118 0
97 112 0
108 124 0
105 120 0
90 106 0
97 114 0
106 121 0
115 132 0
101 116 0
109 126 0
109 125 0
115 133 0
106 122 0
122 140 0
109 125 0
116 134 0
120 137 0
114 131 0
116 133 0
120 136 0
119 136 0
123 141 0
116 133 0
115 132 0
124 141 0
115 131 0
105 120 0
112 128 0
106 122 0
109 125 0
116 132 0
117 133 0
114 131 0
116 130 0
109 123 0
108 123 0
121 136 0
112 126 0
113 127 0
120 134 0
109 124 0
111 125 0
96 109 0
103 117 0
120 135 0
114 127 0
109 121 0
112 127 0
108 120 0
104 117 0
102 114 0
110 122 0
104 116 0
103 116 0
99 110 0
92 103 0
106 117 0
108 120 0
99 108 0
90 100 0
91 101 0
76 85 0
79 89 0
76 84 0
81 91 22
89 100 16
93 103 0
87 98 22
89 100 0
84 93 0
94 106 0
93 104 0
93 106 0
93 105 0
101 114 0
84 94 0
106 119 0
105 119 0
100 113 0
100 113 0
104 118 0
91 103 0
105 118 0
93 106 0
103 118 0
114 130 0
107 121 0
113 129 0
111 126 0
105 118 0
103 117 0
112 126 22
119 135 0
113 128 32
113 126 0
122 138 0
120 136 22
118 134 22
116 131 39
115 129 22
112 126 22
114 129 22
119 135 22
119 134 32
122 137 0
121 136 32
115 130 22
120 134 0
121 136 51
128 144 32
119 134 39
115 129 32
124 139 32
118 133 22
116 131 22
117 132 39
120 134 32
122 138 39
121 136 60
118 133 39
117 132 22
123 138 32
125 141 56
120 134 45
116 129 45
120 135 32
126 141 60
119 134 0
118 132 64
128 142 64
114 128 39
130 146 51
127 142 64
122 138 45
108 122 32
117 132 32
131 147 56
130 145 72
126 142 60
134 148 82
137 153 45
122 137 51
122 137 60
132 146 91
126 141 68
124 139 56
124 140 56
128 144 60
126 140 56
128 142 79
117 132 56
122 138 45
127 141 75
116 131 72
124 138 85
132 147 75
124 140 64
128 143 82
126 141 60
140 156 79
136 152 88
124 139 79
117 130 82
129 144 75
115 128 72
120 135 68
130 145 85
117 131 75
114 128 64
134 151 0
141 159 0
135 153 0
137 154 0
140 159 0
140 159 0
146 164 0
143 162 0
149 167 0
144 163 0
149 168 0
149 168 0
146 165 0
149 168 0
146 164 0
149 167 0
149 168 0
147 165 0
144 163 0
147 167 0
147 165 0
149 168 0
148 166 0
149 168 0
149 167 0
148 166 0
145 163 0
147 166 0
148 166 0
147 165 0
144 162 0
143 160 0
144 161 0
146 164 0
146 165 0
141 158 0
144 162 0
142 159 0
141 158 0
143 161 0
140 158 0
143 161 0
144 162 0
142 159 0
145 164 0
141 159 0
139 156 0
142 159 0
143 161 0
140 157 0
137 154 0
139 157 0
141 159 0
141 158 0
137 153 0
139 155 0
136 153 0
135 152 0
138 155 0
140 157 0
134 151 0
136 153 0
137 154 0
135 151 0
133 149 0
135 152 0
134 150 0
132 148 0
138 154 0
130 146 0
131 147 0
128 144 0
128 144 0
131 147 0
122 138 0
128 144 0
136 152 0
130 145 0
124 140 0
132 147 0
129 145 0
127 143 0
125 140 0
127 142 0
126 141 0
119 134 0
117 131 0
124 138 0
121 136 0
119 134 0
125 139 0
115 129 0
111 124 0
115 130 0
113 127 0
108 121 0
120 134 0
114 127 0
106 119 0
107 120 0
103 115 0
98 110 0
98 110 0
86 96 0
71 79 0
81 90 0
86 95 0
91 101 0
104 115 0
104 115 0
102 113 0
111 123 0
104 117 0
106 118 0
114 127 0
106 118 0
106 120 0
108 123 0
106 119 0
105 118 0
112 125 0
114 129 0
113 127 0
118 133 0
121 136 0
113 128 0
118 132 0
114 130 0
122 137 0
129 146 0
120 136 0
127 143 0
123 139 0
119 135 0
118 135 0
125 143 0
127 144 0
109 125 0
131 148 0
125 142 0
119 134 0
124 141 0
124 141 0
122 138 0
123 140 0
111 128 0
125 142 0
111 127 0
129 147 0
126 144 0
119 137 0
116 135 0
124 142 0
106 122 0
110 127 0
128 146 0
103 119 0
114 132 0
120 139 0
104 121 0
114 130 0
101 118 0
115 132 0
113 130 0
113 130 0
107 123 0
104 121 0
111 127 0
107 122 0
107 123 0
97 113 0
99 115 0
102 117 0
98 115 0
98 113 0
88 102 0
89 104 0
92 106 0
88 101 0
86 100 0
86 101 0
82 95 0
81 94 0
81 95 0
75 88 0
76 90 0
81 94 0
79 92 0
76 89 0
82 94 0
76 88 0
79 91 0
58 69 0
54 67 0
68 79 0
74 86 0
58 69 0
71 83 0
72 83 0
69 78 0
67 78 0
64 73 0
64 75 0
61 71 0
60 69 0
66 76 0
67 79 0
65 75 0
66 78 0
72 85 0
75 87 0
74 85 0
83 96 0
70 83 0
68 81 0
69 81 0
84 99 0
93 108 0
83 98 0
91 105 0
90 103 0
89 105 0
90 105 0
87 102 0
101 116 0
95 109 0
95 111 0
88 104 0
101 115 0
108 123 0
105 120 0
121 138 0
102 118 0
101 117 0
109 125 0
102 118 0
116 133 0
108 125 0
110 128 0
112 128 0
116 134 0
108 125 0
106 122 0
106 122 0
97 113 0
106 122 0
111 127 0
109 125 0
115 132 0
113 128 0
122 139 0
123 140 0
120 138 0
109 125 0
120 138 0
115 132 0
119 135 0
121 138 0
122 138 0
124 142 0
108 123 0
118 135 0
125 141 0
121 138 0
103 118 0
115 131 0
117 134 0
115 131 0
109 124 0
102 117 0
114 128 0
116 131 0
110 124 0
107 121 0
107 122 0
111 124 0
116 131 0
113 127 0
104 117 0
108 121 0
106 120 0
104 116 0
110 122 0
110 122 0
96 109 0
104 115 0
106 117 0
101 113 0
99 110 0
94 104 0
100 110 0
86 95 0
76 85 0
89 99 0
80 89 0
73 81 0
80 90 0
84 94 22
92 103 0
93 103 22
92 103 0
90 101 0
90 101 0
96 108 0
98 110 0
97 109 0
90 102 0
99 112 0
94 106 0
86 97 0
93 105 0
102 114 0
100 113 0
106 119 0
96 108 0
109 122 0
108 121 0
97 109 0
109 123 0
107 121 0
108 122 0
113 127 22
106 120 0
97 109 0
120 135 0
114 128 0
116 131 0
118 132 0
114 128 0
118 134 22
118 134 22
111 125 0
114 129 0
122 137 39
117 131 39
117 132 32
120 134 22
113 127 32
114 129 0
118 133 39
128 143 32
108 122 45
115 130 32
116 132 32
136 152 51
117 133 32
123 138 39
123 138 39
117 132 45
123 138 45
117 131 51
131 148 60
116 130 32
122 137 45
109 120 56
131 147 22
125 141 56
121 136 56
113 127 56
121 136 60
124 139 51
129 145 51
134 150 68
132 148 56
121 137 56
117 131 60
119 133 51
131 148 56
120 135 60
123 137 45
122 137 64
124 139 64
111 124 68
126 141 56
130 145 79
126 142 68
127 141 85
124 138 68
134 149 64
129 145 60
132 147 85
108 121 51
118 132 64
122 137 75
116 130 51
129 143 85
127 142 75
126 141 72
123 138 60
126 140 82
123 138 56
118 132 75
123 135 82
120 133 68
126 140 88
107 119 45
119 134 79
125 139 79
118 131 72
123 137 72
133 150 0
121 137 0
134 152 0
130 147 0
137 155 0
140 157 0
141 158 0
136 153 0
141 160 0
145 163 0
147 166 0
144 163 0
144 164 0
146 165 0
144 162 0
147 166 0
150 169 0
145 164 0
146 165 0
146 165 0
147 165 0
145 164 0
146 163 0
147 165 0
146 164 0
146 163 0
145 162 0
145 163 0
144 163 0
145 163 0
140 157 0
145 163 0
144 162 0
146 164 0
142 160 0
147 165 0
144 162 0
143 160 0
144 161 0
148 167 0
141 158 0
144 163 0
141 159 0
144 162 0
136 154 0
143 160 0
141 159 0
141 159 0
141 159 0
142 160 0
140 157 0
138 155 0
143 160 0
135 152 0
143 160 0
139 157 0
137 154 0
141 158 0
137 154 0
139 156 0
138 155 0
138 154 0
137 153 0
137 153 0
129 145 0
134 150 0
130 146 0
131 147 0
138 154 0
134 151 0
137 153 0
128 144 0
130 146 0
125 141 0
132 148 0
122 137 0
134 150 0
130 146 0
125 140 0
124 139 0
124 140 0
124 140 0
122 137 0
117 132 0
118 132 0
120 134 0
121 136 0
120 134 0
130 145 0
119 133 0
122 136 0
115 129 0
119 132 0
103 116 0
110 124 0
114 127 0
112 123 0
106 119 0
91 102 0
95 106 0
95 105 0
86 96 0
85 94 0
78 87 0
88 97 0
96 107 0
90 100 0
103 114 0
107 118 0
108 119 0
105 117 0
114 126 0
104 116 0
98 110 0
117 130 0
122 135 0
106 120 0
103 117 0
123 137 0
113 126 0
115 129 0
115 129 0
114 128 0
124 139 0
114 129 0
123 139 0
113 130 0
123 139 0
111 126 0
117 132 0
123 139 0
126 142 0
122 138 0
124 139 0
133 151 0
118 134 0
131 149 0
120 137 0
117 134 0
124 141 0
115 132 0
124 141 0
118 135 0
121 138 0
122 140 0
124 142 0
120 138 0
127 145 0
123 140 0
128 146 0
119 137 0
127 144 0
122 140 0
117 134 0
125 142 0
121 138 0
120 138 0
120 137 0
118 135 0
114 132 0
111 128 0
108 125 0
121 139 0
107 124 0
111 128 0
111 128 0
108 124 0
98 115 0
95 111 0
121 138 0
103 119 0
98 114 0
98 113 0
101 117 0
101 116 0
94 109 0
98 114 0
98 113 0
102 117 0
79 93 0
88 104 0
79 92 0
81 95 0
84 98 0
84 98 0
89 102 0
74 88 0
72 85 0
78 92 0
69 82 0
65 78 0
71 85 0
67 79 0
56 68 0
68 81 0
74 88 0
64 77 0
71 83 0
62 74 0
71 84 0
61 74 0
71 83 0
64 75 0
82 94 0
62 73 0
68 80 0
82 96 0
65 78 0
73 85 0
71 84 0
65 80 0
73 87 0
75 87 0
77 89 0
64 78 0
86 99 0
88 103 0
86 100 0
80 93 0
91 106 0
99 114 0
84 98 0
99 115 0
85 101 0
100 116 0
88 103 0
85 100 0
90 104 0
101 118 0
98 112 0
96 112 0
100 116 0
104 120 0
117 133 0
102 119 0
117 135 0
116 133 0
114 131 0
96 112 0
113 131 0
106 121 0
99 116 0
99 116 0
119 136 0
122 139 0
120 139 0
113 129 0
115 132 0
111 127 0
115 131 0
120 137 0
120 138 0
120 136 0
118 135 0
114 130 0
111 128 0
115 132 0
127 144 0
118 136 0
117 132 0
117 134 0
105 120 0
119 135 0
118 134 0
119 134 0
115 131 0
120 136 0
119 134 0
126 141 0
117 132 0
103 118 0
111 126 0
118 133 0
119 135 0
103 116 0
107 121 0
124 139 0
106 121 0
113 128 0
105 119 0
114 127 0
107 120 0
96 108 0
112 124 0
121 134 0
97 109 0
105 117 0
89 100 0
96 107 0
96 107 0
90 100 0
82 91 0
98 109 0
91 101 0
92 101 0
75 84 0
82 91 0
78 86 0
70 79 0
87 98 22
73 81 0
77 85 0
92 103 0
89 99 0
93 103 0
86 97 0
95 107 0
100 112 0
87 99 0
97 109 0
94 105 0
105 118 0
100 113 0
98 111 0
107 119 0
113 127 0
104 118 0
106 119 0
103 116 0
97 109 0
101 112 0
99 112 0
113 128 0
102 116 0
107 120 0
104 119 0
110 123 22
117 131 22
107 120 0
113 127 0
117 130 22
115 131 22
112 127 0
109 122 22
113 127 22
108 121 22
104 118 0
118 134 0
116 130 22
119 134 0
115 129 22
122 137 39
121 135 56
117 133 39
118 133 32
120 136 22
120 136 32
121 136 39
115 129 45
120 134 39
112 126 22
120 135 45
121 136 45
117 132 39
122 136 51
110 124 32
113 127 0
124 139 56
117 131 39
114 128 32
119 133 56
119 133 39
120 134 45
116 131 56
127 141 60
129 144 56
121 135 45
119 134 22
119 134 56
111 125 22
120 135 60
118 133 51
118 132 56
121 136 51
124 139 60
130 146 56
130 145 64
125 139 64
124 139 56
119 134 51
123 137 82
116 130 60
125 140 68
113 126 60
131 146 91
127 142 79
112 125 64
125 138 72
115 128 64
124 139 72
123 137 79
118 132 82
129 144 60
114 127 60
127 141 97
125 139 88
118 133 72
120 133 64
108 120 64
111 124 82
131 147 0
111 125 0
131 149 0
126 142 0
128 145 0
132 149 0
136 152 0
132 149 0
137 155 0
141 158 0
141 159 0
142 160 0
140 158 0
143 162 0
143 162 0
146 165 0
142 160 0
146 165 0
144 161 0
146 163 0
147 165 0
145 164 0
144 162 0
146 163 0
147 165 0
144 162 0
147 165 0
149 166 0
140 158 0
144 161 0
147 165 0
141 159 0
140 157 0
145 162 0
143 161 0
148 164 0
144 162 0
142 159 0
144 161 0
144 162 0
143 159 0
142 160 0
142 160 0
143 160 0
140 157 0
144 161 0
139 157 0
140 157 0
141 158 0
142 158 0
138 156 0
136 153 0
136 153 0
136 152 0
136 152 0
136 152 0
136 153 0
136 153 0
134 150 0
135 152 0
137 153 0
135 152 0
130 146 0
132 148 0
133 149 0
131 148 0
132 148 0
133 149 0
135 150 0
128 143 0
131 146 0
134 150 0
125 141 0
128 144 0
128 143 0
131 146 0
122 137 0
123 137 0
127 142 0
122 137 0
120 135 0
124 139 0
125 139 0
121 136 0
122 137 0
127 141 0
132 146 0
121 135 0
117 130 0
114 127 0
115 127 0
100 112 0
112 124 0
103 115 0
105 118 0
104 115 0
104 115 0
102 114 0
79 89 0
92 102 0
76 84 0
86 95 0
80 89 0
92 102 0
92 102 0
100 110 0
97 108 0
97 108 0
113 124 0
106 118 0
99 111 0
114 127 0
106 118 0
114 127 0
109 123 0
123 136 0
115 128 0
120 134 0
122 136 0
121 135 0
110 124 0
120 136 0
119 134 0
127 142 0
126 141 0
116 131 0
122 138 0
127 143 0
125 141 0
123 140 0
123 138 0
114 130 0
114 130 0
122 139 0
121 138 0
123 140 0
126 143 0
111 128 0
122 140 0
127 145 0
122 138 0
124 141 0
128 145 0
130 148 0
126 143 0
114 133 0
119 137 0
117 134 0
124 141 0
126 144 0
126 145 0
124 142 0
130 148 0
112 130 0
124 142 0
127 144 0
117 135 0
121 139 0
117 134 0
111 128 0
120 138 0
120 137 0
124 141 0
109 126 0
106 123 0
110 127 0
125 142 0
101 118 0
100 117 0
94 110 0
99 115 0
109 125 0
99 116 0
109 127 0
117 134 0
108 124 0
101 117 0
101 117 0
90 104 0
87 101 0
82 97 0
96 110 0
94 110 0
78 93 0
95 108 0
85 99 0
92 106 0
84 98 0
92 105 0
96 111 0
74 88 0
91 105 0
63 77 0
83 96 0
65 79 0
76 89 0
59 73 0
74 88 0
88 101 0
69 83 0
76 90 0
73 86 0
82 94 0
86 100 0
64 77 0
67 81 0
78 92 0
96 110 0
87 101 0
78 93 0
86 100 0
79 93 0
86 101 0
81 96 0
94 109 0
81 96 0
74 87 0
88 102 0
89 103 0
83 97 0
87 103 0
79 95 0
88 103 0
98 113 0
115 131 0
92 108 0
110 126 0
96 113 0
96 112 0
91 106 0
88 105 0
113 130 0
94 110 0
105 122 0
111 127 0
111 127 0
108 124 0
107 123 0
111 127 0
114 131 0
115 134 0
111 128 0
105 122 0
125 142 0
118 135 0
120 137 0
113 130 0
117 134 0
122 140 0
112 129 0
120 138 0
112 129 0
130 148 0
114 131 0
125 142 0
116 133 0
123 140 0
114 131 0
110 126 0
112 129 0
131 149 0
117 135 0
123 139 0
120 137 0
112 128 0
112 128 0
117 132 0
116 131 0
112 127 0
114 130 0
123 138 0
105 121 0
120 136 0
115 129 0
117 132 0
123 138 0
108 122 0
117 131 0
117 131 0
112 125 0
108 120 0
109 121 0
112 125 0
93 105 0
96 108 0
108 120 0
108 121 0
99 110 0
100 109 0
90 101 0
101 113 0
107 118 0
93 102 0
95 105 0
83 92 0
92 101 0
84 93 0
86 95 0
78 87 32
83 93 0
76 85 0
66 74 0
85 94 22
91 102 0
83 93 0
88 98 0
90 101 0
92 103 0
93 106 0
81 92 0
97 109 0
110 123 0
101 113 0
98 111 0
90 102 0
102 115 0
106 118 0
109 123 0
112 125 0
105 118 0
100 112 0
104 117 0
102 115 0
106 118 0
111 126 22
111 125 22
103 116 0
114 128 0
112 126 0
117 132 0
118 132 0
105 119 0
115 130 0
115 129 22
111 125 22
123 138 0
108 122 32
105 119 0
121 137 22
116 131 22
124 139 45
114 128 22
115 129 32
122 138 22
113 127 22
113 128 0
113 127 22
120 135 39
120 134 39
114 129 22
124 139 45
104 118 0
118 134 51
128 144 45
115 130 51
120 135 32
124 140 51
132 148 39
123 138 45
126 141 45
129 145 56
124 139 45
118 133 45
118 132 56
122 137 51
122 137 64
118 132 45
128 144 45
123 137 64
114 128 45
126 141 32
124 139 45
115 129 56
120 133 68
121 136 56
116 130 68
114 129 51
125 140 75
121 135 60
124 140 45
118 131 60
123 137 79
123 138 64
123 138 64
123 137 79
119 133 45
113 127 60
123 136 82
115 128 68
111 123 56
109 123 56
118 131 64
112 126 64
117 130 68
109 122 75
110 123 64
115 128 75
108 120 56
108 121 51
133 150 64
170 193 0
164 186 0
139 158 0
131 147 32
127 143 0
137 154 0
125 141 0
129 145 0
128 144 0
135 153 0
128 144 0
135 151 0
144 162 0
140 158 0
138 156 0
141 159 0
145 163 0
144 161 0
144 161 0
145 163 0
148 166 0
144 161 0
143 161 0
144 162 0
145 164 0
138 156 0
148 166 0
141 158 0
148 165 0
146 164 0
140 158 0
145 162 0
142 160 0
151 168 0
141 159 0
142 159 0
143 161 0
142 160 0
142 159 0
140 157 0
142 159 0
143 160 0
141 158 0
139 156 0
139 157 0
145 162 0
141 158 0
139 156 0
143 160 0
134 150 0
140 157 0
135 152 0
139 156 0
136 152 0
135 152 0
135 151 0
136 152 0
139 155 0
129 145 0
135 152 0
138 153 0
132 148 0
137 153 0
131 148 0
139 155 0
131 146 0
127 143 0
127 142 0
127 142 0
124 139 0
132 148 0
124 139 0
126 141 0
126 141 0
125 139 0
120 135 0
134 149 0
127 142 0
117 131 0
123 137 0
129 143 0
120 135 0
115 128 0
117 131 0
120 133 0
122 135 0
121 135 0
111 124 0
102 115 0
111 124 0
112 124 0
113 125 0
106 117 0
94 105 0
90 100 0
96 107 0
91 101 0
83 92 0
86 94 0
92 101 0
92 101 0
95 105 0
89 98 0
82 91 0
95 106 0
100 111 0
108 120 0
107 119 0
104 116 0
108 120 0
111 125 0
106 119 0
106 119 0
110 123 0
104 118 0
120 135 0
120 135 0
123 138 0
114 130 0
117 132 0
123 139 0
115 130 0
127 143 0
116 131 0
120 136 0
117 133 0
123 139 0
124 141 0
123 140 0
115 131 0
118 134 0
114 130 0
129 146 0
135 153 0
121 138 0
119 135 0
125 143 0
129 146 0
123 141 0
121 140 0
131 148 0
115 132 0
119 136 0
110 126 0
130 147 0
114 132 0
128 147 0
119 137 0
118 136 0
122 140 0
117 136 0
116 134 0
121 138 0
115 134 0
116 133 0
103 120 0
125 143 0
126 142 0
124 142 0
114 132 0
111 129 0
121 140 0
110 126 0
107 125 0
107 125 0
107 124 0
105 121 0
95 111 0
117 135 0
105 123 0
114 131 0
120 137 0
104 120 0
96 113 0
94 110 0
104 122 0
102 118 0
97 112 0
103 119 0
92 108 0
102 117 0
95 111 0
104 119 0
83 99 0
84 99 0
97 112 0
98 113 0
90 105 0
88 104 0
91 105 0
80 94 0
88 103 0
87 102 0
86 101 0
79 93 0
72 86 0
86 100 0
85 99 0
77 90 0
73 88 0
76 89 0
86 99 0
90 104 0
77 90 0
96 110 0
85 100 0
78 91 0
83 97 0
57 69 0
63 77 0
84 99 0
87 101 0
89 104 0
89 102 0
90 104 0
89 105 0
89 105 0
95 111 0
98 114 0
99 114 0
103 119 0
96 111 0
101 117 0
96 112 0
103 119 0
108 125 0
92 109 0
93 109 0
104 120 0
101 118 0
113 129 0
106 122 0
110 127 0
112 129 0
110 125 0
119 135 0
118 135 0
112 129 0
107 124 0
112 129 0
119 136 0
123 141 0
117 134 0
124 142 0
116 132 0
128 146 0
114 131 0
127 144 0
121 139 0
119 136 0
120 137 0
118 136 0
114 131 0
120 138 0
114 130 0
118 136 0
112 129 0
116 131 0
127 143 0
103 120 0
121 138 0
118 134 0
116 132 0
131 148 0
103 118 0
118 135 0
120 137 0
119 135 0
124 142 0
115 130 0
115 131 0
115 131 0
114 129 0
113 128 0
118 133 0
117 132 0
121 136 0
120 135 0
120 135 0
102 115 0
102 115 0
101 115 0
103 116 0
110 123 0
108 121 0
117 130 0
109 122 0
100 112 0
101 113 0
95 106 0
109 120 0
105 116 0
92 102 0
87 98 0
93 103 0
92 101 0
85 95 0
84 93 0
75 83 0
73 80 0
75 81 0
78 86 0
74 82 0
74 83 0
76 85 0
89 99 22
86 96 0
83 93 0
80 91 0
85 95 0
83 93 0
90 101 0
92 103 0
99 110 0
100 112 22
97 109 0
96 108 0
100 111 0
94 106 0
90 101 0
94 106 0
116 130 22
95 107 0
95 107 0
104 116 22
107 120 0
108 121 22
102 114 0
117 132 0
101 114 0
112 126 22
104 116 32
104 116 22
109 122 39
112 126 0
110 124 0
103 116 22
110 124 22
114 127 39
111 125 0
118 133 0
111 125 22
118 133 22
110 123 22
124 138 39
112 124 51
126 141 45
116 131 22
126 141 60
115 129 32
117 132 32
125 140 56
110 124 39
116 131 0
116 130 32
118 133 39
120 135 39
122 136 39
124 139 56
126 141 51
108 121 51
113 127 45
118 132 32
112 126 32
109 122 45
119 134 56
115 128 51
108 121 56
107 119 64
119 133 45
117 131 51
122 136 60
117 132 45
123 137 79
117 130 79
113 127 51
115 129 56
117 131 64
123 139 45
111 124 56
115 129 68
119 133 56
117 131 64
118 131 68
123 137 56
117 131 51
117 131 68
106 119 60
121 135 75
105 118 60
130 144 85
115 128 68
123 137 72
115 129 79
114 127 60
120 132 91
125 140 72
153 174 32
166 189 22
169 191 0
171 193 0
170 193 0
172 195 0
170 193 0
158 179 0
145 164 0
129 145 0
118 133 0
128 144 0
121 136 0
133 150 0
130 146 0
139 157 0
130 147 0
133 150 0
139 156 0
146 164 0
138 155 0
135 152 0
136 152 0
143 160 0
142 159 0
143 160 0
146 164 0
142 160 0
143 161 0
145 162 0
145 163 0
140 157 0
141 158 0
149 167 0
145 162 0
146 164 0
138 155 0
141 158 0
142 160 0
144 161 0
137 154 0
144 161 0
142 159 0
144 161 0
136 152 0
143 160 0
144 160 0
137 154 0
139 156 0
134 151 0
139 156 0
137 153 0
142 159 0
133 148 0
137 153 0
136 152 0
143 160 0
130 145 0
138 153 0
141 157 0
134 149 0
132 148 0
126 141 0
138 154 0
138 154 0
129 144 0
132 149 0
132 147 0
127 142 0
131 146 0
130 146 0
125 140 0
127 142 0
134 149 0
133 148 0
125 139 0
125 140 0
125 140 0
129 143 0
126 140 0
122 136 0
129 144 0
126 141 0
120 133 0
119 133 0
116 129 0
118 131 0
114 127 0
120 133 0
109 122 0
111 124 0
101 112 0
106 118 0
99 111 0
91 102 0
88 97 0
83 92 0
83 92 0
88 97 0
76 85 0
93 101 0
86 95 0
91 101 0
93 104 0
96 107 0
94 105 0
102 113 0
107 119 0
100 111 0
111 124 0
105 117 0
111 124 0
106 118 0
116 129 0
118 131 0
122 136 0
121 135 0
123 138 0
122 138 0
110 124 0
121 136 0
118 133 0
130 145 0
113 129 0
120 135 0
123 138 0
126 142 0
123 138 0
129 146 0
131 147 0
115 132 0
128 146 0
115 131 0
118 133 0
123 139 0
126 144 0
123 140 0
129 146 0
126 143 0
123 141 0
114 132 0
130 148 0
124 143 0
122 140 0
119 138 0
128 145 0
125 141 0
127 145 0
120 138 0
129 147 0
119 137 0
108 125 0
113 131 0
130 148 0
121 139 0
109 126 0
119 138 0
121 138 0
112 131 0
110 128 0
126 144 0
114 131 0
115 133 0
120 139 0
100 117 0
119 137 0
119 138 0
111 128 0
119 135 0
123 141 0
117 133 0
105 122 0
105 121 0
112 129 0
94 111 0
106 122 0
99 115 0
110 127 0
103 119 0
101 118 0
97 113 0
98 113 0
91 108 0
96 112 0
100 116 0
95 111 0
89 105 0
86 102 0
93 108 0
102 118 0
90 104 0
88 103 0
97 112 0
93 108 0
85 100 0
94 109 0
89 105 0
83 98 0
86 101 0
86 100 0
85 99 0
88 103 0
94 108 0
89 103 0
69 83 0
108 123 0
90 105 0
78 92 0
93 109 0
83 98 0
99 115 0
81 96 0
81 94 0
93 108 0
88 103 0
87 103 0
93 109 0
96 112 0
95 111 0
84 100 0
94 112 0
103 119 0
101 117 0
101 116 0
102 119 0
93 110 0
98 113 0
109 125 0
83 100 0
95 111 0
110 128 0
102 117 0
114 131 0
111 128 0
102 118 0
99 115 0
110 127 0
108 126 0
109 125 0
126 143 0
106 123 0
114 132 0
118 135 0
112 129 0
124 142 0
111 128 0
121 138 0
130 148 0
124 141 0
118 135 0
113 131 0
124 142 0
113 130 0
116 134 0
115 132 0
122 141 0
121 138 0
124 141 0
119 136 0
123 141 0
123 140 0
128 144 0
120 137 0
128 146 0
118 135 0
117 134 0
111 127 0
126 143 0
119 135 0
116 132 0
121 137 0
125 141 0
124 139 0
119 135 0
114 131 0
122 139 0
109 125 0
123 139 0
106 120 0
130 145 0
111 126 0
114 129 0
123 138 0
123 137 0
110 123 0
119 134 0
113 126 0
108 121 0
111 125 0
107 120 0
108 121 0
103 115 0
94 106 0
107 118 0
108 121 0
103 114 0
86 96 0
101 112 0
87 95 0
100 110 0
86 95 0
86 95 0
95 105 0
87 95 0
86 95 0
75 82 0
82 90 0
76 84 0
80 89 0
76 84 0
87 96 0
65 72 0
80 89 0
88 98 0
84 94 0
88 99 0
87 98 0
98 109 0
96 108 0
101 113 0
95 108 0
93 104 0
103 115 0
107 119 0
101 114 0
103 117 0
107 120 0
104 117 22
101 114 0
101 115 32
101 112 0
102 115 0
103 116 0
100 113 22
109 123 22
103 116 22
110 123 0
102 115 0
123 138 22
107 120 32
124 140 0
110 123 22
107 121 32
98 112 0
109 122 32
111 125 22
110 123 22
109 123 45
117 131 39
112 125 56
115 129 32
116 129 39
119 133 32
118 132 32
118 132 51
120 135 39
105 118 32
113 128 32
116 129 60
121 136 51
119 133 39
113 127 39
111 124 51
116 130 51
114 128 51
126 141 45
118 133 32
118 132 60
123 138 45
120 134 68
124 139 72
123 137 56
112 126 51
120 134 45
127 141 75
118 131 39
119 134 32
117 131 45
122 137 68
113 127 56
111 124 45
118 132 68
122 136 60
123 138 64
123 137 56
114 126 51
121 134 60
120 134 60
119 133 56
113 127 75
120 133 88
107 119 45
126 139 97
123 137 79
112 125 72
116 129 79
126 140 72
145 163 51
157 178 32
167 189 0
168 191 0
169 193 0
166 189 0
172 194 0
170 193 0
172 194 0
171 193 0
170 193 0
169 191 0
169 192 0
165 186 0
150 170 0
130 147 0
128 144 0
117 132 0
112 126 0
132 149 0
133 149 0
128 145 0
125 141 0
131 147 0
135 151 0
143 160 0
138 156 0
136 152 0
143 160 0
141 158 0
142 160 0
137 154 0
138 154 0
146 164 0
142 159 0
143 161 0
147 165 0
140 157 0
146 162 0
142 159 0
144 161 0
138 155 0
139 155 0
145 161 0
140 156 0
142 159 0
138 155 0
141 158 0
139 155 0
141 158 0
136 153 0
137 153 0
140 156 0
135 151 0
141 158 0
139 155 0
134 150 0
136 153 0
132 148 0
133 149 0
134 150 0
135 150 0
133 148 0
131 146 0
136 153 0
134 149 0
138 154 0
137 153 0
134 149 0
132 147 0
130 145 0
130 145 0
133 148 0
129 145 0
124 138 0
125 139 0
129 144 0
126 140 0
124 139 0
126 140 0
121 134 0
120 134 0
127 140 0
125 138 0
118 131 0
120 133 0
117 130 0
114 128 0
107 120 0
112 124 0
115 128 0
107 119 0
104 115 0
97 107 0
92 102 0
96 106 0
89 98 0
81 89 0
76 84 0
82 91 0
78 86 0
81 89 0
93 102 0
90 100 0
101 111 0
90 100 0
103 113 0
95 106 0
117 129 0
108 120 0
103 115 0
110 123 0
111 124 0
109 122 0
105 117 0
122 136 0
118 133 0
113 127 0
116 131 0
111 126 0
123 138 0
113 127 0
128 143 0
128 143 0
125 141 0
122 137 0
113 128 0
132 148 0
128 145 0
120 137 0
125 141 0
114 129 0
121 137 0
136 153 0
122 140 0
127 144 0
112 128 0
123 139 0
124 142 0
114 130 0
115 130 0
121 139 0
122 141 0
127 145 0
128 146 0
131 149 0
136 154 0
130 148 0
121 139 0
127 145 0
127 145 0
106 123 0
116 133 0
123 142 0
123 142 0
128 146 0
126 143 0
120 138 0
115 133 0
118 137 0
119 137 0
112 129 0
116 134 0
119 137 0
111 128 0
126 144 0
116 135 0
102 120 0
120 137 0
116 134 0
123 141 0
102 119 0
111 129 0
108 125 0
116 135 0
106 123 0
112 129 0
110 126 0
101 119 0
109 126 0
110 126 0
103 119 0
110 128 0
106 121 0
106 122 0
106 123 0
98 114 0
106 123 0
105 122 0
92 107 0
103 119 0
97 113 0
99 116 0
98 114 0
89 105 0
84 100 0
97 114 0
100 116 0
93 109 0
88 104 0
102 117 0
100 116 0
93 110 0
94 110 0
91 106 0
96 111 0
86 101 0
98 114 0
96 112 0
95 110 0
74 89 0
95 110 0
91 106 0
92 108 0
78 94 0
95 112 0
85 102 0
95 112 0
105 122 0
95 110 0
90 106 0
100 116 0
95 111 0
101 117 0
87 103 0
96 112 0
103 120 0
100 117 0
94 111 0
102 118 0
118 134 0
98 115 0
108 125 0
94 110 0
111 128 0
104 122 0
116 133 0
109 126 0
112 131 0
117 135 0
122 139 0
104 121 0
103 120 0
131 149 0
115 133 0
114 132 0
111 130 0
113 130 0
113 129 0
116 133 0
120 138 0
111 128 0
128 146 0
118 135 0
119 135 0
127 145 0
113 130 0
108 124 0
127 144 0
116 135 0
125 144 0
117 133 0
123 141 0
119 137 0
125 143 0
125 142 0
118 136 0
120 137 0
125 141 0
127 143 0
118 135 0
118 135 0
120 136 0
111 128 0
129 146 0
123 140 0
121 139 0
121 136 0
123 139 0
121 136 0
120 136 0
127 143 0
119 134 0
112 127 0
115 130 0
120 135 0
122 137 0
106 120 0
109 122 0
114 128 0
107 119 0
117 131 0
119 133 0
112 124 0
115 128 0
112 125 0
105 118 0
115 129 0
109 121 0
112 124 0
96 106 0
107 118 0
101 112 0
103 114 0
92 102 0
96 107 0
92 101 0
91 100 0
87 96 0
91 100 0
87 95 0
77 84 0
66 72 0
59 66 0
73 81 0
84 93 0
81 90 0
76 85 0
91 101 0
83 93 0
88 98 0
77 87 0
94 105 0
81 91 0
89 100 0
92 104 0
105 118 0
106 117 0
105 118 22
104 116 0
101 113 0
99 110 0
96 108 0
100 113 0
95 107 0
104 116 0
107 120 0
118 133 0
92 104 0
104 117 22
107 120 22
116 130 32
103 116 22
110 124 0
107 119 32
105 117 32
113 127 32
109 123 22
117 131 22
108 121 22
110 124 32
118 131 32
113 126 39
113 127 32
104 116 32
115 128 39
112 127 32
110 123 45
116 131 32
115 129 22
113 127 51
118 132 39
115 129 45
118 132 56
120 135 56
115 129 32
120 135 39
110 123 45
117 131 45
108 121 32
114 128 51
110 123 22
111 124 51
112 125 32
113 127 45
124 139 68
113 126 64
118 132 60
117 131 39
120 135 45
120 134 68
116 131 51
117 131 45
123 137 60
108 121 45
112 126 60
100 113 39
117 131 64
113 126 60
119 133 64
129 143 85
114 126 72
120 134 64
111 123 72
120 133 82
109 121 68
119 133 68
152 170 56
153 173 32
167 188 0
171 193 0
166 189 0
167 190 0
170 192 0
173 197 0
170 193 0
171 194 0
172 193 0
169 192 0
170 193 0
169 192 0
170 193 0
173 195 0
171 194 0
169 191 0
172 194 0
166 188 0
149 169 0
135 153 0
125 141 0
123 139 0
115 130 0
119 134 0
128 143 0
128 142 0
132 147 0
129 146 0
132 148 0
138 155 0
129 144 0
129 144 0
136 153 0
142 158 0
135 152 0
137 153 0
141 157 0
138 155 0
143 160 0
138 155 0
140 157 0
141 157 0
135 151 0
139 156 0
144 161 0
138 155 0
137 154 0
137 153 0
142 158 0
136 152 0
141 157 0
138 154 0
138 154 0
137 153 0
134 150 0
137 152 0
130 145 0
134 150 0
134 150 0
134 149 0
135 151 0
131 146 0
135 151 0
132 146 0
135 151 0
133 148 0
128 144 0
129 144 0
136 152 0
132 148 0
125 140 0
127 142 0
134 150 0
119 133 0
132 147 0
121 135 0
129 143 0
122 136 0
121 135 0
123 137 0
116 129 0
115 129 0
117 130 0
120 134 0
118 130 0
113 124 0
110 122 0
112 123 0
105 116 0
100 111 0
98 109 0
100 111 0
96 106 0
88 97 0
84 93 0
84 93 0
90 99 0
76 84 0
87 96 0
96 105 0
88 97 0
92 102 0
92 101 0
93 103 0
90 101 0
107 118 0
106 117 0
102 114 0
112 124 0
114 127 0
104 116 0
117 130 0
106 119 0
118 131 0
112 127 0
115 129 0
116 131 0
118 132 0
124 138 0
113 127 0
118 133 0
120 135 0
121 136 0
129 146 0
124 139 0
118 134 0
120 136 0
117 133 0
127 143 0
121 138 0
119 134 0
122 139 0
111 128 0
115 131 0
123 141 0
116 133 0
121 139 0
119 136 0
128 146 0
112 130 0
135 152 0
123 140 0
130 147 0
130 148 0
125 143 0
127 144 0
124 143 0
122 139 0
125 143 0
123 142 0
130 149 0
124 142 0
123 141 0
138 157 0
118 136 0
132 150 0
125 144 0
124 142 0
133 152 0
126 143 0
116 134 0
117 136 0
116 134 0
120 138 0
125 143 0
118 136 0
110 128 0
118 136 0
121 140 0
112 128 0
123 143 0
117 135 0
120 138 0
119 137 0
110 127 0
114 132 0
113 131 0
107 125 0
114 132 0
107 123 0
97 115 0
107 126 0
103 121 0
107 124 0
116 133 0
102 119 0
96 112 0
104 122 0
115 133 0
105 122 0
92 109 0
100 118 0
100 116 0
100 117 0
92 109 0
96 112 0
99 114 0
100 114 0
100 116 0
88 105 0
94 110 0
104 120 0
93 109 0
97 114 0
108 124 0
93 108 0
97 113 0
95 111 0
95 111 0
95 112 0
103 120 0
106 121 0
97 113 0
91 106 0
101 117 0
87 103 0
98 113 0
83 100 0
95 111 0
98 114 0
95 111 0
107 124 0
110 128 0
104 120 0
111 129 0
101 117 0
89 106 0
102 117 0
90 106 0
102 119 0
103 121 0
108 126 0
107 123 0
109 126 0
111 128 0
103 120 0
116 134 0
115 132 0
113 130 0
103 119 0
114 133 0
111 128 0
103 121 0
120 138 0
118 137 0
112 130 0
113 131 0
124 143 0
117 135 0
122 140 0
118 136 0
116 133 0
125 144 0
122 140 0
126 144 0
129 148 0
121 139 0
110 126 0
121 139 0
121 139 0
122 140 0
118 136 0
133 151 0
130 148 0
109 127 0
125 143 0
127 144 0
127 145 0
116 134 0
115 131 0
123 141 0
115 132 0
120 136 0
128 146 0
110 127 0
128 145 0
123 139 0
114 130 0
127 143 0
125 142 0
120 137 0
124 139 0
119 136 0
114 129 0
108 122 0
121 137 0
110 125 0
124 140 0
119 134 0
121 136 0
119 134 0
122 136 0
113 127 0
109 123 0
111 124 0
123 136 0
112 125 0
106 119 0
113 126 0
115 127 0
98 110 0
114 127 0
113 127 0
103 114 0
111 123 0
88 97 0
100 111 0
94 105 0
93 103 0
96 107 0
85 94 0
96 105 0
81 88 0
86 95 0
73 81 0
91 99 0
88 96 0
70 77 0
73 80 0
77 85 0
80 89 0
80 89 0
80 90 0
92 101 0
97 108 0
91 102 0
89 100 0
90 101 0
89 99 22
96 107 0
92 103 0
96 107 0
93 104 0
91 102 0
87 98 0
95 106 22
111 125 22
105 118 0
91 101 0
94 106 22
107 119 0
106 119 0
94 106 32
107 120 32
106 119 39
106 120 22
107 120 39
109 122 32
121 136 0
99 111 22
108 121 0
122 136 45
101 114 22
105 118 22
99 112 39
111 125 22
121 135 22
111 125 0
106 119 22
119 133 39
110 123 32
114 127 32
109 122 45
104 116 32
113 126 45
109 122 32
118 133 51
116 130 56
117 130 45
116 130 64
114 126 56
116 129 60
115 129 45
117 130 45
112 125 56
118 131 56
111 124 45
117 130 56
117 131 64
116 128 56
122 136 60
110 123 45
114 127 68
118 132 51
114 127 56
122 137 68
113 125 72
116 129 60
108 119 45
111 124 75
124 138 72
121 134 60
110 123 64
109 123 56
131 147 45
149 167 22
159 179 22
168 190 0
169 191 0
167 189 0
169 192 0
166 187 0
168 191 0
166 188 0
169 191 0
168 190 0
162 184 0
167 189 0
168 191 0
171 194 0
170 192 0
169 191 0
170 192 0
166 188 0
170 191 0
172 193 0
170 192 0
170 192 0
170 191 0
171 193 0
172 193 0
158 179 0
143 161 0
134 150 0
123 139 0
123 138 0
121 135 0
123 139 0
123 138 0
122 137 0
129 146 0
135 151 0
131 147 0
127 142 0
135 150 0
126 141 0
138 154 0
138 154 0
137 153 0
131 147 0
133 149 0
133 148 0
135 152 0
132 147 0
140 156 0
135 151 0
134 149 0
139 155 0
134 149 0
139 155 0
133 149 0
141 156 0
134 150 0
135 151 0
133 148 0
136 152 0
135 150 0
130 145 0
134 150 0
136 151 0
137 152 0
134 150 0
131 146 0
133 148 0
131 146 0
126 141 0
123 138 0
133 148 0
129 143 0
125 138 0
130 145 0
129 143 0
130 145 0
120 133 0
130 144 0
117 130 0
116 130 0
122 136 0
116 128 0
115 128 0
112 125 0
123 136 0
107 118 0
113 124 0
97 108 0
99 110 0
105 116 0
91 101 0
96 107 0
94 104 0
88 97 0
87 96 0
84 91 0
88 96 0
89 98 0
93 101 0
84 93 0
99 109 0
96 105 0
102 113 0
96 106 0
103 113 0
109 120 0
106 117 0
111 122 0
104 115 0
114 127 0
105 117 0
109 122 0
119 132 0
115 129 0
122 135 0
115 128 0
115 129 0
122 136 0
119 134 0
111 124 0
117 132 0
119 133 0
115 130 0
119 134 0
132 148 0
128 144 0
114 129 0
126 142 0
124 139 0
119 134 0
125 142 0
120 136 0
126 143 0
119 135 0
122 138 0
124 141 0
131 148 0
134 151 0
128 144 0
129 146 0
129 146 0
123 141 0
121 138 0
124 141 0
131 149 0
131 150 0
139 157 0
121 139 0
133 151 0
117 135 0
139 159 0
125 144 0
129 147 0
125 142 0
129 146 0
125 144 0
123 141 0
124 142 0
126 144 0
132 150 0
122 141 0
118 137 0
120 139 0
111 129 0
131 150 0
129 147 0
124 142 0
120 139 0
122 140 0
126 145 0
122 141 0
123 141 0
127 145 0
113 131 0
121 138 0
123 141 0
113 132 0
103 122 0
109 128 0
107 124 0
111 128 0
112 130 0
120 138 0
108 124 0
113 130 0
109 126 0
104 121 0
109 126 0
113 130 0
99 117 0
103 119 0
113 130 0
93 110 0
100 117 0
106 123 0
110 128 0
98 115 0
106 124 0
100 117 0
96 113 0
97 113 0
99 116 0
107 123 0
94 110 0
94 111 0
100 117 0
95 111 0
107 124 0
94 111 0
106 123 0
104 121 0
99 114 0
103 119 0
99 115 0
87 103 0
97 113 0
103 120 0
95 111 0
107 124 0
102 119 0
108 125 0
112 130 0
117 134 0
103 119 0
114 131 0
105 123 0
103 118 0
108 124 0
107 125 0
105 122 0
115 132 0
111 129 0
105 123 0
116 133 0
121 139 0
113 130 0
113 131 0
101 118 0
105 122 0
103 120 0
94 112 0
118 135 0
111 129 0
106 123 0
107 124 0
117 135 0
114 131 0
122 139 0
123 141 0
110 126 0
118 135 0
120 139 0
124 141 0
129 148 0
122 141 0
116 132 0
107 124 0
125 143 0
122 139 0
121 139 0
121 140 0
117 135 0
119 136 0
122 140 0
124 142 0
119 136 0
124 142 0
128 146 0
118 136 0
130 149 0
114 132 0
123 140 0
115 132 0
134 153 0
124 141 0
122 139 0
114 132 0
137 155 0
122 139 0
126 143 0
118 134 0
118 134 0
127 143 0
122 137 0
116 132 0
127 143 0
119 135 0
119 135 0
122 138 0
123 139 0
124 140 0
114 129 0
110 124 0
115 129 0
113 127 0
123 137 0
113 128 0
114 128 0
112 127 0
109 123 0
109 123 0
109 122 0
109 121 0
101 114 0
118 131 0
102 114 0
103 115 0
110 121 0
101 113 0
110 122 0
98 109 0
96 107 0
100 112 0
94 104 0
98 108 0
102 113 0
101 111 0
89 98 0
94 103 0
70 77 0
79 86 0
88 96 0
81 88 0
69 75 0
83 91 0
74 82 0
76 85 0
76 85 0
90 100 0
77 86 0
89 100 0
92 103 0
90 100 0
92 102 0
97 108 0
76 85 0
100 111 22
98 109 0
100 111 0
89 100 0
97 108 0
96 108 0
94 106 0
102 114 0
105 119 0
110 123 22
103 114 22
98 109 22
112 125 22
105 118 0
102 113 22
116 130 32
105 118 0
100 112 39
95 106 22
110 123 22
103 116 22
98 110 22
108 122 22
106 117 39
100 113 0
104 117 32
112 126 45
114 128 51
111 125 32
115 129 51
111 124 22
115 128 51
110 124 39
113 127 22
109 122 45
117 130 51
109 122 60
110 123 56
114 127 56
109 122 56
111 124 51
116 129 39
105 118 51
107 120 45
110 122 64
111 123 56
101 112 60
116 129 45
115 128 64
111 124 60
110 124 56
114 127 32
115 129 32
110 122 68
112 124 72
100 112 39
128 144 68
127 143 39
143 161 45
150 170 0
164 186 0
163 184 0
169 191 0
167 188 0
166 189 0
168 189 0
168 190 0
169 191 0
166 188 0
165 188 0
167 188 0
167 189 0
169 191 0
172 195 0
170 193 0
168 189 0
168 190 0
168 192 0
169 191 0
171 192 0
170 192 0
172 194 0
166 188 0
166 189 0
166 188 0
168 190 0
170 191 0
167 188 0
165 187 0
166 188 0
169 191 0
167 187 0
157 177 0
148 167 0
145 163 0
129 144 0
111 123 0
116 130 0
124 139 0
127 142 0
120 135 0
124 139 0
129 145 0
128 143 0
126 141 0
131 146 0
127 142 0
133 149 0
124 139 0
133 148 0
129 143 0
136 151 0
131 147 0
131 146 0
135 150 0
131 145 0
133 148 0
129 143 0
125 140 0
131 145 0
132 146 0
127 141 0
131 146 0
130 145 0
129 143 0
130 145 0
134 149 0
130 144 0
131 146 0
123 137 0
128 142 0
120 134 0
126 140 0
126 140 0
121 134 0
126 140 0
124 137 0
119 132 0
117 130 0
126 140 0
119 132 0
118 131 0
116 128 0
115 127 0
105 117 0
120 133 0
109 121 0
104 116 0
96 107 0
98 109 0
97 107 0
102 112 0
84 93 0
92 101 0
95 104 0
79 87 0
86 94 0
94 102 0
86 95 0
97 106 0
103 113 0
96 106 0
95 104 0
111 122 0
109 120 0
98 108 0
112 123 0
109 121 0
110 122 0
122 134 0
108 120 0
116 129 0
113 125 0
113 126 0
117 131 0
114 127 0
115 128 0
123 138 0
127 141 0
116 131 0
121 135 0
121 137 0
115 129 0
107 122 0
121 136 0
123 138 0
125 141 0
126 142 0
125 141 0
124 139 0
121 138 0
117 133 0
134 150 0
128 145 0
123 139 0
124 141 0
134 150 0
122 140 0
127 143 0
124 143 0
133 151 0
126 143 0
131 148 0
133 152 0
128 146 0
133 152 0
125 144 0
125 142 0
138 155 0
131 148 0
126 144 0
126 146 0
135 155 0
128 146 0
131 150 0
131 150 0
123 141 0
132 151 0
119 137 0
127 145 0
135 154 0
119 136 0
109 127 0
122 140 0
129 149 0
125 144 0
119 138 0
118 137 0
122 141 0
129 148 0
121 138 0
111 130 0
123 141 0
119 137 0
117 135 0
114 132 0
120 139 0
120 138 0
123 141 0
118 136 0
114 132 0
129 147 0
128 146 0
114 132 0
113 132 0
111 129 0
107 126 0
117 134 0
114 131 0
115 133 0
88 106 0
117 135 0
113 132 0
114 131 0
113 132 0
109 126 0
111 128 0
104 122 0
117 134 0
98 115 0
115 132 0
115 133 0
103 119 0
102 120 0
109 126 0
109 127 0
110 127 0
99 116 0
105 123 0
104 122 0
111 128 0
102 120 0
93 111 0
98 116 0
110 128 0
96 113 0
100 116 0
105 123 0
102 120 0
106 124 0
102 118 0
111 128 0
96 112 0
105 121 0
105 122 0
103 120 0
113 130 0
108 125 0
110 127 0
98 115 0
120 137 0
101 118 0
115 133 0
97 115 0
105 123 0
111 129 0
111 128 0
127 145 0
113 130 0
114 131 0
109 127 0
110 128 0
114 132 0
116 134 0
129 147 0
121 138 0
113 131 0
122 140 0
120 138 0
114 132 0
112 130 0
120 139 0
126 145 0
128 146 0
112 130 0
123 141 0
121 140 0
111 129 0
121 139 0
123 141 0
119 136 0
128 145 0
125 143 0
110 130 0
132 150 0
123 141 0
129 148 0
113 132 0
107 123 0
115 133 0
113 130 0
122 141 0
121 140 0
129 147 0
133 152 0
125 142 0
129 148 0
128 144 0
119 136 0
127 144 0
126 143 0
129 147 0
133 150 0
112 129 0
123 140 0
116 131 0
125 142 0
121 138 0
128 144 0
120 137 0
121 138 0
115 131 0
119 135 0
119 134 0
128 145 0
130 147 0
113 129 0
132 149 0
113 127 0
122 138 0
110 125 0
119 133 0
110 124 0
116 130 0
123 138 0
119 133 0
119 132 0
119 133 0
113 126 0
121 135 0
105 117 0
105 117 0
110 122 0
102 114 0
114 126 0
108 119 0
117 130 0
113 125 0
97 107 0
101 111 0
101 111 0
92 102 0
88 98 0
99 109 0
103 112 0
99 108 0
77 84 0
90 98 0
87 94 0
91 100 0
88 95 0
83 91 0
73 80 0
77 84 0
84 93 0
78 86 0
91 101 0
78 87 0
92 102 0
95 105 0
82 92 0
92 102 0
94 104 0
103 115 22
93 103 0
107 118 32
93 104 0
108 119 0
94 105 0
90 101 0
99 110 0
99 109 22
108 121 22
103 114 22
103 116 22
100 111 22
101 114 22
106 118 0
111 124 32
94 106 32
113 126 22
112 126 0
107 119 22
95 106 22
98 110 39
103 116 22
117 131 45
111 124 32
106 119 32
103 116 32
103 115 22
115 129 39
121 136 56
105 118 51
107 120 39
98 110 39
108 121 45
106 119 45
111 124 60
110 123 32
106 117 51
109 121 51
107 120 45
116 130 56
101 112 45
107 121 32
102 114 51
112 125 60
108 120 56
107 120 51
106 119 56
113 125 64
113 128 51
136 152 51
137 155 22
162 182 0
161 181 0
161 182 0
158 179 0
164 185 0
160 181 0
167 187 0
169 191 0
165 186 0
167 188 0
160 181 0
165 187 0
163 184 0
163 185 0
170 191 0
165 187 0
167 189 0
168 190 0
166 187 0
168 190 0
170 192 0
170 192 0
168 190 0
167 189 0
168 189 0
165 186 0
167 189 0
168 189 0
167 188 0
170 192 0
167 188 0
168 188 0
171 193 0
167 188 0
166 187 0
165 186 0
167 188 0
167 188 0
163 184 0
164 184 0
167 187 0
166 186 0
158 176 0
148 166 0
142 158 0
131 147 0
111 125 0
113 126 0
117 131 0
116 130 0
126 141 0
130 145 0
122 136 0
122 137 0
124 137 0
128 143 0
126 140 0
118 132 0
125 138 0
123 137 0
133 149 0
130 144 0
128 142 0
126 140 0
121 135 0
125 139 0
124 138 0
127 141 0
130 145 0
121 135 0
121 134 0
116 129 0
122 136 0
116 129 0
127 141 0
121 135 0
119 133 0
115 129 0
118 130 0
122 134 0
117 129 0
115 127 0
114 126 0
107 119 0
111 122 0
108 119 0
109 121 0
105 117 0
108 119 0
94 104 0
99 109 0
88 98 0
86 95 0
99 109 0
89 97 0
96 105 0
96 105 0
102 112 0
100 109 0
91 100 0
96 105 0
101 111 0
98 108 0
110 120 0
111 122 0
111 122 0
115 126 0
110 121 0
102 113 0
120 132 0
109 120 0
102 113 0
113 124 0
120 133 0
106 118 0
113 127 0
111 124 0
119 132 0
123 136 0
123 137 0
122 136 0
120 134 0
118 132 0
121 136 0
127 142 0
119 134 0
116 131 0
128 143 0
117 133 0
120 135 0
121 137 0
126 141 0
119 135 0
129 146 0
136 152 0
125 141 0
128 144 0
126 142 0
126 142 0
128 145 0
126 142 0
135 153 0
124 141 0
134 152 0
131 149 0
123 140 0
127 145 0
126 142 0
125 143 0
131 149 0
123 141 0
142 161 0
139 158 0
138 156 0
134 152 0
133 152 0
129 148 0
134 152 0
137 156 0
134 153 0
126 145 0
118 137 0
140 160 0
126 145 0
137 155 0
136 156 0
127 146 0
127 146 0
122 141 0
134 152 0
127 146 0
116 135 0
118 137 0
124 143 0
125 145 0
119 136 0
120 139 0
120 139 0
122 141 0
125 144 0
118 137 0
112 131 0
118 137 0
126 144 0
113 131 0
115 133 0
115 133 0
129 146 0
122 140 0
112 130 0
125 143 0
120 139 0
118 137 0
120 138 0
124 143 0
112 130 0
101 119 0
93 111 0
113 131 0
111 129 0
116 135 0
117 136 0
109 126 0
111 130 0
109 127 0
99 118 0
109 126 0
110 128 0
107 125 0
106 123 0
110 128 0
119 138 0
98 115 0
116 133 0
112 130 0
104 121 0
100 118 0
112 130 0
108 126 0
106 124 0
112 130 0
98 114 0
120 138 0
111 128 0
116 135 0
111 129 0
100 116 0
102 119 0
109 127 0
109 127 0
104 120 0
101 119 0
105 123 0
105 124 0
115 133 0
93 111 0
104 121 0
111 128 0
108 126 0
101 119 0
101 118 0
113 131 0
114 132 0
118 135 0
115 134 0
113 131 0
105 124 0
109 127 0
117 134 0
117 134 0
110 129 0
125 143 0
131 150 0
121 139 0
126 144 0
104 122 0
119 138 0
128 148 0
125 143 0
113 131 0
110 129 0
121 140 0
128 145 0
126 146 0
109 127 0
128 147 0
113 132 0
123 142 0
130 148 0
121 138 0
134 151 0
129 148 0
132 150 0
131 149 0
132 150 0
134 151 0
123 143 0
121 140 0
134 153 0
124 142 0
115 132 0
138 156 0
130 149 0
122 140 0
124 142 0
122 139 0
120 136 0
130 148 0
121 139 0
123 139 0
128 145 0
130 149 0
135 152 0
117 133 0
121 137 0
118 134 0
125 142 0
121 139 0
115 129 0
125 141 0
120 137 0
105 120 0
115 130 0
117 133 0
123 139 0
122 137 0
121 136 0
125 141 0
118 132 0
119 134 0
111 125 0
113 128 0
110 123 0
114 128 0
112 125 0
104 117 0
115 128 0
117 131 0
121 134 0
111 124 0
108 120 0
115 128 0
104 115 0
103 114 0
104 115 0
96 107 0
100 110 0
98 109 0
99 109 0
103 113 0
95 105 0
102 112 0
102 111 0
90 98 0
100 109 0
86 94 0
88 96 0
87 94 0
95 104 0
74 81 0
93 101 0
77 84 0
79 87 0
82 90 0
84 93 0
91 101 22
87 96 0
88 97 0
91 102 0
87 96 0
89 99 22
85 95 0
92 103 0
97 107 0
89 98 0
97 108 22
99 111 0
108 120 22
98 108 45
98 109 22
97 108 22
101 112 22
106 119 32
112 124 22
110 122 32
107 120 22
101 113 39
105 117 0
110 124 22
106 118 39
101 114 39
103 115 32
108 120 56
100 111 39
104 115 22
114 127 45
121 135 45
96 108 32
107 118 51
93 104 39
98 110 39
108 121 39
103 115 56
104 116 45
111 124 68
108 121 45
113 126 39
103 115 51
113 125 60
117 130 64
105 117 45
118 132 45
122 137 51
139 155 32
141 157 39
153 172 22
160 179 0
157 176 0
158 177 0
159 179 0
164 184 0
158 178 0
157 176 0
160 180 0
166 188 0
163 185 0
162 183 0
166 186 0
163 185 0
164 186 0
166 186 0
167 188 0
160 181 0
166 188 0
164 186 0
165 186 0
166 188 0
166 188 0
169 191 0
171 193 0
169 191 0
170 191 0
166 187 0
166 188 0
168 189 0
164 184 0
164 186 0
166 188 0
167 188 0
167 188 0
167 188 0
166 187 0
168 189 0
165 186 0
166 187 0
169 190 0
167 188 0
162 183 0
165 186 0
165 184 0
165 186 0
168 188 0
165 184 0
166 186 0
165 185 0
162 181 0
158 177 0
161 180 0
154 171 0
148 165 0
138 154 0
136 151 0
127 141 0
119 132 0
122 136 0
111 124 0
119 132 0
115 128 0
107 119 0
111 124 0
118 131 0
116 129 0
123 136 0
113 126 0
118 131 0
111 123 0
116 129 0
112 125 0
115 128 0
119 132 0
114 126 0
121 134 0
119 132 0
111 122 0
111 123 0
106 118 0
107 118 0
103 114 0
110 122 0
109 120 0
101 112 0
97 108 0
96 106 0
99 110 0
97 107 0
95 105 0
96 105 0
97 107 0
105 116 0
95 104 0
106 116 0
101 110 0
115 126 0
107 117 0
106 116 0
109 119 0
109 119 0
95 105 0
117 129 0
101 111 0
107 117 0
107 118 0
109 120 0
108 119 0
111 122 0
110 121 0
117 130 0
121 133 0
109 121 0
122 135 0
104 116 0
109 121 0
119 132 0
112 124 0
113 127 0
134 148 0
113 127 0
123 136 0
116 130 0
124 140 0
124 139 0
123 138 0
131 146 0
128 144 0
124 139 0
125 140 0
122 137 0
117 132 0
124 141 0
127 144 0
129 145 0
122 139 0
126 142 0
134 151 0
131 148 0
133 150 0
133 149 0
129 146 0
124 140 0
144 162 0
139 158 0
139 157 0
133 151 0
137 154 0
133 150 0
133 152 0
134 152 0
139 156 0
128 145 0
133 152 0
137 154 0
134 153 0
135 154 0
126 144 0
134 153 0
130 150 0
132 151 0
126 145 0
135 155 0
130 148 0
114 134 0
115 132 0
125 143 0
130 150 0
128 148 0
120 139 0
134 152 0
128 148 0
138 157 0
132 151 0
125 144 0
138 158 0
122 141 0
130 149 0
137 156 0
119 138 0
122 141 0
114 133 0
131 148 0
106 124 0
124 142 0
123 142 0
121 142 0
117 136 0
120 138 0
125 144 0
125 144 0
120 138 0
111 131 0
124 143 0
114 132 0
119 138 0
120 139 0
122 141 0
124 142 0
102 121 0
112 131 0
118 136 0
118 136 0
115 133 0
111 129 0
112 131 0
105 123 0
104 123 0
111 129 0
112 131 0
119 137 0
106 123 0
115 134 0
123 142 0
111 129 0
118 135 0
111 130 0
106 124 0
105 123 0
119 137 0
104 122 0
116 134 0
98 115 0
108 125 0
114 132 0
113 131 0
104 121 0
112 130 0
117 134 0
119 137 0
106 123 0
107 124 0
106 123 0
107 126 0
108 126 0
106 124 0
114 131 0
113 131 0
120 137 0
95 114 0
110 128 0
106 124 0
124 143 0
109 127 0
113 132 0
114 131 0
111 129 0
104 123 0
121 139 0
124 142 0
126 145 0
107 125 0
112 130 0
122 141 0
119 138 0
117 136 0
113 131 0
118 137 0
115 133 0
112 131 0
114 132 0
119 139 0
113 131 0
124 142 0
121 139 0
121 139 0
121 139 0
129 148 0
117 135 0
120 139 0
116 134 0
118 136 0
123 142 0
127 146 0
128 147 0
131 150 0
117 136 0
122 141 0
124 143 0
124 142 0
135 153 0
124 142 0
127 145 0
135 153 0
125 144 0
127 146 0
137 155 0
129 148 0
129 147 0
136 155 0
117 133 0
134 152 0
131 148 0
130 147 0
126 143 0
124 141 0
121 137 0
132 150 0
132 149 0
128 146 0
123 140 0
121 137 0
120 137 0
119 135 0
131 147 0
121 138 0
136 152 0
117 131 0
131 147 0
125 141 0
112 128 0
135 151 0
119 134 0
114 130 0
112 126 0
126 141 0
117 131 0
114 127 0
111 124 0
127 142 0
127 141 0
110 124 0
111 123 0
120 134 0
116 129 0
114 127 0
111 125 0
108 120 0
122 136 0
109 120 0
101 112 0
112 125 0
103 115 0
99 109 0
109 120 0
101 111 0
116 127 0
102 112 0
93 102 0
114 125 0
97 107 0
106 116 0
95 104 0
97 106 0
90 100 0
91 99 0
96 104 0
93 102 0
96 104 0
96 105 0
101 110 0
100 109 0
81 88 0
100 110 0
83 91 22
87 96 0
99 108 22
105 116 32
85 94 32
84 94 22
98 109 22
80 89 22
94 104 39
91 101 22
96 107 0
105 117 32
97 107 39
86 97 22
90 101 0
108 121 32
108 119 51
99 111 0
92 103 22
100 112 22
92 101 0
98 109 56
109 121 39
105 117 51
104 116 22
107 119 60
108 121 32
108 119 51
105 116 51
110 123 56
105 117 45
96 107 32
106 118 39
104 116 32
120 134 56
127 142 22
133 148 56
138 154 39
142 159 32
145 161 32
150 168 0
158 177 0
153 171 0
159 178 0
162 181 0
157 177 0
158 178 0
159 179 0
161 181 0
165 186 0
153 171 0
163 183 0
162 183 0
159 180 0
160 181 0
166 187 0
163 184 0
159 179 0
163 184 0
165 186 0
166 188 0
164 185 0
161 182 0
168 189 0
167 189 0
169 191 0
162 184 0
162 183 0
165 186 0
167 188 0
169 190 0
168 190 0
168 190 0
166 187 0
168 190 0
168 190 0
165 186 0
165 186 0
169 191 0
167 188 0
165 187 0
164 185 0
169 191 0
169 189 0
162 183 0
167 187 0
164 184 0
168 188 0
167 187 0
162 181 0
162 181 0
162 181 0
164 184 0
162 182 0
167 187 0
158 177 0
157 175 0
161 180 0
165 184 0
158 176 0
154 172 0
151 169 0
160 179 0
155 172 0
161 179 0
155 172 0
158 175 0
152 170 0
137 153 0
137 153 0
137 152 0
133 148 0
136 151 0
124 138 0
121 134 0
129 143 0
127 141 0
119 132 0
125 138 0
114 126 0
125 138 0
112 124 0
118 130 0
119 130 0
104 115 0
118 130 0
120 132 0
116 128 0
118 129 0
119 131 0
116 127 0
125 136 0
116 127 0
116 127 0
110 121 0
115 126 0
107 117 0
112 122 0
122 133 0
111 122 0
115 126 0
122 133 0
119 130 0
112 123 0
119 130 0
114 125 0
118 130 0
110 121 0
106 117 0
116 127 0
108 119 0
122 134 0
107 118 0
120 132 0
115 128 0
124 137 0
122 135 0
115 128 0
122 135 0
114 127 0
119 132 0
117 131 0
125 139 0
123 136 0
130 143 0
124 139 0
120 134 0
128 143 0
124 139 0
128 143 0
134 150 0
121 135 0
136 153 0
130 145 0
133 150 0
131 147 0
126 141 0
131 146 0
131 148 0
129 145 0
130 147 0
121 137 0
136 154 0
125 142 0
115 132 0
128 145 0
132 150 0
134 150 0
131 149 0
140 156 0
134 152 0
131 148 0
131 148 0
137 155 0
134 153 0
129 147 0
139 156 0
132 150 0
134 153 0
137 156 0
133 152 0
139 159 0
129 148 0
132 151 0
134 154 0
123 141 0
130 148 0
119 139 0
134 154 0
126 145 0
128 146 0
131 151 0
130 148 0
133 152 0
132 151 0
130 150 0
129 149 0
130 148 0
133 152 0
123 142 0
127 146 0
124 142 0
126 145 0
131 150 0
125 145 0
133 153 0
126 146 0
125 145 0
118 137 0
131 150 0
128 145 0
129 150 0
113 131 0
117 136 0
123 142 0
132 151 0
111 131 0
126 145 0
115 134 0
111 130 0
120 138 0
125 143 0
111 130 0
124 142 0
124 142 0
113 132 0
129 149 0
109 127 0
117 135 0
106 125 0
115 133 0
122 141 0
108 127 0
110 127 0
115 133 0
119 137 0
109 127 0
121 139 0
112 130 0
105 124 0
111 130 0
109 127 0
115 132 0
108 127 0
94 112 0
114 132 0
102 120 0
111 130 0
112 131 0
115 132 0
113 132 0
124 141 0
123 142 0
118 136 0
127 146 0
109 127 0
117 136 0
118 137 0
115 133 0
116 135 0
120 139 0
125 144 0
114 133 0
107 125 0
118 137 0
105 123 0
112 131 0
107 124 0
110 128 0
108 127 0
122 140 0
109 127 0
113 130 0
108 125 0
106 125 0
119 138 0
114 132 0
115 133 0
108 127 0
123 141 0
119 139 0
122 141 0
119 138 0
118 136 0
125 143 0
120 139 0
116 134 0
120 139 0
117 134 0
116 135 0
116 133 0
115 134 0
122 140 0
121 141 0
113 131 0
117 136 0
118 136 0
119 136 0
123 142 0
130 148 0
127 145 0
123 141 0
130 148 0
131 151 0
118 136 0
127 146 0
119 137 0
137 156 0
124 143 0
129 147 0
126 145 0
130 149 0
125 143 0
132 151 0
120 138 0
127 146 0
131 149 0
129 147 0
122 140 0
125 142 0
125 144 0
125 143 0
127 144 0
117 134 0
130 147 0
131 149 0
126 144 0
131 149 0
128 146 0
113 129 0
116 133 0
125 141 0
123 140 0
125 140 0
120 137 0
117 132 0
118 134 0
128 144 0
124 139 0
118 133 0
121 137 0
126 140 0
129 145 0
121 135 0
131 146 0
124 138 0
115 128 0
121 134 0
120 135 0
113 126 0
119 133 0
130 145 0
110 122 0
111 124 0
115 127 0
119 132 0
108 120 0
114 126 0
110 123 0
117 130 0
112 124 0
101 112 0
100 111 0
110 122 0
109 120 0
99 109 0
109 120 0
104 115 0
97 108 0
112 123 0
108 118 0
97 106 0
99 109 0
100 110 0
102 112 0
100 110 0
92 101 0
102 111 0
93 101 0
96 105 0
112 122 0
107 117 0
100 109 0
121 132 0
112 122 0
99 108 0
109 120 0
97 107 0
103 113 22
111 121 0
109 120 0
112 122 22
114 125 22
104 115 22
104 115 39
111 123 0
111 122 22
105 117 0
99 110 39
108 119 39
118 132 0
106 118 22
121 134 22
124 137 22
125 139 22
116 128 32
119 132 22
131 145 0
128 142 22
133 148 0
137 151 0
147 163 32
152 168 0
152 170 0
145 161 0
143 160 0
150 167 0
146 162 0
154 172 0
150 168 0
153 171 0
155 173 0
157 176 0
161 180 0
162 180 0
154 173 0
158 176 0
152 171 0
158 177 0
162 181 0
159 178 0
154 173 0
157 176 0
163 184 0
159 179 0
164 184 0
162 182 0
165 185 0
166 186 0
163 183 0
165 185 0
161 182 0
167 188 0
158 179 0
162 184 0
164 185 0
162 185 0
164 186 0
164 185 0
167 189 0
169 191 0
168 190 0
168 190 0
169 190 0
167 189 0
168 189 0
165 185 0
169 190 0
164 185 0
162 182 0
168 190 0
166 186 0
162 183 0
167 188 0
165 186 0
162 182 0
164 184 0
161 181 0
169 189 0
164 183 0
167 186 0
161 179 0
159 178 0
161 180 0
166 185 0
164 182 0
162 181 0
160 179 0
162 180 0
161 179 0
158 176 0
163 182 0
159 177 0
157 175 0
151 168 0
150 167 0
154 170 0
150 166 0
151 167 0
151 168 0
151 168 0
152 167 0
147 163 0
145 161 0
144 160 0
147 164 0
148 163 0
143 158 0
143 158 0
151 165 0
140 155 0
142 157 0
133 147 0
133 147 0
136 149 0
137 151 0
130 142 0
130 143 0
131 143 0
128 140 0
132 145 0
127 139 0
122 134 0
122 134 0
123 134 0
118 129 0
121 132 0
119 130 0
119 130 0
118 129 0
113 124 0
110 121 0
112 123 0
112 123 0
121 133 0
121 132 0
113 125 0
109 121 0
127 139 0
120 132 0
119 131 0
117 129 0
119 132 0
122 135 0
125 138 0
124 137 0
119 132 0
125 139 0
117 130 0
120 133 0
118 131 0
119 133 0
131 145 0
136 151 0
131 147 0
133 148 0
130 144 0
121 135 0
123 138 0
126 142 0
132 148 0
127 143 0
119 134 0
139 156 0
125 141 0
130 148 0
128 145 0
125 140 0
135 151 0
132 150 0
121 137 0
126 142 0
134 152 0
128 145 0
134 152 0
130 148 0
131 148 0
137 155 0
126 143 0
125 143 0
130 149 0
137 156 0
124 141 0
132 150 0
133 151 0
139 159 0
126 144 0
136 154 0
129 147 0
123 141 0
126 144 0
135 154 0
131 149 0
135 154 0
120 139 0
137 155 0
137 156 0
129 147 0
125 145 0
136 155 0
137 156 0
136 155 0
133 154 0
123 142 0
132 151 0
132 150 0
134 153 0
131 149 0
133 152 0
131 151 0
131 150 0
132 152 0
141 161 0
130 150 0
127 147 0
133 152 0
119 139 0
133 153 0
130 149 0
126 145 0
126 146 0
117 136 0
121 142 0
126 144 0
114 133 0
115 134 0
130 151 0
130 149 0
111 130 0
125 144 0
124 144 0
124 143 0
121 141 0
124 143 0
131 149 0
121 141 0
123 143 0
123 142 0
123 142 0
128 146 0
107 125 0
117 136 0
120 139 0
121 140 0
119 138 0
122 141 0
104 122 0
115 134 0
123 142 0
118 137 0
112 130 0
105 124 0
117 136 0
106 124 0
121 139 0
110 128 0
115 135 0
127 147 0
125 144 0
116 133 0
104 123 0
120 138 0
117 135 0
103 122 0
103 122 0
113 131 0
116 134 0
110 129 0
104 122 0
120 138 0
122 140 0
114 133 0
111 130 0
118 137 0
104 123 0
121 139 0
120 139 0
120 138 0
111 130 0
112 131 0
115 134 0
118 137 0
109 129 0
122 141 0
120 140 0
127 147 0
116 134 0
125 145 0
127 146 0
126 146 0
126 146 0
114 132 0
126 145 0
122 141 0
125 144 0
117 136 0
123 143 0
123 142 0
126 145 0
129 148 0
138 158 0
129 149 0
122 141 0
121 138 0
120 139 0
126 145 0
125 143 0
132 152 0
122 141 0
118 137 0
130 147 0
127 145 0
121 139 0
132 151 0
130 149 0
134 153 0
127 146 0
123 141 0
128 146 0
116 135 0
129 148 0
126 144 0
133 151 0
136 155 0
136 154 0
136 154 0
128 145 0
139 157 0
125 143 0
132 150 0
114 131 0
123 141 0
127 144 0
127 145 0
125 142 0
135 153 0
133 151 0
137 155 0
125 142 0
127 144 0
132 149 0
126 142 0
128 145 0
127 144 0
130 147 0
124 140 0
132 148 0
127 144 0
114 130 0
133 148 0
120 135 0
120 136 0
124 140 0
125 139 0
124 139 0
132 148 0
126 141 0
119 134 0
123 137 0
117 131 0
124 138 0
104 117 0
122 136 0
112 126 0
116 129 0
112 125 0
134 148 0
122 135 0
111 123 0
114 127 0
110 122 0
111 124 0
103 114 0
117 128 0
113 125 0
108 118 0
116 128 0
106 117 0
100 110 0
103 114 0
115 126 0
109 119 0
104 113 0
89 98 0
95 104 0
120 132 0
99 108 0
105 115 0
99 108 0
102 112 0
111 122 0
109 120 0
107 117 0
103 113 0
124 137 0
113 124 0
109 119 0
109 119 0
121 133 0
118 129 0
114 125 0
116 128 0
124 136 0
122 134 0
129 141 0
127 140 0
117 130 0
128 140 0
136 150 0
135 148 0
132 146 0
127 141 0
140 154 0
132 146 0
138 152 0
123 136 0
147 163 0
137 151 0
147 163 0
142 158 0
142 158 0
143 159 0
147 163 0
153 169 0
151 168 0
152 170 0
151 166 0
148 164 0
160 178 0
155 173 0
159 177 0
161 180 0
155 173 0
150 168 0
152 171 0
159 178 0
151 171 0
157 176 0
159 178 0
158 177 0
160 180 0
159 179 0
160 181 0
154 173 0
162 181 0
159 179 0
160 180 0
161 182 0
161 181 0
164 184 0
161 182 0
161 180 0
163 183 0
166 187 0
164 185 0
168 188 0
165 186 0
156 176 0
164 185 0
167 189 0
168 189 0
166 188 0
167 188 0
168 189 0
164 185 0
168 189 0
168 188 0
168 189 0
166 187 0
167 187 0
166 186 0
167 187 0
168 187 0
169 189 0
162 182 0
163 183 0
163 182 0
168 187 0
164 184 0
160 180 0
156 175 0
159 179 0
163 181 0
159 177 0
162 180 0
158 176 0
165 184 0
155 173 0
161 180 0
161 180 0
162 180 0
154 172 0
156 172 0
156 173 0
160 178 0
154 171 0
153 170 0
155 172 0
154 171 0
149 166 0
153 169 0
141 156 0
150 165 0
146 161 0
142 158 0
145 160 0
146 161 0
145 161 0
143 157 0
140 155 0
133 147 0
142 157 0
137 151 0
139 153 0
139 152 0
132 145 0
130 142 0
127 140 0
130 143 0
120 132 0
130 143 0
119 131 0
123 134 0
123 134 0
122 135 0
121 133 0
120 132 0
127 140 0
123 135 0
123 135 0
123 135 0
121 134 0
118 130 0
116 128 0
124 136 0
126 139 0
117 130 0
116 129 0
129 142 0
118 132 0
117 130 0
119 132 0
122 134 0
115 127 0
131 144 0
124 138 0
126 141 0
120 133 0
128 143 0
127 142 0
129 144 0
129 143 0
126 141 0
129 144 0
130 145 0
133 148 0
135 151 0
126 142 0
129 145 0
123 138 0
124 139 0
130 145 0
130 146 0
134 150 0
136 153 0
135 152 0
141 158 0
129 147 0
142 159 0
125 141 0
136 153 0
134 152 0
131 149 0
131 147 0
141 160 0
138 157 0
133 152 0
131 149 0
128 145 0
123 141 0
128 146 0
122 139 0
137 155 0
136 154 0
130 148 0
130 148 0
128 146 0
124 143 0
132 152 0
131 150 0
140 160 0
129 148 0
138 157 0
133 152 0
133 152 0
136 155 0
136 156 0
139 159 0
130 149 0
127 147 0
129 148 0
141 160 0
132 150 0
129 147 0
134 154 0
134 154 0
129 149 0
132 151 0
137 157 0
142 163 0
136 155 0
121 140 0
134 154 0
123 143 0
133 153 0
125 145 0
129 148 0
131 152 0
120 139 0
128 147 0
125 145 0
129 150 0
130 149 0
120 140 0
114 133 0
132 152 0
129 149 0
130 149 0
123 142 0
128 147 0
124 143 0
127 146 0
113 132 0
120 139 0
121 141 0
126 145 0
117 137 0
119 137 0
118 137 0
119 138 0
116 134 0
118 136 0
115 134 0
106 124 0
125 144 0
126 145 0
121 140 0
122 140 0
121 140 0
113 133 0
119 137 0
117 137 0
109 128 0
125 144 0
122 141 0
118 138 0
109 128 0
120 139 0
115 133 0
126 146 0
122 140 0
112 131 0
117 135 0
125 144 0
117 135 0
103 121 0
123 143 0
123 142 0
105 124 0
108 126 0
115 133 0
106 125 0
117 136 0
122 141 0
126 146 0
116 133 0
115 134 0
124 143 0
119 138 0
102 121 0
128 146 0
123 142 0
120 138 0
130 149 0
120 139 0
114 133 0
127 145 0
130 149 0
115 134 0
124 143 0
118 139 0
124 143 0
124 143 0
121 140 0
126 145 0
127 147 0
124 143 0
121 140 0
128 146 0
122 141 0
127 147 0
141 161 0
122 141 0
121 141 0
129 148 0
121 140 0
129 148 0
134 152 0
123 142 0
118 137 0
131 150 0
126 145 0
127 146 0
133 153 0
130 150 0
129 148 0
130 149 0
130 149 0
134 153 0
122 141 0
132 150 0
131 150 0
127 147 0
112 131 0
137 155 0
141 160 0
134 152 0
124 142 0
129 150 0
138 159 0
129 146 0
135 153 0
130 147 0
130 148 0
126 143 0
130 148 0
135 153 0
121 137 0
136 155 0
133 151 0
129 147 0
116 133 0
125 142 0
126 144 0
139 156 0
133 150 0
129 145 0
127 143 0
111 126 0
137 155 0
130 146 0
130 146 0
136 152 0
133 150 0
126 141 0
116 132 0
116 130 0
129 144 0
113 128 0
126 140 0
123 138 0
122 135 0
124 138 0
122 136 0
122 137 0
122 135 0
124 140 0
115 128 0
105 119 0
114 128 0
125 139 0
110 122 0
124 137 0
107 119 0
113 125 0
109 121 0
108 119 0
121 133 0
119 131 0
117 129 0
107 119 0
101 112 0
110 121 0
104 114 0
101 111 0
121 133 0
109 120 0
109 120 0
121 133 0
109 119 0
115 126 0
117 129 0
111 122 0
106 116 0
109 120 0
114 126 0
119 130 0
110 121 0
113 124 0
119 130 0
111 122 0
127 139 0
124 135 0
127 139 0
129 142 0
119 131 0
137 151 0
135 149 0
127 140 0
136 150 0
134 148 0
132 146 0
130 144 0
136 151 0
132 146 0
142 157 0
132 145 0
138 153 0
148 165 0
146 162 0
143 158 0
146 161 0
147 163 0
142 159 0
147 163 0
152 169 0
146 163 0
145 161 0
144 160 0
149 167 0
148 166 0
148 166 0
146 164 0
149 166 0
154 174 0
155 174 0
153 171 0
158 176 0
161 181 0
159 179 0
160 179 0
156 174 0
161 181 0
154 173 0
161 180 0
162 182 0
162 182 0
159 178 0
163 183 0
161 180 0
164 184 0
161 181 0
165 185 0
165 185 0
161 183 0
162 182 0
164 184 0
164 185 0
159 179 0
169 189 0
166 186 0
166 188 0
169 190 0
163 184 0
161 183 0
168 188 0
167 187 0
163 184 0
169 189 0
163 182 0
166 186 0
166 185 0
166 186 0
163 183 0
165 185 0
164 184 0
166 185 0
162 182 0
165 185 0
162 181 0
160 179 0
162 181 0
165 184 0
161 180 0
160 178 0
156 174 0
155 174 0
156 174 0
155 173 0
155 172 0
155 172 0
154 172 0
153 171 0
151 168 0
153 170 0
148 166 0
154 171 0
157 174 0
149 165 0
148 164 0
145 160 0
149 165 0
145 161 0
144 160 0
143 158 0
146 162 0
147 163 0
144 159 0
145 159 0
140 155 0
138 153 0
137 151 0
135 149 0
138 152 0
134 147 0
127 139 0
135 148 0
132 145 0
134 147 0
118 130 0
130 143 0
130 143 0
129 142 0
120 131 0
126 139 0
124 137 0
133 145 0
130 143 0
124 137 0
115 127 0
118 131 0
120 132 0
123 135 0
129 142 0
126 139 0
128 142 0
124 137 0
120 133 0
126 140 0
129 142 0
130 145 0
124 138 0
128 142 0
134 149 0
130 144 0
130 144 0
127 141 0
116 130 0
123 136 0
127 142 0
126 140 0
132 146 0
134 149 0
128 143 0
125 139 0
138 153 0
137 153 0
132 148 0
129 144 0
128 143 0
129 146 0
132 148 0
129 146 0
132 150 0
135 153 0
133 151 0
135 152 0
127 145 0
139 156 0
132 149 0
134 153 0
141 159 0
131 149 0
134 152 0
129 148 0
134 152 0
129 148 0
141 160 0
130 148 0
138 156 0
143 161 0
138 158 0
135 154 0
141 160 0
139 158 0
138 157 0
139 158 0
135 153 0
143 164 0
134 153 0
121 139 0
136 155 0
138 158 0
140 160 0
142 162 0
134 154 0
127 146 0
138 158 0
131 151 0
133 153 0
127 147 0
133 153 0
134 153 0
122 141 0
127 146 0
131 152 0
133 152 0
124 143 0
133 153 0
140 159 0
126 144 0
135 155 0
132 152 0
131 150 0
131 151 0
126 147 0
121 140 0
141 161 0
128 149 0
129 148 0
129 149 0
133 152 0
135 154 0
128 147 0
134 154 0
118 137 0
126 145 0
123 142 0
125 145 0
123 142 0
119 139 0
123 143 0
127 147 0
131 150 0
131 150 0
118 136 0
131 150 0
125 145 0
128 148 0
131 150 0
127 146 0
132 152 0
121 140 0
117 135 0
115 134 0
111 130 0
122 142 0
126 146 0
120 139 0
111 130 0
115 134 0
123 143 0
121 141 0
124 143 0
118 138 0
113 131 0
118 136 0
114 132 0
115 136 0
117 137 0
111 130 0
107 125 0
122 141 0
114 132 0
116 135 0
110 130 0
109 127 0
125 144 0
125 145 0
113 131 0
120 139 0
120 139 0
113 133 0
110 129 0
126 146 0
124 144 0
108 127 0
118 138 0
114 133 0
119 138 0
127 146 0
127 146 0
117 135 0
122 142 0
122 141 0
117 136 0
125 144 0
120 138 0
127 147 0
122 141 0
110 129 0
128 148 0
118 137 0
132 152 0
128 147 0
114 133 0
125 144 0
135 155 0
119 138 0
128 148 0
125 145 0
127 147 0
136 156 0
122 141 0
136 156 0
126 145 0
137 156 0
132 152 0
128 148 0
145 165 0
134 153 0
128 148 0
128 148 0
118 137 0
121 140 0
132 151 0
136 155 0
134 153 0
133 151 0
139 157 0
132 151 0
128 148 0
134 153 0
135 154 0
137 156 0
132 151 0
129 148 0
138 157 0
122 141 0
137 155 0
127 145 0
135 154 0
125 143 0
123 141 0
130 148 0
128 145 0
131 148 0
132 149 0
137 155 0
127 143 0
123 139 0
126 143 0
127 145 0
133 151 0
128 146 0
123 139 0
131 147 0
125 143 0
134 151 0
130 147 0
125 140 0
131 147 0
136 153 0
127 142 0
122 139 0
131 147 0
124 140 0
117 132 0
119 136 0
125 141 0
123 137 0
117 131 0
126 141 0
118 132 0
122 136 0
119 134 0
113 127 0
119 133 0
126 140 0
130 144 0
123 137 0
128 143 0
124 138 0
110 123 0
116 128 0
128 141 0
110 123 0
110 123 0
116 129 0
130 142 0
116 129 0
114 125 0
112 124 0
115 127 0
119 131 0
108 120 0
118 129 0
115 126 0
117 129 0
106 116 0
112 123 0
121 133 0
119 130 0
111 122 0
117 129 0
116 127 0
123 135 0
117 128 0
117 128 0
123 136 0
119 131 0
126 137 0
130 143 0
120 132 0
118 130 0
129 142 0
125 138 0
124 136 0
128 141 0
139 153 0
125 139 0
127 140 0
142 156 0
141 156 0
141 156 0
144 159 0
138 152 0
136 150 0
138 153 0
147 163 0
141 157 0
140 157 0
143 158 0
150 167 0
148 164 0
150 167 0
154 170 0
146 163 0
156 174 0
156 175 0
149 165 0
157 175 0
150 167 0
153 171 0
151 168 0
153 172 0
155 174 0
151 168 0
157 175 0
161 179 0
159 178 0
158 177 0
160 179 0
157 175 0
158 178 0
164 184 0
153 172 0
160 180 0
163 183 0
162 182 0
159 178 0
159 179 0
163 182 0
160 180 0
160 180 0
161 180 0
159 180 0
165 187 0
161 181 0
170 191 0
170 190 0
167 187 0
165 185 0
164 185 0
167 188 0
164 185 0
164 184 0
167 188 0
161 182 0
162 183 0
161 180 0
164 185 0
165 184 0
160 180 0
164 183 0
165 184 0
162 181 0
161 180 0
163 182 0
163 181 0
161 180 0
159 177 0
160 178 0
155 173 0
159 177 0
157 175 0
157 175 0
153 172 0
150 167 0
159 176 0
158 175 0
158 176 0
152 169 0
156 172 0
154 170 0
158 176 0
144 160 0
154 170 0
149 165 0
149 165 0
148 164 0
146 162 0
145 161 0
148 163 0
145 160 0
142 158 0
138 153 0
143 157 0
135 150 0
132 146 0
144 158 0
141 156 0
135 149 0
133 147 0
133 146 0
137 151 0
129 142 0
136 149 0
129 142 0
129 143 0
127 140 0
134 147 0
127 140 0
135 147 0
127 141 0
127 141 0
125 138 0
125 138 0
122 135 0
129 142 0
125 138 0
114 127 0
123 136 0
133 147 0
126 140 0
132 146 0
127 141 0
129 143 0
130 145 0
136 151 0
134 149 0
131 146 0
128 143 0
131 146 0
128 143 0
131 146 0
131 146 0
129 145 0
124 139 0
127 143 0
132 147 0
135 152 0
136 152 0
135 151 0
136 152 0
132 149 0
124 141 0
129 145 0
133 149 0
130 147 0
135 152 0
135 152 0
138 156 0
137 154 0
129 147 0
133 150 0
135 153 0
132 150 0
128 146 0
133 151 0
137 155 0
134 151 0
137 155 0
131 148 0
126 144 0
138 157 0
129 149 0
133 151 0
131 149 0
145 164 0
138 157 0
133 151 0
134 152 0
142 160 0
125 144 0
139 159 0
142 161 0
141 160 0
134 153 0
138 156 0
133 152 0
132 151 0
138 158 0
137 155 0
140 160 0
143 164 0
131 150 0
128 149 0
128 147 0
131 151 0
129 150 0
146 166 0
133 154 0
130 150 0
137 156 0
140 160 0
134 154 0
132 151 0
140 159 0
141 161 0
131 152 0
122 141 0
129 150 0
133 153 0
125 145 0
128 147 0
132 152 0
129 147 0
126 145 0
130 151 0
136 156 0
123 142 0
126 147 0
128 149 0
134 154 0
129 149 0
125 146 0
129 149 0
119 139 0
129 150 0
122 141 0
134 155 0
121 141 0
125 145 0
119 138 0
125 143 0
122 141 0
120 139 0
106 126 0
121 140 0
129 149 0
130 150 0
122 142 0
122 140 0
129 148 0
126 146 0
113 132 0
111 130 0
123 143 0
120 139 0
126 146 0
120 139 0
132 152 0
121 141 0
114 133 0
124 144 0
120 140 0
128 148 0
121 140 0
117 136 0
114 133 0
120 139 0
118 136 0
127 147 0
113 132 0
117 137 0
117 136 0
123 142 0
123 142 0
122 141 0
114 134 0
119 138 0
115 133 0
125 144 0
113 133 0
126 147 0
119 139 0
110 130 0
120 138 0
129 149 0
122 142 0
130 149 0
125 145 0
127 146 0
124 143 0
126 144 0
129 148 0
118 138 0
127 146 0
125 145 0
120 140 0
123 143 0
123 141 0
122 142 0
131 150 0
124 143 0
115 133 0
135 155 0
126 145 0
133 153 0
136 156 0
132 152 0
130 149 0
125 145 0
126 146 0
129 148 0
141 160 0
129 148 0
126 146 0
129 149 0
127 147 0
133 154 0
128 147 0
135 155 0
132 151 0
136 155 0
134 153 0
130 150 0
134 154 0
130 149 0
139 159 0
139 158 0
130 148 0
135 156 0
132 152 0
126 145 0
123 142 0
132 151 0
132 150 0
133 152 0
138 157 0
128 147 0
136 154 0
126 144 0
140 159 0
131 150 0
136 155 0
134 152 0
138 156 0
134 153 0
120 136 0
131 149 0
139 156 0
131 148 0
131 148 0
134 151 0
133 151 0
133 150 0
131 149 0
125 142 0
135 153 0
128 144 0
126 142 0
129 145 0
122 138 0
133 149 0
121 136 0
124 140 0
127 142 0
127 142 0
135 151 0
129 145 0
129 146 0
131 147 0
118 133 0
113 127 0
126 140 0
132 147 0
118 133 0
111 124 0
114 128 0
124 138 0
117 131 0
125 140 0
135 150 0
122 136 0
123 136 0
128 141 0
123 136 0
118 130 0
118 131 0
119 133 0
120 133 0
117 129 0
119 132 0
122 135 0
110 122 0
115 127 0
114 126 0
115 127 0
120 132 0
123 135 0
121 133 0
113 125 0
125 138 0
126 138 0
116 127 0
131 144 0
120 133 0
118 130 0
128 141 0
120 131 0
125 138 0
115 127 0
123 135 0
134 147 0
120 132 0
122 134 0
127 140 0
134 148 0
127 141 0
128 142 0
133 146 0
137 150 0
134 148 0
136 151 0
141 155 0
137 152 0
132 146 0
134 149 0
148 164 0
134 149 0
135 150 0
137 152 0
144 159 0
147 164 0
144 160 0
146 162 0
154 171 0
147 163 0
153 170 0
145 161 0
156 174 0
148 165 0
153 170 0
144 161 0
154 172 0
148 165 0
155 173 0
157 175 0
154 172 0
153 171 0
160 179 0
158 177 0
158 177 0
161 180 0
164 184 0
158 177 0
156 175 0
160 180 0
164 184 0
160 180 0
157 177 0
161 182 0
165 185 0
162 182 0
159 180 0
154 174 0
163 184 0
165 186 0
166 188 0
166 187 0
162 183 0
164 185 0
170 191 0
163 183 0
158 179 0
162 182 0
162 182 0
166 186 0
163 183 0
161 180 0
165 185 0
160 180 0
163 182 0
165 185 0
162 181 0
158 178 0
154 173 0
158 177 0
157 176 0
158 178 0
162 181 0
156 174 0
160 177 0
161 179 0
154 172 0
150 168 0
158 175 0
155 172 0
156 174 0
154 171 0
155 171 0
149 166 0
154 171 0
153 170 0
152 168 0
154 170 0
150 166 0
142 158 0
148 164 0
153 169 0
147 162 0
148 163 0
140 155 0
144 159 0
138 153 0
140 155 0
138 153 0
143 157 0
134 147 0
132 146 0
136 150 0
131 145 0
138 152 0
137 151 0
126 140 0
133 147 0
134 149 0
131 145 0
136 149 0
129 143 0
131 145 0
131 144 0
143 158 0
133 148 0
130 144 0
131 145 0
121 133 0
134 147 0
134 148 0
135 149 0
125 139 0
126 140 0
130 144 0
127 141 0
127 141 0
127 141 0
127 142 0
130 144 0
128 143 0
135 151 0
128 144 0
137 153 0
136 151 0
132 148 0
134 149 0
136 152 0
133 149 0
134 149 0
135 150 0
125 141 0
140 156 0
139 156 0
131 147 0
135 151 0
137 154 0
132 149 0
137 154 0
130 148 0
142 159 0
136 153 0
139 157 0
133 151 0
139 157 0
136 153 0
139 158 0
133 150 0
142 161 0
133 150 0
132 150 0
139 158 0
138 156 0
140 157 0
139 156 0
143 162 0
130 148 0
128 146 0
134 151 0
139 157 0
127 145 0
136 155 0
129 148 0
127 146 0
130 148 0
139 158 0
136 155 0
130 149 0
132 151 0
137 157 0
126 146 0
131 149 0
141 161 0
142 163 0
137 157 0
126 145 0
137 156 0
133 153 0
131 150 0
138 158 0
136 155 0
126 146 0
140 160 0
133 153 0
131 151 0
133 152 0
131 152 0
132 152 0
134 155 0
133 153 0
130 150 0
135 155 0
142 163 0
130 150 0
139 160 0
132 151 0
129 149 0
132 152 0
128 148 0
139 159 0
130 150 0
126 147 0
130 149 0
132 153 0
124 143 0
126 146 0
135 155 0
123 143 0
124 144 0
127 147 0
124 144 0
117 137 0
130 149 0
120 140 0
138 158 0
127 148 0
124 144 0
133 153 0
123 141 0
125 144 0
126 146 0
121 141 0
112 131 0
124 144 0
126 145 0
119 139 0
127 147 0
120 140 0
128 147 0
125 146 0
125 145 0
121 141 0
119 139 0
121 142 0
113 133 0
114 133 0
122 142 0
117 137 0
125 144 0
120 140 0
124 144 0
123 143 0
116 136 0
124 144 0
117 136 0
122 141 0
111 130 0
109 128 0
128 147 0
112 130 0
131 150 0
128 148 0
122 143 0
131 150 0
127 147 0
111 129 0
111 131 0
120 140 0
132 152 0
115 134 0
132 151 0
128 147 0
135 154 0
117 137 0
139 160 0
121 141 0
123 143 0
129 148 0
120 138 0
126 146 0
111 130 0
129 148 0
129 150 0
123 142 0
126 146 0
123 141 0
117 137 0
132 151 0
131 150 0
126 147 0
138 158 0
128 148 0
117 137 0
126 145 0
125 145 0
128 148 0
128 148 0
123 143 0
124 144 0
140 159 0
130 150 0
133 154 0
132 153 0
126 145 0
127 146 0
133 152 0
123 141 0
124 144 0
131 150 0
130 150 0
137 157 0
123 142 0
125 144 0
142 161 0
137 157 0
144 165 0
126 145 0
129 148 0
135 154 0
136 155 0
143 162 0
140 159 0
134 153 0
136 155 0
122 140 0
133 153 0
122 140 0
136 155 0
130 149 0
127 145 0
138 156 0
135 153 0
125 141 0
126 144 0
126 143 0
137 155 0
120 137 0
128 145 0
128 145 0
129 147 0
134 152 0
143 160 0
125 142 0
123 139 0
123 140 0
137 154 0
125 141 0
131 147 0
127 144 0
124 139 0
126 141 0
124 140 0
123 139 0
126 142 0
127 143 0
127 142 0
129 145 0
125 140 0
126 141 0
130 145 0
131 147 0
132 148 0
124 139 0
118 132 0
128 143 0
121 136 0
123 136 0
121 135 0
130 144 0
116 129 0
119 132 0
132 146 0
131 145 0
126 139 0
122 135 0
110 122 0
124 137 0
119 131 0
130 143 0
116 128 0
121 133 0
125 138 0
113 124 0
131 143 0
128 141 0
121 132 0
118 130 0
125 137 0
129 142 0
127 140 0
129 143 0
119 131 0
125 138 0
127 140 0
135 148 0
127 140 0
126 139 0
133 146 0
122 135 0
142 157 0
133 147 0
132 146 0
136 149 0
133 147 0
138 153 0
130 145 0
134 148 0
144 159 0
138 153 0
145 161 0
141 156 0
142 157 0
145 162 0
143 158 0
136 151 0
139 154 0
149 165 0
142 157 0
149 165 0
144 161 0
147 165 0
148 165 0
154 172 0
154 171 0
150 168 0
158 176 0
154 171 0
157 175 0
148 166 0
151 168 0
158 177 0
161 180 0
152 170 0
155 174 0
152 170 0
155 174 0
161 180 0
159 180 0
152 171 0
158 178 0
156 174 0
163 183 0
160 180 0
158 178 0
159 179 0
161 182 0
158 176 0
160 180 0
165 185 0
169 190 0
168 189 0
167 187 0
165 186 0
169 190 0
159 179 0
168 187 0
160 180 0
165 185 0
163 182 0
163 183 0
162 181 0
162 181 0
162 181 0
163 182 0
165 184 0
161 180 0
162 181 0
162 181 0
157 176 0
160 178 0
156 173 0
156 175 0
156 174 0
162 181 0
162 181 0
163 181 0
151 168 0
156 173 0
159 176 0
155 172 0
160 178 0
152 169 0
158 175 0
157 174 0
153 169 0
154 170 0
150 167 0
152 168 0
147 163 0
145 161 0
147 164 0
143 158 0
143 158 0
140 155 0
148 164 0
141 157 0
145 161 0
138 152 0
139 154 0
138 152 0
134 149 0
133 147 0
140 154 0
139 153 0
142 157 0
135 150 0
137 152 0
136 151 0
140 154 0
131 145 0
135 149 0
142 156 0
134 148 0
130 144 0
123 137 0
134 148 0
123 136 0
125 138 0
137 150 0
124 138 0
137 151 0
122 135 0
133 147 0
134 149 0
129 144 0
139 155 0
140 155 0
132 148 0
134 150 0
129 143 0
134 149 0
133 149 0
135 150 0
136 152 0
130 146 0
130 145 0
130 146 0
136 152 0
139 155 0
132 147 0
135 151 0
143 159 0
140 156 0
140 158 0
129 146 0
133 150 0
140 158 0
135 154 0
138 156 0
133 149 0
131 148 0
138 156 0
138 156 0
130 147 0
133 151 0
139 157 0
128 146 0
131 149 0
137 156 0
134 152 0
142 161 0
135 154 0
140 160 0
143 162 0
134 152 0
140 160 0
138 158 0
131 150 0
131 150 0
138 157 0
144 162 0
141 160 0
134 152 0
131 150 0
146 166 0
136 155 0
140 159 0
132 152 0
141 161 0
129 149 0
136 157 0
133 152 0
128 148 0
145 165 0
139 160 0
140 161 0
140 160 0
138 157 0
137 157 0
141 161 0
144 165 0
137 158 0
142 163 0
134 154 0
137 158 0
129 150 0
140 159 0
138 159 0
139 159 0
130 151 0
125 145 0
139 159 0
134 154 0
130 150 0
142 163 0
133 154 0
131 152 0
140 160 0
140 159 0
128 147 0
138 159 0
133 152 0
133 153 0
130 151 0
125 144 0
125 144 0
133 153 0
127 146 0
137 157 0
127 148 0
133 154 0
124 144 0
127 147 0
128 148 0
119 139 0
131 151 0
126 146 0
126 146 0
124 145 0
128 148 0
122 142 0
126 146 0
124 143 0
123 143 0
118 139 0
119 138 0
121 141 0
128 148 0
124 145 0
115 134 0
118 137 0
117 136 0
123 144 0
129 148 0
122 142 0
119 138 0
119 140 0
126 146 0
128 148 0
124 145 0
122 140 0
125 145 0
141 162 0
115 135 0
124 143 0
127 146 0
138 159 0
126 145 0
129 149 0
132 153 0
124 145 0
126 145 0
127 147 0
124 144 0
125 143 0
129 148 0
123 144 0
125 145 0
127 147 0
126 145 0
118 138 0
130 150 0
130 151 0
132 152 0
124 143 0
130 150 0
138 158 0
120 141 0
112 132 0
117 135 0
118 138 0
134 155 0
118 138 0
128 148 0
122 142 0
134 155 0
128 148 0
133 153 0
133 153 0
130 151 0
129 149 0
137 157 0
134 154 0
130 150 0
128 147 0
132 153 0
129 149 0
135 155 0
124 143 0
119 139 0
124 144 0
136 156 0
130 150 0
139 159 0
133 153 0
131 151 0
133 153 0
125 144 0
128 148 0
136 157 0
119 137 0
136 156 0
134 154 0
130 149 0
137 157 0
131 150 0
135 154 0
121 140 0
127 146 0
137 157 0
132 152 0
128 147 0
133 152 0
131 150 0
128 145 0
127 145 0
132 150 0
143 162 0
131 150 0
129 147 0
134 153 0
138 156 0
137 155 0
124 141 0
132 150 0
139 157 0
142 160 0
123 140 0
134 152 0
137 155 0
143 162 0
129 146 0
135 152 0
132 151 0
136 152 0
126 143 0
134 150 0
128 144 0
131 148 0
133 149 0
126 141 0
139 156 0
124 141 0
132 147 0
132 148 0
130 147 0
117 132 0
127 142 0
128 143 0
128 143 0
120 134 0
127 143 0
130 144 0
129 144 0
120 133 0
134 149 0
131 147 0
131 147 0
132 146 0
119 133 0
128 143 0
124 138 0
126 139 0
119 132 0
119 132 0
126 140 0
120 134 0
120 134 0
126 139 0
123 136 0
135 149 0
125 138 0
127 139 0
115 127 0
120 132 0
124 137 0
127 139 0
133 146 0
118 129 0
120 133 0
119 131 0
125 137 0
131 144 0
135 149 0
128 141 0
126 140 0
122 134 0
127 141 0
128 141 0
131 144 0
133 147 0
131 144 0
133 147 0
139 154 0
134 147 0
129 142 0
149 164 0
142 156 0
139 154 0
135 150 0
139 154 0
141 157 0
146 162 0
131 146 0
146 162 0
145 161 0
139 155 0
147 162 0
145 161 0
150 167 0
147 164 0
148 164 0
148 164 0
147 164 0
148 165 0
153 170 0
153 172 0
152 170 0
144 161 0
145 162 0
154 171 0
157 176 0
148 165 0
150 169 0
152 171 0
152 170 0
155 175 0
155 175 0
154 173 0
161 181 0
154 172 0
161 180 0
161 181 0
159 178 0
156 175 0
159 179 0
157 177 0
160 180 0
159 180 0
165 185 0
164 184 0
168 189 0
165 185 0
160 180 0
165 185 0
166 185 0
167 187 0
166 185 0
162 182 0
159 178 0
159 179 0
160 180 0
164 183 0
160 179 0
154 171 0
164 183 0
159 177 0
160 180 0
164 183 0
162 181 0
165 183 0
160 177 0
157 175 0
150 167 0
158 177 0
157 174 0
155 172 0
151 169 0
160 177 0
157 174 0
155 173 0
155 171 0
147 162 0
152 169 0
148 165 0
148 164 0
150 167 0
149 166 0
146 162 0
147 162 0
147 162 0
148 164 0
146 162 0
137 152 0
143 158 0
145 160 0
140 155 0
141 157 0
146 161 0
141 156 0
141 156 0
140 155 0
143 158 0
141 155 0
138 153 0
134 147 0
141 156 0
130 143 0
138 153 0
138 152 0
133 148 0
136 150 0
138 153 0
142 157 0
141 155 0
139 153 0
141 157 0
143 159 0
138 153 0
142 158 0
136 151 0
147 162 0
136 150 0
139 155 0
128 142 0
134 149 0
138 153 0
140 157 0
130 146 0
135 150 0
131 147 0
140 156 0
139 155 0
136 152 0
135 152 0
141 157 0
138 155 0
130 146 0
136 153 0
137 153 0
133 150 0
128 146 0
138 155 0
142 160 0
142 159 0
141 159 0
143 161 0
137 154 0
144 161 0
133 151 0
137 155 0
136 154 0
145 164 0
131 149 0
128 146 0
138 157 0
140 157 0
140 158 0
129 149 0
136 155 0
123 141 0
138 157 0
132 150 0
128 146 0
138 157 0
132 150 0
139 158 0
132 151 0
137 157 0
129 147 0
135 154 0
137 156 0
139 159 0
132 151 0
141 160 0
136 155 0
137 156 0
143 161 0
137 157 0
140 161 0
139 160 0
146 165 0
127 146 0
135 156 0
136 155 0
139 159 0
126 146 0
135 154 0
134 155 0
134 155 0
132 153 0
133 153 0
136 156 0
133 154 0
136 156 0
128 149 0
129 149 0
132 152 0
134 154 0
130 150 0
123 144 0
125 145 0
137 156 0
137 157 0
131 151 0
133 154 0
133 154 0
133 153 0
130 149 0
133 153 0
131 151 0
135 155 0
135 155 0
140 161 0
127 148 0
133 155 0
125 146 0
121 140 0
120 141 0
124 144 0
117 137 0
136 156 0
127 147 0
117 137 0
125 146 0
134 153 0
122 142 0
135 155 0
127 146 0
135 154 0
126 147 0
116 136 0
126 146 0
128 147 0
132 154 0
130 150 0
131 152 0
119 138 0
129 149 0
119 138 0
129 149 0
118 137 0
132 153 0
125 146 0
131 151 0
139 160 0
116 136 0
125 146 0
117 138 0
123 143 0
125 145 0
126 145 0
120 140 0
121 141 0
135 154 0
119 139 0
121 141 0
127 146 0
123 143 0
135 156 0
137 158 0
123 143 0
134 155 0
126 146 0
130 150 0
132 152 0
136 156 0
119 139 0
131 152 0
128 148 0
131 151 0
138 158 0
135 156 0
132 151 0
123 143 0
125 144 0
127 147 0
132 153 0
127 146 0
133 154 0
131 151 0
132 152 0
120 140 0
134 154 0
130 150 0
116 135 0
134 154 0
131 151 0
134 154 0
122 142 0
130 149 0
125 144 0
134 154 0
131 150 0
136 156 0
126 145 0
131 152 0
134 155 0
126 146 0
140 161 0
129 149 0
141 162 0
138 158 0
131 151 0
134 154 0
140 159 0
129 148 0
139 161 0
138 158 0
130 149 0
133 153 0
136 156 0
131 151 0
139 158 0
137 156 0
137 158 0
134 154 0
149 168 0
137 157 0
141 161 0
134 152 0
139 158 0
138 157 0
134 154 0
130 148 0
128 146 0
135 153 0
133 152 0
139 159 0
142 162 0
141 161 0
128 146 0
133 150 0
112 129 0
132 150 0
122 139 0
134 153 0
138 156 0
142 161 0
125 142 0
127 145 0
130 147 0
142 160 0
133 150 0
129 146 0
132 148 0
122 138 0
124 140 0
128 145 0
137 155 0
126 142 0
134 151 0
128 143 0
132 148 0
139 156 0
132 148 0
132 147 0
120 135 0
144 162 0
130 146 0
128 144 0
129 145 0
116 132 0
126 142 0
127 141 0
131 146 0
129 145 0
131 146 0
128 143 0
127 142 0
125 140 0
123 137 0
127 142 0
127 142 0
126 140 0
128 142 0
129 143 0
125 138 0
124 137 0
121 134 0
128 142 0
127 141 0
133 147 0
123 136 0
132 147 0
134 147 0
122 135 0
134 148 0
124 137 0
128 141 0
127 141 0
120 132 0
125 139 0
130 143 0
125 138 0
125 138 0
133 147 0
122 135 0
124 137 0
128 141 0
130 143 0
134 148 0
132 146 0
128 141 0
135 150 0
133 148 0
136 151 0
133 148 0
133 147 0
139 155 0
133 147 0
141 156 0
143 158 0
139 154 0
140 155 0
144 160 0
134 148 0
141 157 0
149 166 0
145 161 0
150 166 0
145 161 0
150 168 0
146 163 0
155 172 0
155 173 0
153 171 0
156 174 0
156 174 0
156 174 0
146 164 0
151 170 0
154 173 0
153 170 0
155 174 0
153 172 0
154 172 0
148 165 0
154 173 0
159 178 0
153 172 0
163 182 0
157 177 0
152 172 0
162 182 0
163 182 0
157 177 0
154 173 0
158 178 0
165 185 0
165 185 0
164 184 0
164 185 0
166 186 0
167 187 0
164 184 0
166 186 0
162 180 0
164 183 0
167 186 0
159 178 0
161 180 0
160 178 0
157 176 0
159 178 0
159 178 0
157 175 0
162 181 0
158 176 0
160 178 0
157 175 0
154 172 0
151 169 0
158 176 0
161 179 0
159 176 0
156 174 0
151 168 0
148 165 0
153 170 0
150 167 0
144 161 0
151 168 0
147 163 0
151 167 0
151 168 0
143 160 0
150 166 0
149 166 0
141 157 0
151 166 0
144 159 0
151 167 0
146 162 0
144 158 0
137 152 0
144 160 0
143 158 0
144 159 0
146 161 0
141 156 0
147 163 0
139 153 0
140 156 0
138 153 0
142 157 0
142 157 0
142 157 0
145 160 0
130 144 0
140 155 0
131 145 0
143 159 0
137 152 0
135 150 0
140 155 0
138 152 0
139 153 0
131 146 0
140 156 0
136 151 0
137 152 0
143 160 0
137 152 0
139 155 0
141 156 0
140 156 0
133 148 0
136 152 0
143 159 0
139 157 0
135 152 0
141 159 0
135 152 0
138 155 0
134 151 0
140 157 0
133 149 0
141 158 0
140 157 0
140 156 0
134 151 0
140 157 0
136 153 0
134 151 0
137 154 0
145 164 0
144 161 0
134 151 0
149 168 0
145 163 0
140 159 0
131 149 0
146 165 0
133 151 0
137 155 0
146 165 0
142 160 0
140 158 0
140 160 0
132 151 0
141 160 0
137 155 0
132 150 0
138 156 0
131 149 0
140 159 0
143 162 0
140 159 0
134 152 0
143 162 0
131 150 0
140 160 0
148 169 0
139 159 0
144 164 0
143 163 0
135 156 0
140 159 0
131 151 0
144 164 0
137 157 0
140 160 0
141 162 0
140 160 0
142 162 0
136 156 0
144 164 0
131 151 0
134 154 0
137 156 0
127 148 0
137 158 0
137 158 0
140 160 0
132 153 0
136 156 0
130 150 0
130 149 0
139 160 0
137 158 0
140 161 0
132 152 0
126 146 0
130 150 0
139 160 0
132 153 0
133 153 0
124 145 0
134 153 0
135 155 0
132 153 0
124 144 0
129 149 0
127 148 0
135 155 0
123 144 0
130 151 0
131 151 0
128 148 0
127 147 0
131 152 0
134 155 0
133 153 0
127 147 0
138 159 0
132 153 0
121 142 0
121 142 0
134 154 0
118 138 0
125 145 0
136 157 0
128 149 0
127 147 0
124 144 0
134 154 0
129 150 0
126 145 0
122 142 0
134 154 0
126 146 0
124 144 0
115 135 0
122 142 0
125 146 0
120 140 0
133 154 0
119 137 0
130 150 0
126 146 0
128 149 0
125 146 0
129 149 0
120 139 0
127 148 0
128 149 0
121 141 0
130 151 0
118 136 0
129 150 0
121 141 0
117 137 0
125 145 0
124 145 0
125 144 0
133 154 0
130 150 0
120 141 0
129 149 0
124 144 0
126 146 0
135 155 0
134 154 0
128 148 0
131 153 0
128 148 0
133 153 0
128 149 0
122 141 0
133 153 0
133 153 0
136 157 0
131 151 0
129 148 0
130 150 0
130 150 0
130 151 0
127 148 0
133 152 0
141 162 0
133 153 0
123 142 0
131 150 0
120 141 0
134 154 0
135 154 0
128 148 0
126 145 0
131 152 0
133 153 0
139 159 0
126 146 0
131 152 0
129 150 0
132 152 0
136 157 0
135 155 0
140 161 0
126 145 0
136 156 0
139 160 0
125 145 0
122 140 0
136 156 0
122 141 0
135 153 0
130 150 0
124 143 0
143 163 0
137 156 0
140 160 0
143 163 0
140 159 0
134 152 0
134 152 0
144 163 0
143 162 0
147 165 0
128 147 0
136 154 0
138 157 0
134 154 0
140 159 0
133 151 0
130 148 0
146 164 0
139 158 0
142 160 0
134 153 0
133 151 0
130 147 0
135 153 0
131 148 0
133 150 0
129 147 0
131 149 0
140 158 0
128 145 0
139 158 0
136 154 0
132 150 0
141 158 0
128 144 0
135 151 0
135 152 0
137 154 0
129 146 0
133 149 0
136 153 0
133 150 0
132 148 0
125 141 0
137 153 0
128 144 0
128 143 0
130 144 0
123 137 0
129 145 0
124 139 0
130 145 0
127 143 0
131 146 0
129 143 0
128 142 0
120 133 0
125 139 0
132 147 0
132 148 0
131 145 0
124 139 0
119 133 0
137 152 0
119 132 0
129 142 0
121 134 0
128 143 0
123 137 0
124 137 0
135 149 0
141 155 0
130 143 0
121 134 0
129 143 0
128 141 0
128 142 0
126 139 0
124 138 0
130 144 0
136 150 0
133 147 0
129 142 0
136 150 0
141 156 0
133 147 0
131 145 0
141 155 0
140 154 0
138 153 0
140 156 0
138 153 0
140 154 0
135 150 0
147 164 0
150 166 0
139 154 0
142 158 0
150 166 0
148 165 0
145 160 0
146 163 0
154 171 0
141 157 0
150 167 0
150 167 0
149 167 0
155 172 0
153 171 0
147 165 0
146 163 0
155 173 0
148 165 0
155 173 0
157 176 0
152 170 0
157 175 0
159 177 0
154 172 0
159 179 0
158 178 0
160 179 0
158 176 0
154 172 0
159 179 0
158 177 0
161 181 0
159 179 0
157 176 0
160 181 0
161 181 0
162 182 0
164 185 0
157 176 0
163 183 0
162 181 0
164 183 0
162 181 0
160 180 0
162 181 0
163 182 0
159 178 0
163 182 0
166 184 0
158 176 0
163 181 0
159 179 0
157 175 0
156 175 0
159 177 0
154 172 0
155 173 0
156 174 0
154 172 0
154 171 0
151 168 0
153 170 0
150 166 0
154 171 0
155 172 0
158 175 0
149 165 0
155 172 0
147 163 0
149 166 0
151 168 0
147 164 0
146 162 0
147 162 0
144 159 0
153 169 0
142 158 0
147 162 0
146 162 0
142 159 0
143 159 0
146 161 0
147 163 0
146 161 0
136 150 0
144 159 0
135 149 0
137 151 0
144 160 0
145 161 0
148 164 0
131 147 0
137 152 0
137 152 0
138 154 0
137 152 0
130 145 0
138 153 0
142 158 0
139 155 0
142 157 0
135 149 0
137 153 0
142 158 0
130 146 0
135 150 0
137 153 0
137 153 0
149 165 0
139 156 0
142 158 0
138 154 0
144 160 0
149 167 0
143 159 0
144 161 0
136 153 0
143 159 0
135 151 0
138 155 0
137 153 0
144 161 0
146 163 0
136 153 0
136 155 0
138 154 0
138 155 0
144 162 0
143 160 0
138 156 0
133 150 0
143 162 0
142 160 0
147 165 0
138 157 0
138 156 0
139 157 0
133 151 0
139 157 0
135 153 0
136 154 0
140 159 0
139 159 0
137 155 0
142 161 0
149 168 0
145 163 0
141 161 0
136 155 0
128 148 0
144 163 0
141 161 0
136 155 0
144 164 0
146 166 0
142 162 0
141 159 0
133 153 0
133 153 0
133 153 0
135 155 0
138 158 0
142 162 0
141 162 0
137 157 0
141 162 0
144 165 0
142 163 0
145 165 0
143 164 0
145 166 0
137 157 0
142 162 0
138 157 0
131 152 0
140 159 0
137 158 0
136 157 0
137 157 0
132 151 0
139 160 0
139 160 0
136 157 0
134 156 0
146 168 0
139 160 0
147 168 0
129 149 0
138 159 0
138 158 0
134 155 0
148 170 0
133 154 0
134 153 0
130 150 0
127 148 0
138 159 0
133 152 0
131 153 0
138 158 0
142 162 0
128 148 0
132 152 0
136 157 0
137 159 0
125 144 0
131 152 0
127 147 0
132 152 0
132 153 0
133 152 0
133 153 0
143 164 0
121 141 0
134 154 0
132 153 0
134 154 0
130 150 0
128 149 0
131 151 0
132 152 0
131 153 0
120 141 0
129 149 0
126 146 0
139 160 0
136 157 0
129 150 0
123 144 0
140 160 0
129 149 0
119 139 0
126 147 0
125 146 0
126 147 0
131 152 0
130 150 0
127 148 0
134 154 0
119 140 0
124 144 0
125 145 0
128 149 0
130 150 0
129 149 0
126 147 0
126 147 0
131 151 0
130 150 0
122 142 0
123 143 0
124 144 0
120 140 0
137 157 0
133 154 0
132 152 0
131 151 0
133 153 0
122 143 0
127 147 0
127 147 0
132 151 0
122 143 0
116 137 0
129 147 0
129 150 0
135 155 0
127 147 0
133 155 0
134 155 0
120 140 0
135 155 0
129 148 0
134 154 0
134 155 0
131 151 0
132 152 0
134 154 0
132 152 0
127 147 0
138 159 0
134 155 0
126 147 0
125 145 0
128 147 0
132 152 0
130 150 0
130 150 0
139 160 0
141 161 0
139 158 0
134 153 0
137 157 0
134 154 0
128 147 0
135 154 0
141 162 0
133 154 0
122 141 0
127 148 0
150 170 0
128 149 0
137 157 0
140 160 0
139 159 0
132 152 0
129 148 0
137 156 0
131 150 0
134 154 0
137 157 0
134 152 0
131 150 0
136 155 0
137 156 0
130 148 0
133 151 0
134 153 0
135 154 0
144 164 0
134 153 0
134 152 0
124 142 0
138 157 0
129 148 0
131 149 0
137 156 0
134 153 0
130 148 0
125 143 0
134 152 0
143 163 0
129 146 0
130 146 0
136 154 0
137 155 0
127 144 0
145 163 0
148 166 0
134 151 0
135 152 0
136 152 0
124 139 0
135 151 0
135 152 0
124 140 0
127 143 0
133 151 0
133 149 0
134 149 0
137 153 0
127 143 0
132 147 0
135 150 0
136 152 0
131 147 0
127 142 0
128 143 0
131 146 0
136 152 0
131 147 0
132 147 0
123 137 0
130 145 0
137 152 0
133 149 0
133 147 0
133 148 0
133 147 0
124 138 0
137 152 0
120 133 0
131 145 0
133 147 0
133 147 0
134 148 0
126 140 0
132 147 0
131 145 0
126 140 0
129 143 0
141 157 0
138 152 0
141 156 0
135 150 0
135 149 0
135 149 0
137 152 0
125 139 0
144 160 0
127 141 0
136 150 0
137 151 0
140 155 0
140 155 0
137 151 0
131 144 0
143 158 0
139 154 0
151 167 0
142 158 0
145 161 0
146 162 0
146 162 0
146 162 0
135 150 0
140 156 0
146 163 0
145 161 0
152 169 0
146 162 0
143 159 0
153 170 0
151 168 0
152 169 0
156 174 0
154 171 0
148 165 0
151 169 0
149 166 0
153 171 0
156 174 0
149 167 0
158 177 0
160 179 0
154 171 0
155 174 0
156 175 0
156 175 0
160 180 0
156 174 0
156 176 0
160 179 0
163 182 0
158 176 0
162 182 0
161 181 0
164 184 0
160 180 0
161 181 0
165 185 0
161 180 0
166 186 0
163 182 0
158 176 0
154 173 0
162 181 0
158 177 0
164 181 0
162 180 0
157 175 0
160 178 0
161 180 0
156 174 0
159 177 0
161 179 0
158 174 0
153 171 0
154 172 0
155 172 0
157 174 0
153 170 0
157 173 0
157 174 0
155 172 0
151 169 0
151 168 0
151 168 0
152 168 0
150 166 0
150 167 0
152 168 0
145 161 0
151 168 0
137 153 0
150 166 0
145 161 0
143 158 0
144 160 0
147 161 0
138 153 0
146 160 0
148 165 0
143 158 0
146 161 0
139 154 0
138 153 0
137 152 0
142 158 0
136 151 0
138 152 0
139 154 0
152 168 0
149 166 0
141 156 0
147 163 0
141 157 0
136 151 0
144 159 0
151 167 0
142 157 0
136 151 0
136 152 0
139 155 0
138 154 0
139 154 0
135 151 0
150 167 0
141 157 0
137 153 0
136 152 0
139 156 0
142 158 0
135 152 0
142 159 0
139 156 0
140 157 0
140 157 0
136 153 0
135 152 0
138 154 0
141 159 0
153 171 0
136 153 0
147 166 0
142 160 0
143 161 0
134 151 0
134 150 0
141 159 0
147 165 0
144 162 0
133 151 0
143 162 0
139 158 0
136 155 0
134 152 0
139 157 0
140 158 0
141 158 0
142 162 0
148 168 0
133 152 0
144 165 0
154 173 0
141 161 0
134 153 0
138 159 0
138 157 0
136 155 0
132 151 0
137 156 0
142 161 0
133 154 0
138 157 0
137 158 0
125 145 0
135 155 0
138 159 0
145 165 0
135 155 0
145 165 0
142 163 0
142 162 0
143 163 0
139 159 0
141 161 0
128 148 0
137 157 0
140 160 0
148 168 0
139 159 0
136 156 0
142 163 0
138 159 0
135 157 0
132 152 0
134 155 0
148 168 0
137 156 0
143 164 0
132 152 0
137 158 0
134 155 0
132 153 0
131 153 0
133 153 0
131 153 0
128 148 0
128 148 0
134 155 0
131 151 0
129 151 0
138 159 0
137 159 0
132 153 0
136 157 0
135 155 0
126 146 0
127 147 0
123 143 0
138 158 0
129 150 0
136 157 0
130 151 0
131 151 0
138 159 0
133 153 0
120 140 0
134 154 0
129 149 0
137 157 0
132 152 0
137 157 0
135 157 0
136 157 0
123 143 0
131 151 0
134 155 0
124 145 0
133 153 0
131 151 0
135 156 0
133 154 0
140 161 0
129 149 0
133 153 0
129 150 0
123 143 0
126 147 0
120 141 0
126 146 0
135 155 0
133 153 0
137 158 0
121 141 0
132 152 0
134 156 0
124 145 0
125 147 0
133 153 0
136 156 0
132 151 0
129 150 0
121 142 0
127 147 0
134 155 0
137 157 0
126 146 0
121 141 0
124 145 0
135 156 0
132 153 0
134 155 0
137 158 0
128 148 0
130 150 0
134 155 0
127 147 0
143 164 0
139 160 0
128 148 0
130 150 0
132 152 0
134 155 0
127 147 0
125 145 0
128 149 0
148 169 0
131 150 0
125 146 0
135 155 0
125 145 0
133 154 0
128 148 0
137 158 0
134 155 0
132 152 0
133 153 0
127 148 0
139 160 0
130 150 0
141 161 0
135 156 0
136 157 0
134 155 0
136 157 0
130 150 0
133 153 0
135 156 0
141 162 0
127 147 0
138 158 0
135 154 0
138 157 0
135 155 0
139 159 0
134 155 0
130 150 0
134 155 0
136 156 0
129 148 0
138 159 0
144 165 0
135 154 0
144 165 0
142 162 0
139 159 0
136 155 0
133 153 0
138 158 0
138 157 0
139 160 0
140 160 0
135 154 0
137 156 0
139 158 0
134 153 0
144 163 0
139 158 0
136 154 0
126 144 0
135 153 0
135 154 0
131 149 0
130 148 0
131 149 0
142 162 0
132 151 0
132 149 0
143 161 0
130 148 0
138 156 0
137 155 0
133 151 0
136 155 0
142 161 0
135 152 0
135 152 0
152 170 0
134 152 0
139 156 0
129 146 0
135 151 0
141 158 0
138 156 0
135 152 0
131 148 0
144 162 0
128 143 0
140 157 0
135 150 0
134 149 0
136 152 0
135 151 0
135 152 0
135 150 0
130 146 0
142 158 0
133 149 0
130 144 0
130 145 0
130 146 0
139 156 0
138 154 0
128 142 0
139 155 0
132 146 0
136 151 0
136 151 0
135 151 0
127 142 0
131 145 0
117 130 0
126 140 0
127 142 0
129 143 0
137 152 0
129 143 0
134 149 0
133 148 0
127 140 0
128 142 0
122 135 0
130 145 0
129 144 0
139 154 0
135 150 0
141 156 0
134 149 0
139 154 0
145 161 0
141 156 0
131 146 0
142 156 0
132 146 0
139 154 0
139 154 0
147 163 0
139 154 0
149 165 0
140 155 0
147 162 0
138 153 0
145 160 0
145 160 0
151 168 0
143 159 0
143 159 0
151 168 0
149 166 0
147 163 0
146 162 0
149 165 0
152 168 0
154 173 0
154 172 0
146 163 0
151 170 0
149 166 0
156 175 0
151 169 0
151 168 0
147 165 0
152 170 0
153 171 0
157 175 0
158 177 0
158 177 0
144 162 0
158 178 0
155 174 0
160 179 0
157 177 0
159 177 0
167 186 0
163 182 0
164 184 0
160 180 0
157 177 0
159 178 0
165 184 0
163 182 0
161 180 0
163 182 0
161 181 0
157 176 0
162 181 0
156 173 0
159 177 0
159 177 0
157 175 0
156 174 0
160 178 0
151 169 0
154 171 0
154 172 0
153 171 0
151 168 0
149 166 0
153 170 0
156 173 0
151 169 0
149 166 0
157 175 0
155 173 0
147 163 0
149 166 0
143 159 0
138 155 0
154 170 0
151 168 0
148 164 0
153 169 0
146 162 0
151 167 0
149 165 0
151 168 0
141 157 0
146 162 0
148 165 0
150 166 0
146 162 0
142 158 0
153 170 0
147 164 0
150 166 0
143 159 0
145 161 0
145 162 0
146 162 0
144 160 0
144 160 0
144 160 0
138 154 0
144 160 0
152 168 0
142 157 0
140 156 0
136 151 0
148 165 0
151 168 0
147 164 0
144 160 0
142 159 0
143 160 0
143 160 0
138 154 0
134 151 0
140 157 0
141 158 0
143 161 0
148 166 0
144 161 0
145 162 0
138 156 0
142 160 0
149 168 0
142 160 0
143 161 0
145 162 0
145 163 0
149 168 0
138 155 0
141 160 0
132 150 0
143 161 0
137 155 0
142 160 0
135 153 0
139 157 0
132 150 0
143 160 0
145 164 0
138 156 0
135 155 0
149 168 0
143 161 0
141 161 0
142 161 0
146 165 0
143 163 0
136 156 0
145 164 0
135 154 0
147 167 0
136 155 0
145 165 0
136 156 0
144 163 0
138 157 0
142 161 0
135 153 0
141 161 0
144 163 0
142 162 0
142 162 0
141 161 0
143 163 0
137 158 0
138 159 0
146 166 0
141 161 0
143 163 0
141 160 0
142 162 0
139 159 0
137 157 0
133 153 0
140 162 0
141 162 0
147 167 0
147 169 0
136 157 0
131 151 0
141 162 0
137 157 0
136 157 0
132 154 0
151 172 0
134 153 0
143 163 0
135 154 0
129 149 0
138 160 0
131 152 0
127 148 0
136 155 0
131 152 0
142 162 0
131 152 0
143 164 0
134 154 0
132 152 0
139 159 0
140 161 0
137 158 0
136 158 0
136 156 0
141 163 0
133 152 0
128 148 0
126 148 0
130 151 0
138 158 0
130 151 0
130 151 0
137 159 0
137 157 0
137 158 0
132 152 0
129 150 0
133 153 0
133 155 0
126 147 0
138 160 0
132 152 0
126 148 0
136 158 0
137 159 0
127 147 0
126 147 0
134 155 0
136 157 0
128 148 0
136 157 0
135 156 0
136 157 0
133 153 0
128 149 0
134 154 0
130 151 0
137 157 0
121 142 0
117 137 0
132 153 0
131 151 0
145 166 0
130 151 0
129 150 0
121 141 0
130 150 0
130 151 0
124 145 0
128 147 0
120 140 0
130 151 0
114 133 0
127 147 0
126 147 0
142 163 0
126 145 0
131 151 0
131 151 0
126 147 0
138 159 0
135 156 0
136 156 0
132 153 0
130 151 0
131 151 0
127 148 0
134 154 0
132 152 0
128 148 0
135 155 0
131 150 0
137 157 0
132 154 0
138 159 0
126 146 0
125 145 0
146 166 0
128 148 0
138 159 0
138 158 0
130 151 0
131 151 0
134 155 0
129 150 0
143 163 0
127 149 0
130 150 0
139 161 0
136 156 0
128 148 0
139 158 0
140 160 0
134 153 0
138 159 0
136 155 0
140 161 0
138 159 0
139 158 0
140 160 0
136 157 0
133 154 0
142 163 0
135 154 0
138 157 0
140 161 0
130 149 0
136 156 0
137 157 0
142 162 0
129 149 0
136 157 0
139 159 0
136 155 0
131 151 0
138 158 0
139 159 0
135 154 0
140 160 0
136 156 0
136 156 0
138 157 0
140 160 0
139 157 0
133 151 0
144 164 0
133 152 0
131 151 0
134 153 0
133 151 0
140 159 0
125 143 0
141 159 0
131 150 0
144 164 0
128 145 0
135 154 0
140 159 0
133 151 0
124 141 0
128 146 0
140 158 0
140 158 0
134 151 0
132 149 0
140 158 0
136 153 0
139 156 0
128 144 0
136 154 0
135 151 0
130 147 0
141 158 0
137 153 0
134 151 0
141 158 0
138 155 0
140 155 0
129 145 0
132 148 0
136 153 0
134 149 0
124 139 0
129 145 0
131 146 0
132 148 0
130 146 0
142 158 0
137 153 0
135 150 0
139 155 0
145 161 0
138 153 0
125 139 0
135 150 0
132 146 0
129 145 0
128 142 0
129 144 0
133 148 0
127 141 0
134 148 0
132 146 0
137 152 0
130 145 0
130 145 0
139 154 0
136 150 0
138 153 0
135 149 0
137 151 0
140 156 0
133 148 0
136 150 0
135 149 0
143 158 0
144 159 0
147 162 0
128 142 0
144 160 0
134 148 0
139 154 0
139 154 0
143 159 0
137 151 0
144 161 0
143 158 0
135 150 0
144 159 0
141 156 0
152 168 0
146 162 0
147 164 0
150 166 0
149 165 0
145 161 0
147 163 0
145 162 0
148 165 0
136 153 0
152 169 0
149 165 0
142 159 0
157 175 0
154 172 0
157 175 0
154 172 0
156 174 0
148 166 0
153 172 0
155 173 0
159 178 0
155 173 0
158 177 0
153 171 0
155 173 0
154 172 0
156 176 0
153 172 0
157 176 0
160 179 0
162 181 0
160 180 0
162 182 0
159 178 0
162 181 0
157 175 0
160 179 0
165 184 0
156 174 0
158 177 0
161 180 0
153 171 0
153 172 0
161 179 0
162 181 0
162 180 0
153 171 0
156 175 0
155 173 0
155 173 0
155 172 0
154 171 0
156 174 0
145 161 0
154 172 0
154 172 0
157 176 0
158 175 0
151 168 0
150 166 0
147 163 0
155 173 0
147 162 0
144 160 0
150 167 0
141 158 0
150 166 0
144 161 0
147 164 0
152 168 0
150 166 0
147 163 0
147 163 0
146 162 0
147 163 0
146 162 0
149 166 0
145 161 0
143 160 0
145 161 0
143 160 0
144 160 0
142 159 0
147 163 0
148 164 0
141 157 0
148 164 0
143 159 0
139 154 0
145 161 0
138 155 0
142 158 0
149 166 0
142 159 0
144 162 0
145 163 0
133 150 0
146 162 0
139 156 0
137 153 0
145 162 0
140 157 0
143 160 0
142 159 0
145 163 0
143 161 0
145 163 0
140 157 0
136 152 0
149 167 0
148 165 0
144 162 0
146 164 0
138 156 0
143 162 0
143 162 0
147 165 0
146 164 0
142 161 0
155 174 0
148 167 0
146 163 0
143 161 0
152 172 0
140 159 0
142 161 0
150 169 0
144 163 0
143 162 0
147 166 0
143 161 0
139 157 0
144 163 0
151 170 0
146 165 0
143 163 0
140 159 0
143 161 0
130 149 0
140 160 0
137 157 0
141 160 0
140 159 0
151 171 0
137 156 0
142 162 0
137 157 0
140 161 0
142 162 0
133 152 0
144 163 0
138 158 0
140 160 0
137 156 0
132 152 0
148 168 0
138 160 0
144 165 0
137 157 0
146 166 0
146 167 0
145 165 0
136 156 0
148 169 0
134 154 0
148 168 0
143 165 0
141 162 0
138 159 0
135 156 0
131 151 0
133 153 0
138 158 0
141 162 0
137 158 0
146 167 0
134 155 0
138 159 0
142 162 0
140 161 0
140 160 0
143 165 0
133 154 0
132 152 0
140 162 0
139 159 0
141 161 0
149 170 0
134 155 0
135 156 0
136 156 0
132 153 0
139 160 0
123 142 0
130 151 0
145 165 0
134 155 0
133 153 0
132 153 0
134 155 0
126 146 0
135 156 0
130 151 0
135 156 0
134 154 0
124 144 0
133 155 0
137 159 0
135 155 0
139 159 0
128 149 0
129 150 0
136 156 0
138 160 0
133 153 0
130 151 0
134 155 0
139 161 0
124 144 0
134 154 0
134 153 0
140 161 0
134 154 0
132 153 0
141 161 0
129 151 0
132 152 0
136 157 0
129 150 0
120 141 0
132 153 0
130 151 0
129 150 0
125 146 0
124 145 0
137 157 0
122 141 0
123 143 0
128 150 0
130 150 0
143 165 0
130 150 0
136 157 0
131 151 0
132 153 0
131 153 0
137 159 0
135 157 0
125 145 0
124 144 0
137 157 0
137 158 0
137 157 0
134 154 0
124 144 0
124 144 0
138 160 0
129 150 0
124 144 0
140 162 0
139 160 0
139 160 0
135 156 0
126 147 0
128 148 0
143 164 0
134 155 0
135 157 0
135 155 0
140 161 0
139 160 0
140 161 0
135 155 0
131 152 0
128 148 0
144 166 0
129 150 0
128 148 0
139 160 0
137 156 0
132 154 0
135 157 0
148 170 0
133 153 0
137 158 0
145 164 0
136 156 0
132 152 0
134 154 0
143 164 0
140 160 0
137 157 0
132 152 0
144 164 0
132 152 0
132 152 0
135 156 0
131 151 0
137 157 0
137 158 0
145 165 0
138 158 0
133 152 0
140 160 0
143 163 0
144 164 0
138 157 0
136 156 0
140 161 0
141 161 0
139 158 0
126 144 0
137 156 0
129 148 0
143 162 0
136 155 0
134 151 0
145 165 0
137 155 0
136 155 0
141 159 0
146 165 0
140 159 0
139 158 0
135 154 0
137 156 0
146 165 0
141 159 0
142 160 0
143 162 0
142 160 0
137 156 0
127 145 0
141 159 0
139 158 0
133 151 0
132 149 0
131 147 0
139 157 0
133 150 0
132 149 0
129 145 0
131 148 0
138 154 0
132 149 0
131 147 0
135 152 0
131 148 0
139 156 0
141 158 0
133 150 0
142 159 0
141 158 0
137 154 0
134 150 0
135 152 0
131 146 0
133 149 0
136 151 0
138 154 0
134 149 0
132 148 0
131 146 0
130 145 0
137 152 0
130 145 0
133 149 0
139 154 0
128 143 0
135 151 0
141 157 0
131 146 0
134 149 0
135 151 0
144 159 0
139 154 0
138 153 0
138 153 0
132 146 0
137 152 0
138 153 0
135 150 0
142 157 0
129 143 0
143 159 0
133 148 0
136 151 0
134 149 0
137 151 0
139 154 0
140 156 0
151 168 0
142 158 0
132 147 0
140 156 0
144 161 0
140 156 0
153 169 0
150 168 0
146 161 0
144 160 0
149 165 0
141 157 0
145 162 0
142 158 0
143 159 0
146 163 0
149 167 0
150 166 0
146 163 0
148 165 0
147 164 0
153 170 0
150 168 0
150 167 0
150 169 0
149 165 0
150 168 0
156 175 0
153 171 0
154 173 0
159 179 0
157 176 0
153 171 0
149 167 0
153 171 0
157 176 0
159 179 0
158 177 0
163 182 0
159 179 0
162 181 0
160 179 0
167 186 0
161 181 0
162 181 0
160 179 0
158 177 0
154 173 0
161 181 0
157 176 0
154 173 0
159 178 0
160 179 0
154 172 0
158 176 0
154 173 0
158 176 0
151 169 0
152 168 0
157 174 0
157 175 0
150 168 0
156 174 0
152 169 0
149 165 0
152 169 0
151 168 0
152 170 0
152 170 0
153 170 0
156 174 0
153 170 0
150 165 0
147 163 0
154 171 0
148 165 0
152 169 0
144 160 0
149 167 0
150 166 0
148 164 0
145 162 0
152 169 0
142 157 0
144 161 0
148 165 0
135 151 0
145 162 0
143 160 0
142 158 0
147 163 0
147 163 0
153 170 0
140 157 0
141 157 0
139 155 0
153 170 0
145 162 0
150 166 0
149 166 0
143 159 0
149 166 0
143 160 0
147 164 0
149 167 0
146 163 0
147 164 0
151 168 0
146 163 0
139 157 0
139 157 0
149 167 0
145 162 0
143 160 0
142 159 0
136 152 0
141 160 0
142 159 0
148 166 0
145 162 0
144 162 0
141 159 0
147 165 0
153 172 0
144 162 0
152 171 0
144 161 0
139 157 0
148 166 0
147 165 0
135 153 0
139 158 0
142 160 0
142 160 0
141 159 0
147 166 0
149 168 0
144 163 0
145 164 0
138 157 0
146 167 0
146 166 0
144 163 0
139 159 0
148 169 0
137 156 0
138 158 0
142 162 0
142 162 0
143 162 0
139 159 0
140 159 0
146 167 0
133 152 0
143 163 0
135 155 0
144 164 0
143 164 0
138 156 0
139 159 0
141 163 0
146 167 0
154 175 0
142 162 0
146 167 0
147 167 0
141 161 0
138 159 0
136 155 0
144 165 0
137 158 0
145 165 0
136 156 0
138 159 0
132 153 0
138 159 0
137 158 0
145 166 0
140 161 0
149 170 0
144 165 0
143 163 0
130 150 0
139 160 0
140 161 0
142 163 0
131 151 0
145 166 0
136 157 0
145 166 0
141 161 0
137 159 0
143 164 0
140 161 0
137 159 0
132 154 0
137 158 0
139 159 0
138 159 0
130 151 0
137 158 0
143 163 0
138 158 0
125 146 0
145 166 0
132 152 0
128 149 0
138 159 0
136 156 0
127 147 0
138 160 0
137 157 0
138 159 0
131 152 0
128 149 0
137 157 0
127 147 0
135 155 0
132 151 0
136 156 0
128 148 0
135 156 0
136 157 0
132 152 0
139 160 0
125 145 0
141 162 0
132 153 0
124 145 0
141 162 0
125 146 0
130 150 0
133 155 0
141 162 0
133 154 0
134 155 0
131 151 0
137 158 0
133 154 0
117 138 0
133 152 0
132 153 0
129 150 0
128 149 0
136 157 0
130 150 0
133 154 0
132 154 0
124 144 0
128 149 0
128 148 0
131 152 0
131 152 0
134 155 0
128 149 0
126 145 0
143 164 0
135 155 0
128 149 0
136 157 0
138 160 0
120 140 0
135 156 0
139 160 0
138 158 0
132 152 0
131 152 0
137 159 0
125 145 0
144 165 0
126 147 0
129 149 0
133 154 0
134 156 0
137 158 0
139 159 0
139 160 0
137 158 0
136 156 0
136 157 0
134 154 0
139 159 0
139 160 0
137 158 0
133 154 0
140 161 0
139 159 0
136 156 0
143 164 0
140 160 0
143 164 0
136 157 0
132 153 0
140 162 0
129 150 0
146 167 0
132 153 0
140 161 0
144 164 0
142 163 0
138 158 0
129 150 0
142 162 0
142 162 0
147 168 0
135 155 0
129 148 0
133 154 0
139 159 0
138 157 0
138 158 0
133 153 0
141 161 0
137 157 0
136 155 0
139 158 0
127 146 0
144 165 0
144 164 0
141 161 0
138 159 0
139 159 0
148 168 0
141 160 0
137 157 0
134 153 0
135 154 0
145 163 0
145 165 0
138 158 0
143 162 0
143 162 0
133 152 0
145 165 0
136 155 0
129 147 0
138 157 0
138 156 0
139 157 0
138 157 0
127 145 0
126 144 0
138 156 0
136 154 0
133 152 0
136 154 0
143 162 0
142 160 0
142 160 0
137 155 0
132 148 0
139 157 0
131 148 0
139 156 0
144 161 0
132 149 0
136 152 0
131 148 0
138 156 0
125 141 0
142 160 0
129 145 0
138 154 0
140 158 0
140 157 0
140 156 0
140 157 0
142 159 0
131 147 0
133 149 0
136 153 0
143 160 0
132 149 0
131 147 0
138 154 0
131 145 0
136 152 0
146 162 0
135 150 0
132 147 0
137 152 0
131 146 0
137 152 0
142 158 0
131 146 0
141 158 0
139 155 0
133 147 0
131 146 0
145 161 0
140 155 0
137 152 0
144 160 0
133 148 0
140 156 0
135 151 0
144 160 0
132 147 0
132 147 0
146 163 0
140 157 0
142 158 0
136 151 0
147 163 0
146 162 0
139 156 0
139 154 0
140 155 0
141 157 0
149 166 0
140 156 0
144 161 0
140 155 0
144 160 0
146 162 0
147 163 0
147 164 0
146 163 0
152 170 0
146 163 0
149 166 0
142 159 0
149 166 0
149 167 0
150 168 0
151 168 0
159 178 0
157 176 0
153 171 0
158 176 0
152 170 0
154 172 0
155 174 0
157 177 0
159 177 0
156 175 0
153 172 0
153 171 0
161 180 0
161 180 0
156 175 0
160 178 0
156 175 0
159 178 0
160 179 0
155 174 0
157 176 0
161 179 0
160 179 0
157 176 0
154 173 0
158 176 0
157 175 0
150 167 0
159 177 0
160 178 0
156 174 0
156 173 0
160 179 0
155 173 0
157 175 0
163 181 0
152 169 0
156 173 0
154 171 0
156 172 0
157 173 0
152 169 0
148 165 0
157 175 0
149 166 0
159 176 0
157 174 0
151 166 0
154 172 0
151 168 0
151 168 0
144 160 0
152 169 0
152 168 0
149 166 0
150 166 0
149 165 0
148 164 0
148 165 0
145 161 0
146 163 0
150 167 0
149 166 0
151 168 0
152 170 0
148 166 0
146 163 0
149 165 0
151 168 0
147 164 0
152 168 0
143 161 0
144 161 0
144 161 0
144 161 0
147 164 0
139 156 0
142 160 0
145 161 0
136 152 0
142 159 0
142 159 0
142 159 0
141 160 0
146 164 0
146 165 0
148 167 0
147 164 0
143 161 0
144 162 0
143 162 0
141 160 0
147 165 0
139 159 0
140 158 0
146 163 0
140 158 0
148 167 0
141 160 0
140 158 0
140 159 0
150 169 0
144 163 0
145 164 0
152 171 0
145 165 0
150 170 0
149 168 0
146 165 0
147 167 0
145 165 0
144 163 0
143 163 0
141 160 0
141 160 0
147 167 0
143 163 0
144 164 0
144 164 0
143 163 0
142 162 0
148 169 0
138 158 0
145 165 0
137 155 0
149 168 0
142 162 0
145 165 0
148 168 0
143 164 0
145 164 0
141 162 0
137 158 0
130 150 0
146 167 0
139 159 0
140 160 0
144 165 0
150 171 0
140 160 0
149 170 0
141 162 0
145 166 0
138 160 0
146 167 0
140 159 0
142 163 0
138 159 0
143 165 0
144 165 0
138 160 0
143 165 0
141 161 0
145 166 0
143 163 0
138 158 0
135 155 0
140 162 0
148 169 0
130 151 0
140 160 0
144 164 0
140 161 0
128 148 0
131 151 0
140 161 0
137 159 0
145 166 0
147 168 0
143 164 0
145 166 0
128 149 0
140 161 0
136 158 0
145 166 0
131 152 0
136 157 0
137 157 0
136 158 0
136 158 0
142 164 0
142 162 0
152 175 0
141 163 0
127 148 0
147 168 0
138 160 0
133 155 0
127 147 0
130 151 0
141 163 0
131 151 0
136 157 0
136 157 0
128 150 0
134 155 0
145 166 0
135 155 0
136 156 0
134 155 0
129 150 0
125 145 0
138 159 0
137 158 0
137 158 0
136 156 0
132 153 0
136 157 0
136 158 0
133 154 0
139 159 0
142 163 0
134 155 0
136 157 0
140 161 0
136 156 0
134 154 0
133 154 0
136 156 0
129 149 0
130 151 0
136 157 0
130 152 0
132 152 0
139 160 0
143 163 0
134 154 0
133 154 0
135 156 0
130 150 0
131 151 0
138 159 0
125 147 0
141 163 0
146 166 0
137 157 0
130 152 0
134 155 0
140 161 0
134 155 0
142 164 0
138 160 0
146 167 0
137 158 0
136 157 0
142 162 0
136 157 0
137 158 0
131 152 0
133 155 0
139 160 0
140 160 0
130 151 0
141 162 0
135 155 0
142 162 0
139 160 0
127 148 0
139 159 0
137 158 0
142 164 0
140 161 0
139 160 0
141 162 0
146 167 0
137 158 0
129 149 0
133 154 0
149 169 0
139 159 0
137 159 0
136 156 0
142 162 0
144 164 0
125 146 0
136 157 0
140 161 0
141 162 0
137 157 0
135 155 0
136 156 0
147 167 0
140 159 0
136 156 0
137 157 0
151 171 0
134 154 0
141 161 0
135 154 0
134 155 0
141 160 0
137 157 0
140 160 0
144 164 0
139 158 0
140 161 0
138 156 0
139 158 0
139 158 0
134 154 0
143 163 0
133 153 0
141 161 0
145 165 0
136 155 0
126 143 0
142 162 0
140 159 0
137 157 0
138 157 0
141 160 0
136 155 0
142 161 0
134 153 0
146 165 0
140 159 0
130 148 0
132 151 0
134 151 0
146 165 0
134 152 0
137 155 0
144 162 0
133 151 0
130 148 0
136 154 0
141 158 0
140 158 0
132 150 0
135 153 0
139 156 0
134 152 0
131 147 0
136 153 0
134 151 0
134 151 0
136 154 0
137 154 0
135 152 0
139 156 0
147 165 0
137 154 0
141 158 0
137 155 0
145 162 0
140 157 0
142 159 0
136 151 0
144 161 0
134 150 0
141 157 0
139 155 0
142 159 0
147 164 0
136 151 0
140 156 0
134 150 0
143 158 0
134 149 0
134 149 0
144 159 0
138 154 0
150 167 0
140 156 0
141 157 0
136 152 0
140 155 0
137 152 0
137 152 0
135 150 0
147 164 0
140 157 0
135 150 0
139 154 0
146 162 0
153 169 0
140 156 0
140 156 0
135 150 0
153 170 0
141 157 0
135 150 0
150 166 0
146 162 0
144 160 0
147 162 0
152 169 0
148 166 0
143 159 0
149 166 0
143 160 0
144 160 0
143 160 0
154 172 0
156 174 0
153 171 0
155 173 0
150 168 0
156 174 0
145 162 0
153 171 0
149 166 0
155 173 0
154 172 0
154 172 0
153 170 0
154 172 0
156 175 0
160 179 0
152 171 0
161 180 0
163 183 0
160 179 0
165 184 0
161 179 0
153 172 0
161 181 0
163 181 0
164 183 0
156 174 0
159 178 0
159 177 0
156 175 0
155 173 0
155 173 0
157 176 0
160 179 0
154 172 0
157 176 0
157 175 0
150 168 0
156 173 0
155 172 0
158 176 0
156 173 0
160 177 0
150 167 0
157 175 0
153 170 0
150 167 0
150 166 0
154 171 0
156 173 0
148 165 0
149 167 0
151 169 0
151 168 0
152 170 0
151 169 0
151 168 0
149 166 0
139 155 0
147 164 0
148 165 0
149 166 0
151 168 0
153 171 0
144 159 0
142 159 0
152 169 0
145 161 0
147 164 0
146 163 0
150 168 0
147 163 0
151 168 0
143 160 0
147 164 0
150 167 0
143 159 0
153 171 0
149 167 0
143 160 0
149 167 0
144 160 0
144 162 0
143 159 0
147 165 0
145 163 0
139 156 0
146 163 0
143 161 0
145 163 0
146 163 0
153 172 0
144 161 0
146 164 0
146 164 0
149 166 0
147 165 0
152 171 0
143 161 0
139 156 0
147 165 0
145 163 0
149 168 0
150 169 0
142 161 0
149 168 0
145 165 0
141 161 0
143 162 0
147 165 0
147 167 0
145 163 0
148 167 0
150 170 0
144 163 0
143 161 0
145 164 0
143 162 0
147 165 0
148 168 0
145 164 0
142 161 0
148 167 0
153 174 0
138 158 0
147 166 0
150 169 0
132 152 0
148 169 0
145 165 0
147 168 0
139 159 0
142 161 0
144 164 0
138 158 0
134 155 0
141 160 0
151 172 0
139 160 0
144 164 0
142 162 0
146 168 0
146 167 0
141 161 0
145 165 0
142 164 0
140 161 0
146 167 0
145 165 0
137 157 0
149 169 0
140 160 0
144 165 0
137 158 0
145 167 0
141 162 0
138 159 0
129 149 0
139 159 0
148 169 0
137 158 0
139 160 0
140 161 0
137 159 0
137 158 0
144 166 0
141 162 0
132 153 0
142 164 0
138 159 0
140 160 0
144 165 0
140 161 0
145 167 0
141 161 0
139 160 0
141 162 0
131 151 0
135 156 0
140 162 0
140 162 0
141 162 0
142 162 0
143 163 0
143 164 0
130 151 0
132 153 0
137 158 0
139 159 0
138 160 0
137 158 0
132 152 0
132 153 0
144 165 0
132 154 0
140 161 0
147 168 0
137 159 0
133 155 0
138 160 0
129 150 0
142 163 0
132 153 0
132 154 0
131 150 0
139 160 0
136 156 0
134 154 0
136 157 0
131 151 0
140 161 0
130 150 0
135 156 0
132 153 0
128 149 0
127 147 0
135 156 0
128 148 0
132 154 0
140 161 0
137 160 0
128 148 0
130 151 0
145 166 0
134 154 0
136 156 0
135 156 0
124 144 0
138 161 0
136 157 0
138 159 0
136 157 0
133 154 0
136 156 0
133 154 0
130 151 0
134 155 0
128 150 0
136 157 0
131 153 0
139 161 0
137 158 0
137 159 0
135 156 0
141 162 0
134 155 0
138 160 0
132 154 0
133 153 0
124 146 0
131 152 0
138 159 0
140 160 0
137 158 0
141 163 0
137 158 0
140 161 0
145 166 0
135 156 0
130 150 0
135 154 0
138 159 0
137 158 0
140 162 0
125 145 0
136 157 0
135 155 0
133 154 0
143 163 0
143 164 0
136 157 0
148 171 0
142 163 0
139 161 0
147 170 0
144 166 0
136 156 0
139 159 0
139 159 0
139 160 0
136 156 0
142 163 0
131 152 0
131 150 0
141 161 0
140 161 0
140 160 0
150 170 0
130 151 0
137 156 0
142 163 0
148 169 0
146 166 0
145 165 0
140 161 0
139 159 0
150 170 0
143 163 0
135 155 0
137 157 0
140 159 0
147 168 0
131 151 0
130 149 0
145 165 0
138 158 0
144 164 0
140 159 0
136 156 0
141 161 0
140 159 0
135 155 0
136 155 0
140 159 0
140 160 0
142 161 0
137 156 0
136 154 0
142 162 0
151 171 0
148 167 0
143 162 0
143 162 0
141 161 0
142 161 0
134 152 0
137 155 0
140 158 0
148 167 0
136 154 0
137 155 0
130 147 0
134 152 0
145 163 0
129 147 0
137 155 0
146 163 0
134 151 0
141 158 0
144 162 0
142 160 0
140 157 0
136 153 0
140 157 0
140 159 0
136 153 0
147 165 0
140 157 0
141 158 0
141 159 0
137 153 0
142 160 0
135 151 0
142 160 0
136 151 0
137 154 0
132 149 0
136 153 0
139 156 0
136 152 0
141 158 0
128 143 0
137 152 0
138 154 0
140 156 0
145 161 0
137 153 0
139 156 0
129 144 0
147 163 0
140 156 0
137 153 0
144 160 0
139 153 0
140 155 0
139 156 0
134 149 0
136 151 0
141 157 0
135 150 0
144 160 0
131 146 0
145 160 0
142 159 0
137 153 0
135 151 0
137 152 0
144 160 0
141 156 0
143 160 0
142 158 0
143 159 0
149 166 0
148 164 0
145 162 0
150 167 0
149 166 0
148 165 0
144 160 0
144 161 0
155 172 0
153 170 0
145 161 0
151 168 0
152 170 0
152 170 0
155 172 0
151 169 0
148 166 0
156 174 0
154 172 0
154 172 0
156 175 0
154 172 0
159 177 0
154 172 0
161 180 0
153 171 0
148 165 0
161 180 0
163 183 0
161 180 0
163 181 0
158 177 0
161 180 0
158 177 0
161 180 0
161 180 0
155 173 0
156 176 0
162 180 0
165 183 0
151 169 0
159 178 0
158 177 0
161 179 0
161 178 0
152 170 0
159 177 0
156 174 0
152 170 0
154 172 0
153 170 0
154 171 0
152 169 0
155 172 0
152 169 0
153 170 0
152 169 0
154 172 0
157 174 0
154 171 0
147 163 0
149 165 0
156 174 0
148 165 0
153 169 0
153 171 0
156 173 0
148 165 0
153 171 0
147 164 0
148 165 0
143 160 0
147 163 0
146 163 0
151 167 0
149 167 0
143 159 0
152 170 0
152 170 0
151 167 0
147 165 0
146 163 0
152 169 0
148 166 0
152 171 0
148 165 0
145 163 0
149 167 0
146 163 0
145 162 0
146 164 0
142 158 0
146 164 0
156 174 0
148 165 0
142 159 0
151 169 0
145 163 0
145 163 0
138 155 0
142 159 0
145 164 0
148 166 0
150 169 0
141 159 0
144 162 0
151 170 0
138 156 0
151 170 0
139 158 0
146 165 0
142 161 0
147 167 0
141 159 0
147 166 0
143 162 0
143 162 0
149 168 0
147 167 0
143 162 0
145 165 0
141 160 0
146 166 0
152 172 0
142 161 0
137 156 0
142 162 0
146 166 0
153 174 0
141 161 0
140 160 0
147 168 0
131 150 0
147 165 0
139 159 0
142 163 0
144 165 0
150 172 0
142 163 0
144 165 0
149 170 0
142 162 0
149 170 0
144 165 0
142 162 0
147 167 0
148 169 0
144 164 0
140 161 0
144 165 0
146 166 0
136 157 0
147 168 0
144 165 0
141 162 0
139 159 0
140 161 0
139 159 0
143 163 0
141 161 0
144 165 0
147 169 0
139 160 0
137 159 0
144 166 0
148 169 0
139 159 0
140 161 0
136 157 0
143 163 0
142 162 0
141 162 0
137 158 0
141 163 0
147 169 0
137 157 0
141 163 0
135 155 0
139 159 0
139 160 0
136 157 0
148 170 0
142 164 0
145 166 0
129 150 0
135 155 0
137 158 0
136 158 0
131 153 0
142 164 0
147 169 0
142 164 0
140 161 0
134 155 0
136 156 0
140 162 0
144 166 0
137 159 0
138 159 0
139 159 0
132 152 0
135 156 0
131 152 0
131 152 0
137 159 0
142 164 0
136 157 0
135 155 0
134 155 0
135 157 0
135 156 0
138 159 0
138 159 0
137 158 0
135 156 0
145 166 0
136 155 0
133 155 0
135 156 0
133 154 0
145 167 0
144 166 0
133 153 0
127 147 0
139 161 0
135 156 0
138 158 0
132 153 0
150 172 0
131 152 0
146 168 0
133 155 0
135 156 0
130 150 0
138 160 0
138 159 0
136 156 0
131 153 0
131 154 0
131 150 0
137 159 0
130 151 0
139 159 0
137 159 0
134 155 0
136 158 0
134 155 0
137 159 0
141 162 0
138 160 0
137 158 0
142 162 0
142 165 0
141 162 0
136 157 0
138 160 0
135 156 0
138 159 0
141 161 0
131 151 0
128 149 0
136 157 0
144 165 0
142 163 0
126 147 0
139 160 0
134 156 0
142 164 0
142 164 0
141 163 0
130 150 0
134 154 0
125 145 0
144 165 0
133 154 0
135 155 0
140 161 0
127 147 0
137 158 0
133 154 0
140 161 0
140 160 0
136 156 0
143 164 0
139 160 0
145 166 0
141 161 0
141 162 0
155 176 0
142 163 0
129 149 0
143 163 0
140 160 0
135 155 0
138 158 0
131 151 0
145 165 0
139 161 0
137 156 0
139 160 0
143 163 0
139 160 0
147 167 0
148 168 0
138 157 0
143 164 0
143 163 0
151 172 0
144 164 0
143 162 0
146 166 0
146 167 0
133 153 0
141 161 0
135 155 0
140 160 0
140 160 0
143 164 0
136 155 0
142 162 0
140 160 0
144 163 0
142 162 0
136 155 0
138 158 0
147 168 0
145 165 0
144 164 0
142 161 0
142 161 0
140 158 0
140 159 0
148 166 0
145 165 0
144 163 0
141 160 0
151 170 0
138 155 0
134 151 0
143 161 0
142 161 0
139 157 0
147 166 0
139 158 0
149 168 0
136 155 0
142 161 0
133 152 0
138 157 0
135 153 0
140 157 0
142 160 0
140 158 0
134 151 0
136 154 0
136 153 0
143 162 0
145 163 0
146 162 0
137 154 0
142 160 0
139 156 0
138 154 0
139 156 0
140 157 0
138 155 0
144 161 0
147 164 0
139 155 0
139 155 0
143 158 0
140 157 0
136 152 0
144 161 0
133 149 0
140 156 0
142 158 0
143 160 0
146 162 0
143 160 0
145 161 0
131 147 0
145 161 0
137 153 0
144 160 0
139 155 0
147 163 0
143 159 0
144 160 0
135 151 0
141 157 0
141 157 0
141 157 0
144 160 0
147 164 0
149 166 0
141 156 0
142 158 0
142 159 0
141 157 0
149 165 0
146 164 0
146 162 0
146 163 0
151 168 0
157 173 0
141 158 0
149 166 0
151 169 0
151 168 0
149 166 0
151 168 0
147 163 0
144 161 0
156 174 0
152 171 0
153 172 0
153 172 0
153 171 0
150 168 0
157 176 0
164 183 0
156 174 0
157 176 0
151 169 0
157 175 0
152 172 0
161 181 0
157 175 0
162 181 0
158 176 0
157 176 0
160 178 0
159 178 0
163 182 0
160 179 0
158 176 0
157 176 0
157 175 0
161 180 0
153 171 0
150 168 0
160 178 0
155 172 0
155 173 0
155 173 0
160 178 0
152 169 0
155 174 0
155 172 0
153 170 0
153 171 0
151 168 0
154 172 0
152 170 0
158 176 0
152 170 0
152 169 0
149 166 0
152 170 0
152 170 0
154 172 0
155 173 0
153 170 0
153 170 0
155 173 0
154 172 0
149 165 0
154 171 0
153 170 0
151 169 0
143 160 0
143 160 0
155 172 0
154 173 0
146 163 0
149 166 0
147 164 0
146 164 0
148 165 0
144 161 0
152 169 0
152 169 0
144 161 0
154 171 0
149 167 0
141 158 0
142 160 0
147 165 0
151 168 0
144 162 0
147 165 0
148 167 0
149 168 0
146 164 0
147 165 0
143 161 0
147 166 0
151 169 0
137 153 0
139 157 0
145 164 0
145 164 0
146 164 0
145 163 0
143 162 0
143 161 0
145 164 0
152 170 0
143 162 0
140 159 0
144 163 0
141 160 0
146 165 0
150 171 0
143 163 0
143 162 0
143 161 0
148 167 0
144 163 0
150 170 0
139 158 0
155 175 0
149 169 0
149 169 0
148 168 0
138 158 0
139 158 0
142 161 0
140 160 0
145 165 0
141 162 0
143 163 0
142 162 0
140 160 0
152 173 0
145 165 0
148 170 0
136 156 0
140 160 0
145 165 0
145 166 0
148 167 0
143 164 0
146 168 0
141 162 0
139 159 0
148 169 0
141 162 0
131 151 0
146 166 0
150 171 0
151 173 0
142 162 0
143 164 0
147 169 0
146 167 0
137 158 0
148 170 0
136 157 0
142 163 0
143 163 0
142 163 0
139 160 0
138 159 0
140 161 0
139 160 0
144 165 0
139 162 0
129 150 0
139 160 0
131 152 0
135 157 0
143 165 0
135 157 0
134 155 0
145 166 0
146 168 0
134 155 0
140 162 0
137 159 0
136 157 0
137 159 0
146 168 0
142 163 0
138 160 0
142 164 0
134 155 0
137 159 0
149 171 0
138 159 0
138 158 0
140 160 0
137 159 0
134 154 0
138 160 0
139 159 0
146 168 0
142 164 0
139 160 0
137 158 0
143 165 0
134 155 0
140 162 0
126 148 0
140 162 0
148 169 0
132 153 0
132 151 0
131 152 0
139 160 0
134 156 0
137 157 0
136 158 0
134 155 0
141 162 0
138 160 0
139 161 0
137 157 0
134 155 0
139 160 0
139 161 0
131 152 0
140 161 0
128 150 0
139 161 0
138 160 0
140 160 0
130 151 0
124 144 0
131 152 0
132 152 0
133 155 0
140 161 0
133 154 0
133 155 0
134 156 0
130 151 0
138 160 0
135 156 0
138 159 0
141 163 0
144 165 0
140 160 0
135 156 0
141 163 0
136 158 0
143 165 0
135 157 0
136 157 0
140 161 0
140 161 0
138 159 0
134 156 0
146 166 0
143 164 0
140 161 0
137 159 0
136 157 0
127 147 0
130 152 0
147 168 0
130 151 0
143 163 0
137 159 0
143 164 0
130 151 0
138 159 0
142 163 0
140 161 0
136 158 0
143 165 0
138 159 0
143 166 0
136 158 0
141 162 0
145 167 0
142 163 0
141 162 0
143 164 0
141 163 0
147 169 0
133 152 0
143 164 0
144 165 0
135 156 0
141 163 0
143 164 0
146 167 0
142 163 0
139 159 0
142 163 0
134 154 0
141 162 0
138 160 0
146 167 0
139 159 0
134 155 0
144 165 0
139 160 0
141 160 0
144 165 0
142 162 0
146 168 0
133 153 0
146 166 0
138 158 0
138 157 0
136 156 0
145 166 0
133 153 0
134 154 0
148 168 0
139 158 0
143 164 0
147 168 0
143 163 0
142 161 0
145 165 0
143 162 0
134 153 0
145 165 0
138 158 0
135 154 0
142 163 0
146 166 0
130 149 0
121 140 0
134 153 0
139 158 0
141 160 0
143 162 0
139 158 0
140 159 0
136 155 0
142 161 0
148 167 0
142 161 0
143 162 0
148 168 0
137 155 0
136 154 0
144 162 0
136 155 0
141 159 0
136 155 0
138 157 0
140 158 0
142 160 0
145 163 0
146 164 0
144 162 0
139 156 0
142 159 0
130 147 0
138 156 0
146 164 0
132 148 0
146 163 0
138 155 0
138 155 0
132 149 0
151 168 0
138 155 0
143 161 0
133 150 0
136 153 0
139 157 0
143 159 0
139 157 0
144 162 0
136 153 0
133 149 0
135 151 0
132 148 0
140 157 0
140 157 0
145 162 0
139 156 0
143 159 0
146 162 0
141 159 0
147 164 0
143 159 0
142 158 0
143 158 0
142 159 0
145 162 0
141 157 0
146 161 0
143 159 0
132 147 0
141 156 0
141 156 0
141 158 0
155 173 0
139 156 0
146 163 0
146 162 0
151 169 0
140 157 0
145 163 0
149 166 0
145 161 0
150 167 0
152 169 0
149 166 0
143 160 0
142 158 0
150 167 0
147 164 0
147 163 0
157 174 0
155 172 0
148 165 0
157 175 0
157 176 0
151 169 0
149 167 0
147 165 0
159 178 0
160 179 0
150 169 0
154 172 0
158 176 0
159 177 0
153 172 0
158 176 0
166 185 0
160 179 0
159 178 0
164 183 0
162 181 0
158 177 0
159 177 0
159 177 0
161 179 0
155 173 0
155 172 0
162 181 0
157 174 0
160 179 0
158 177 0
159 178 0
158 177 0
150 167 0
159 177 0
155 174 0
153 171 0
153 171 0
155 172 0
160 177 0
151 168 0
157 174 0
153 170 0
153 170 0
151 169 0
155 173 0
148 166 0
156 173 0
152 170 0
152 168 0
156 174 0
151 169 0
154 171 0
154 172 0
154 172 0
156 174 0
151 169 0
151 168 0
153 171 0
151 170 0
148 166 0
149 166 0
149 167 0
144 161 0
152 170 0
151 169 0
145 162 0
155 172 0
153 171 0
143 161 0
143 161 0
150 168 0
150 169 0
145 162 0
153 171 0
150 168 0
140 158 0
152 170 0
147 166 0
149 167 0
142 160 0
150 168 0
153 171 0
145 163 0
143 161 0
142 160 0
143 161 0
151 171 0
149 167 0
149 168 0
149 168 0
143 162 0
152 170 0
148 166 0
153 172 0
144 164 0
147 166 0
139 159 0
140 159 0
140 160 0
146 165 0
142 162 0
146 165 0
144 164 0
143 163 0
153 173 0
136 155 0
146 166 0
147 168 0
145 164 0
150 170 0
147 167 0
153 172 0
146 168 0
151 172 0
146 166 0
145 165 0
152 173 0
148 168 0
139 159 0
137 156 0
145 166 0
145 165 0
144 164 0
142 162 0
145 165 0
142 163 0
156 177 0
152 173 0
145 164 0
139 160 0
146 166 0
140 160 0
152 173 0
138 158 0
144 164 0
145 166 0
144 166 0
138 160 0
144 165 0
146 167 0
145 166 0
139 160 0
147 167 0
154 175 0
145 166 0
136 157 0
149 170 0
136 158 0
146 168 0
139 160 0
149 171 0
146 167 0
141 163 0
143 164 0
138 160 0
140 162 0
146 167 0
140 161 0
143 164 0
142 164 0
137 158 0
147 168 0
139 160 0
132 153 0
138 159 0
139 159 0
146 167 0
135 155 0
147 169 0
130 151 0
141 163 0
144 167 0
143 164 0
144 166 0
142 164 0
139 160 0
136 157 0
139 160 0
138 160 0
137 159 0
135 156 0
137 160 0
134 156 0
145 166 0
130 151 0
143 165 0
136 157 0
137 159 0
133 156 0
145 166 0
135 156 0
140 161 0
145 168 0
139 161 0
130 151 0
140 162 0
133 154 0
136 157 0
133 155 0
140 162 0
132 152 0
133 155 0
139 160 0
138 159 0
139 159 0
144 165 0
137 159 0
131 153 0
138 159 0
142 163 0
143 165 0
133 153 0
139 161 0
144 166 0
145 167 0
135 156 0
137 158 0
141 163 0
135 157 0
130 150 0
134 154 0
143 165 0
134 155 0
129 150 0
131 153 0
139 159 0
138 160 0
135 156 0
143 164 0
133 154 0
136 158 0
142 163 0
130 151 0
142 163 0
136 157 0
135 156 0
133 154 0
140 161 0
135 155 0
141 163 0
132 154 0
141 163 0
137 158 0
143 165 0
141 162 0
137 157 0
142 164 0
141 162 0
146 168 0
141 162 0
136 157 0
134 155 0
137 159 0
144 164 0
145 167 0
134 155 0
136 157 0
137 158 0
135 157 0
143 164 0
142 163 0
133 154 0
148 170 0
140 161 0
141 163 0
131 150 0
144 167 0
139 161 0
143 164 0
143 164 0
139 160 0
138 159 0
149 170 0
143 164 0
134 155 0
138 160 0
143 163 0
146 167 0
131 150 0
150 171 0
137 158 0
140 160 0
137 157 0
144 166 0
148 168 0
145 165 0
145 167 0
136 157 0
142 164 0
146 167 0
141 161 0
145 164 0
145 166 0
135 156 0
142 162 0
142 163 0
147 168 0
134 154 0
141 161 0
147 168 0
148 168 0
146 167 0
148 167 0
145 165 0
138 157 0
143 163 0
145 165 0
142 162 0
143 163 0
142 162 0
143 163 0
138 158 0
139 159 0
141 160 0
147 167 0
139 159 0
144 162 0
135 154 0
140 159 0
140 159 0
144 163 0
136 156 0
140 159 0
141 161 0
144 163 0
143 161 0
141 159 0
145 164 0
135 152 0
136 153 0
145 163 0
138 157 0
135 155 0
145 163 0
144 162 0
145 163 0
133 149 0
139 157 0
143 161 0
145 163 0
137 155 0
144 163 0
147 166 0
143 160 0
141 159 0
130 146 0
143 162 0
148 165 0
141 158 0
142 159 0
142 159 0
141 158 0
138 155 0
143 161 0
147 166 0
134 151 0
149 166 0
143 160 0
135 151 0
136 153 0
139 156 0
140 157 0
140 158 0
149 165 0
140 155 0
133 149 0
144 162 0
145 162 0
141 158 0
136 153 0
141 157 0
140 156 0
148 166 0
151 168 0
139 155 0
140 156 0
146 162 0
143 160 0
145 163 0
143 160 0
146 163 0
141 157 0
150 168 0
149 166 0
147 163 0
144 160 0
153 171 0
147 164 0
145 162 0
141 156 0
151 169 0
145 162 0
150 168 0
146 162 0
148 165 0
154 171 0
148 166 0
149 165 0
148 166 0
150 167 0
156 174 0
155 173 0
151 170 0
153 171 0
150 168 0
151 170 0
150 167 0
150 168 0
153 172 0
153 172 0
157 175 0
157 175 0
153 171 0
157 175 0
160 179 0
157 176 0
162 182 0
153 171 0
163 182 0
159 179 0
161 179 0
159 178 0
157 175 0
159 177 0
158 176 0
157 175 0
158 176 0
158 177 0
157 175 0
162 180 0
161 179 0
153 171 0
153 171 0
161 179 0
151 168 0
156 174 0
160 179 0
160 177 0
153 171 0
155 174 0
153 171 0
151 168 0
158 175 0
157 175 0
152 170 0
159 178 0
154 173 0
150 167 0
152 170 0
148 165 0
152 169 0
151 169 0
151 168 0
145 164 0
151 169 0
152 169 0
149 166 0
150 167 0
153 170 0
151 168 0
153 171 0
152 170 0
148 165 0
159 177 0
148 166 0
150 168 0
151 169 0
148 166 0
151 169 0
147 164 0
146 163 0
137 154 0
153 171 0
146 165 0
140 158 0
154 173 0
146 163 0
148 166 0
153 172 0
152 171 0
151 170 0
149 168 0
148 167 0
151 170 0
157 176 0
143 162 0
148 166 0
144 163 0
146 165 0
146 165 0
148 167 0
147 166 0
136 154 0
143 162 0
153 171 0
146 164 0
141 160 0
147 167 0
140 159 0
141 161 0
143 162 0
147 166 0
149 169 0
147 166 0
141 161 0
153 172 0
146 166 0
143 162 0
148 168 0
148 167 0
143 163 0
147 166 0
143 163 0
146 166 0
151 171 0
147 167 0
146 166 0
140 160 0
138 157 0
147 167 0
146 167 0
152 172 0
141 161 0
148 169 0
137 157 0
150 170 0
145 166 0
143 164 0
147 168 0
145 165 0
143 163 0
145 166 0
140 161 0
148 169 0
143 165 0
147 168 0
148 169 0
147 168 0
144 164 0
146 166 0
138 159 0
146 166 0
145 167 0
142 163 0
141 161 0
153 174 0
145 166 0
147 168 0
144 165 0
145 167 0
148 169 0
142 163 0
139 160 0
151 173 0
148 170 0
142 164 0
145 166 0
153 175 0
144 164 0
142 164 0
144 166 0
146 168 0
137 158 0
143 164 0
143 163 0
138 158 0
137 158 0
138 159 0
142 162 0
139 160 0
131 152 0
144 166 0
128 148 0
138 160 0
137 158 0
144 166 0
141 164 0
143 163 0
144 164 0
146 167 0
136 158 0
141 161 0
134 155 0
146 166 0
141 163 0
139 160 0
146 167 0
132 153 0
135 157 0
141 162 0
133 155 0
133 154 0
139 160 0
151 173 0
146 168 0
141 163 0
145 167 0
127 148 0
137 160 0
142 163 0
133 154 0
131 153 0
139 162 0
127 148 0
137 158 0
144 166 0
138 160 0
129 151 0
143 163 0
141 163 0
143 165 0
148 170 0
143 164 0
142 164 0
144 165 0
140 161 0
146 168 0
131 152 0
135 157 0
137 159 0
135 156 0
139 160 0
140 161 0
135 157 0
140 161 0
130 151 0
131 153 0
138 160 0
132 152 0
132 153 0
138 160 0
139 159 0
138 160 0
138 158 0
132 154 0
127 148 0
135 156 0
143 165 0
140 161 0
151 172 0
138 160 0
139 160 0
140 161 0
138 158 0
136 157 0
149 171 0
135 157 0
145 166 0
135 156 0
143 164 0
137 158 0
134 155 0
149 171 0
146 168 0
139 160 0
144 166 0
142 161 0
139 160 0
148 169 0
138 159 0
136 157 0
144 166 0
153 175 0
144 165 0
145 167 0
139 160 0
144 165 0
144 166 0
133 153 0
147 168 0
145 166 0
140 160 0
146 166 0
136 158 0
140 161 0
148 170 0
137 159 0
137 157 0
146 167 0
149 169 0
138 159 0
143 164 0
143 164 0
148 170 0
144 165 0
144 164 0
146 168 0
141 160 0
145 166 0
139 159 0
141 164 0
145 167 0
145 164 0
142 163 0
141 161 0
144 165 0
136 156 0
146 167 0
135 155 0
140 160 0
139 158 0
146 167 0
143 164 0
143 163 0
140 159 0
138 158 0
142 162 0
144 165 0
149 170 0
143 165 0
147 166 0
144 165 0
144 164 0
149 169 0
146 166 0
142 162 0
133 151 0
144 164 0
131 151 0
146 166 0
145 164 0
142 162 0
144 163 0
147 167 0
137 157 0
139 157 0
147 166 0
149 168 0
144 163 0
140 160 0
143 162 0
136 154 0
145 163 0
136 154 0
145 163 0
140 158 0
137 155 0
139 157 0
144 162 0
147 166 0
141 160 0
146 164 0
144 163 0
144 162 0
149 167 0
145 163 0
140 157 0
140 158 0
149 167 0
144 163 0
133 150 0
145 163 0
147 166 0
145 164 0
135 152 0
141 158 0
136 153 0
145 163 0
144 162 0
134 150 0
135 152 0
145 162 0
141 159 0
140 157 0
148 166 0
141 158 0
128 145 0
134 151 0
145 161 0
144 160 0
143 160 0
145 162 0
145 162 0
144 161 0
143 161 0
138 153 0
138 155 0
139 154 0
147 164 0
151 169 0
143 160 0
147 164 0
150 167 0
137 153 0
152 168 0
152 170 0
145 162 0
139 155 0
146 163 0
150 168 0
144 161 0
146 162 0
151 169 0
154 171 0
147 164 0
154 172 0
158 175 0
150 167 0
151 168 0
148 165 0
154 173 0
148 166 0
155 173 0
152 170 0
154 172 0
153 171 0
149 167 0
152 170 0
150 168 0
152 170 0
151 169 0
152 170 0
151 169 0
156 175 0
158 177 0
157 177 0
161 181 0
157 177 0
159 177 0
159 178 0
161 180 0
156 175 0
159 178 0
158 177 0
160 178 0
158 176 0
160 179 0
160 179 0
156 174 0
158 176 0
156 174 0
151 169 0
150 168 0
151 169 0
154 172 0
155 173 0
156 174 0
153 171 0
153 171 0
148 166 0
154 172 0
156 174 0
155 173 0
147 165 0
151 169 0
151 168 0
152 169 0
152 170 0
153 170 0
151 168 0
155 173 0
152 170 0
152 171 0
153 171 0
155 173 0
147 164 0
146 164 0
147 165 0
154 173 0
148 165 0
152 170 0
150 168 0
151 169 0
153 171 0
149 166 0
146 164 0
154 173 0
151 169 0
149 168 0
149 167 0
149 168 0
144 162 0
145 163 0
154 172 0
150 168 0
154 172 0
148 166 0
152 172 0
146 165 0
144 163 0
147 166 0
148 167 0
150 169 0
149 168 0
143 161 0
151 170 0
149 168 0
151 171 0
147 165 0
144 163 0
149 168 0
138 157 0
150 169 0
141 161 0
146 165 0
147 168 0
148 167 0
142 161 0
143 163 0
153 172 0
141 161 0
137 157 0
151 172 0
149 168 0
142 161 0
140 159 0
147 169 0
140 160 0
140 159 0
148 167 0
143 163 0
143 163 0
146 166 0
145 164 0
145 165 0
137 157 0
147 168 0
140 160 0
151 172 0
144 165 0
148 169 0
142 162 0
149 170 0
144 165 0
148 170 0
147 168 0
146 167 0
148 169 0
148 169 0
149 169 0
154 175 0
147 167 0
153 174 0
145 167 0
151 171 0
147 169 0
144 164 0
147 167 0
147 169 0
151 172 0
146 168 0
148 169 0
143 164 0
145 166 0
144 165 0
146 166 0
140 162 0
145 166 0
152 173 0
140 161 0
140 161 0
142 163 0
147 168 0
145 166 0
126 147 0
144 165 0
144 165 0
143 165 0
142 163 0
145 167 0
144 165 0
141 163 0
148 170 0
140 161 0
145 166 0
149 171 0
138 160 0
135 155 0
145 168 0
144 165 0
136 158 0
146 167 0
140 161 0
148 170 0
155 177 0
142 163 0
142 163 0
146 167 0
141 162 0
146 168 0
143 164 0
140 161 0
141 162 0
142 162 0
144 165 0
143 165 0
137 158 0
134 155 0
138 160 0
145 167 0
146 168 0
145 167 0
139 162 0
141 162 0
155 177 0
144 166 0
135 158 0
139 161 0
134 156 0
132 155 0
135 157 0
133 155 0
136 157 0
141 163 0
140 162 0
135 157 0
133 154 0
140 162 0
138 159 0
134 155 0
138 160 0
138 160 0
137 158 0
134 156 0
138 160 0
137 158 0
139 162 0
133 154 0
135 155 0
145 165 0
147 169 0
131 152 0
125 146 0
133 155 0
134 156 0
141 162 0
138 160 0
137 158 0
141 163 0
133 155 0
139 161 0
140 162 0
137 159 0
140 162 0
143 165 0
139 159 0
136 157 0
129 150 0
138 160 0
141 162 0
137 157 0
142 162 0
149 171 0
136 157 0
145 167 0
147 167 0
127 148 0
136 157 0
148 169 0
141 163 0
131 153 0
143 164 0
143 165 0
142 163 0
138 159 0
140 160 0
142 164 0
138 160 0
139 161 0
138 159 0
133 154 0
149 171 0
143 165 0
144 165 0
148 170 0
141 161 0
141 163 0
134 155 0
135 155 0
139 161 0
139 158 0
140 160 0
141 162 0
143 164 0
151 173 0
145 166 0
141 162 0
131 151 0
143 164 0
139 160 0
131 152 0
149 171 0
146 166 0
145 166 0
149 170 0
145 166 0
134 155 0
139 160 0
138 159 0
144 166 0
135 155 0
135 156 0
144 165 0
139 159 0
140 160 0
145 166 0
142 163 0
142 161 0
148 169 0
146 166 0
144 164 0
145 165 0
138 159 0
142 163 0
144 165 0
144 165 0
147 167 0
139 160 0
145 165 0
136 157 0
141 162 0
139 159 0
139 159 0
136 156 0
144 163 0
142 161 0
146 165 0
139 158 0
153 173 0
141 160 0
149 168 0
142 162 0
141 161 0
145 164 0
141 161 0
136 154 0
131 151 0
143 162 0
145 164 0
150 169 0
145 165 0
144 163 0
143 162 0
142 161 0
144 163 0
142 160 0
144 163 0
145 163 0
142 160 0
142 161 0
142 161 0
144 163 0
138 157 0
148 167 0
133 151 0
140 157 0
136 153 0
135 153 0
137 155 0
138 156 0
144 163 0
138 154 0
143 161 0
143 160 0
133 150 0
145 163 0
139 157 0
132 149 0
144 161 0
138 155 0
140 157 0
146 164 0
148 165 0
145 163 0
134 150 0
145 163 0
144 161 0
140 158 0
142 160 0
141 158 0
150 167 0
152 169 0
149 166 0
146 163 0
138 155 0
144 161 0
138 154 0
145 162 0
150 168 0
151 170 0
144 161 0
138 154 0
150 167 0
145 163 0
141 157 0
143 160 0
148 165 0
145 162 0
141 158 0
151 168 0
144 161 0
145 162 0
143 160 0
145 161 0
143 159 0
152 170 0
143 160 0
146 164 0
143 161 0
148 166 0
150 168 0
145 162 0
147 164 0
144 162 0
152 170 0
149 167 0
148 167 0
154 173 0
143 161 0
159 178 0
155 174 0
157 176 0
150 168 0
153 172 0
160 180 0
158 176 0
156 175 0
158 178 0
159 178 0
159 177 0
160 178 0
155 173 0
159 177 0
160 178 0
158 176 0
158 176 0
160 179 0
158 176 0
157 175 0
153 172 0
160 179 0
154 172 0
147 164 0
153 171 0
162 180 0
161 180 0
156 174 0
152 170 0
159 178 0
156 175 0
158 176 0
146 163 0
157 175 0
149 167 0
150 168 0
157 176 0
153 171 0
154 172 0
155 173 0
152 170 0
157 176 0
148 165 0
152 170 0
157 176 0
148 165 0
150 168 0
151 169 0
151 168 0
149 166 0
154 172 0
157 175 0
148 167 0
151 170 0
149 168 0
158 177 0
154 172 0
148 166 0
151 170 0
157 176 0
152 170 0
146 165 0
150 169 0
150 169 0
143 160 0
151 170 0
148 167 0
151 170 0
151 170 0
149 168 0
151 169 0
151 171 0
158 178 0
146 166 0
146 165 0
157 177 0
145 165 0
156 176 0
151 170 0
151 171 0
146 165 0
149 169 0
151 172 0
147 167 0
151 170 0
146 165 0
152 171 0
148 167 0
146 166 0
147 168 0
146 166 0
147 168 0
153 173 0
140 159 0
153 174 0
144 164 0
152 172 0
151 172 0
148 168 0
139 159 0
146 167 0
142 161 0
148 169 0
147 168 0
150 171 0
147 167 0
147 167 0
147 169 0
149 170 0
142 163 0
152 172 0
147 168 0
147 168 0
146 166 0
147 168 0
155 176 0
147 168 0
150 171 0
154 174 0
151 173 0
150 173 0
152 173 0
146 168 0
149 170 0
149 170 0
146 167 0
148 168 0
148 169 0
144 165 0
152 173 0
143 164 0
148 168 0
148 170 0
145 166 0
151 173 0
144 165 0
142 164 0
142 164 0
143 164 0
149 169 0
149 170 0
142 163 0
148 168 0
140 160 0
147 168 0
149 170 0
141 163 0
151 173 0
147 169 0
143 164 0
145 167 0
143 165 0
143 163 0
142 164 0
141 162 0
150 172 0
140 161 0
142 164 0
144 165 0
141 163 0
148 169 0
139 161 0
138 160 0
140 162 0
138 160 0
138 159 0
144 166 0
131 153 0
142 164 0
148 170 0
137 159 0
149 171 0
145 167 0
137 159 0
139 161 0
140 162 0
144 165 0
147 169 0
133 154 0
140 161 0
133 154 0
130 152 0
135 156 0
135 157 0
139 161 0
137 158 0
139 161 0
137 158 0
139 161 0
145 167 0
136 158 0
141 163 0
133 155 0
129 150 0
141 162 0
137 158 0
138 160 0
138 159 0
135 157 0
144 165 0
141 163 0
136 158 0
136 156 0
145 167 0
140 161 0
137 159 0
139 161 0
142 163 0
138 159 0
129 150 0
133 154 0
138 159 0
133 155 0
148 170 0
145 166 0
145 166 0
132 152 0
140 160 0
138 160 0
137 159 0
138 159 0
145 166 0
137 158 0
137 158 0
141 164 0
143 164 0
145 166 0
137 158 0
137 157 0
144 166 0
143 164 0
142 164 0
143 165 0
137 158 0
134 155 0
138 160 0
141 161 0
143 166 0
150 172 0
141 163 0
142 165 0
127 147 0
137 157 0
135 156 0
147 168 0
142 165 0
143 164 0
145 166 0
137 158 0
148 171 0
145 167 0
151 173 0
145 166 0
143 164 0
142 163 0
142 163 0
143 164 0
143 165 0
133 154 0
138 159 0
138 160 0
145 167 0
147 168 0
137 158 0
138 158 0
137 159 0
142 163 0
142 162 0
148 169 0
143 165 0
141 162 0
137 155 0
136 156 0
136 157 0
144 166 0
139 159 0
148 170 0
143 163 0
137 159 0
141 162 0
147 167 0
137 157 0
150 171 0
137 157 0
141 161 0
143 164 0
141 163 0
150 171 0
149 170 0
143 164 0
143 164 0
148 170 0
152 173 0
143 164 0
150 171 0
144 164 0
148 168 0
144 163 0
147 167 0
141 161 0
137 157 0
149 169 0
142 162 0
141 161 0
146 167 0
150 169 0
147 167 0
139 159 0
134 154 0
146 166 0
149 168 0
141 160 0
146 166 0
141 160 0
143 162 0
139 158 0
141 160 0
152 172 0
142 161 0
151 170 0
152 172 0
148 168 0
145 164 0
130 149 0
148 168 0
138 157 0
142 161 0
143 162 0
144 164 0
145 164 0
143 162 0
143 161 0
148 167 0
145 164 0
137 156 0
144 162 0
149 169 0
144 163 0
146 165 0
149 168 0
143 162 0
143 162 0
140 158 0
143 161 0
146 164 0
140 158 0
140 158 0
150 168 0
142 160 0
148 165 0
139 156 0
138 156 0
141 158 0
144 163 0
143 159 0
150 169 0
146 164 0
141 158 0
141 158 0
143 161 0
142 158 0
146 163 0
144 160 0
147 164 0
145 162 0
134 150 0
142 160 0
138 155 0
150 168 0
149 166 0
152 170 0
141 159 0
141 158 0
148 167 0
142 160 0
144 161 0
153 171 0
151 169 0
141 158 0
153 170 0
146 164 0
148 166 0
146 164 0
155 173 0
147 164 0
141 158 0
151 169 0
148 166 0
151 169 0
145 163 0
148 165 0
156 173 0
151 168 0
153 171 0
157 175 0
150 168 0
160 179 0
153 170 0
154 172 0
149 167 0
147 165 0
153 171 0
153 172 0
156 176 0
150 170 0
159 178 0
157 176 0
160 180 0
154 172 0
162 180 0
161 179 0
160 179 0
155 173 0
155 173 0
154 172 0
164 182 0
151 170 0
154 172 0
160 179 0
154 172 0
155 173 0
157 176 0
155 173 0
150 168 0
154 172 0
158 177 0
159 178 0
157 176 0
152 170 0
157 175 0
158 176 0
156 175 0
154 173 0
157 175 0
149 168 0
160 178 0
154 172 0
156 174 0
153 171 0
152 170 0
152 171 0
152 170 0
154 173 0
155 174 0
152 172 0
149 168 0
153 172 0
156 175 0
156 175 0
158 176 0
154 173 0
153 171 0
151 169 0
153 171 0
150 169 0
153 171 0
158 177 0
157 176 0
148 167 0
148 166 0
149 169 0
153 172 0
150 167 0
153 172 0
148 167 0
146 164 0
152 171 0
154 174 0
146 165 0
153 172 0
143 161 0
151 170 0
149 167 0
153 172 0
148 167 0
145 164 0
151 171 0
150 170 0
153 172 0
152 172 0
140 159 0
148 167 0
145 166 0
148 168 0
148 168 0
149 170 0
151 170 0
148 168 0
151 171 0
149 169 0
152 172 0
144 164 0
148 169 0
142 161 0
147 166 0
146 166 0
144 165 0
144 163 0
145 165 0
146 167 0
147 168 0
155 175 0
145 166 0
150 170 0
143 163 0
147 169 0
156 176 0
145 166 0
148 169 0
146 167 0
143 165 0
147 168 0
150 170 0
152 173 0
150 171 0
145 165 0
146 167 0
152 174 0
148 169 0
145 167 0
140 160 0
136 157 0
147 168 0
146 167 0
149 170 0
144 164 0
148 169 0
151 173 0
145 166 0
147 169 0
145 165 0
144 165 0
147 169 0
144 165 0
146 167 0
142 164 0
146 168 0
146 168 0
146 168 0
139 161 0
146 168 0
146 166 0
141 161 0
144 166 0
148 170 0
142 164 0
145 166 0
137 157 0
143 164 0
146 168 0
155 176 0
140 161 0
149 171 0
148 170 0
140 162 0
144 166 0
140 161 0
143 164 0
144 166 0
144 165 0
138 160 0
143 165 0
143 164 0
142 162 0
149 172 0
139 159 0
152 175 0
138 159 0
143 165 0
143 164 0
141 162 0
140 162 0
146 168 0
145 168 0
143 165 0
148 169 0
142 164 0
142 163 0
142 164 0
147 169 0
138 160 0
140 162 0
140 162 0
140 162 0
135 157 0
143 163 0
131 152 0
138 160 0
137 158 0
140 162 0
143 165 0
142 163 0
139 160 0
143 163 0
137 158 0
138 160 0
148 170 0
127 149 0
137 160 0
142 164 0
136 157 0
150 173 0
150 173 0
146 167 0
137 158 0
138 160 0
138 160 0
142 164 0
141 163 0
141 163 0
143 166 0
151 173 0
148 169 0
151 173 0
140 163 0
135 157 0
135 156 0
140 160 0
145 167 0
151 174 0
142 164 0
151 173 0
146 167 0
137 158 0
135 156 0
144 166 0
143 164 0
129 149 0
143 165 0
138 159 0
138 160 0
141 163 0
134 155 0
146 167 0
149 172 0
140 162 0
146 168 0
134 154 0
145 167 0
145 167 0
153 174 0
139 161 0
141 164 0
140 162 0
144 165 0
141 163 0
147 169 0
147 169 0
148 170 0
132 153 0
138 159 0
145 167 0
146 167 0
153 175 0
136 157 0
147 170 0
149 171 0
139 160 0
147 168 0
136 157 0
151 173 0
144 165 0
146 168 0
137 158 0
140 161 0
139 160 0
140 160 0
152 174 0
139 160 0
151 173 0
137 160 0
136 156 0
148 169 0
143 165 0
146 166 0
146 167 0
145 166 0
142 162 0
150 171 0
140 162 0
143 164 0
149 171 0
143 164 0
148 169 0
144 165 0
151 172 0
136 157 0
141 160 0
146 166 0
145 165 0
146 167 0
147 168 0
138 158 0
140 160 0
148 169 0
142 161 0
140 160 0
145 166 0
141 161 0
133 153 0
138 157 0
150 171 0
145 164 0
145 166 0
142 162 0
144 164 0
155 176 0
150 171 0
146 167 0
147 167 0
143 164 0
149 169 0
145 166 0
147 166 0
142 163 0
145 165 0
140 160 0
138 157 0
144 164 0
151 171 0
141 160 0
149 170 0
143 162 0
146 165 0
150 170 0
145 164 0
145 164 0
140 159 0
140 160 0
143 162 0
142 161 0
151 170 0
145 164 0
144 163 0
140 158 0
148 167 0
147 166 0
145 163 0
133 150 0
146 164 0
145 164 0
145 163 0
146 165 0
146 165 0
144 162 0
143 161 0
142 159 0
145 163 0
149 169 0
143 161 0
145 163 0
146 164 0
146 164 0
145 163 0
140 158 0
153 172 0
144 162 0
137 155 0
151 169 0
151 169 0
149 166 0
140 158 0
145 162 0
142 160 0
149 167 0
142 159 0
144 162 0
149 167 0
145 164 0
144 162 0
150 168 0
145 162 0
147 165 0
144 161 0
152 170 0
147 164 0
148 166 0
144 162 0
153 171 0
153 171 0
149 166 0
149 166 0
145 163 0
140 156 0
153 171 0
152 171 0
148 165 0
154 172 0
148 165 0
150 167 0
149 167 0
147 164 0
151 168 0
153 172 0
156 174 0
155 173 0
146 164 0
156 175 0
158 177 0
150 168 0
149 167 0
158 178 0
151 169 0
157 175 0
152 170 0
156 174 0
159 178 0
157 175 0
163 182 0
158 177 0
160 178 0
156 175 0
151 169 0
158 176 0
163 182 0
160 179 0
160 180 0
156 174 0
160 178 0
157 177 0
160 178 0
160 180 0
153 170 0
161 179 0
155 173 0
158 176 0
147 164 0
150 169 0
152 170 0
156 175 0
160 178 0
158 177 0
156 175 0
153 171 0
159 178 0
153 172 0
153 170 0
149 166 0
152 169 0
156 175 0
153 172 0
149 168 0
146 165 0
147 164 0
148 167 0
151 169 0
152 171 0
147 165 0
150 168 0
153 172 0
153 171 0
152 171 0
158 177 0
155 173 0
148 166 0
155 175 0
148 167 0
146 166 0
157 176 0
153 171 0
152 171 0
149 169 0
150 168 0
147 165 0
154 174 0
148 167 0
150 169 0
140 160 0
149 167 0
159 178 0
150 170 0
148 167 0
151 171 0
150 170 0
153 173 0
144 163 0
149 168 0
148 166 0
157 176 0
146 166 0
152 172 0
157 177 0
154 174 0
152 172 0
151 171 0
146 166 0
152 174 0
145 165 0
157 179 0
141 161 0
147 167 0
148 168 0
143 163 0
146 166 0
149 169 0
147 168 0
147 167 0
145 166 0
142 162 0
146 167 0
145 166 0
145 165 0
150 171 0
151 173 0
151 171 0
144 165 0
151 172 0
147 168 0
156 176 0
143 163 0
147 168 0
146 166 0
149 170 0
149 171 0
151 172 0
156 176 0
141 162 0
143 163 0
144 165 0
143 165 0
145 166 0
145 167 0
147 168 0
154 175 0
155 177 0
140 161 0
143 165 0
140 161 0
153 175 0
145 167 0
148 169 0
147 168 0
146 167 0
142 164 0
141 163 0
149 170 0
145 166 0
139 161 0
141 161 0
145 167 0
148 171 0
146 167 0
149 170 0
145 168 0
146 167 0
145 166 0
149 171 0
149 171 0
147 169 0
146 167 0
141 162 0
145 168 0
145 166 0
145 168 0
147 168 0
151 174 0
138 159 0
144 166 0
144 165 0
146 168 0
145 168 0
146 167 0
145 166 0
141 163 0
145 166 0
147 169 0
144 165 0
136 158 0
144 165 0
151 172 0
150 171 0
138 160 0
136 157 0
141 163 0
144 167 0
144 167 0
142 163 0
151 172 0
130 151 0
137 159 0
142 163 0
137 159 0
136 158 0
134 155 0
142 164 0
145 167 0
144 166 0
141 162 0
143 165 0
147 169 0
142 165 0
138 161 0
137 158 0
145 167 0
149 172 0
145 166 0
145 167 0
136 157 0
143 164 0
143 165 0
144 166 0
143 166 0
145 167 0
145 168 0
135 155 0
144 166 0
147 169 0
137 158 0
136 158 0
138 160 0
140 162 0
141 162 0
141 163 0
141 162 0
145 168 0
140 161 0
149 170 0
135 156 0
143 165 0
150 172 0
141 162 0
139 161 0
141 163 0
131 153 0
138 160 0
137 158 0
143 166 0
143 165 0
134 155 0
149 171 0
142 162 0
137 159 0
145 168 0
127 148 0
143 165 0
138 160 0
152 173 0
148 169 0
135 156 0
145 166 0
147 168 0
150 172 0
130 151 0
138 160 0
139 160 0
139 161 0
140 162 0
146 166 0
144 165 0
137 159 0
144 166 0
146 168 0
133 154 0
133 153 0
141 163 0
142 163 0
149 171 0
142 163 0
141 163 0
154 174 0
143 165 0
141 162 0
148 169 0
142 164 0
144 166 0
142 164 0
149 171 0
149 171 0
142 164 0
135 156 0
146 167 0
144 163 0
148 168 0
148 169 0
147 168 0
140 161 0
145 166 0
144 164 0
150 171 0
153 175 0
148 169 0
150 172 0
138 159 0
154 175 0
138 158 0
145 165 0
135 156 0
142 163 0
146 167 0
143 164 0
143 162 0
146 168 0
145 165 0
148 170 0
147 167 0
148 167 0
157 178 0
146 167 0
149 171 0
148 169 0
136 155 0
146 165 0
138 158 0
148 169 0
146 166 0
137 158 0
153 173 0
143 163 0
142 162 0
150 170 0
140 161 0
148 169 0
142 161 0
147 167 0
146 166 0
141 160 0
151 171 0
143 164 0
144 164 0
144 163 0
146 167 0
143 162 0
148 167 0
142 162 0
145 163 0
151 172 0
145 164 0
149 168 0
139 158 0
150 168 0
139 158 0
140 158 0
132 150 0
140 159 0
144 163 0
146 165 0
140 159 0
137 155 0
150 168 0
144 163 0
150 169 0
139 158 0
144 162 0
144 162 0
139 158 0
135 154 0
139 157 0
146 165 0
146 164 0
141 159 0
150 169 0
140 157 0
143 161 0
143 161 0
148 166 0
144 162 0
151 169 0
147 165 0
145 163 0
144 160 0
149 166 0
144 162 0
142 159 0
150 168 0
144 161 0
145 162 0
143 161 0
153 172 0
151 169 0
147 164 0
141 158 0
148 165 0
146 163 0
144 161 0
146 163 0
144 162 0
145 161 0
147 164 0
150 167 0
146 163 0
144 160 0
146 163 0
146 162 0
154 172 0
154 172 0
149 167 0
157 175 0
150 168 0
150 168 0
149 167 0
152 170 0
148 165 0
155 172 0
151 168 0
153 171 0
151 169 0
157 175 0
152 171 0
148 167 0
150 168 0
149 167 0
155 173 0
148 166 0
151 169 0
155 174 0
160 179 0
157 176 0
149 167 0
161 181 0
156 174 0
162 182 0
160 179 0
157 175 0
153 171 0
156 175 0
160 178 0
157 175 0
155 174 0
158 178 0
163 182 0
153 172 0
154 172 0
153 171 0
157 176 0
156 174 0
156 174 0
157 175 0
153 172 0
161 179 0
155 174 0
152 170 0
160 179 0
155 173 0
155 173 0
156 175 0
150 168 0
154 172 0
151 170 0
147 166 0
156 174 0
158 177 0
156 174 0
153 171 0
152 171 0
155 174 0
154 173 0
150 168 0
148 167 0
154 173 0
154 173 0
150 169 0
155 174 0
148 167 0
155 173 0
153 172 0
154 172 0
151 169 0
146 165 0
153 171 0
155 174 0
154 174 0
147 166 0
150 169 0
150 170 0
155 174 0
151 171 0
153 172 0
148 168 0
149 170 0
142 161 0
154 174 0
151 169 0
151 169 0
152 171 0
150 170 0
146 166 0
147 166 0
150 169 0
145 165 0
148 168 0
150 170 0
150 171 0
148 168 0
148 168 0
143 162 0
151 171 0
144 165 0
148 168 0
149 169 0
151 171 0
145 165 0
144 163 0
150 169 0
146 166 0
152 174 0
148 168 0
148 168 0
154 174 0
155 176 0
146 166 0
150 171 0
144 166 0
151 171 0
152 173 0
146 166 0
152 173 0
139 161 0
147 167 0
151 171 0
151 171 0
153 175 0
147 169 0
149 170 0
146 168 0
152 174 0
158 179 0
147 168 0
151 173 0
143 164 0
139 161 0
147 167 0
149 171 0
147 169 0
151 173 0
156 177 0
146 167 0
152 172 0
151 173 0
145 165 0
154 175 0
146 167 0
149 170 0
155 177 0
138 160 0
145 166 0
152 174 0
158 180 0
149 170 0
146 166 0
146 168 0
146 168 0
138 158 0
148 169 0
142 164 0
148 169 0
150 172 0
144 167 0
150 170 0
146 169 0
148 170 0
137 158 0
149 170 0
149 170 0
137 157 0
141 162 0
154 176 0
140 161 0
144 166 0
144 167 0
140 162 0
140 163 0
144 165 0
141 164 0
140 161 0
148 170 0
141 163 0
137 159 0
146 168 0
148 170 0
141 163 0
134 155 0
137 158 0
142 162 0
150 172 0
144 165 0
138 159 0
144 166 0
148 170 0
151 173 0
148 170 0
147 170 0
146 166 0
135 156 0
143 163 0
139 160 0
148 169 0
140 162 0
138 160 0
145 167 0
140 163 0
136 158 0
146 168 0
138 160 0
146 168 0
147 169 0
146 169 0
140 162 0
144 166 0
146 169 0
144 165 0
141 162 0
145 167 0
140 162 0
146 168 0
145 167 0
142 164 0
149 171 0
149 170 0
151 173 0
144 165 0
137 158 0
135 156 0
144 165 0
135 156 0
145 167 0
141 162 0
142 162 0
145 167 0
142 164 0
144 166 0
148 169 0
139 161 0
142 164 0
140 162 0
147 170 0
126 147 0
151 172 0
140 161 0
141 161 0
138 158 0
129 151 0
141 163 0
141 162 0
147 169 0
128 150 0
142 164 0
134 155 0
135 157 0
147 170 0
148 169 0
141 162 0
129 150 0
143 165 0
145 166 0
147 167 0
153 174 0
144 167 0
138 159 0
136 157 0
144 166 0
140 161 0
139 160 0
140 160 0
138 158 0
137 158 0
142 162 0
145 168 0
155 177 0
136 157 0
148 169 0
143 165 0
144 166 0
142 164 0
148 170 0
134 154 0
144 166 0
143 164 0
141 163 0
144 165 0
140 161 0
147 169 0
143 163 0
147 169 0
149 171 0
144 166 0
138 159 0
146 168 0
152 174 0
149 171 0
146 167 0
142 164 0
152 174 0
148 169 0
134 154 0
143 164 0
149 170 0
153 176 0
149 169 0
155 177 0
156 178 0
148 169 0
138 159 0
142 162 0
147 166 0
140 161 0
151 172 0
147 168 0
150 171 0
138 158 0
144 165 0
150 172 0
149 171 0
139 160 0
143 164 0
137 157 0
144 164 0
145 165 0
146 166 0
151 171 0
146 166 0
150 171 0
147 166 0
133 152 0
144 164 0
141 160 0
144 164 0
144 163 0
146 166 0
146 166 0
148 167 0
143 162 0
144 163 0
145 165 0
152 171 0
150 170 0
147 168 0
149 169 0
147 166 0
149 169 0
146 164 0
147 166 0
138 156 0
144 162 0
148 167 0
138 156 0
143 162 0
146 165 0
152 171 0
146 165 0
141 160 0
147 167 0
148 166 0
144 163 0
146 165 0
148 166 0
142 160 0
144 163 0
146 164 0
146 163 0
147 165 0
148 167 0
147 166 0
139 158 0
150 168 0
139 157 0
148 167 0
135 152 0
147 165 0
146 164 0
146 164 0
148 166 0
139 157 0
145 162 0
153 172 0
144 161 0
142 158 0
145 163 0
148 165 0
150 168 0
152 169 0
142 160 0
144 162 0
149 167 0
147 165 0
145 163 0
150 168 0
136 153 0
152 171 0
149 167 0
150 168 0
150 168 0
142 160 0
143 161 0
153 171 0
151 170 0
155 174 0
150 168 0
150 169 0
147 164 0
151 169 0
149 166 0
150 168 0
152 171 0
148 167 0
155 173 0
150 169 0
156 175 0
153 171 0
154 173 0
157 175 0
149 167 0
151 170 0
151 170 0
156 175 0
154 172 0
157 176 0
162 181 0
159 178 0
164 182 0
157 175 0
161 180 0
159 178 0
154 173 0
161 179 0
161 179 0
156 175 0
163 182 0
163 183 0
161 180 0
155 174 0
156 175 0
152 170 0
158 176 0
155 175 0
158 176 0
158 176 0
156 174 0
155 174 0
154 173 0
153 171 0
156 176 0
156 174 0
158 177 0
155 174 0
155 174 0
157 176 0
159 178 0
145 164 0
154 172 0
156 175 0
155 174 0
152 171 0
156 175 0
153 172 0
150 168 0
154 173 0
154 173 0
153 172 0
153 171 0
143 161 0
154 173 0
155 173 0
152 171 0
147 165 0
150 169 0
153 171 0
145 163 0
147 166 0
156 175 0
152 172 0
153 172 0
148 167 0
151 171 0
147 165 0
147 167 0
150 170 0
148 167 0
144 163 0
148 167 0
154 174 0
151 171 0
149 169 0
147 167 0
152 172 0
151 171 0
151 171 0
148 168 0
147 167 0
158 177 0
150 170 0
150 170 0
146 166 0
156 177 0
156 176 0
148 168 0
154 175 0
148 167 0
147 167 0
147 168 0
149 170 0
150 170 0
143 163 0
148 168 0
145 165 0
147 168 0
150 170 0
151 172 0
149 170 0
149 170 0
152 173 0
149 169 0
141 163 0
150 171 0
148 169 0
151 172 0
148 169 0
153 174 0
154 175 0
151 172 0
149 171 0
150 170 0
137 157 0
148 168 0
150 172 0
147 169 0
145 167 0
150 172 0
149 171 0
146 166 0
147 169 0
146 167 0
147 168 0
152 173 0
151 173 0
146 168 0
140 161 0
144 166 0
154 177 0
146 168 0
150 170 0
152 173 0
152 173 0
151 172 0
146 168 0
146 166 0
150 173 0
146 168 0
145 167 0
145 167 0
146 168 0
151 173 0
148 168 0
152 174 0
137 158 0
141 163 0
142 164 0
150 171 0
150 171 0
152 174 0
150 172 0
144 166 0
148 169 0
144 165 0
148 170 0
145 167 0
150 172 0
142 164 0
148 169 0
150 172 0
140 162 0
143 165 0
151 173 0
145 167 0
148 169 0
138 160 0
146 168 0
145 168 0
143 165 0
151 173 0
151 173 0
152 173 0
144 166 0
143 165 0
142 163 0
150 173 0
133 155 0
143 165 0
139 160 0
138 160 0
142 164 0
147 168 0
145 167 0
146 167 0
148 170 0
147 169 0
139 161 0
143 164 0
148 170 0
142 163 0
146 168 0
140 162 0
136 158 0
139 159 0
149 171 0
142 163 0
146 169 0
142 164 0
145 166 0
145 168 0
145 166 0
144 167 0
133 153 0
140 160 0
143 165 0
152 174 0
141 163 0
142 163 0
137 158 0
147 169 0
142 164 0
146 168 0
140 162 0
142 163 0
138 160 0
149 171 0
145 167 0
141 163 0
147 169 0
134 155 0
140 162 0
134 155 0
138 159 0
136 158 0
131 151 0
140 162 0
147 169 0
144 166 0
150 172 0
132 154 0
141 163 0
149 171 0
133 154 0
147 169 0
142 164 0
146 169 0
137 159 0
149 172 0
146 167 0
136 158 0
147 169 0
149 170 0
149 170 0
152 175 0
147 168 0
137 159 0
148 169 0
132 154 0
145 168 0
140 160 0
147 169 0
150 172 0
139 160 0
140 161 0
145 166 0
141 163 0
149 171 0
149 170 0
133 153 0
146 168 0
137 157 0
153 174 0
142 163 0
144 166 0
145 166 0
136 157 0
146 168 0
147 168 0
148 169 0
141 162 0
147 168 0
144 165 0
141 162 0
152 172 0
151 173 0
146 168 0
142 164 0
143 164 0
143 165 0
139 159 0
141 163 0
138 158 0
144 164 0
147 168 0
143 164 0
146 166 0
145 167 0
139 161 0
149 169 0
153 174 0
148 169 0
148 170 0
156 178 0
150 171 0
143 163 0
151 172 0
138 158 0
140 161 0
146 167 0
149 170 0
137 157 0
146 166 0
142 162 0
151 172 0
148 169 0
151 173 0
147 168 0
146 166 0
146 167 0
144 164 0
148 169 0
147 168 0
150 172 0
147 168 0
144 164 0
136 156 0
138 157 0
145 165 0
146 166 0
150 171 0
147 168 0
141 161 0
142 160 0
150 169 0
157 178 0
151 172 0
151 170 0
144 164 0
142 161 0
144 163 0
153 172 0
147 166 0
148 167 0
153 172 0
147 167 0
147 166 0
143 162 0
148 167 0
140 158 0
142 162 0
143 162 0
146 165 0
146 165 0
142 161 0
150 168 0
145 163 0
151 170 0
147 165 0
152 172 0
146 164 0
142 160 0
149 168 0
148 167 0
153 172 0
140 158 0
149 168 0
137 156 0
148 166 0
149 168 0
151 170 0
155 174 0
140 158 0
147 165 0
142 160 0
144 162 0
140 158 0
140 158 0
150 170 0
144 162 0
148 166 0
141 159 0
150 168 0
149 167 0
146 164 0
147 165 0
149 168 0
152 170 0
138 155 0
144 162 0
150 168 0
146 163 0
146 165 0
154 173 0
155 174 0
145 163 0
148 164 0
147 165 0
149 167 0
146 163 0
158 176 0
152 170 0
144 161 0
152 170 0
154 173 0
150 169 0
150 167 0
145 162 0
157 176 0
153 172 0
146 164 0
155 173 0
152 170 0
153 172 0
153 172 0
154 173 0
153 171 0
165 185 0
154 173 0
159 178 0
161 180 0
158 177 0
158 177 0
160 179 0
158 177 0
152 171 0
155 174 0
159 177 0
158 177 0
152 170 0
155 173 0
161 180 0
154 173 0
155 174 0
156 175 0
155 173 0
156 175 0
159 178 0
155 174 0
156 175 0
151 169 0
161 181 0
152 171 0
156 175 0
157 176 0
154 172 0
150 168 0
162 182 0
153 172 0
152 171 0
151 170 0
151 170 0
153 172 0
148 167 0
158 177 0
151 169 0
153 173 0
156 174 0
156 176 0
152 171 0
155 175 0
152 172 0
152 172 0
156 174 0
153 173 0
153 173 0
158 178 0
153 173 0
152 171 0
159 178 0
151 170 0
152 171 0
147 167 0
157 176 0
143 162 0
151 170 0
156 177 0
148 166 0
154 172 0
152 171 0
157 176 0
156 176 0
147 166 0
151 171 0
146 166 0
157 178 0
145 164 0
150 171 0
146 167 0
143 164 0
155 174 0
153 173 0
151 171 0
145 165 0
150 171 0
152 173 0
153 173 0
150 170 0
146 166 0
147 167 0
146 166 0
155 176 0
151 173 0
144 164 0
149 168 0
151 172 0
157 178 0
151 173 0
147 167 0
152 172 0
148 168 0
146 166 0
152 174 0
146 167 0
152 172 0
145 166 0
151 172 0
144 164 0
155 176 0
148 169 0
141 162 0
147 169 0
145 167 0
146 167 0
148 169 0
150 170 0
145 165 0
147 168 0
147 168 0
148 171 0
156 177 0
142 165 0
149 170 0
141 162 0
145 167 0
145 167 0
148 170 0
141 162 0
143 164 0
146 168 0
150 173 0
153 174 0
141 163 0
150 173 0
135 157 0
146 167 0
150 172 0
141 163 0
150 172 0
148 169 0
159 182 0
148 170 0
145 166 0
143 165 0
149 170 0
151 174 0
153 175 0
139 160 0
145 166 0
135 158 0
143 165 0
143 164 0
149 171 0
142 165 0
139 160 0
147 169 0
143 164 0
146 168 0
149 171 0
144 164 0
148 169 0
150 172 0
147 169 0
147 169 0
145 167 0
150 172 0
143 164 0
148 170 0
139 161 0
143 165 0
135 156 0
145 167 0
143 165 0
139 161 0
148 169 0
138 160 0
145 167 0
145 166 0
141 162 0
149 171 0
144 165 0
147 169 0
138 160 0
143 165 0
144 165 0
142 164 0
141 163 0
140 162 0
132 154 0
147 169 0
141 162 0
135 156 0
141 162 0
139 161 0
137 158 0
140 162 0
139 160 0
143 165 0
140 161 0
146 168 0
151 172 0
149 171 0
147 169 0
137 157 0
138 160 0
140 162 0
143 165 0
135 157 0
152 175 0
145 168 0
137 158 0
141 162 0
149 171 0
133 155 0
133 155 0
131 153 0
146 168 0
146 166 0
142 165 0
138 160 0
145 167 0
146 167 0
143 167 0
132 155 0
145 167 0
149 171 0
144 166 0
150 172 0
148 170 0
149 170 0
144 166 0
133 155 0
144 166 0
146 167 0
141 164 0
142 164 0
143 165 0
136 156 0
146 167 0
132 153 0
137 157 0
148 169 0
144 166 0
149 171 0
151 172 0
139 159 0
149 171 0
144 166 0
144 167 0
151 173 0
147 169 0
150 171 0
146 167 0
150 173 0
139 161 0
153 175 0
139 161 0
146 169 0
143 164 0
148 168 0
141 163 0
139 160 0
147 168 0
143 165 0
144 166 0
146 168 0
155 177 0
144 166 0
146 167 0
143 164 0
141 162 0
144 167 0
140 161 0
147 168 0
142 163 0
137 158 0
154 176 0
136 157 0
143 163 0
146 169 0
147 168 0
142 162 0
137 158 0
147 168 0
146 167 0
154 176 0
139 159 0
151 172 0
150 172 0
147 169 0
148 169 0
144 165 0
144 166 0
148 169 0
144 165 0
146 167 0
149 170 0
147 168 0
152 175 0
143 163 0
140 161 0
145 167 0
145 165 0
146 168 0
144 164 0
146 166 0
149 168 0
147 169 0
152 173 0
142 162 0
147 168 0
144 164 0
149 168 0
150 170 0
145 166 0
152 173 0
147 166 0
144 164 0
146 166 0
143 163 0
142 162 0
147 167 0
155 176 0
147 167 0
145 166 0
142 162 0
145 164 0
142 161 0
145 165 0
149 168 0
149 169 0
145 165 0
138 158 0
144 164 0
147 167 0
140 160 0
146 165 0
148 169 0
138 157 0
147 166 0
148 168 0
146 165 0
148 167 0
150 170 0
142 161 0
142 161 0
147 165 0
152 172 0
145 164 0
143 161 0
152 172 0
150 170 0
152 172 0
151 170 0
146 164 0
148 167 0
142 160 0
148 166 0
147 165 0
142 160 0
145 165 0
151 171 0
149 168 0
143 161 0
151 168 0
154 173 0
145 163 0
140 158 0
146 164 0
149 167 0
142 160 0
148 166 0
149 167 0
153 172 0
149 168 0
146 164 0
148 166 0
151 169 0
141 158 0
153 171 0
153 171 0
153 171 0
142 160 0
150 168 0
154 173 0
148 167 0
147 165 0
151 170 0
154 172 0
151 169 0
153 170 0
148 166 0
152 169 0
150 169 0
154 172 0
153 172 0
161 181 0
155 172 0
150 168 0
156 174 0
159 177 0
157 175 0
154 172 0
150 167 0
144 161 0
153 171 0
153 171 0
160 179 0
160 179 0
160 180 0
156 175 0
160 178 0
160 180 0
155 174 0
158 177 0
156 174 0
155 175 0
153 172 0
160 179 0
159 177 0
148 165 0
160 178 0
157 177 0
157 175 0
155 174 0
153 172 0
158 178 0
157 176 0
158 177 0
156 175 0
149 167 0
158 177 0
153 171 0
155 173 0
155 174 0
158 176 0
156 174 0
152 170 0
155 175 0
152 172 0
159 179 0
153 173 0
154 174 0
151 170 0
146 164 0
157 177 0
157 176 0
158 177 0
150 170 0
150 169 0
154 172 0
151 171 0
146 165 0
160 181 0
159 179 0
146 165 0
151 169 0
147 166 0
151 170 0
152 172 0
154 174 0
154 173 0
149 167 0
154 173 0
158 179 0
154 174 0
155 175 0
151 171 0
154 174 0
150 171 0
151 171 0
149 170 0
153 173 0
158 178 0
148 167 0
158 178 0
148 167 0
149 169 0
156 177 0
153 174 0
149 168 0
148 170 0
150 170 0
152 173 0
149 169 0
152 172 0
150 170 0
147 167 0
153 173 0
148 169 0
159 180 0
149 169 0
146 167 0
149 170 0
148 168 0
153 173 0
148 170 0
150 171 0
154 176 0
148 170 0
147 168 0
149 170 0
150 171 0
149 171 0
146 167 0
149 169 0
139 160 0
149 170 0
149 170 0
152 173 0
150 171 0
146 168 0
150 172 0
148 169 0
154 176 0
152 174 0
140 161 0
151 172 0
137 159 0
142 163 0
151 174 0
148 170 0
153 174 0
141 163 0
150 172 0
147 167 0
151 172 0
151 173 0
143 165 0
143 164 0
142 164 0
148 170 0
147 168 0
142 164 0
142 163 0
150 171 0
152 174 0
142 165 0
151 172 0
152 174 0
141 162 0
151 173 0
133 155 0
153 175 0
150 172 0
148 170 0
143 164 0
132 154 0
144 165 0
151 173 0
141 163 0
144 167 0
139 160 0
145 167 0
141 163 0
145 166 0
137 158 0
147 170 0
142 164 0
151 173 0
144 165 0
145 166 0
148 168 0
145 166 0
141 162 0
148 171 0
144 166 0
140 161 0
144 166 0
139 160 0
143 166 0
144 165 0
151 173 0
153 176 0
155 178 0
142 163 0
143 165 0
145 166 0
142 164 0
145 168 0
144 166 0
145 167 0
145 167 0
144 167 0
148 170 0
149 171 0
142 165 0
140 161 0
146 167 0
151 173 0
140 162 0
139 161 0
149 171 0
145 167 0
144 165 0
134 155 0
149 172 0
150 173 0
136 158 0
144 167 0
146 168 0
151 172 0
136 158 0
140 162 0
149 173 0
145 167 0
147 168 0
143 167 0
150 173 0
149 171 0
139 160 0
139 160 0
142 164 0
147 170 0
145 167 0
149 171 0
144 165 0
146 168 0
140 161 0
141 161 0
146 168 0
141 162 0
140 161 0
147 170 0
142 164 0
139 162 0
147 168 0
139 161 0
140 161 0
143 165 0
154 175 0
140 162 0
135 155 0
146 169 0
142 164 0
146 167 0
146 168 0
146 168 0
143 165 0
138 160 0
148 169 0
143 165 0
147 169 0
136 157 0
143 165 0
143 165 0
138 158 0
147 169 0
148 171 0
146 167 0
148 170 0
133 155 0
146 167 0
143 164 0
141 162 0
135 157 0
147 168 0
153 175 0
145 166 0
152 174 0
141 162 0
145 166 0
143 164 0
144 165 0
141 163 0
150 172 0
148 170 0
133 155 0
156 178 0
149 171 0
143 165 0
147 168 0
147 169 0
148 170 0
143 165 0
146 167 0
137 158 0
151 173 0
152 174 0
134 155 0
146 167 0
143 164 0
144 166 0
148 170 0
141 163 0
138 159 0
142 163 0
143 164 0
157 178 0
150 172 0
148 169 0
148 170 0
151 171 0
139 159 0
151 172 0
146 167 0
147 166 0
146 167 0
147 169 0
146 167 0
151 172 0
151 172 0
156 176 0
155 177 0
150 171 0
144 166 0
153 173 0
146 167 0
146 168 0
148 169 0
150 170 0
147 168 0
141 160 0
152 172 0
141 162 0
144 166 0
148 169 0
148 169 0
145 165 0
155 175 0
149 171 0
143 164 0
141 161 0
152 171 0
140 159 0
153 174 0
140 161 0
149 169 0
149 169 0
147 166 0
139 159 0
151 170 0
158 179 0
145 164 0
149 169 0
152 172 0
138 158 0
142 162 0
145 164 0
153 173 0
145 164 0
150 170 0
143 162 0
149 168 0
141 159 0
145 164 0
149 168 0
148 167 0
149 169 0
144 163 0
145 165 0
145 164 0
149 168 0
150 168 0
153 172 0
147 166 0
146 164 0
146 164 0
147 165 0
149 168 0
146 165 0
144 164 0
147 165 0
140 157 0
147 164 0
143 160 0
154 172 0
150 169 0
149 168 0
145 163 0
143 160 0
146 163 0
143 162 0
152 171 0
142 160 0
147 165 0
155 173 0
151 171 0
151 169 0
162 181 0
156 174 0
151 170 0
156 175 0
146 164 0
147 165 0
145 163 0
149 168 0
158 177 0
157 176 0
147 165 0
149 168 0
150 169 0
153 172 0
141 158 0
148 166 0
154 173 0
144 162 0
151 169 0
145 162 0
151 170 0
158 177 0
154 172 0
153 171 0
148 166 0
149 168 0
157 175 0
151 170 0
160 179 0
154 174 0
158 178 0
160 181 0
160 178 0
157 176 0
160 179 0
160 179 0
159 179 0
159 179 0
164 183 0
154 172 0
161 181 0
155 174 0
159 178 0
161 181 0
159 178 0
154 173 0
158 177 0
154 174 0
157 176 0
151 170 0
155 174 0
159 179 0
154 173 0
158 177 0
158 179 0
150 168 0
160 178 0
158 178 0
157 177 0
154 173 0
154 172 0
159 179 0
154 174 0
149 168 0
151 171 0
154 174 0
150 169 0
152 171 0
152 173 0
148 167 0
156 176 0
151 171 0
156 175 0
153 172 0
156 176 0
153 172 0
154 174 0
159 179 0
157 178 0
143 161 0
151 170 0
156 176 0
150 169 0
155 174 0
153 173 0
151 171 0
153 173 0
153 174 0
150 171 0
153 173 0
153 173 0
152 172 0
155 174 0
147 166 0
159 179 0
151 172 0
149 170 0
159 179 0
153 174 0
153 174 0
147 168 0
152 172 0
156 177 0
154 175 0
151 172 0
151 172 0
152 174 0
149 169 0
158 178 0
155 175 0
156 176 0
146 167 0
154 175 0
150 170 0
155 175 0
153 174 0
158 179 0
149 170 0
153 173 0
152 173 0
149 171 0
148 169 0
154 174 0
149 169 0
153 175 0
141 162 0
150 171 0
148 169 0
153 174 0
147 168 0
148 169 0
149 170 0
154 176 0
143 165 0
148 170 0
149 171 0
149 170 0
154 175 0
143 163 0
154 176 0
144 165 0
153 175 0
153 176 0
155 178 0
148 169 0
146 167 0
149 171 0
151 172 0
150 172 0
146 169 0
143 165 0
144 166 0
155 177 0
144 166 0
142 164 0
148 170 0
156 178 0
145 167 0
150 172 0
146 168 0
145 167 0
147 169 0
151 171 0
143 164 0
152 174 0
151 173 0
145 166 0
148 169 0
155 176 0
146 167 0
153 174 0
149 172 0
137 159 0
150 173 0
140 161 0
140 162 0
146 169 0
140 161 0
151 174 0
147 170 0
152 175 0
158 180 0
155 177 0
147 169 0
135 157 0
146 166 0
133 155 0
143 165 0
150 172 0
145 167 0
137 159 0
143 165 0
153 175 0
147 170 0
140 162 0
140 160 0
145 167 0
137 159 0
144 166 0
149 171 0
146 169 0
149 171 0
146 168 0
133 155 0
141 163 0
145 167 0
141 163 0
144 166 0
145 166 0
149 172 0
148 170 0
157 180 0
149 171 0
147 170 0
144 165 0
138 160 0
142 164 0
146 168 0
142 166 0
152 174 0
143 166 0
140 162 0
140 161 0
138 161 0
151 174 0
143 166 0
145 167 0
138 161 0
145 168 0
142 164 0
138 159 0
151 173 0
139 161 0
146 169 0
151 174 0
147 170 0
146 168 0
151 174 0
138 160 0
144 166 0
138 159 0
130 151 0
148 170 0
142 164 0
146 167 0
143 166 0
148 171 0
148 171 0
138 159 0
144 166 0
147 169 0
149 172 0
143 165 0
143 165 0
145 166 0
136 157 0
143 165 0
143 164 0
140 163 0
140 162 0
132 152 0
144 165 0
139 161 0
139 161 0
151 173 0
141 164 0
147 167 0
147 169 0
147 168 0
147 168 0
150 172 0
141 163 0
138 160 0
143 164 0
150 173 0
150 173 0
148 170 0
139 161 0
154 175 0
152 174 0
150 172 0
149 171 0
145 166 0
147 169 0
142 164 0
139 160 0
140 161 0
139 161 0
144 166 0
150 172 0
145 166 0
147 169 0
138 160 0
147 169 0
148 170 0
146 168 0
148 170 0
149 169 0
142 164 0
149 170 0
144 165 0
152 173 0
150 171 0
147 169 0
138 159 0
142 164 0
144 165 0
149 171 0
150 171 0
146 168 0
142 163 0
148 169 0
151 173 0
144 166 0
144 166 0
150 172 0
149 170 0
151 172 0
139 160 0
150 171 0
142 162 0
145 166 0
146 167 0
148 169 0
150 171 0
151 172 0
154 175 0
143 163 0
142 162 0
148 169 0
151 172 0
141 160 0
149 170 0
148 168 0
145 166 0
147 169 0
148 169 0
137 157 0
141 161 0
147 168 0
151 172 0
144 164 0
150 171 0
145 165 0
152 173 0
143 163 0
141 160 0
148 168 0
147 167 0
149 169 0
158 177 0
148 168 0
152 173 0
144 164 0
151 171 0
146 166 0
142 161 0
141 161 0
144 163 0
147 166 0
154 175 0
142 162 0
140 160 0
150 170 0
143 163 0
144 163 0
152 172 0
144 163 0
141 160 0
148 166 0
152 171 0
144 163 0
154 175 0
147 166 0
148 167 0
147 165 0
150 169 0
156 175 0
150 170 0
152 170 0
150 169 0
138 157 0
152 172 0
149 168 0
148 165 0
146 164 0
150 169 0
149 168 0
146 165 0
148 166 0
154 173 0
142 160 0
151 170 0
154 173 0
153 172 0
150 169 0
148 168 0
150 169 0
150 169 0
152 171 0
146 165 0
151 168 0
155 173 0
151 170 0
145 164 0
143 161 0
147 166 0
156 176 0
156 175 0
146 164 0
151 169 0
152 170 0
150 169 0
150 168 0
151 169 0
154 172 0
154 172 0
148 165 0
154 173 0
153 172 0
148 166 0
146 164 0
159 178 0
151 168 0
156 175 0
154 173 0
158 178 0
157 176 0
160 180 0
156 175 0
162 182 0
157 176 0
161 181 0
151 170 0
160 179 0
161 181 0
160 179 0
160 180 0
157 177 0
155 174 0
158 177 0
157 176 0
159 178 0
159 178 0
156 175 0
157 175 0
156 175 0
153 172 0
156 175 0
160 178 0
159 177 0
161 181 0
157 177 0
153 173 0
158 177 0
156 176 0
156 175 0
150 169 0
152 171 0
156 176 0
152 172 0
151 171 0
154 174 0
155 174 0
150 169 0
158 178 0
154 174 0
154 173 0
153 172 0
154 174 0
159 178 0
155 175 0
150 170 0
158 177 0
155 175 0
150 169 0
156 176 0
154 173 0
151 171 0
152 171 0
155 174 0
154 174 0
156 176 0
147 167 0
150 170 0
150 170 0
149 170 0
145 164 0
157 177 0
157 177 0
155 176 0
151 171 0
156 176 0
151 171 0
150 170 0
145 166 0
148 168 0
141 162 0
154 174 0
147 168 0
144 164 0
145 165 0
141 160 0
152 173 0
149 170 0
157 177 0
145 165 0
150 170 0
155 175 0
145 166 0
145 165 0
155 176 0
147 167 0
150 172 0
149 171 0
147 168 0
149 170 0
153 175 0
150 171 0
153 174 0
148 169 0
154 175 0
151 172 0
154 174 0
146 167 0
152 173 0
151 174 0
151 172 0
147 168 0
147 169 0
147 169 0
155 175 0
147 169 0
146 167 0
145 166 0
151 173 0
145 165 0
146 168 0
150 172 0
146 167 0
152 174 0
141 163 0
146 167 0
152 173 0
153 175 0
156 177 0
150 172 0
146 167 0
142 163 0
143 165 0
152 173 0
150 171 0
145 167 0
151 172 0
153 174 0
149 171 0
143 163 0
155 176 0
160 181 0
145 168 0
146 168 0
143 165 0
151 173 0
151 173 0
144 165 0
154 176 0
146 167 0
149 170 0
148 171 0
141 162 0
153 175 0
153 174 0
146 167 0
145 167 0
149 170 0
154 175 0
140 162 0
147 169 0
142 164 0
152 175 0
151 172 0
143 165 0
142 163 0
145 166 0
148 170 0
145 167 0
144 166 0
146 167 0
140 162 0
147 169 0
148 171 0
144 165 0
150 172 0
152 175 0
145 167 0
146 168 0
148 170 0
136 158 0
144 166 0
149 171 0
142 164 0
142 164 0
144 166 0
153 175 0
151 174 0
142 164 0
142 163 0
149 171 0
140 161 0
145 168 0
147 169 0
149 172 0
151 173 0
143 165 0
150 173 0
148 169 0
138 159 0
152 174 0
144 166 0
133 155 0
140 161 0
149 172 0
146 169 0
139 161 0
140 162 0
142 164 0
148 170 0
148 172 0
135 156 0
146 167 0
146 168 0
141 163 0
141 163 0
144 165 0
143 165 0
146 168 0
145 166 0
141 163 0
141 163 0
145 167 0
143 165 0
151 173 0
143 164 0
153 175 0
143 165 0
140 161 0
143 164 0
145 167 0
146 168 0
146 169 0
146 169 0
146 168 0
143 164 0
147 169 0
145 168 0
146 168 0
155 177 0
150 172 0
137 159 0
141 163 0
154 176 0
146 167 0
132 153 0
140 163 0
146 168 0
144 166 0
147 167 0
142 163 0
140 162 0
142 164 0
144 165 0
149 169 0
148 170 0
146 167 0
149 170 0
144 166 0
144 166 0
151 173 0
148 168 0
151 172 0
144 165 0
145 166 0
148 170 0
138 160 0
142 164 0
140 162 0
148 171 0
139 161 0
152 173 0
150 172 0
139 160 0
148 170 0
148 169 0
159 181 0
142 164 0
148 169 0
144 165 0
148 170 0
141 161 0
149 169 0
147 169 0
138 159 0
145 167 0
149 171 0
144 165 0
143 164 0
150 171 0
146 167 0
147 168 0
153 175 0
142 163 0
149 170 0
150 170 0
145 166 0
146 166 0
142 164 0
154 175 0
149 172 0
144 165 0
149 169 0
144 165 0
140 160 0
151 171 0
147 168 0
147 167 0
151 171 0
150 170 0
151 171 0
142 164 0
151 173 0
142 162 0
147 168 0
150 171 0
146 167 0
151 172 0
155 176 0
148 169 0
142 162 0
153 174 0
149 169 0
151 172 0
155 176 0
146 168 0
146 166 0
150 170 0
150 172 0
147 167 0
144 163 0
138 157 0
153 173 0
151 171 0
140 160 0
145 165 0
147 167 0
153 173 0
145 165 0
141 161 0
149 168 0
149 170 0
139 158 0
148 168 0
143 163 0
148 168 0
146 166 0
149 170 0
150 170 0
150 171 0
155 174 0
151 170 0
152 170 0
144 163 0
145 165 0
149 169 0
149 169 0
148 168 0
152 171 0
138 157 0
149 169 0
147 166 0
149 168 0
154 173 0
148 167 0
152 171 0
143 161 0
155 176 0
150 168 0
148 167 0
141 160 0
149 168 0
151 169 0
147 166 0
151 171 0
144 161 0
151 169 0
150 169 0
141 159 0
146 165 0
151 169 0
151 169 0
143 162 0
151 170 0
147 165 0
150 168 0
147 166 0
148 167 0
143 161 0
148 166 0
151 170 0
150 167 0
146 164 0
151 170 0
151 169 0
156 175 0
156 174 0
157 175 0
155 175 0
161 181 0
146 164 0
155 174 0
155 174 0
157 177 0
154 173 0
151 169 0
154 172 0
150 169 0
150 169 0
151 169 0
154 172 0
162 182 0
160 180 0
160 179 0
157 176 0
162 182 0
158 177 0
159 178 0
162 181 0
156 175 0
156 175 0
164 183 0
156 175 0
157 176 0
160 179 0
157 177 0
155 173 0
157 175 0
154 173 0
156 175 0
159 178 0
156 175 0
161 181 0
155 174 0
158 178 0
155 175 0
150 169 0
151 171 0
153 172 0
161 181 0
156 175 0
159 179 0
161 180 0
159 179 0
157 176 0
151 169 0
153 172 0
147 167 0
154 174 0
152 172 0
154 174 0
152 172 0
155 175 0
159 179 0
155 176 0
151 170 0
160 179 0
157 177 0
149 169 0
157 178 0
151 171 0
157 177 0
152 171 0
152 173 0
152 172 0
151 172 0
159 180 0
155 175 0
151 171 0
152 172 0
151 172 0
155 175 0
152 171 0
158 179 0
147 166 0
158 178 0
151 172 0
153 174 0
150 170 0
150 171 0
153 175 0
147 167 0
159 180 0
153 173 0
156 177 0
152 173 0
154 174 0
148 169 0
155 175 0
156 177 0
153 174 0
143 163 0
154 174 0
145 165 0
146 167 0
146 167 0
147 167 0
154 175 0
148 169 0
155 176 0
151 172 0
156 178 0
151 173 0
155 176 0
155 176 0
153 174 0
153 175 0
151 172 0
148 170 0
157 179 0
148 169 0
146 167 0
151 172 0
154 176 0
148 169 0
154 176 0
152 173 0
153 175 0
147 168 0
152 173 0
142 164 0
144 165 0
148 169 0
151 172 0
149 172 0
149 170 0
149 170 0
144 165 0
151 173 0
150 171 0
146 167 0
149 171 0
150 171 0
148 171 0
150 171 0
149 171 0
151 173 0
143 165 0
154 176 0
154 175 0
141 162 0
142 163 0
152 174 0
145 167 0
148 170 0
147 169 0
146 168 0
152 174 0
145 166 0
144 166 0
143 166 0
141 162 0
143 165 0
152 174 0
144 166 0
149 171 0
150 172 0
151 174 0
145 166 0
152 174 0
147 169 0
147 168 0
147 169 0
154 175 0
145 166 0
149 171 0
147 168 0
140 161 0
145 168 0
141 163 0
145 167 0
148 170 0
151 174 0
148 171 0
143 166 0
144 166 0
156 178 0
150 172 0
141 163 0
146 169 0
147 170 0
141 162 0
147 167 0
137 160 0
152 174 0
149 171 0
150 172 0
143 166 0
145 166 0
147 170 0
143 166 0
142 164 0
152 174 0
149 171 0
141 163 0
152 174 0
138 159 0
147 169 0
147 170 0
142 164 0
146 168 0
141 163 0
145 168 0
140 163 0
149 170 0
147 168 0
153 176 0
145 168 0
145 168 0
152 173 0
150 172 0
143 165 0
139 162 0
144 166 0
144 166 0
142 164 0
144 167 0
144 166 0
149 172 0
149 171 0
147 170 0
144 167 0
149 171 0
148 170 0
141 163 0
144 167 0
145 166 0
146 169 0
151 173 0
143 166 0
154 176 0
146 168 0
144 166 0
148 169 0
145 168 0
142 164 0
141 162 0
144 166 0
139 161 0
146 169 0
138 159 0
141 164 0
146 168 0
143 164 0
141 163 0
146 168 0
148 171 0
144 164 0
142 164 0
145 167 0
134 156 0
154 176 0
151 173 0
145 166 0
150 172 0
145 166 0
150 171 0
144 167 0
143 164 0
145 167 0
152 175 0
146 168 0
151 173 0
150 172 0
151 173 0
147 168 0
145 166 0
139 161 0
148 170 0
145 167 0
147 169 0
153 175 0
145 167 0
150 172 0
146 167 0
144 164 0
147 169 0
141 163 0
146 167 0
142 163 0
148 170 0
143 165 0
145 167 0
153 174 0
145 167 0
156 178 0
148 170 0
146 169 0
152 174 0
147 168 0
149 171 0
146 168 0
144 165 0
141 162 0
140 162 0
143 164 0
154 175 0
144 166 0
140 160 0
146 167 0
148 169 0
145 166 0
148 171 0
150 171 0
144 165 0
154 175 0
138 158 0
146 169 0
148 168 0
148 169 0
145 165 0
140 160 0
152 174 0
150 172 0
150 170 0
152 173 0
150 172 0
151 172 0
154 175 0
149 169 0
150 171 0
144 165 0
148 169 0
146 167 0
152 173 0
145 166 0
153 174 0
143 164 0
150 171 0
145 166 0
157 177 0
147 167 0
141 162 0
147 166 0
151 171 0
147 167 0
145 165 0
140 160 0
144 165 0
142 162 0
143 162 0
147 167 0
147 167 0
144 164 0
145 165 0
151 171 0
146 166 0
156 177 0
144 164 0
143 163 0
146 165 0
146 165 0
148 167 0
151 171 0
150 169 0
152 173 0
148 169 0
150 169 0
152 172 0
146 165 0
146 165 0
144 163 0
148 167 0
152 173 0
144 163 0
144 163 0
146 165 0
146 164 0
150 169 0
149 168 0
145 163 0
150 169 0
148 167 0
148 168 0
148 167 0
151 169 0
146 164 0
151 170 0
148 167 0
154 173 0
151 169 0
150 169 0
152 171 0
151 170 0
152 171 0
158 177 0
156 175 0
151 169 0
150 168 0
154 173 0
157 176 0
152 170 0
157 175 0
152 170 0
153 171 0
146 164 0
155 173 0
154 172 0
150 169 0
148 167 0
154 172 0
152 171 0
154 173 0
154 173 0
156 175 0
156 175 0
157 177 0
155 174 0
147 166 0
148 166 0
158 176 0
158 177 0
158 178 0
159 179 0
158 179 0
158 178 0
156 175 0
162 180 0
164 182 0
159 179 0
157 176 0
153 172 0
152 171 0
163 183 0
156 176 0
160 179 0
155 175 0
152 172 0
159 178 0
153 171 0
156 177 0
159 179 0
160 180 0
155 175 0
156 175 0
159 178 0
157 176 0
156 176 0
159 179 0
157 176 0
156 175 0
155 174 0
161 181 0
153 171 0
152 172 0
157 177 0
150 169 0
155 175 0
156 177 0
159 179 0
154 174 0
150 169 0
155 175 0
155 174 0
145 164 0
153 173 0
156 175 0
151 170 0
147 166 0
159 180 0
156 176 0
145 165 0
153 172 0
148 168 0
154 174 0
159 179 0
152 172 0
157 177 0
156 176 0
152 171 0
146 167 0
162 183 0
150 170 0
153 174 0
152 173 0
164 185 0
150 171 0
153 173 0
152 172 0
151 171 0
153 173 0
156 177 0
155 175 0
147 168 0
152 172 0
150 170 0
155 175 0
146 167 0
144 165 0
147 168 0
157 178 0
152 173 0
151 171 0
145 167 0
150 171 0
156 177 0
148 170 0
152 174 0
150 171 0
149 171 0
154 175 0
150 171 0
151 171 0
148 169 0
154 175 0
144 166 0
151 172 0
147 168 0
155 176 0
145 166 0
142 162 0
147 169 0
154 176 0
148 169 0
152 172 0
146 166 0
152 174 0
152 174 0
150 171 0
155 177 0
146 167 0
152 173 0
149 171 0
146 167 0
156 179 0
144 167 0
151 172 0
148 170 0
147 167 0
151 173 0
150 172 0
153 175 0
151 174 0
150 171 0
152 174 0
149 171 0
144 166 0
153 174 0
142 163 0
149 171 0
151 173 0
157 179 0
145 166 0
150 172 0
146 168 0
151 174 0
154 177 0
146 169 0
146 167 0
148 170 0
149 171 0
154 176 0
148 171 0
155 177 0
149 170 0
145 168 0
146 168 0
152 174 0
147 168 0
144 166 0
147 169 0
147 168 0
144 165 0
143 165 0
149 172 0
146 169 0
150 173 0
144 166 0
146 167 0
149 170 0
151 174 0
152 175 0
144 166 0
145 167 0
152 174 0
149 171 0
144 165 0
137 159 0
147 169 0
150 172 0
148 170 0
147 169 0
144 166 0
144 165 0
141 163 0
146 168 0
146 168 0
139 161 0
141 162 0
148 170 0
141 163 0
138 158 0
140 162 0
139 161 0
147 170 0
142 164 0
147 169 0
139 162 0
136 158 0
149 171 0
143 166 0
141 164 0
149 171 0
148 170 0
151 173 0
148 171 0
150 172 0
153 176 0
149 172 0
148 171 0
148 169 0
142 164 0
146 167 0
151 174 0
151 174 0
144 166 0
150 172 0
146 168 0
145 168 0
149 171 0
141 163 0
147 169 0
146 168 0
136 158 0
144 166 0
142 164 0
152 174 0
143 165 0
144 166 0
141 163 0
141 162 0
147 169 0
145 167 0
148 170 0
153 175 0
135 156 0
143 165 0
147 169 0
147 169 0
143 165 0
146 168 0
142 164 0
141 163 0
142 163 0
151 173 0
144 166 0
148 170 0
143 165 0
141 163 0
143 165 0
147 169 0
149 171 0
142 163 0
143 166 0
149 171 0
144 166 0
147 169 0
152 174 0
137 159 0
153 174 0
143 165 0
148 169 0
144 166 0
149 172 0
145 166 0
138 160 0
145 166 0
142 164 0
148 169 0
153 174 0
140 161 0
141 163 0
151 172 0
141 163 0
154 177 0
146 168 0
147 168 0
144 166 0
149 172 0
149 170 0
151 173 0
147 168 0
137 159 0
149 173 0
141 162 0
140 162 0
145 166 0
149 169 0
141 161 0
151 172 0
145 166 0
141 162 0
151 174 0
149 171 0
145 167 0
147 169 0
148 170 0
146 166 0
141 162 0
150 172 0
149 171 0
150 171 0
146 167 0
147 168 0
148 169 0
145 166 0
153 173 0
149 171 0
144 166 0
150 171 0
151 171 0
144 165 0
153 175 0
145 166 0
152 172 0
145 166 0
147 168 0
145 166 0
152 173 0
143 164 0
151 172 0
150 170 0
149 171 0
145 166 0
154 175 0
150 171 0
152 172 0
147 167 0
148 170 0
147 167 0
146 166 0
150 169 0
143 163 0
147 167 0
147 167 0
148 169 0
154 174 0
146 166 0
149 168 0
152 171 0
144 164 0
154 173 0
149 168 0
149 169 0
145 165 0
146 166 0
148 168 0
149 170 0
145 164 0
146 165 0
142 161 0
148 168 0
150 170 0
148 167 0
153 172 0
141 159 0
154 174 0
143 162 0
150 170 0
146 165 0
155 174 0
155 176 0
144 163 0
149 168 0
149 169 0
150 170 0
152 173 0
154 174 0
151 170 0
149 168 0
151 170 0
152 171 0
154 173 0
152 171 0
145 165 0
148 166 0
157 177 0
146 165 0
148 167 0
155 175 0
156 176 0
153 172 0
150 169 0
150 169 0
151 170 0
148 165 0
152 170 0
151 171 0
158 177 0
139 157 0
156 176 0
154 174 0
141 159 0
157 176 0
149 168 0
149 167 0
150 169 0
155 174 0
159 178 0
146 166 0
152 170 0
155 174 0
156 175 0
158 177 0
147 167 0
160 179 0
154 173 0
152 171 0
149 167 0
158 176 0
150 169 0
157 178 0
156 175 0
160 180 0
159 179 0
159 178 0
157 176 0
156 175 0
160 180 0
154 174 0
156 176 0
157 176 0
161 181 0
161 181 0
154 173 0
161 181 0
155 175 0
159 177 0
165 185 0
161 181 0
156 177 0
163 183 0
157 176 0
160 181 0
161 180 0
153 173 0
157 177 0
161 181 0
151 170 0
157 176 0
157 177 0
155 174 0
157 177 0
160 179 0
157 177 0
147 166 0
151 171 0
154 174 0
156 176 0
159 179 0
153 172 0
158 179 0
151 172 0
153 172 0
154 173 0
151 170 0
158 177 0
154 174 0
150 169 0
153 173 0
153 173 0
154 174 0
148 168 0
157 177 0
151 170 0
154 176 0
155 175 0
151 172 0
149 170 0
156 176 0
153 174 0
155 175 0
147 166 0
154 175 0
156 177 0
156 176 0
154 175 0
155 175 0
155 175 0
150 171 0
155 176 0
154 175 0
147 167 0
154 175 0
150 171 0
152 174 0
148 168 0
158 179 0
148 169 0
157 178 0
159 180 0
150 171 0
147 168 0
149 170 0
148 169 0
145 165 0
152 172 0
150 171 0
149 170 0
156 178 0
150 171 0
156 177 0
149 169 0
144 164 0
149 170 0
152 173 0
158 179 0
150 171 0
150 172 0
147 168 0
149 170 0
144 165 0
155 177 0
149 172 0
149 171 0
157 179 0
152 174 0
148 170 0
152 174 0
151 173 0
145 167 0
156 177 0
151 173 0
160 182 0
157 180 0
156 178 0
153 175 0
155 177 0
149 171 0
149 172 0
147 169 0
143 165 0
139 161 0
149 172 0
146 168 0
146 168 0
147 169 0
157 179 0
155 177 0
149 171 0
141 163 0
148 170 0
150 172 0
145 167 0
150 171 0
145 166 0
150 171 0
155 176 0
141 163 0
152 175 0
157 178 0
149 170 0
144 167 0
151 174 0
146 167 0
151 173 0
147 168 0
150 171 0
155 177 0
144 167 0
146 168 0
146 168 0
147 168 0
149 172 0
154 176 0
152 174 0
144 165 0
135 156 0
157 180 0
144 167 0
146 168 0
146 167 0
147 169 0
147 170 0
145 167 0
144 165 0
152 175 0
145 167 0
150 172 0
144 167 0
143 165 0
149 171 0
149 171 0
146 168 0
147 169 0
147 170 0
147 168 0
150 172 0
145 167 0
150 173 0
147 169 0
151 173 0
141 163 0
151 173 0
143 165 0
146 168 0
149 172 0
150 171 0
138 160 0
145 167 0
142 163 0
155 177 0
152 174 0
146 169 0
149 171 0
147 168 0
145 167 0
143 165 0
145 168 0
143 164 0
140 162 0
144 166 0
143 164 0
137 159 0
147 169 0
148 170 0
145 168 0
149 172 0
141 163 0
147 169 0
150 172 0
149 171 0
139 162 0
140 163 0
134 155 0
141 162 0
145 166 0
139 162 0
150 172 0
145 167 0
147 169 0
146 169 0
149 171 0
151 173 0
142 163 0
140 162 0
139 159 0
154 175 0
143 165 0
144 166 0
149 170 0
150 172 0
146 168 0
155 177 0
146 168 0
149 171 0
140 161 0
146 167 0
148 169 0
138 159 0
144 165 0
149 172 0
137 159 0
147 169 0
150 172 0
145 168 0
145 168 0
140 162 0
146 169 0
148 170 0
139 161 0
138 160 0
149 171 0
145 165 0
142 164 0
137 159 0
143 165 0
148 170 0
143 164 0
143 164 0
136 158 0
150 172 0
141 163 0
150 172 0
149 170 0
150 173 0
153 176 0
147 169 0
147 168 0
145 166 0
151 173 0
146 167 0
147 168 0
149 170 0
145 166 0
140 161 0
150 171 0
147 168 0
139 161 0
149 171 0
149 169 0
146 167 0
142 164 0
142 164 0
149 170 0
152 173 0
147 168 0
154 175 0
146 168 0
146 167 0
153 175 0
153 175 0
148 169 0
148 168 0
149 170 0
148 169 0
147 168 0
147 168 0
142 162 0
152 174 0
155 176 0
144 166 0
155 177 0
148 169 0
141 161 0
144 164 0
146 167 0
148 169 0
148 169 0
149 170 0
153 174 0
151 172 0
151 172 0
148 169 0
155 175 0
145 166 0
151 171 0
154 174 0
146 167 0
153 173 0
151 172 0
152 173 0
151 171 0
149 169 0
151 172 0
152 173 0
145 165 0
151 171 0
148 169 0
141 161 0
155 175 0
151 172 0
155 175 0
152 174 0
147 167 0
151 171 0
154 175 0
150 170 0
150 171 0
149 168 0
145 165 0
152 172 0
149 170 0
151 171 0
147 167 0
152 170 0
145 164 0
146 166 0
149 169 0
150 170 0
143 162 0
153 173 0
149 169 0
141 160 0
154 174 0
151 170 0
149 168 0
153 173 0
154 174 0
146 164 0
148 167 0
146 165 0
150 170 0
153 173 0
145 164 0
149 169 0
149 168 0
145 164 0
156 177 0
153 172 0
146 165 0
151 170 0
147 165 0
142 160 0
147 165 0
158 178 0
155 176 0
151 169 0
147 167 0
156 176 0
152 172 0
152 171 0
151 170 0
154 173 0
150 170 0
160 179 0
149 168 0
155 175 0
144 162 0
153 171 0
153 171 0
156 176 0
153 171 0
152 171 0
156 176 0
155 174 0
153 172 0
151 170 0
154 174 0
157 175 0
151 170 0
158 177 0
157 176 0
161 180 0
157 177 0
158 177 0
155 175 0
158 178 0
161 180 0
155 174 0
158 178 0
157 177 0
151 171 0
162 181 0
159 180 0
157 176 0
157 177 0
156 175 0
155 173 0
155 174 0
154 173 0
155 175 0
164 185 0
158 179 0
153 173 0
154 173 0
151 171 0
155 175 0
158 177 0
156 177 0
155 175 0
150 169 0
159 178 0
151 171 0
158 177 0
158 178 0
156 176 0
161 182 0
156 176 0
152 172 0
157 177 0
156 176 0
159 180 0
152 172 0
153 173 0
149 169 0
150 169 0
150 170 0
152 172 0
158 179 0
152 173 0
156 176 0
152 172 0
153 174 0
150 171 0
153 173 0
152 172 0
149 169 0
153 174 0
157 178 0
149 169 0
153 174 0
156 177 0
156 176 0
158 178 0
148 168 0
149 170 0
158 179 0
157 177 0
152 173 0
154 174 0
159 182 0
153 174 0
145 164 0
161 182 0
157 178 0
145 167 0
152 173 0
156 177 0
154 174 0
146 167 0
151 172 0
156 177 0
149 169 0
153 173 0
152 173 0
152 173 0
150 171 0
156 177 0
155 176 0
145 166 0
150 171 0
144 165 0
155 176 0
150 172 0
153 175 0
150 171 0
151 172 0
150 171 0
149 171 0
149 170 0
149 170 0
155 177 0
152 173 0
148 170 0
146 168 0
155 177 0
153 174 0
153 175 0
153 175 0
156 179 0
148 170 0
150 172 0
151 173 0
152 175 0
146 169 0
146 167 0
156 178 0
146 169 0
149 170 0
148 169 0
160 182 0
155 177 0
155 177 0
144 166 0
148 171 0
146 169 0
149 171 0
151 174 0
151 174 0
151 173 0
148 169 0
145 166 0
151 173 0
154 175 0
147 169 0
148 170 0
146 169 0
154 176 0
146 169 0
146 168 0
148 170 0
155 178 0
149 171 0
153 175 0
151 174 0
142 165 0
148 170 0
146 168 0
137 158 0
150 174 0
143 165 0
147 169 0
155 177 0
145 166 0
150 173 0
154 176 0
151 172 0
149 172 0
151 174 0
140 163 0
140 162 0
145 166 0
153 175 0
145 167 0
149 173 0
151 173 0
148 170 0
138 160 0
156 179 0
153 175 0
146 169 0
148 170 0
143 164 0
150 173 0
145 166 0
147 169 0
147 169 0
149 171 0
146 168 0
147 170 0
143 166 0
147 170 0
143 165 0
148 171 0
147 169 0
145 168 0
144 166 0
138 160 0
145 167 0
149 170 0
145 167 0
149 172 0
151 173 0
142 165 0
149 170 0
147 168 0
149 171 0
148 170 0
143 166 0
145 168 0
149 172 0
144 166 0
139 161 0
148 170 0
152 174 0
145 167 0
147 169 0
146 169 0
143 165 0
155 176 0
149 170 0
143 165 0
148 170 0
150 172 0
152 175 0
146 169 0
143 164 0
143 165 0
140 162 0
144 165 0
143 165 0
152 174 0
146 168 0
142 165 0
141 164 0
146 168 0
136 158 0
145 167 0
145 167 0
150 173 0
146 169 0
146 167 0
145 167 0
146 168 0
141 164 0
157 180 0
142 164 0
139 162 0
146 167 0
140 162 0
149 171 0
154 175 0
148 170 0
155 177 0
145 167 0
152 174 0
148 170 0
150 172 0
152 174 0
145 168 0
151 174 0
147 169 0
151 174 0
144 165 0
144 166 0
147 168 0
146 169 0
154 177 0
144 165 0
149 171 0
151 173 0
141 163 0
148 169 0
143 164 0
145 166 0
145 166 0
149 171 0
141 163 0
149 170 0
146 167 0
151 173 0
148 169 0
148 169 0
144 167 0
147 168 0
151 173 0
147 168 0
139 161 0
140 161 0
144 166 0
135 156 0
149 171 0
148 170 0
148 170 0
150 172 0
142 163 0
145 167 0
150 171 0
145 165 0
150 171 0
142 162 0
143 164 0
150 173 0
142 163 0
152 173 0
140 161 0
148 170 0
151 172 0
148 168 0
145 166 0
150 171 0
154 175 0
145 166 0
151 171 0
145 166 0
147 168 0
144 165 0
138 158 0
154 175 0
146 166 0
147 168 0
153 175 0
154 176 0
142 162 0
160 181 0
148 168 0
145 166 0
151 172 0
151 173 0
150 171 0
154 174 0
156 176 0
146 166 0
151 171 0
148 168 0
146 166 0
152 172 0
147 168 0
157 179 0
150 170 0
148 169 0
153 172 0
147 167 0
147 168 0
147 167 0
144 163 0
149 169 0
148 168 0
154 175 0
152 173 0
150 169 0
148 168 0
148 168 0
142 161 0
154 175 0
147 168 0
151 170 0
146 165 0
149 168 0
151 172 0
158 178 0
151 171 0
156 176 0
150 169 0
155 176 0
147 167 0
157 178 0
146 164 0
151 171 0
152 173 0
153 172 0
155 175 0
152 171 0
148 168 0
154 174 0
154 173 0
150 168 0
149 168 0
151 170 0
149 169 0
151 171 0
145 163 0
149 168 0
144 163 0
149 168 0
150 169 0
144 163 0
151 170 0
144 162 0
156 176 0
149 168 0
153 172 0
155 174 0
148 167 0
146 165 0
157 176 0
152 171 0
146 164 0
160 180 0
153 172 0
150 168 0
158 177 0
157 176 0
159 179 0
151 171 0
157 177 0
153 172 0
157 177 0
156 175 0
156 176 0
165 185 0
158 177 0
158 177 0
159 179 0
165 185 0
158 178 0
160 179 0
161 180 0
161 181 0
156 175 0
161 181 0
159 179 0
160 180 0
155 175 0
156 176 0
165 185 0
151 171 0
159 179 0
155 174 0
157 177 0
152 172 0
154 174 0
161 181 0
157 177 0
160 180 0
157 178 0
159 179 0
156 176 0
160 181 0
155 176 0
156 177 0
156 177 0
159 178 0
160 181 0
154 175 0
151 171 0
150 170 0
154 175 0
157 177 0
159 180 0
159 179 0
153 174 0
148 167 0
161 181 0
152 173 0
156 176 0
160 180 0
156 177 0
153 173 0
152 172 0
153 173 0
146 166 0
154 174 0
156 176 0
155 177 0
156 176 0
146 167 0
151 171 0
152 172 0
158 179 0
149 170 0
158 178 0
156 178 0
152 174 0
156 177 0
155 176 0
156 177 0
151 172 0
144 165 0
160 182 0
150 171 0
150 172 0
156 177 0
152 173 0
153 174 0
157 179 0
154 175 0
151 172 0
148 169 0
148 170 0
154 176 0
156 176 0
153 175 0
146 166 0
151 173 0
157 179 0
143 165 0
150 171 0
153 174 0
148 168 0
152 174 0
154 175 0
145 166 0
147 168 0
154 175 0
156 177 0
153 175 0
150 173 0
149 170 0
153 174 0
150 171 0
147 169 0
152 173 0
156 178 0
150 173 0
149 170 0
145 167 0
142 163 0
153 175 0
138 160 0
145 166 0
154 175 0
147 168 0
152 174 0
155 177 0
151 173 0
152 174 0
154 176 0
149 170 0
153 176 0
149 170 0
145 166 0
146 168 0
152 173 0
144 166 0
155 177 0
151 172 0
148 170 0
154 178 0
152 175 0
147 169 0
153 175 0
152 174 0
155 178 0
149 171 0
141 163 0
149 171 0
149 171 0
141 162 0
147 169 0
151 173 0
146 167 0
154 177 0
148 170 0
145 166 0
146 169 0
150 171 0
151 173 0
151 173 0
146 167 0
146 167 0
148 170 0
142 163 0
148 169 0
150 172 0
148 170 0
141 163 0
151 172 0
144 165 0
154 176 0
141 164 0
150 172 0
142 164 0
142 165 0
140 162 0
141 162 0
141 163 0
143 164 0
146 168 0
136 158 0
151 173 0
142 164 0
149 171 0
141 163 0
151 174 0
148 170 0
145 166 0
151 173 0
151 174 0
144 166 0
150 172 0
146 167 0
150 172 0
149 171 0
145 167 0
152 174 0
147 170 0
143 165 0
154 177 0
142 164 0
148 171 0
149 171 0
144 166 0
149 171 0
142 163 0
147 169 0
150 173 0
151 173 0
146 168 0
153 176 0
150 173 0
140 161 0
144 167 0
145 167 0
145 167 0
145 167 0
144 167 0
149 170 0
147 168 0
149 170 0
142 164 0
144 165 0
145 167 0
148 170 0
149 171 0
139 162 0
146 169 0
140 162 0
152 173 0
146 167 0
140 163 0
138 160 0
146 168 0
147 169 0
152 173 0
142 163 0
145 166 0
142 165 0
144 166 0
146 168 0
141 162 0
149 171 0
139 161 0
149 171 0
142 163 0
141 161 0
153 176 0
146 168 0
144 166 0
148 170 0
149 171 0
150 172 0
137 159 0
146 167 0
148 170 0
151 172 0
148 169 0
158 180 0
149 171 0
147 169 0
150 172 0
149 172 0
152 174 0
152 176 0
150 173 0
144 165 0
146 168 0
146 167 0
139 160 0
143 164 0
153 176 0
148 170 0
147 169 0
148 169 0
148 169 0
148 170 0
148 171 0
147 168 0
154 177 0
147 169 0
149 172 0
143 166 0
154 176 0
143 166 0
153 175 0
160 183 0
144 164 0
144 166 0
152 173 0
149 171 0
145 166 0
149 171 0
149 171 0
143 164 0
148 170 0
153 176 0
147 167 0
138 159 0
151 173 0
150 170 0
153 175 0
144 164 0
147 169 0
144 165 0
151 173 0
150 172 0
150 171 0
154 176 0
148 169 0
152 173 0
147 167 0
152 173 0
141 161 0
151 172 0
156 177 0
149 169 0
154 175 0
146 167 0
153 174 0
155 177 0
140 160 0
148 169 0
155 176 0
148 169 0
151 172 0
155 177 0
143 164 0
154 176 0
151 172 0
152 173 0
145 166 0
149 171 0
149 169 0
148 169 0
145 166 0
150 171 0
155 175 0
142 162 0
147 167 0
149 170 0
155 174 0
149 169 0
150 172 0
146 166 0
145 165 0
151 171 0
148 169 0
141 160 0
155 176 0
153 172 0
155 176 0
150 170 0
150 171 0
149 168 0
149 169 0
148 169 0
151 171 0
148 168 0
156 177 0
150 170 0
153 174 0
149 169 0
150 170 0
152 171 0
148 167 0
149 168 0
157 177 0
154 174 0
153 173 0
144 163 0
141 160 0
152 171 0
147 166 0
135 153 0
144 163 0
155 175 0
155 175 0
159 179 0
152 172 0
149 169 0
153 172 0
153 173 0
153 172 0
154 174 0
153 172 0
160 180 0
148 166 0
152 172 0
149 168 0
153 172 0
159 178 0
157 177 0
158 178 0
152 171 0
151 170 0
147 165 0
147 166 0
157 178 0
154 174 0
147 166 0
153 173 0
152 170 0
153 172 0
151 170 0
154 173 0
153 172 0
155 174 0
157 176 0
158 178 0
155 174 0
162 182 0
163 183 0
155 175 0
164 183 0
163 183 0
160 180 0
161 182 0
163 184 0
161 181 0
164 185 0
162 183 0
158 178 0
151 170 0
157 177 0
160 181 0
156 176 0
162 181 0
164 185 0
158 178 0
161 182 0
156 175 0
163 183 0
160 181 0
160 181 0
154 174 0
163 183 0
146 166 0
161 180 0
159 179 0
157 176 0
156 176 0
159 180 0
156 177 0
159 180 0
156 175 0
159 179 0
153 173 0
152 172 0
160 181 0
155 176 0
155 176 0
157 177 0
153 173 0
155 176 0
149 170 0
155 175 0
158 178 0
157 178 0
160 182 0
151 172 0
154 175 0
157 178 0
147 168 0
155 175 0
155 176 0
154 174 0
150 169 0
148 168 0
157 178 0
153 173 0
152 172 0
154 175 0
158 179 0
156 177 0
158 178 0
157 179 0
159 180 0
148 169 0
156 177 0
162 184 0
154 175 0
155 175 0
152 173 0
152 174 0
155 177 0
147 167 0
155 176 0
151 172 0
155 175 0
156 177 0
148 169 0
158 181 0
153 175 0
149 169 0
147 167 0
155 176 0
155 176 0
159 180 0
152 172 0
154 176 0
152 173 0
155 177 0
156 179 0
146 168 0
151 172 0
155 177 0
154 176 0
152 174 0
150 171 0
155 177 0
156 178 0
155 178 0
148 171 0
143 164 0
148 169 0
151 173 0
152 175 0
143 165 0
152 173 0
149 172 0
155 177 0
141 162 0
148 170 0
155 177 0
145 166 0
140 162 0
156 179 0
147 168 0
149 170 0
155 178 0
154 176 0
151 173 0
150 172 0
152 174 0
156 177 0
151 173 0
146 169 0
141 163 0
151 173 0
147 169 0
146 167 0
156 178 0
156 178 0
153 176 0
159 182 0
144 165 0
149 171 0
152 175 0
151 173 0
152 175 0
138 160 0
155 178 0
151 174 0
150 172 0
146 168 0
151 173 0
148 171 0
145 166 0
142 163 0
145 167 0
147 169 0
150 172 0
154 176 0
147 170 0
150 172 0
146 168 0
140 162 0
147 170 0
146 169 0
150 172 0
148 171 0
156 178 0
146 168 0
153 175 0
143 166 0
140 162 0
147 169 0
149 171 0
145 167 0
148 171 0
139 161 0
147 169 0
148 171 0
155 178 0
153 175 0
150 173 0
152 174 0
145 168 0
153 175 0
150 173 0
147 169 0
146 168 0
142 163 0
147 169 0
152 175 0
145 166 0
146 169 0
145 167 0
150 172 0
146 169 0
153 176 0
136 157 0
148 170 0
144 166 0
150 172 0
149 172 0
149 171 0
148 171 0
149 172 0
150 172 0
152 174 0
153 175 0
143 165 0
146 168 0
149 171 0
148 170 0
148 170 0
155 178 0
144 166 0
144 167 0
145 167 0
143 165 0
152 173 0
142 164 0
147 171 0
154 177 0
149 172 0
137 160 0
145 167 0
143 164 0
152 174 0
145 166 0
157 180 0
148 170 0
148 170 0
149 171 0
145 169 0
147 169 0
142 164 0
148 170 0
147 170 0
149 172 0
140 162 0
144 166 0
147 169 0
144 167 0
145 167 0
145 168 0
148 170 0
146 168 0
144 166 0
149 172 0
146 169 0
152 175 0
151 174 0
150 172 0
146 166 0
151 173 0
154 177 0
143 166 0
140 162 0
148 170 0
156 179 0
147 169 0
152 174 0
149 170 0
156 177 0
148 170 0
146 169 0
149 171 0
145 166 0
143 165 0
146 167 0
152 175 0
150 171 0
148 170 0
154 176 0
144 166 0
146 167 0
157 179 0
153 174 0
147 170 0
151 173 0
153 175 0
142 165 0
140 162 0
152 174 0
154 175 0
143 164 0
142 164 0
151 172 0
146 167 0
156 180 0
147 167 0
149 171 0
154 176 0
146 167 0
150 172 0
152 173 0
152 175 0
144 165 0
142 163 0
150 172 0
146 168 0
140 160 0
149 171 0
148 170 0
150 172 0
147 169 0
150 172 0
155 177 0
146 167 0
145 167 0
149 171 0
151 172 0
149 170 0
150 171 0
152 173 0
146 166 0
150 172 0
151 172 0
154 175 0
155 176 0
140 161 0
147 168 0
150 171 0
152 173 0
145 166 0
147 167 0
156 178 0
146 167 0
141 161 0
148 168 0
149 169 0
151 173 0
152 172 0
151 172 0
153 174 0
147 166 0
149 170 0
154 174 0
150 170 0
149 170 0
148 169 0
144 165 0
149 170 0
155 177 0
152 173 0
150 171 0
152 171 0
146 166 0
145 164 0
148 166 0
154 174 0
148 168 0
152 173 0
150 169 0
151 171 0
152 172 0
154 174 0
153 172 0
150 170 0
147 167 0
154 175 0
152 172 0
147 165 0
149 169 0
162 183 0
154 174 0
148 168 0
155 175 0
152 173 0
152 173 0
154 173 0
150 170 0
151 171 0
152 171 0
153 174 0
150 169 0
150 169 0
148 167 0
152 171 0
153 172 0
155 174 0
146 164 0
145 164 0
153 172 0
155 173 0
147 165 0
151 170 0
149 168 0
153 173 0
157 176 0
141 161 0
152 171 0
150 170 0
153 173 0
149 167 0
156 175 0
155 175 0
155 175 0
152 172 0
152 171 0
157 177 0
152 171 0
161 181 0
156 176 0
158 177 0
158 177 0
155 175 0
158 177 0
157 176 0
162 182 0
161 180 0
160 180 0
161 181 0
159 180 0
161 180 0
156 175 0
157 177 0
162 182 0
164 184 0
157 176 0
157 178 0
161 181 0
156 175 0
160 181 0
159 179 0
156 175 0
160 180 0
153 172 0
158 178 0
161 181 0
163 183 0
154 174 0
157 177 0
159 180 0
156 176 0
157 177 0
161 183 0
155 175 0
157 177 0
154 175 0
156 177 0
158 178 0
149 170 0
156 176 0
155 176 0
156 177 0
157 177 0
155 176 0
162 182 0
156 178 0
156 177 0
151 172 0
159 180 0
157 179 0
154 175 0
154 175 0
157 177 0
152 171 0
151 170 0
149 168 0
155 175 0
157 178 0
144 164 0
149 169 0
156 177 0
155 176 0
160 181 0
157 179 0
156 177 0
150 171 0
157 178 0
148 169 0
156 177 0
153 174 0
155 176 0
149 170 0
156 177 0
154 176 0
156 177 0
151 172 0
152 173 0
153 174 0
154 176 0
146 168 0
149 169 0
150 172 0
147 169 0
157 178 0
153 175 0
148 169 0
151 171 0
153 174 0
150 170 0
150 171 0
154 176 0
157 179 0
150 171 0
153 175 0
155 177 0
151 172 0
146 168 0
154 176 0
150 172 0
148 169 0
147 168 0
155 177 0
149 170 0
154 176 0
145 166 0
155 177 0
148 170 0
153 175 0
150 172 0
139 160 0
153 176 0
153 176 0
158 180 0
151 173 0
159 181 0
157 179 0
158 181 0
147 169 0
156 179 0
154 176 0
143 165 0
152 175 0
153 176 0
151 174 0
151 173 0
154 177 0
154 176 0
152 175 0
151 174 0
154 176 0
153 175 0
150 171 0
154 176 0
154 176 0
150 172 0
147 169 0
147 169 0
153 176 0
153 175 0
145 167 0
144 166 0
149 172 0
152 175 0
143 165 0
154 176 0
149 171 0
143 166 0
146 168 0
146 167 0
152 174 0
143 164 0
147 168 0
151 173 0
143 164 0
151 174 0
152 173 0
151 172 0
152 174 0
148 170 0
147 169 0
145 167 0
152 174 0
151 173 0
151 174 0
144 166 0
153 175 0
140 162 0
138 160 0
145 168 0
143 165 0
154 177 0
149 172 0
151 172 0
149 170 0
151 173 0
150 173 0
148 170 0
147 169 0
154 177 0
157 180 0
155 177 0
150 172 0
140 164 0
137 158 0
148 171 0
148 170 0
144 167 0
152 174 0
144 167 0
151 173 0
148 170 0
145 167 0
144 165 0
151 173 0
151 174 0
149 173 0
145 167 0
147 169 0
148 171 0
146 168 0
148 170 0
143 164 0
150 173 0
143 164 0
144 166 0
141 162 0
148 170 0
146 168 0
154 176 0
144 166 0
151 174 0
151 172 0
147 169 0
147 170 0
135 156 0
144 165 0
154 175 0
154 176 0
149 172 0
143 165 0
147 169 0
143 164 0
151 173 0
147 170 0
153 175 0
150 173 0
144 165 0
148 171 0
146 168 0
158 181 0
149 171 0
143 165 0
149 171 0
147 168 0
146 168 0
149 171 0
144 166 0
146 169 0
145 167 0
143 164 0
150 173 0
149 172 0
145 167 0
154 177 0
145 167 0
148 170 0
146 169 0
155 177 0
148 170 0
152 175 0
151 174 0
145 168 0
146 168 0
147 169 0
144 166 0
141 163 0
150 171 0
150 172 0
147 169 0
151 174 0
146 168 0
145 167 0
148 170 0
147 170 0
141 163 0
147 168 0
153 176 0
156 179 0
154 175 0
152 173 0
149 171 0
147 169 0
145 167 0
148 170 0
146 169 0
151 174 0
149 171 0
143 165 0
154 177 0
152 172 0
151 172 0
150 172 0
151 172 0
147 168 0
152 174 0
149 170 0
149 170 0
148 169 0
147 169 0
142 162 0
142 164 0
153 176 0
142 163 0
148 170 0
146 167 0
147 169 0
152 173 0
150 171 0
153 175 0
149 171 0
150 171 0
150 173 0
153 175 0
152 174 0
150 171 0
154 175 0
150 172 0
148 170 0
150 171 0
150 172 0
147 168 0
147 168 0
158 179 0
152 173 0
150 172 0
149 170 0
149 170 0
149 170 0
152 173 0
152 173 0
156 177 0
144 164 0
155 177 0
147 168 0
146 167 0
153 175 0
147 168 0
150 171 0
152 174 0
153 174 0
150 170 0
150 170 0
151 172 0
149 170 0
153 173 0
148 169 0
150 171 0
150 171 0
146 167 0
151 172 0
153 173 0
151 171 0
154 175 0
152 173 0
153 172 0
146 166 0
148 169 0
144 164 0
151 171 0
152 173 0
163 183 0
153 173 0
155 175 0
148 168 0
151 171 0
144 165 0
151 171 0
154 175 0
147 166 0
149 169 0
146 166 0
148 169 0
152 172 0
150 171 0
154 176 0
152 172 0
148 168 0
156 176 0
152 172 0
149 168 0
158 178 0
151 170 0
151 170 0
145 164 0
153 173 0
155 174 0
145 164 0
155 175 0
151 170 0
148 167 0
151 171 0
151 169 0
154 174 0
149 168 0
151 170 0
149 168 0
153 172 0
149 168 0
152 172 0
150 170 0
152 172 0
156 175 0
155 175 0
152 170 0
153 171 0
157 177 0
142 160 0
153 173 0
158 178 0
153 172 0
156 175 0
156 175 0
149 168 0
163 184 0
156 176 0
161 180 0
162 182 0
156 176 0
155 174 0
151 170 0
158 179 0
158 178 0
156 176 0
156 177 0
157 177 0
158 179 0
159 179 0
160 180 0
160 180 0
157 177 0
161 181 0
156 176 0
159 178 0
157 176 0
160 181 0
162 182 0
162 184 0
159 178 0
154 174 0
161 182 0
161 182 0
157 177 0
159 179 0
152 172 0
151 171 0
161 182 0
155 177 0
158 178 0
161 182 0
152 172 0
155 176 0
154 174 0
151 172 0
152 172 0
157 177 0
157 177 0
152 173 0
156 177 0
151 171 0
161 182 0
154 175 0
155 176 0
158 178 0
149 169 0
147 168 0
156 178 0
154 175 0
156 177 0
153 174 0
151 171 0
156 177 0
151 172 0
158 179 0
154 174 0
151 173 0
155 175 0
152 173 0
154 175 0
151 173 0
159 181 0
155 177 0
152 174 0
154 175 0
158 180 0
150 172 0
150 171 0
151 172 0
148 169 0
154 174 0
156 178 0
153 175 0
151 172 0
152 174 0
152 174 0
155 177 0
155 176 0
157 179 0
150 172 0
151 172 0
149 170 0
153 173 0
153 176 0
157 178 0
151 173 0
153 174 0
149 170 0
158 180 0
154 175 0
149 171 0
155 178 0
154 177 0
153 175 0
156 178 0
147 169 0
151 174 0
145 166 0
153 174 0
158 180 0
155 176 0
146 168 0
149 171 0
159 181 0
148 170 0
153 174 0
148 169 0
147 169 0
158 179 0
150 172 0
152 174 0
150 173 0
152 175 0
158 181 0
145 167 0
146 168 0
154 177 0
151 173 0
154 176 0
143 165 0
159 183 0
146 169 0
157 179 0
154 176 0
149 170 0
150 172 0
155 177 0
159 182 0
155 177 0
144 166 0
149 171 0
149 170 0
153 175 0
149 171 0
156 178 0
152 174 0
152 174 0
149 170 0
149 171 0
150 172 0
155 177 0
148 171 0
144 166 0
152 175 0
149 172 0
151 173 0
144 166 0
153 176 0
151 172 0
151 173 0
147 169 0
153 175 0
140 162 0
147 168 0
153 175 0
154 177 0
150 173 0
152 174 0
150 173 0
148 171 0
152 174 0
145 169 0
147 170 0
146 168 0
148 171 0
140 163 0
148 171 0
153 176 0
147 170 0
151 174 0
147 171 0
145 168 0
146 168 0
149 171 0
144 165 0
148 170 0
141 164 0
152 175 0
150 172 0
154 177 0
143 165 0
148 171 0
146 169 0
151 173 0
151 172 0
144 166 0
143 166 0
147 170 0
148 171 0
148 171 0
150 172 0
155 179 0
151 173 0
152 175 0
154 177 0
146 169 0
156 178 0
152 174 0
141 162 0
145 168 0
151 173 0
149 173 0
153 176 0
147 169 0
144 166 0
155 178 0
142 165 0
153 174 0
154 177 0
153 175 0
144 166 0
157 180 0
147 170 0
142 165 0
151 173 0
145 168 0
150 173 0
146 168 0
151 173 0
140 162 0
153 176 0
152 175 0
148 170 0
145 167 0
148 171 0
143 165 0
143 165 0
145 167 0
147 169 0
152 174 0
142 164 0
148 170 0
144 166 0
148 170 0
150 173 0
151 173 0
148 170 0
151 174 0
142 165 0
150 172 0
146 168 0
149 171 0
150 172 0
144 167 0
141 163 0
154 177 0
153 175 0
153 175 0
154 176 0
150 174 0
151 172 0
151 172 0
151 173 0
156 179 0
140 162 0
146 167 0
152 173 0
148 171 0
150 173 0
143 165 0
149 170 0
149 172 0
151 173 0
146 168 0
152 174 0
148 171 0
145 166 0
147 169 0
145 167 0
150 171 0
152 173 0
150 171 0
153 175 0
151 173 0
147 167 0
142 163 0
152 174 0
136 157 0
153 176 0
150 172 0
158 181 0
154 177 0
153 175 0
144 165 0
153 176 0
149 170 0
155 176 0
144 165 0
153 175 0
144 165 0
143 162 0
151 173 0
149 171 0
150 172 0
152 173 0
145 166 0
149 171 0
146 167 0
149 169 0
151 173 0
152 174 0
152 174 0
157 179 0
147 168 0
151 173 0
144 165 0
147 166 0
156 178 0
147 168 0
152 174 0
150 172 0
146 167 0
144 164 0
145 166 0
158 179 0
152 172 0
148 169 0
150 171 0
150 170 0
153 174 0
152 174 0
143 164 0
155 176 0
144 165 0
149 170 0
147 168 0
147 167 0
150 171 0
148 168 0
144 163 0
146 167 0
157 179 0
141 162 0
157 178 0
154 175 0
148 168 0
150 171 0
152 173 0
158 180 0
150 170 0
155 176 0
150 170 0
144 164 0
153 173 0
147 167 0
156 175 0
151 171 0
152 172 0
156 176 0
153 173 0
150 170 0
152 172 0
148 168 0
145 165 0
150 169 0
150 171 0
154 174 0
148 166 0
150 170 0
145 165 0
156 177 0
154 175 0
154 175 0
152 172 0
156 176 0
156 176 0
152 172 0
152 171 0
150 169 0
151 170 0
151 171 0
155 174 0
153 174 0
147 166 0
153 172 0
153 172 0
155 175 0
150 170 0
154 174 0
155 175 0
150 170 0
158 178 0
154 173 0
147 165 0
142 161 0
152 172 0
148 167 0
155 175 0
153 171 0
150 169 0
156 176 0
150 169 0
156 175 0
158 178 0
153 173 0
157 178 0
161 181 0
162 182 0
158 178 0
161 182 0
158 179 0
161 182 0
157 176 0
156 175 0
160 179 0
156 177 0
157 176 0
159 180 0
149 169 0
161 181 0
151 171 0
164 184 0
151 171 0
164 184 0
160 180 0
153 172 0
159 180 0
157 177 0
158 179 0
155 174 0
160 181 0
153 173 0
163 183 0
155 176 0
160 181 0
151 171 0
155 175 0
158 177 0
159 181 0
154 174 0
154 174 0
153 173 0
156 176 0
156 176 0
158 178 0
159 181 0
158 178 0
159 179 0
155 176 0
147 167 0
153 174 0
157 177 0
144 164 0
155 175 0
156 177 0
158 179 0
154 175 0
155 175 0
152 172 0
152 173 0
157 179 0
157 178 0
154 175 0
157 178 0
156 177 0
159 179 0
147 168 0
156 177 0
156 178 0
162 183 0
155 176 0
153 174 0
159 181 0
155 176 0
157 178 0
160 183 0
160 182 0
152 173 0
146 167 0
150 171 0
152 173 0
153 174 0
143 164 0
151 172 0
155 177 0
155 176 0
155 177 0
152 171 0
151 172 0
158 179 0
144 165 0
151 171 0
157 179 0
156 179 0
153 174 0
155 177 0
157 179 0
153 175 0
152 175 0
162 183 0
154 175 0
155 176 0
149 170 0
144 166 0
152 173 0
155 178 0
149 170 0
154 176 0
143 166 0
159 181 0
155 177 0
150 172 0
156 178 0
153 175 0
154 176 0
157 180 0
156 177 0
151 172 0
157 179 0
148 169 0
151 173 0
154 176 0
149 171 0
160 182 0
154 176 0
152 174 0
153 175 0
146 169 0
158 180 0
146 168 0
150 173 0
146 168 0
155 178 0
144 165 0
142 163 0
148 171 0
145 167 0
153 175 0
142 163 0
151 174 0
156 178 0
147 168 0
151 173 0
152 174 0
150 173 0
148 169 0
155 177 0
146 169 0
154 175 0
138 160 0
151 174 0
149 170 0
149 172 0
151 172 0
150 172 0
151 174 0
150 172 0
147 170 0
145 167 0
146 169 0
151 173 0
147 169 0
151 173 0
152 175 0
144 166 0
152 175 0
152 174 0
145 168 0
147 169 0
148 170 0
150 172 0
145 168 0
152 175 0
145 168 0
150 173 0
148 170 0
159 182 0
142 164 0
151 173 0
144 166 0
151 174 0
146 168 0
150 172 0
147 170 0
144 167 0
147 169 0
149 171 0
144 166 0
140 162 0
143 164 0
143 165 0
149 171 0
149 171 0
153 176 0
141 163 0
150 172 0
157 179 0
157 180 0
145 167 0
153 175 0
143 166 0
146 169 0
145 169 0
145 168 0
151 173 0
148 170 0
148 171 0
148 171 0
149 170 0
146 167 0
146 169 0
156 179 0
152 174 0
148 170 0
144 166 0
148 170 0
136 158 0
148 170 0
151 174 0
144 167 0
157 179 0
148 171 0
140 162 0
143 165 0
144 166 0
150 174 0
149 172 0
153 175 0
149 171 0
153 175 0
152 175 0
147 168 0
147 169 0
146 168 0
140 163 0
147 169 0
150 172 0
140 162 0
143 166 0
148 171 0
148 171 0
142 165 0
150 172 0
148 172 0
142 164 0
146 168 0
150 172 0
152 174 0
155 177 0
152 174 0
146 169 0
145 166 0
142 164 0
150 171 0
147 169 0
145 167 0
147 169 0
151 173 0
149 173 0
145 166 0
146 169 0
149 172 0
154 176 0
146 168 0
156 179 0
147 168 0
156 178 0
148 171 0
157 181 0
147 168 0
147 169 0
150 173 0
157 179 0
146 167 0
146 169 0
152 175 0
146 167 0
158 180 0
144 166 0
151 173 0
149 171 0
148 168 0
150 171 0
143 165 0
149 170 0
145 166 0
146 168 0
155 176 0
146 167 0
155 177 0
150 172 0
149 171 0
143 164 0
150 171 0
150 172 0
158 180 0
151 173 0
153 175 0
138 159 0
152 173 0
150 171 0
143 164 0
144 165 0
153 174 0
155 177 0
148 169 0
156 178 0
148 169 0
150 172 0
145 166 0
149 170 0
155 176 0
153 175 0
147 167 0
150 172 0
150 171 0
152 173 0
144 165 0
155 177 0
151 172 0
153 174 0
153 175 0
151 172 0
145 166 0
153 175 0
148 169 0
157 179 0
143 163 0
153 176 0
153 175 0
148 169 0
149 168 0
155 176 0
148 168 0
157 178 0
148 168 0
147 166 0
154 175 0
149 170 0
148 168 0
145 166 0
149 170 0
150 171 0
150 171 0
150 172 0
143 164 0
154 176 0
151 171 0
147 167 0
147 167 0
151 171 0
151 171 0
147 167 0
146 166 0
153 173 0
154 175 0
152 172 0
156 177 0
157 178 0
149 168 0
150 170 0
149 169 0
150 170 0
153 173 0
157 178 0
153 174 0
150 171 0
147 166 0
156 176 0
151 171 0
148 167 0
152 171 0
150 170 0
146 166 0
147 167 0
144 164 0
156 176 0
163 183 0
156 177 0
153 173 0
154 173 0
150 169 0
151 170 0
153 172 0
150 170 0
155 174 0
155 174 0
158 177 0
154 174 0
151 170 0
157 176 0
156 176 0
148 167 0
144 163 0
156 176 0
158 177 0
158 177 0
155 175 0
155 174 0
156 176 0
154 174 0
159 180 0
149 168 0
155 174 0
150 170 0
153 173 0
157 177 0
159 178 0
167 187 0
164 184 0
160 180 0
161 181 0
164 185 0
159 179 0
160 180 0
157 177 0
157 179 0
156 176 0
162 182 0
154 175 0
158 178 0
159 179 0
156 176 0
160 180 0
164 184 0
164 185 0
158 179 0
161 181 0
155 176 0
153 174 0
158 179 0
161 181 0
161 182 0
157 177 0
154 175 0
149 169 0
155 175 0
155 175 0
162 184 0
155 174 0
161 182 0
155 176 0
151 171 0
155 175 0
153 175 0
162 182 0
156 176 0
158 179 0
150 171 0
158 179 0
160 181 0
156 176 0
152 173 0
156 178 0
154 175 0
157 178 0
160 182 0
156 178 0
151 172 0
154 175 0
151 171 0
158 179 0
150 171 0
149 170 0
154 175 0
162 183 0
148 169 0
157 179 0
151 171 0
155 176 0
156 177 0
150 171 0
155 177 0
155 177 0
160 182 0
153 175 0
148 169 0
152 173 0
153 175 0
152 173 0
152 173 0
156 177 0
154 176 0
151 172 0
157 179 0
151 173 0
156 177 0
151 171 0
152 174 0
148 170 0
154 176 0
147 168 0
152 173 0
154 176 0
149 171 0
149 170 0
153 174 0
149 171 0
152 174 0
147 168 0
151 172 0
144 165 0
145 166 0
160 182 0
158 179 0
157 179 0
149 171 0
148 170 0
148 169 0
155 177 0
149 170 0
146 167 0
148 171 0
152 173 0
147 169 0
152 174 0
147 169 0
149 171 0
153 175 0
144 166 0
150 172 0
146 168 0
146 168 0
151 173 0
151 173 0
152 174 0
152 174 0
157 179 0
151 173 0
150 173 0
153 175 0
146 168 0
152 173 0
151 173 0
148 168 0
149 172 0
158 180 0
151 173 0
151 174 0
153 176 0
152 175 0
150 172 0
144 166 0
156 178 0
150 173 0
159 182 0
158 180 0
151 174 0
144 166 0
153 175 0
144 167 0
148 170 0
146 168 0
144 167 0
150 173 0
144 165 0
150 172 0
147 169 0
151 172 0
148 170 0
144 166 0
146 168 0
148 170 0
152 174 0
151 173 0
152 174 0
150 173 0
150 173 0
152 174 0
148 170 0
154 177 0
148 170 0
143 166 0
153 175 0
155 177 0
144 167 0
148 170 0
143 165 0
151 173 0
149 170 0
143 165 0
144 166 0
144 167 0
148 171 0
149 172 0
153 175 0
148 170 0
145 168 0
144 167 0
145 167 0
147 169 0
146 168 0
151 173 0
155 177 0
152 175 0
148 170 0
150 173 0
149 172 0
144 166 0
149 171 0
140 161 0
146 168 0
157 179 0
153 175 0
150 172 0
147 170 0
148 171 0
144 166 0
143 165 0
148 170 0
146 168 0
151 173 0
152 173 0
153 175 0
150 172 0
155 177 0
156 178 0
149 171 0
150 174 0
146 167 0
148 169 0
135 155 0
151 174 0
149 171 0
143 166 0
151 173 0
156 179 0
148 171 0
145 168 0
150 172 0
148 170 0
141 163 0
144 166 0
150 173 0
148 171 0
154 177 0
144 166 0
147 169 0
153 175 0
150 171 0
150 172 0
155 177 0
148 171 0
146 168 0
148 170 0
151 174 0
144 166 0
151 173 0
151 173 0
153 175 0
141 163 0
149 171 0
143 164 0
149 171 0
149 171 0
150 172 0
147 170 0
138 160 0
153 175 0
158 180 0
151 174 0
146 168 0
146 168 0
154 175 0
144 166 0
151 172 0
152 175 0
152 175 0
148 170 0
151 174 0
156 178 0
154 176 0
150 172 0
146 169 0
146 168 0
148 170 0
142 163 0
153 174 0
148 169 0
156 178 0
148 170 0
146 169 0
151 174 0
150 172 0
148 171 0
148 169 0
150 172 0
152 174 0
152 174 0
149 171 0
141 162 0
145 166 0
155 178 0
153 175 0
146 165 0
150 172 0
147 170 0
149 170 0
148 169 0
153 175 0
149 170 0
150 171 0
153 176 0
150 171 0
148 170 0
152 174 0
152 174 0
145 167 0
153 174 0
151 173 0
153 174 0
134 155 0
148 170 0
150 171 0
146 167 0
151 173 0
154 176 0
145 166 0
157 179 0
154 175 0
152 174 0
145 165 0
160 180 0
150 173 0
155 176 0
146 166 0
146 167 0
151 171 0
152 173 0
148 170 0
148 168 0
153 174 0
152 173 0
149 169 0
155 177 0
151 172 0
148 168 0
151 172 0
152 173 0
154 176 0
154 175 0
151 172 0
149 169 0
154 175 0
146 166 0
153 173 0
152 173 0
148 168 0
152 173 0
149 169 0
152 174 0
147 167 0
146 167 0
152 172 0
153 173 0
147 167 0
154 175 0
150 171 0
148 169 0
151 173 0
154 174 0
147 168 0
158 178 0
156 176 0
155 175 0
154 174 0
148 167 0
152 172 0
154 174 0
156 176 0
150 171 0
154 175 0
146 165 0
154 174 0
148 168 0
155 175 0
152 171 0
151 171 0
151 170 0
151 170 0
154 174 0
153 174 0
156 176 0
158 178 0
140 160 0
151 171 0
147 166 0
157 177 0
157 177 0
152 172 0
156 176 0
160 181 0
155 176 0
154 173 0
157 176 0
149 169 0
149 169 0
150 169 0
160 180 0
156 176 0
157 177 0
154 173 0
156 176 0
154 174 0
153 173 0
154 174 0
160 180 0
157 177 0
159 179 0
154 174 0
157 176 0
163 184 0
155 175 0
163 184 0
156 176 0
155 175 0
157 176 0
159 179 0
161 181 0
160 181 0
158 179 0
158 178 0
156 177 0
154 175 0
157 178 0
159 180 0
161 181 0
160 180 0
159 179 0
160 181 0
157 177 0
158 178 0
160 181 0
157 177 0
153 173 0
156 176 0
156 175 0
159 180 0
157 178 0
157 179 0
156 177 0
156 176 0
164 185 0
151 172 0
152 172 0
152 172 0
154 176 0
149 169 0
153 173 0
159 180 0
159 179 0
155 176 0
158 179 0
147 169 0
155 175 0
155 176 0
146 166 0
155 177 0
154 176 0
161 181 0
152 173 0
152 173 0
159 181 0
153 174 0
157 177 0
153 174 0
151 173 0
153 173 0
150 170 0
152 173 0
155 177 0
155 176 0
155 176 0
150 170 0
153 175 0
143 163 0
156 177 0
158 179 0
143 165 0
158 180 0
160 181 0
156 177 0
153 175 0
151 173 0
152 173 0
150 172 0
148 168 0
154 175 0
156 177 0
156 177 0
154 175 0
153 175 0
151 174 0
154 175 0
152 175 0
158 180 0
151 174 0
154 175 0
155 177 0
151 174 0
153 174 0
150 172 0
156 178 0
153 175 0
154 177 0
151 174 0
148 170 0
151 172 0
149 170 0
153 176 0
158 181 0
151 173 0
155 178 0
152 174 0
151 174 0
146 167 0
143 165 0
160 183 0
148 169 0
149 172 0
147 169 0
153 175 0
146 167 0
154 176 0
153 175 0
153 174 0
152 174 0
150 171 0
156 179 0
153 175 0
156 178 0
144 166 0
153 176 0
149 170 0
145 167 0
148 171 0
146 168 0
150 171 0
151 174 0
155 177 0
152 174 0
153 175 0
153 175 0
151 173 0
150 172 0
150 173 0
150 172 0
149 171 0
151 173 0
150 172 0
148 169 0
148 170 0
155 178 0
158 180 0
150 173 0
150 172 0
146 167 0
152 175 0
150 173 0
151 173 0
152 174 0
155 177 0
146 167 0
152 174 0
148 170 0
146 168 0
153 176 0
148 170 0
152 175 0
144 167 0
149 172 0
144 166 0
152 175 0
149 171 0
146 169 0
149 171 0
150 173 0
146 168 0
147 170 0
145 167 0
144 165 0
154 176 0
144 167 0
152 175 0
143 166 0
152 175 0
141 164 0
142 164 0
146 169 0
153 175 0
143 166 0
151 174 0
153 176 0
147 170 0
156 179 0
146 170 0
149 170 0
147 170 0
145 167 0
156 179 0
150 171 0
140 161 0
150 172 0
152 174 0
148 170 0
150 172 0
149 171 0
144 166 0
152 175 0
154 175 0
153 176 0
150 173 0
143 165 0
148 169 0
148 170 0
147 170 0
156 179 0
145 168 0
151 173 0
154 177 0
152 174 0
155 178 0
149 171 0
144 166 0
150 173 0
153 175 0
145 167 0
148 170 0
145 169 0
148 170 0
147 170 0
150 171 0
143 166 0
151 174 0
143 165 0
156 177 0
150 173 0
153 175 0
151 173 0
145 167 0
146 168 0
141 163 0
143 165 0
148 172 0
149 171 0
152 174 0
152 174 0
139 161 0
152 175 0
147 169 0
149 171 0
149 171 0
140 162 0
149 170 0
150 172 0
142 164 0
152 175 0
157 180 0
152 175 0
150 173 0
142 163 0
149 170 0
151 172 0
146 167 0
145 167 0
148 170 0
148 170 0
155 178 0
141 164 0
153 175 0
149 171 0
150 172 0
156 178 0
147 169 0
148 170 0
140 161 0
154 175 0
151 174 0
150 172 0
151 173 0
157 179 0
151 173 0
155 177 0
145 169 0
151 173 0
153 175 0
148 170 0
147 170 0
153 175 0
148 169 0
148 170 0
150 172 0
153 175 0
155 176 0
152 174 0
148 168 0
147 169 0
154 176 0
156 179 0
150 171 0
152 174 0
149 171 0
143 165 0
149 171 0
158 180 0
150 171 0
162 184 0
157 179 0
157 179 0
146 167 0
149 171 0
153 174 0
148 170 0
150 171 0
151 173 0
154 176 0
149 170 0
157 178 0
152 173 0
151 173 0
157 179 0
150 170 0
147 168 0
146 168 0
153 174 0
154 176 0
149 170 0
156 178 0
151 173 0
149 169 0
156 178 0
143 163 0
149 170 0
148 168 0
147 168 0
152 173 0
159 180 0
150 170 0
148 168 0
148 168 0
153 173 0
152 173 0
149 168 0
156 178 0
155 176 0
154 176 0
159 180 0
160 181 0
152 172 0
145 165 0
151 171 0
156 176 0
144 164 0
149 168 0
144 165 0
151 171 0
149 169 0
157 176 0
145 165 0
153 174 0
151 170 0
157 177 0
153 173 0
153 173 0
151 171 0
155 176 0
156 176 0
149 169 0
150 170 0
150 170 0
152 173 0
153 173 0
159 178 0
146 167 0
148 168 0
157 178 0
156 176 0
153 173 0
151 172 0
151 170 0
145 164 0
155 175 0
149 168 0
157 178 0
155 174 0
159 179 0
157 177 0
156 176 0
149 169 0
149 169 0
156 177 0
155 174 0
145 164 0
154 173 0
157 176 0
151 172 0
153 172 0
157 177 0
152 172 0
148 167 0
156 176 0
149 168 0
158 176 0
159 178 0
159 180 0
158 178 0
157 177 0
159 179 0
160 180 0
157 179 0
163 183 0
159 179 0
156 175 0
156 177 0
156 177 0
160 180 0
160 182 0
155 175 0
158 179 0
160 180 0
155 176 0
162 181 0
159 179 0
157 177 0
156 176 0
159 179 0
160 179 0
162 183 0
160 181 0
158 179 0
157 178 0
155 176 0
154 174 0
154 175 0
156 177 0
159 180 0
162 183 0
158 179 0
161 182 0
156 176 0
160 180 0
164 185 0
159 181 0
155 175 0
158 178 0
155 176 0
159 180 0
155 176 0
150 171 0
153 174 0
159 180 0
149 170 0
155 176 0
157 178 0
151 171 0
158 179 0
162 183 0
155 176 0
159 180 0
155 176 0
160 181 0
153 175 0
155 176 0
157 178 0
154 175 0
156 177 0
159 180 0
157 178 0
154 175 0
155 178 0
155 176 0
147 168 0
151 172 0
150 172 0
150 172 0
156 178 0
159 181 0
157 179 0
155 176 0
154 176 0
154 176 0
157 178 0
157 179 0
149 170 0
156 177 0
157 179 0
152 174 0
154 175 0
154 176 0
163 185 0
151 173 0
148 170 0
154 175 0
153 175 0
154 175 0
156 178 0
156 177 0
152 174 0
148 170 0
150 172 0
155 177 0
155 177 0
160 182 0
153 175 0
150 172 0
150 171 0
158 180 0
149 172 0
145 166 0
154 175 0
146 168 0
156 178 0
152 174 0
149 171 0
149 171 0
157 180 0
147 169 0
143 166 0
147 169 0
151 173 0
152 174 0
155 177 0
153 176 0
151 173 0
158 180 0
159 181 0
158 180 0
155 177 0
154 175 0
152 173 0
144 167 0
149 171 0
150 173 0
161 184 0
155 177 0
148 171 0
155 178 0
152 173 0
155 177 0
150 172 0
152 173 0
154 176 0
154 176 0
153 174 0
147 169 0
154 176 0
158 181 0
152 174 0
151 173 0
151 174 0
151 174 0
151 172 0
153 175 0
150 173 0
149 171 0
143 164 0
146 169 0
144 167 0
145 167 0
153 176 0
154 176 0
151 174 0
150 173 0
150 171 0
144 166 0
151 174 0
150 173 0
145 167 0
148 170 0
152 175 0
146 169 0
154 176 0
153 175 0
145 167 0
151 173 0
148 170 0
148 170 0
153 175 0
155 177 0
152 174 0
153 175 0
150 173 0
149 171 0
151 174 0
145 166 0
146 168 0
143 164 0
155 178 0
152 174 0
152 175 0
148 171 0
146 169 0
151 173 0
152 175 0
148 169 0
148 170 0
145 167 0
144 166 0
140 163 0
148 170 0
149 171 0
141 162 0
154 176 0
150 172 0
144 165 0
152 176 0
146 168 0
138 160 0
151 173 0
153 175 0
147 168 0
145 168 0
145 168 0
151 173 0
145 169 0
151 173 0
150 173 0
149 171 0
151 173 0
150 172 0
144 165 0
147 169 0
148 170 0
141 164 0
147 170 0
155 177 0
153 175 0
153 175 0
154 175 0
153 175 0
149 171 0
152 174 0
149 172 0
154 175 0
152 174 0
148 170 0
151 173 0
156 178 0
152 175 0
146 167 0
150 172 0
149 171 0
146 169 0
150 173 0
152 175 0
155 176 0
147 170 0
147 169 0
157 180 0
156 177 0
145 167 0
148 169 0
154 176 0
154 176 0
147 170 0
147 169 0
147 169 0
160 182 0
150 171 0
150 172 0
150 172 0
153 174 0
151 173 0
151 173 0
155 178 0
153 176 0
154 176 0
154 176 0
144 166 0
149 170 0
152 174 0
149 171 0
149 171 0
145 167 0
147 169 0
151 174 0
151 173 0
152 174 0
151 173 0
149 170 0
152 173 0
148 171 0
154 176 0
147 168 0
153 175 0
155 176 0
161 182 0
150 172 0
153 175 0
141 163 0
149 170 0
151 172 0
146 166 0
153 176 0
148 169 0
156 179 0
156 179 0
146 168 0
152 174 0
149 172 0
149 171 0
148 169 0
148 170 0
149 170 0
151 174 0
157 179 0
147 169 0
148 171 0
153 174 0
158 180 0
149 170 0
153 174 0
154 176 0
149 170 0
154 175 0
153 176 0
151 173 0
154 176 0
143 164 0
153 174 0
153 175 0
142 163 0
150 172 0
148 170 0
151 172 0
150 172 0
146 166 0
148 168 0
149 171 0
149 169 0
147 169 0
146 167 0
159 181 0
158 179 0
151 172 0
150 171 0
155 176 0
144 164 0
151 171 0
150 171 0
150 171 0
144 164 0
145 165 0
151 172 0
153 174 0
156 178 0
153 174 0
149 170 0
155 176 0
145 165 0
155 176 0
148 168 0
152 173 0
150 170 0
153 173 0
157 178 0
155 177 0
149 169 0
151 172 0
157 177 0
155 176 0
150 171 0
153 174 0
145 165 0
159 180 0
153 173 0
156 176 0
151 171 0
151 171 0
154 175 0
161 183 0
156 177 0
152 171 0
158 178 0
148 167 0
149 169 0
146 166 0
154 174 0
151 170 0
150 170 0
153 173 0
154 174 0
158 180 0
153 173 0
158 179 0
150 170 0
155 176 0
148 167 0
153 173 0
155 175 0
156 176 0
156 175 0
156 176 0
148 168 0
156 175 0
150 170 0
159 178 0
151 171 0
149 169 0
151 171 0
158 178 0
154 173 0
155 176 0
154 174 0
153 173 0
159 180 0
161 181 0
156 177 0
161 181 0
158 179 0
156 177 0
159 179 0
154 175 0
162 183 0
159 179 0
160 181 0
155 175 0
162 182 0
161 182 0
158 178 0
158 178 0
156 177 0
157 176 0
154 175 0
158 179 0
151 172 0
153 174 0
158 178 0
154 176 0
156 176 0
154 174 0
153 173 0
158 179 0
155 175 0
158 179 0
162 182 0
157 178 0
149 169 0
157 178 0
156 177 0
156 176 0
156 177 0
160 181 0
154 175 0
159 179 0
156 177 0
160 181 0
155 176 0
153 173 0
155 175 0
152 173 0
154 175 0
155 176 0
150 171 0
152 174 0
157 178 0
158 178 0
154 174 0
154 176 0
160 181 0
155 176 0
155 175 0
156 177 0
156 177 0
154 175 0
157 178 0
152 174 0
155 177 0
160 182 0
151 173 0
159 180 0
155 176 0
154 176 0
151 172 0
157 179 0
156 177 0
146 167 0
158 178 0
155 177 0
155 176 0
152 173 0
150 172 0
147 169 0
155 177 0
160 182 0
152 175 0
159 181 0
154 175 0
151 174 0
151 174 0
155 177 0
156 177 0
156 178 0
150 173 0
147 169 0
156 178 0
151 173 0
154 177 0
152 174 0
151 172 0
148 169 0
151 174 0
153 175 0
152 174 0
152 174 0
150 173 0
154 176 0
158 180 0
156 179 0
154 176 0
147 168 0
158 181 0
150 172 0
159 181 0
155 176 0
153 175 0
154 177 0
152 176 0
152 174 0
155 178 0
151 174 0
146 168 0
148 171 0
152 175 0
153 174 0
151 174 0
155 177 0
155 178 0
147 170 0
149 171 0
147 169 0
142 164 0
156 179 0
152 174 0
155 177 0
160 182 0
155 178 0
150 172 0
153 176 0
153 176 0
149 171 0
151 174 0
153 175 0
160 183 0
145 168 0
151 174 0
147 169 0
149 172 0
144 167 0
151 174 0
157 179 0
153 176 0
154 176 0
145 167 0
150 172 0
154 177 0
150 173 0
153 175 0
149 172 0
151 174 0
150 173 0
151 174 0
154 177 0
149 172 0
158 180 0
142 164 0
144 167 0
151 174 0
152 174 0
146 169 0
151 173 0
151 174 0
148 169 0
141 163 0
152 174 0
156 179 0
149 171 0
151 174 0
141 163 0
157 179 0
146 168 0
147 169 0
150 172 0
149 172 0
148 170 0
140 163 0
144 167 0
148 171 0
154 176 0
147 169 0
151 172 0
152 175 0
142 164 0
150 172 0
155 177 0
148 170 0
147 168 0
148 170 0
152 174 0
148 170 0
157 179 0
146 168 0
150 172 0
149 171 0
149 172 0
146 168 0
152 174 0
148 170 0
146 168 0
156 179 0
149 171 0
153 176 0
151 173 0
150 174 0
153 174 0
145 168 0
149 171 0
142 163 0
149 172 0
152 174 0
144 166 0
144 165 0
145 168 0
143 165 0
148 170 0
146 168 0
148 172 0
152 175 0
143 165 0
150 173 0
156 179 0
149 171 0
147 169 0
153 176 0
146 168 0
150 173 0
151 173 0
148 170 0
152 175 0
150 172 0
149 172 0
152 174 0
148 171 0
153 176 0
151 174 0
145 166 0
150 173 0
150 172 0
149 172 0
149 171 0
149 171 0
154 176 0
150 172 0
147 168 0
147 169 0
152 173 0
158 179 0
145 167 0
149 172 0
145 167 0
150 172 0
141 162 0
152 175 0
155 177 0
154 176 0
151 173 0
149 171 0
153 175 0
143 165 0
155 177 0
153 174 0
149 170 0
144 165 0
156 178 0
154 176 0
153 175 0
147 168 0
149 171 0
158 179 0
145 168 0
146 168 0
152 174 0
152 174 0
148 169 0
149 172 0
156 177 0
144 164 0
148 169 0
149 171 0
149 171 0
154 176 0
156 177 0
150 172 0
155 177 0
150 171 0
149 172 0
149 171 0
150 172 0
152 173 0
157 179 0
153 174 0
145 167 0
145 165 0
153 174 0
152 175 0
156 178 0
153 175 0
150 172 0
149 170 0
152 174 0
152 174 0
153 175 0
149 170 0
150 171 0
149 170 0
152 174 0
151 174 0
149 170 0
149 170 0
155 177 0
149 171 0
153 175 0
156 177 0
146 167 0
150 170 0
154 175 0
154 174 0
151 173 0
152 172 0
145 166 0
145 166 0
155 176 0
155 176 0
148 169 0
153 174 0
153 174 0
151 172 0
149 170 0
152 174 0
156 176 0
153 174 0
147 168 0
147 167 0
152 172 0
154 175 0
150 170 0
149 170 0
148 168 0
143 163 0
155 175 0
156 179 0
158 179 0
154 176 0
152 172 0
152 172 0
146 167 0
148 169 0
153 174 0
144 163 0
160 182 0
154 174 0
152 172 0
158 179 0
156 177 0
156 177 0
157 178 0
150 170 0
154 176 0
154 175 0
150 171 0
152 172 0
153 174 0
157 178 0
154 174 0
156 176 0
144 164 0
155 176 0
150 171 0
160 181 0
157 178 0
156 176 0
156 176 0
150 170 0
151 172 0
151 170 0
151 171 0
154 175 0
153 173 0
151 169 0
153 171 0
156 176 0
158 178 0
162 183 0
153 172 0
144 163 0
158 178 0
152 172 0
159 179 0
150 169 0
155 175 0
152 172 0
159 179 0
151 170 0
157 177 0
156 174 0
165 186 0
161 182 0
158 179 0
163 182 0
161 182 0
153 174 0
158 179 0
157 177 0
154 175 0
160 181 0
158 179 0
164 185 0
159 179 0
160 181 0
162 183 0
159 179 0
153 173 0
152 173 0
163 184 0
161 181 0
157 177 0
156 177 0
157 178 0
158 179 0
162 183 0
154 174 0
157 177 0
156 177 0
159 180 0
157 178 0
155 176 0
157 178 0
159 180 0
165 186 0
155 176 0
158 180 0
151 171 0
157 178 0
156 177 0
159 181 0
161 182 0
160 181 0
154 175 0
161 182 0
154 176 0
159 180 0
158 180 0
151 171 0
159 180 0
146 167 0
153 174 0
159 180 0
158 179 0
149 170 0
153 175 0
157 178 0
159 180 0
152 173 0
150 170 0
153 174 0
157 178 0
157 178 0
161 183 0
149 171 0
154 176 0
152 173 0
155 176 0
150 171 0
154 176 0
154 176 0
157 178 0
155 177 0
155 177 0
149 171 0
161 183 0
158 181 0
157 179 0
152 173 0
153 175 0
151 171 0
154 176 0
152 175 0
153 175 0
152 174 0
152 174 0
149 170 0
157 179 0
151 173 0
160 181 0
150 172 0
149 171 0
155 177 0
156 179 0
158 181 0
157 179 0
153 176 0
150 172 0
151 174 0
157 179 0
153 175 0
156 178 0
151 174 0
155 178 0
148 170 0
154 176 0
153 175 0
148 170 0
154 176 0
155 178 0
156 178 0
159 181 0
148 170 0
157 179 0
146 168 0
157 179 0
155 178 0
160 183 0
152 174 0
158 180 0
150 173 0
149 171 0
150 172 0
146 168 0
154 177 0
156 178 0
161 184 0
148 171 0
147 170 0
154 176 0
149 171 0
145 168 0
151 174 0
148 171 0
154 175 0
157 180 0
152 175 0
149 171 0
142 163 0
152 174 0
153 176 0
145 168 0
160 183 0
150 172 0
153 176 0
140 162 0
142 164 0
148 171 0
151 174 0
151 174 0
158 181 0
151 174 0
152 174 0
151 173 0
147 169 0
153 176 0
151 175 0
151 173 0
149 172 0
149 170 0
153 175 0
150 172 0
151 172 0
150 173 0
145 167 0
148 169 0
158 180 0
147 168 0
141 162 0
155 178 0
146 168 0
147 169 0
150 171 0
143 166 0
147 169 0
146 168 0
153 176 0
148 170 0
148 170 0
153 175 0
153 176 0
150 172 0
142 163 0
149 171 0
142 165 0
143 166 0
156 178 0
151 173 0
137 160 0
150 172 0
153 175 0
152 174 0
153 175 0
145 168 0
153 177 0
150 173 0
154 177 0
145 167 0
149 171 0
151 173 0
154 176 0
150 173 0
145 168 0
150 172 0
144 166 0
140 162 0
148 171 0
146 168 0
149 171 0
150 174 0
156 180 0
149 172 0
146 168 0
150 172 0
151 173 0
144 167 0
152 174 0
146 169 0
150 173 0
152 175 0
150 173 0
155 178 0
151 173 0
154 177 0
147 170 0
142 164 0
148 169 0
148 170 0
149 172 0
150 173 0
146 168 0
151 173 0
147 169 0
147 169 0
141 163 0
149 172 0
147 169 0
148 171 0
151 172 0
148 170 0
150 173 0
146 169 0
144 166 0
146 168 0
154 176 0
150 172 0
147 169 0
149 172 0
154 176 0
152 175 0
144 166 0
138 158 0
147 168 0
152 175 0
151 173 0
147 169 0
144 167 0
154 176 0
148 169 0
146 168 0
146 169 0
147 170 0
149 171 0
144 167 0
154 177 0
154 177 0
154 175 0
152 175 0
157 179 0
144 165 0
150 171 0
160 182 0
148 170 0
160 183 0
150 172 0
148 171 0
147 168 0
147 169 0
147 169 0
149 170 0
156 177 0
155 176 0
148 171 0
156 178 0
150 173 0
147 168 0
154 176 0
156 179 0
160 182 0
146 167 0
152 174 0
147 170 0
147 169 0
153 175 0
151 172 0
146 168 0
141 162 0
152 174 0
147 169 0
148 171 0
152 173 0
147 170 0
153 175 0
155 177 0
156 178 0
146 167 0
151 173 0
153 175 0
149 170 0
153 175 0
144 166 0
148 168 0
158 180 0
154 175 0
154 175 0
158 181 0
149 172 0
147 168 0
156 179 0
157 179 0
154 176 0
151 172 0
152 173 0
157 178 0
151 173 0
146 166 0
153 175 0
152 173 0
146 168 0
153 174 0
154 175 0
154 175 0
151 171 0
156 177 0
152 174 0
156 178 0
154 175 0
155 176 0
157 179 0
153 175 0
151 172 0
153 174 0
155 176 0
157 178 0
157 178 0
151 171 0
156 177 0
157 179 0
160 181 0
153 174 0
154 175 0
146 165 0
154 175 0
157 178 0
151 172 0
150 170 0
155 175 0
152 173 0
155 176 0
147 166 0
150 171 0
147 167 0
157 178 0
159 179 0
154 174 0
154 174 0
147 167 0
158 178 0
154 175 0
159 179 0
149 169 0
154 175 0
151 170 0
157 179 0
150 170 0
153 172 0
155 176 0
157 178 0
152 172 0
155 176 0
148 168 0
151 170 0
147 167 0
147 168 0
148 167 0
152 172 0
158 179 0
158 178 0
152 171 0
158 178 0
151 171 0
155 176 0
157 178 0
156 175 0
156 176 0
157 178 0
153 173 0
154 173 0
147 166 0
161 181 0
153 173 0
159 180 0
153 173 0
158 178 0
158 179 0
153 174 0
163 184 0
156 177 0
167 187 0
161 180 0
158 178 0
159 181 0
158 178 0
157 177 0
159 179 0
154 175 0
159 180 0
165 186 0
156 176 0
159 180 0
152 172 0
157 178 0
161 182 0
157 178 0
160 181 0
157 178 0
161 182 0
151 171 0
155 176 0
159 180 0
155 175 0
159 180 0
158 179 0
159 180 0
158 179 0
158 179 0
159 180 0
154 175 0
152 174 0
156 177 0
156 177 0
160 180 0
157 178 0
158 178 0
157 179 0
157 178 0
154 176 0
159 180 0
155 176 0
156 177 0
162 183 0
157 179 0
158 179 0
151 172 0
161 183 0
154 176 0
154 175 0
155 176 0
161 182 0
157 180 0
156 178 0
155 176 0
151 171 0
151 173 0
154 176 0
156 178 0
150 172 0
155 177 0
156 179 0
148 169 0
156 179 0
154 175 0
149 170 0
158 181 0
150 171 0
148 170 0
151 173 0
158 180 0
147 169 0
153 176 0
152 174 0
153 175 0
152 174 0
157 178 0
150 170 0
155 177 0
156 179 0
152 173 0
153 174 0
155 176 0
157 180 0
152 173 0
152 176 0
146 167 0
154 176 0
157 180 0
151 173 0
154 176 0
149 171 0
155 179 0
148 169 0
152 173 0
150 172 0
153 175 0
155 177 0
158 180 0
148 170 0
155 176 0
154 176 0
151 173 0
151 173 0
154 176 0
155 177 0
150 172 0
155 178 0
150 172 0
155 177 0
149 171 0
164 186 0
147 170 0
147 169 0
155 177 0
153 174 0
154 177 0
153 177 0
151 174 0
156 178 0
144 166 0
152 174 0
150 172 0
148 171 0
151 173 0
155 178 0
146 169 0
155 177 0
158 180 0
152 174 0
149 171 0
152 175 0
155 177 0
155 178 0
147 170 0
154 177 0
153 175 0
153 176 0
153 175 0
147 169 0
146 169 0
156 179 0
149 171 0
155 178 0
150 172 0
150 172 0
150 172 0
157 180 0
150 172 0
150 173 0
152 174 0
153 176 0
154 176 0
152 174 0
149 172 0
145 167 0
146 168 0
155 178 0
152 174 0
150 173 0
154 177 0
156 179 0
149 171 0
155 178 0
156 178 0
149 172 0
150 173 0
148 170 0
155 177 0
155 178 0
148 172 0
150 173 0
149 170 0
145 167 0
145 167 0
152 175 0
158 180 0
154 175 0
156 178 0
147 169 0
155 177 0
150 172 0
156 178 0
150 172 0
150 173 0
147 170 0
143 165 0
144 166 0
152 176 0
147 170 0
153 176 0
151 174 0
148 170 0
147 170 0
155 177 0
149 171 0
156 179 0
155 178 0
146 169 0
155 179 0
144 167 0
152 175 0
138 160 0
145 167 0
150 172 0
142 165 0
150 171 0
152 174 0
147 171 0
151 173 0
146 169 0
151 174 0
145 167 0
148 170 0
147 169 0
149 170 0
145 167 0
151 173 0
150 172 0
147 169 0
146 168 0
151 174 0
153 174 0
151 173 0
140 163 0
147 169 0
145 167 0
145 167 0
149 172 0
149 171 0
149 171 0
147 170 0
144 166 0
145 168 0
153 176 0
156 179 0
151 174 0
155 177 0
152 175 0
155 176 0
149 170 0
152 175 0
147 170 0
156 178 0
153 175 0
151 172 0
153 176 0
151 173 0
153 176 0
151 173 0
144 167 0
154 178 0
151 174 0
152 174 0
146 169 0
150 172 0
149 170 0
151 173 0
146 168 0
141 164 0
150 173 0
154 175 0
158 181 0
141 162 0
159 182 0
154 176 0
157 179 0
154 176 0
155 178 0
151 174 0
148 170 0
148 171 0
152 173 0
152 175 0
148 170 0
144 167 0
160 182 0
155 177 0
152 175 0
151 173 0
153 176 0
152 174 0
148 170 0
152 175 0
154 177 0
156 179 0
140 161 0
151 173 0
155 177 0
152 174 0
151 173 0
158 181 0
148 169 0
155 176 0
149 171 0
160 182 0
151 173 0
152 174 0
150 172 0
154 176 0
152 173 0
146 167 0
153 176 0
153 174 0
149 171 0
147 169 0
153 175 0
146 167 0
152 174 0
156 179 0
154 176 0
148 169 0
144 164 0
152 173 0
153 174 0
150 171 0
159 181 0
159 180 0
141 161 0
156 178 0
151 172 0
153 174 0
153 175 0
157 179 0
144 165 0
151 173 0
155 176 0
157 178 0
150 172 0
144 164 0
149 169 0
152 173 0
156 178 0
156 177 0
148 168 0
150 171 0
147 168 0
153 174 0
158 179 0
150 171 0
147 168 0
154 175 0
155 175 0
149 170 0
156 177 0
148 168 0
161 183 0
153 175 0
156 176 0
153 174 0
155 175 0
153 174 0
151 172 0
157 177 0
146 168 0
150 170 0
155 176 0
158 181 0
151 171 0
155 175 0
157 178 0
152 173 0
155 176 0
151 172 0
152 173 0
160 180 0
154 174 0
149 169 0
150 170 0
158 179 0
150 170 0
152 172 0
157 177 0
149 168 0
154 174 0
154 173 0
155 176 0
152 172 0
147 166 0
156 177 0
155 175 0
156 176 0
152 172 0
151 171 0
150 169 0
151 171 0
157 178 0
154 175 0
160 180 0
153 174 0
155 175 0
155 175 0
155 176 0
148 167 0
162 182 0
162 182 0
161 181 0
161 181 0
161 182 0
155 176 0
164 184 0
159 180 0
159 180 0
160 181 0
156 177 0
155 177 0
154 175 0
154 175 0
157 178 0
153 173 0
159 180 0
158 179 0
158 178 0
156 177 0
159 180 0
159 181 0
158 178 0
161 182 0
158 179 0
151 172 0
155 175 0
152 172 0
159 181 0
158 178 0
163 184 0
152 173 0
156 177 0
156 178 0
155 175 0
159 179 0
158 180 0
157 179 0
160 182 0
161 182 0
157 178 0
158 179 0
158 180 0
154 175 0
155 176 0
162 184 0
159 181 0
153 173 0
154 176 0
159 180 0
154 176 0
150 170 0
151 172 0
151 173 0
158 179 0
153 174 0
151 172 0
155 177 0
153 175 0
150 170 0
161 183 0
159 181 0
155 177 0
153 174 0
149 170 0
154 175 0
159 181 0
159 182 0
153 174 0
159 181 0
150 171 0
152 173 0
158 181 0
158 180 0
141 162 0
159 180 0
155 177 0
157 179 0
150 171 0
160 182 0
156 178 0
156 177 0
158 179 0
151 173 0
161 182 0
154 176 0
150 172 0
155 176 0
160 182 0
160 182 0
156 179 0
153 175 0
155 178 0
150 171 0
148 170 0
154 175 0
158 179 0
153 176 0
151 173 0
158 181 0
154 176 0
156 178 0
155 177 0
159 181 0
155 177 0
151 174 0
150 173 0
154 177 0
152 174 0
148 170 0
151 173 0
150 173 0
150 171 0
153 175 0
158 180 0
160 183 0
151 173 0
159 183 0
151 173 0
147 168 0
147 169 0
156 178 0
146 167 0
153 176 0
154 176 0
144 165 0
157 180 0
149 171 0
156 178 0
152 174 0
151 174 0
154 177 0
150 172 0
151 173 0
156 178 0
155 177 0
156 179 0
154 175 0
148 171 0
158 180 0
157 180 0
148 171 0
148 170 0
157 180 0
143 165 0
150 173 0
153 176 0
152 175 0
156 179 0
146 169 0
150 173 0
153 176 0
152 175 0
147 169 0
145 168 0
142 163 0
147 170 0
146 169 0
150 171 0
150 172 0
150 172 0
149 171 0
148 170 0
153 176 0
153 176 0
149 172 0
150 173 0
155 178 0
153 176 0
152 175 0
150 172 0
150 173 0
150 173 0
144 166 0
154 178 0
152 174 0
150 173 0
145 168 0
147 169 0
145 168 0
145 167 0
151 174 0
150 172 0
141 163 0
147 169 0
148 169 0
140 163 0
155 178 0
143 166 0
150 171 0
150 172 0
151 174 0
142 164 0
154 176 0
147 170 0
145 168 0
145 168 0
150 174 0
149 172 0
144 166 0
147 169 0
149 171 0
148 170 0
153 175 0
156 179 0
154 176 0
148 170 0
150 172 0
152 175 0
151 173 0
144 165 0
153 176 0
150 173 0
156 179 0
142 165 0
150 173 0
149 171 0
145 166 0
148 171 0
142 164 0
143 165 0
145 167 0
152 175 0
146 169 0
150 172 0
155 177 0
149 172 0
152 175 0
144 165 0
153 176 0
148 171 0
153 176 0
150 173 0
151 173 0
149 171 0
156 179 0
147 170 0
148 171 0
149 171 0
151 174 0
147 168 0
148 171 0
152 175 0
151 174 0
148 170 0
148 170 0
147 169 0
150 173 0
147 169 0
155 178 0
147 169 0
149 172 0
156 178 0
151 174 0
149 170 0
142 165 0
156 178 0
147 169 0
157 180 0
148 170 0
153 174 0
153 175 0
148 170 0
145 168 0
153 175 0
146 167 0
153 175 0
150 172 0
145 168 0
147 169 0
157 179 0
151 174 0
148 170 0
151 173 0
149 171 0
154 176 0
146 169 0
152 175 0
148 170 0
151 173 0
149 172 0
148 171 0
149 170 0
153 174 0
151 172 0
150 172 0
152 174 0
147 169 0
149 171 0
152 174 0
149 172 0
154 177 0
150 171 0
158 180 0
143 165 0
155 177 0
147 168 0
154 176 0
150 171 0
149 171 0
149 170 0
152 173 0
153 174 0
149 171 0
152 174 0
155 177 0
146 166 0
147 169 0
148 169 0
155 177 0
154 175 0
146 168 0
157 179 0
144 165 0
154 175 0
156 178 0
155 176 0
155 175 0
156 178 0
153 175 0
157 179 0
152 174 0
154 176 0
151 172 0
157 179 0
153 174 0
158 179 0
154 175 0
148 168 0
151 172 0
154 176 0
153 175 0
155 176 0
154 176 0
156 177 0
154 175 0
150 171 0
155 177 0
149 170 0
158 181 0
152 173 0
152 173 0
155 177 0
149 170 0
152 173 0
151 172 0
155 177 0
152 174 0
146 168 0
158 179 0
146 167 0
153 174 0
152 173 0
152 173 0
150 172 0
152 172 0
151 171 0
150 171 0
154 175 0
147 167 0
154 175 0
148 167 0
151 171 0
157 177 0
151 171 0
160 181 0
156 176 0
156 176 0
154 175 0
154 175 0
152 173 0
149 170 0
153 173 0
150 170 0
153 174 0
151 173 0
153 174 0
154 175 0
151 172 0
156 176 0
159 180 0
155 175 0
153 174 0
152 172 0
153 173 0
152 172 0
149 169 0
157 178 0
155 175 0
155 175 0
154 173 0
156 176 0
156 176 0
153 173 0
159 179 0
157 177 0
154 173 0
151 171 0
158 178 0
154 175 0
160 180 0
157 178 0
161 181 0
154 175 0
159 179 0
167 188 0
161 182 0
162 182 0
157 177 0
155 176 0
158 178 0
159 180 0
157 177 0
155 175 0
163 185 0
160 181 0
157 177 0
162 183 0
163 184 0
156 179 0
157 177 0
160 181 0
160 182 0
158 179 0
158 178 0
158 180 0
160 182 0
155 175 0
158 180 0
160 181 0
157 178 0
161 182 0
156 177 0
158 180 0
152 173 0
154 173 0
160 181 0
156 177 0
162 183 0
156 177 0
158 179 0
159 181 0
162 184 0
159 180 0
158 180 0
153 173 0
157 178 0
157 179 0
157 178 0
153 175 0
155 176 0
151 173 0
160 181 0
155 176 0
149 171 0
155 177 0
155 176 0
164 187 0
154 175 0
161 182 0
158 180 0
160 181 0
153 174 0
153 175 0
158 179 0
155 177 0
161 182 0
154 175 0
159 181 0
156 177 0
153 175 0
157 178 0
152 174 0
160 182 0
155 176 0
157 178 0
158 179 0
156 178 0
153 175 0
160 183 0
153 175 0
156 179 0
154 176 0
152 174 0
159 181 0
153 174 0
159 181 0
158 180 0
152 174 0
156 179 0
159 181 0
150 172 0
150 171 0
156 179 0
156 178 0
153 175 0
155 179 0
146 166 0
157 179 0
152 174 0
156 178 0
151 172 0
149 171 0
153 176 0
155 177 0
156 178 0
157 179 0
154 175 0
160 184 0
152 175 0
153 176 0
149 172 0
152 174 0
146 168 0
151 172 0
151 173 0
162 184 0
149 170 0
155 176 0
145 168 0
153 175 0
145 168 0
154 176 0
152 175 0
153 175 0
152 174 0
152 175 0
159 182 0
153 176 0
158 181 0
149 172 0
147 170 0
151 173 0
159 182 0
150 173 0
155 177 0
155 178 0
154 176 0
151 174 0
149 172 0
154 176 0
154 176 0
143 165 0
148 169 0
151 175 0
152 174 0
157 180 0
156 178 0
154 176 0
150 171 0
151 173 0
161 184 0
157 179 0
157 179 0
145 168 0
151 174 0
150 171 0
150 173 0
156 179 0
154 177 0
152 174 0
144 166 0
150 173 0
151 173 0
154 177 0
153 175 0
149 172 0
152 175 0
143 166 0
153 176 0
147 170 0
143 164 0
151 173 0
145 168 0
153 175 0
153 176 0
154 177 0
147 169 0
155 177 0
154 177 0
148 171 0
153 175 0
150 173 0
156 178 0
154 177 0
153 175 0
149 171 0
144 166 0
147 169 0
149 172 0
149 171 0
154 177 0
154 177 0
146 169 0
151 174 0
148 171 0
145 167 0
151 173 0
149 172 0
153 174 0
150 173 0
151 173 0
144 166 0
152 174 0
149 171 0
154 176 0
154 177 0
151 174 0
151 174 0
142 165 0
153 176 0
150 172 0
153 175 0
142 164 0
145 167 0
143 164 0
148 171 0
151 174 0
149 171 0
152 173 0
148 171 0
151 173 0
148 171 0
157 181 0
146 169 0
147 170 0
143 164 0
147 169 0
147 169 0
154 177 0
154 177 0
144 167 0
150 173 0
141 164 0
144 166 0
155 178 0
141 164 0
154 176 0
147 169 0
153 175 0
159 181 0
155 177 0
150 173 0
155 178 0
144 167 0
147 170 0
149 171 0
148 171 0
148 171 0
158 179 0
149 171 0
157 180 0
156 178 0
149 171 0
144 165 0
146 167 0
146 168 0
155 176 0
150 172 0
153 175 0
148 170 0
153 175 0
154 176 0
153 176 0
148 169 0
152 175 0
151 172 0
158 181 0
151 174 0
150 172 0
148 170 0
150 172 0
153 175 0
152 174 0
154 177 0
154 177 0
147 170 0
153 174 0
160 183 0
150 171 0
157 179 0
149 172 0
149 172 0
146 169 0
150 173 0
153 175 0
151 174 0
156 178 0
151 172 0
155 177 0
154 176 0
151 173 0
151 174 0
149 172 0
149 170 0
149 172 0
150 173 0
150 172 0
150 172 0
148 170 0
154 176 0
149 170 0
146 168 0
147 169 0
148 170 0
160 182 0
150 171 0
157 180 0
145 166 0
155 177 0
156 177 0
152 173 0
150 172 0
159 181 0
148 170 0
152 174 0
151 172 0
153 174 0
152 173 0
152 173 0
147 168 0
157 180 0
157 179 0
158 180 0
151 171 0
152 172 0
153 174 0
147 168 0
150 172 0
150 171 0
156 178 0
151 173 0
154 177 0
150 171 0
149 171 0
157 178 0
151 172 0
153 174 0
155 175 0
154 175 0
152 173 0
153 174 0
153 175 0
153 174 0
156 178 0
149 170 0
156 177 0
153 174 0
156 177 0
149 170 0
154 174 0
153 175 0
151 171 0
150 171 0
153 174 0
153 174 0
154 175 0
150 171 0
153 174 0
154 175 0
154 174 0
152 173 0
148 169 0
151 171 0
155 175 0
153 173 0
155 175 0
154 174 0
148 169 0
157 178 0
153 174 0
154 175 0
152 173 0
162 183 0
151 170 0
154 174 0
153 173 0
155 175 0
156 177 0
153 174 0
153 175 0
155 176 0
151 172 0
155 174 0
148 168 0
155 175 0
157 178 0
155 176 0
159 178 0
158 179 0
159 180 0
159 181 0
159 179 0
155 176 0
157 178 0
146 166 0
158 178 0
154 174 0
161 182 0
152 172 0
154 175 0
162 183 0
164 185 0
160 180 0
156 177 0
161 182 0
161 183 0
159 181 0
163 184 0
160 181 0
156 176 0
158 178 0
154 175 0
166 188 0
160 181 0
164 186 0
158 178 0
162 184 0
156 177 0
158 179 0
155 175 0
159 180 0
163 185 0
154 174 0
156 178 0
155 175 0
159 180 0
162 183 0
160 181 0
160 181 0
159 180 0
160 181 0
155 177 0
160 181 0
156 177 0
154 175 0
152 172 0
160 181 0
156 177 0
157 178 0
156 177 0
156 177 0
153 175 0
156 178 0
151 172 0
157 178 0
154 175 0
159 180 0
152 173 0
161 183 0
159 180 0
155 176 0
152 174 0
160 182 0
160 182 0
159 180 0
157 178 0
152 173 0
156 177 0
151 173 0
157 180 0
155 177 0
147 168 0
156 178 0
156 180 0
156 178 0
153 174 0
154 175 0
150 171 0
160 181 0
157 179 0
155 177 0
156 178 0
158 181 0
150 171 0
153 174 0
159 181 0
151 173 0
155 177 0
155 178 0
155 177 0
153 176 0
154 176 0
155 177 0
158 181 0
160 182 0
151 172 0
154 175 0
162 184 0
157 180 0
148 170 0
152 173 0
155 176 0
152 174 0
160 182 0
155 176 0
162 184 0
155 177 0
153 174 0
152 175 0
154 176 0
160 183 0
158 180 0
154 177 0
158 181 0
152 175 0
159 182 0
156 178 0
152 175 0
151 174 0
159 181 0
157 180 0
147 169 0
156 179 0
157 179 0
152 174 0
148 169 0
149 171 0
152 174 0
148 170 0
148 171 0
150 172 0
154 177 0
154 176 0
152 175 0
154 176 0
151 174 0
152 174 0
151 173 0
158 181 0
145 167 0
148 169 0
154 176 0
150 173 0
155 177 0
150 173 0
150 172 0
151 173 0
153 175 0
140 162 0
154 177 0
155 178 0
153 176 0
154 177 0
154 176 0
146 169 0
156 178 0
151 173 0
151 175 0
152 175 0
148 170 0
153 175 0
159 181 0
152 174 0
151 174 0
150 173 0
147 170 0
152 173 0
154 176 0
152 175 0
153 176 0
151 175 0
161 184 0
150 173 0
154 176 0
146 169 0
154 176 0
144 167 0
155 178 0
149 171 0
151 174 0
149 172 0
148 171 0
148 170 0
153 175 0
152 175 0
150 173 0
156 179 0
150 173 0
151 173 0
154 176 0
149 171 0
153 176 0
151 174 0
147 169 0
153 175 0
156 179 0
145 167 0
150 172 0
149 171 0
148 171 0
161 185 0
148 171 0
139 161 0
145 169 0
152 174 0
150 172 0
150 172 0
148 170 0
144 166 0
151 174 0
155 177 0
144 167 0
145 167 0
146 168 0
141 164 0
151 173 0
153 177 0
142 164 0
148 171 0
158 181 0
150 172 0
150 173 0
146 167 0
146 168 0
155 177 0
148 170 0
146 169 0
156 179 0
151 174 0
145 167 0
154 177 0
147 169 0
147 169 0
147 170 0
151 173 0
152 174 0
150 173 0
154 177 0
154 177 0
150 172 0
147 169 0
155 177 0
152 175 0
144 166 0
155 177 0
150 173 0
150 172 0
139 162 0
156 179 0
147 169 0
151 173 0
150 173 0
157 179 0
153 177 0
154 176 0
151 173 0
144 166 0
153 176 0
144 167 0
152 174 0
154 177 0
157 180 0
153 176 0
154 176 0
156 178 0
149 172 0
147 169 0
152 175 0
153 175 0
145 166 0
145 167 0
152 174 0
150 172 0
154 175 0
154 177 0
149 171 0
156 179 0
149 171 0
155 178 0
154 177 0
150 171 0
150 172 0
152 174 0
147 168 0
154 176 0
148 171 0
154 176 0
150 172 0
149 170 0
152 174 0
157 181 0
150 172 0
156 178 0
150 171 0
157 179 0
156 177 0
155 178 0
151 173 0
151 172 0
151 174 0
162 185 0
143 165 0
161 184 0
155 177 0
151 175 0
147 168 0
154 175 0
145 167 0
145 167 0
151 173 0
148 169 0
152 174 0
148 170 0
153 175 0
152 174 0
145 166 0
151 173 0
156 178 0
154 177 0
157 179 0
154 177 0
155 177 0
154 176 0
156 177 0
150 172 0
152 173 0
149 171 0
154 177 0
154 175 0
150 171 0
152 173 0
152 174 0
149 170 0
151 173 0
154 175 0
153 174 0
152 174 0
159 181 0
154 176 0
150 170 0
154 176 0
148 170 0
154 176 0
154 175 0
146 167 0
154 176 0
159 181 0
150 171 0
160 182 0
148 169 0
154 176 0
153 174 0
150 171 0
158 179 0
153 175 0
158 179 0
151 173 0
159 181 0
152 174 0
150 171 0
151 172 0
157 178 0
159 181 0
152 173 0
152 173 0
159 181 0
151 172 0
158 179 0
154 176 0
152 174 0
153 175 0
155 176 0
158 179 0
146 167 0
152 173 0
147 168 0
154 176 0
156 178 0
149 169 0
160 182 0
154 175 0
150 171 0
153 173 0
152 172 0
149 170 0
153 173 0
161 182 0
156 176 0
155 174 0
158 179 0
150 171 0
150 171 0
155 175 0
164 186 0
156 176 0
156 178 0
157 179 0
156 175 0
149 170 0
154 174 0
163 184 0
159 181 0
162 183 0
151 172 0
155 175 0
159 180 0
157 177 0
155 175 0
157 178 0
