P3
400 224
255
204 226 255
204 226 255
204 226 255
204 226 255
204 226 255
204 226 255
204 226 255
204 226 255
204 226 255
204 226 255
204 226 255
204 226 255
204 226 255
204 226 255
204 226 255
204 226 255
203 226 255
203 226 255
203 226 255
203 226 255
203 226 255
203 226 255
203 226 255
203 226 255
203 225 255
203 225 255
203 225 255
203 225 255
203 225 255
203 225 255
203 225 255
203 225 255
203 225 255
202 225 255
202 225 255
202 225 255
202 225 255
202 225 255
202 225 255
202 225 255
202 225 255
202 225 255
202 225 255
202 225 255
202 225 255
202 225 255
202 225 255
202 225 255
202 225 255
201 225 255
201 225 255
201 225 255
201 225 255
201 224 255
201 224 255
201 224 255
201 224 255
201 224 255
201 224 255
201 224 255
201 224 255
201 224 255
201 224 255
201 224 255
200 224 255
200 224 255
200 224 255
200 224 255
200 224 255
200 224 255
200 224 255
200 224 255
200 224 255
200 224 255
200 224 255
200 224 255
200 224 255
200 224 255
199 224 255
199 224 255
199 223 255
199 223 255
199 223 255
199 223 255
199 223 255
199 223 255
199 223 255
199 223 255
199 223 255
199 223 255
199 223 255
199 223 255
198 223 255
198 223 255
198 223 255
198 223 255
198 223 255
198 223 255
198 223 255
198 223 255
198 223 255
198 223 255
198 223 255
198 223 255
198 223 255
198 223 255
198 223 255
197 222 255
197 222 255
197 222 255
197 222 255
197 222 255
197 222 255
197 222 255
197 222 255
197 222 255
197 222 255
197 222 255
197 222 255
197 222 255
197 222 255
196 222 255
196 222 255
196 222 255
196 222 255
196 222 255
196 222 255
196 222 255
196 222 255
196 222 255
196 222 255
196 222 255
196 222 255
196 222 255
196 222 255
196 221 255
196 221 255
195 221 255
195 221 255
195 221 255
195 221 255
195 221 255
195 221 255
195 221 255
195 221 255
195 221 255
195 221 255
195 221 255
195 221 255
195 221 255
195 221 255
195 221 255
195 221 255
195 221 255
195 221 255
195 221 255
194 221 255
194 221 255
194 221 255
194 221 255
194 221 255
194 221 255
194 221 255
194 221 255
194 221 255
194 221 255
194 221 255
194 221 255
194 221 255
194 221 255
194 221 255
194 221 255
194 221 255
194 221 255
194 221 255
194 221 255
194 221 255
194 220 255
194 220 255
194 220 255
194 220 255
194 220 255
194 220 255
194 220 255
194 220 255
194 220 255
193 220 255
193 220 255
193 220 255
193 220 255
193 220 255
193 220 255
193 220 255
193 220 255
193 220 255
193 220 255
193 220 255
193 220 255
193 220 255
193 220 255
193 220 255
193 220 255
193 220 255
193 220 255
193 220 255
193 220 255
193 220 255
193 220 255
193 220 255
193 220 255
193 220 255
193 220 255
193 220 255
193 220 255
194 220 255
194 220 255
194 220 255
194 220 255
194 220 255
194 220 255
194 220 255
194 220 255
194 220 255
194 221 255
194 221 255
194 221 255
194 221 255
194 221 255
194 221 255
194 221 255
194 221 255
194 221 255
194 221 255
194 221 255
194 221 255
194 221 255
194 221 255
194 221 255
194 221 255
194 221 255
194 221 255
194 221 255
194 221 255
194 221 255
195 221 255
195 221 255
195 221 255
195 221 255
195 221 255
195 221 255
195 221 255
195 221 255
195 221 255
195 221 255
195 221 255
195 221 255
195 221 255
195 221 255
195 221 255
195 221 255
195 221 255
195 221 255
195 221 255
196 221 255
196 221 255
196 222 255
196 222 255
196 222 255
196 222 255
196 222 255
196 222 255
196 222 255
196 222 255
196 222 255
196 222 255
196 222 255
196 222 255
196 222 255
196 222 255
197 222 255
197 222 255
197 222 255
197 222 255
197 222 255
197 222 255
197 222 255
197 222 255
197 222 255
197 222 255
197 222 255
197 222 255
197 222 255
197 222 255
198 223 255
198 223 255
198 223 255
198 223 255
198 223 255
198 223 255
198 223 255
198 223 255
198 223 255
198 223 255
198 223 255
198 223 255
198 223 255
198 223 255
198 223 255
199 223 255
199 223 255
199 223 255
199 223 255
199 223 255
199 223 255
199 223 255
199 223 255
199 223 255
199 223 255
199 223 255
199 223 255
199 224 255
199 224 255
200 224 255
200 224 255
200 224 255
200 224 255
200 224 255
200 224 255
200 224 255
200 224 255
200 224 255
200 224 255
200 224 255
200 224 255
200 224 255
200 224 255
201 224 255
201 224 255
201 224 255
201 224 255
201 224 255
201 224 255
201 224 255
201 224 255
201 224 255
201 224 255
201 224 255
201 225 255
201 225 255
201 225 255
201 225 255
201 225 255
202 225 255
202 225 255
202 225 255
202 225 255
202 225 255
202 225 255
202 225 255
202 225 255
202 225 255
202 225 255
202 225 255
202 225 255
202 225 255
202 225 255
202 225 255
203 225 255
203 225 255
203 225 255
203 225 255
203 225 255
203 225 255
203 225 255
203 225 255
203 225 255
203 226 255
203 226 255
203 226 255
203 226 255
203 226 255
203 226 255
203 226 255
203 226 255
204 226 255
204 226 255
204 226 255
204 226 255
204 226 255
204 226 255
204 226 255
204 226 255
204 226 255
204 226 255
204 226 255
204 226 255
204 226 255
204 226 255
204 226 255
204 226 255
205 226 255
204 226 255
204 226 255
204 226 255
204 226 255
204 226 255
204 226 255
204 226 255
204 226 255
204 226 255
204 226 255
204 226 255
204 226 255
204 226 255
204 226 255
204 226 255
204 226 255
204 226 255
203 226 255
203 226 255
203 226 255
203 226 255
203 226 255
203 226 255
203 226 255
203 226 255
203 225 255
203 225 255
203 225 255
203 225 255
203 225 255
203 225 255
203 225 255
203 225 255
203 225 255
202 225 255
202 225 255
202 225 255
202 225 255
202 225 255
202 225 255
202 225 255
202 225 255
202 225 255
202 225 255
202 225 255
202 225 255
202 225 255
202 225 255
202 225 255
202 225 255
201 225 255
201 225 255
201 225 255
201 225 255
201 224 255
201 224 255
201 224 255
201 224 255
201 224 255
201 224 255
201 224 255
201 224 255
201 224 255
201 224 255
201 224 255
200 224 255
200 224 255
200 224 255
200 224 255
200 224 255
200 224 255
200 224 255
200 224 255
200 224 255
200 224 255
200 224 255
200 224 255
200 224 255
200 224 255
199 224 255
199 224 255
199 223 255
199 223 255
199 223 255
199 223 255
199 223 255
199 223 255
199 223 255
199 223 255
199 223 255
199 223 255
199 223 255
199 223 255
198 223 255
198 223 255
198 223 255
198 223 255
198 223 255
198 223 255
198 223 255
198 223 255
198 223 255
198 223 255
198 223 255
198 223 255
198 223 255
198 223 255
198 223 255
197 222 255
197 222 255
197 222 255
197 222 255
197 222 255
197 222 255
197 222 255
197 222 255
197 222 255
197 222 255
197 222 255
197 222 255
197 222 255
197 222 255
196 222 255
196 222 255
196 222 255
196 222 255
196 222 255
196 222 255
196 222 255
196 222 255
196 222 255
196 222 255
196 222 255
196 222 255
196 222 255
196 222 255
196 222 255
196 221 255
195 221 255
195 221 255
195 221 255
195 221 255
195 221 255
195 221 255
195 221 255
195 221 255
195 221 255
195 221 255
195 221 255
195 221 255
195 221 255
195 221 255
195 221 255
195 221 255
195 221 255
195 221 255
195 221 255
194 221 255
194 221 255
194 221 255
194 221 255
194 221 255
194 221 255
194 221 255
194 221 255
194 221 255
194 221 255
194 221 255
194 221 255
194 221 255
194 221 255
194 221 255
194 221 255
194 221 255
194 221 255
194 221 255
194 221 255
194 221 255
194 221 255
194 221 255
194 221 255
194 221 255
194 220 255
194 220 255
194 220 255
194 220 255
194 220 255
194 220 255
194 220 255
194 220 255
194 220 255
194 220 255
194 220 255
194 220 255
194 220 255
194 220 255
194 220 255
194 220 255
194 220 255
194 220 255
194 220 255
194 220 255
194 220 255
194 220 255
194 220 255
194 220 255
194 220 255
194 220 255
194 220 255
194 220 255
194 220 255
194 220 255
194 220 255
194 220 255
194 220 255
194 220 255
194 221 255
194 221 255
194 221 255
194 221 255
194 221 255
194 221 255
194 221 255
194 221 255
194 221 255
194 221 255
194 221 255
194 221 255
194 221 255
194 221 255
194 221 255
194 221 255
194 221 255
194 221 255
194 221 255
194 221 255
194 221 255
194 221 255
194 221 255
194 221 255
195 221 255
195 221 255
195 221 255
195 221 255
195 221 255
195 221 255
195 221 255
195 221 255
195 221 255
195 221 255
195 221 255
195 221 255
195 221 255
195 221 255
195 221 255
195 221 255
195 221 255
195 221 255
195 221 255
195 221 255
196 221 255
196 222 255
196 222 255
196 222 255
196 222 255
196 222 255
196 222 255
196 222 255
196 222 255
196 222 255
196 222 255
196 222 255
196 222 255
196 222 255
196 222 255
196 222 255
197 222 255
197 222 255
197 222 255
197 222 255
197 222 255
197 222 255
197 222 255
197 222 255
197 222 255
197 222 255
197 222 255
197 222 255
197 222 255
197 222 255
198 223 255
198 223 255
198 223 255
198 223 255
198 223 255
198 223 255
198 223 255
198 223 255
198 223 255
198 223 255
198 223 255
198 223 255
198 223 255
198 223 255
198 223 255
199 223 255
199 223 255
199 223 255
199 223 255
199 223 255
199 223 255
199 223 255
199 223 255
199 223 255
199 223 255
199 223 255
199 223 255
199 224 255
199 224 255
200 224 255
200 224 255
200 224 255
200 224 255
200 224 255
200 224 255
200 224 255
200 224 255
200 224 255
200 224 255
200 224 255
200 224 255
200 224 255
200 224 255
201 224 255
201 224 255
201 224 255
201 224 255
201 224 255
201 224 255
201 224 255
201 224 255
201 224 255
201 224 255
201 224 255
201 225 255
201 225 255
201 225 255
201 225 255
202 225 255
202 225 255
202 225 255
202 225 255
202 225 255
202 225 255
202 225 255
202 225 255
202 225 255
202 225 255
202 225 255
202 225 255
202 225 255
202 225 255
202 225 255
202 225 255
203 225 255
203 225 255
203 225 255
203 225 255
203 225 255
203 225 255
203 225 255
203 225 255
203 225 255
203 226 255
203 226 255
203 226 255
203 226 255
203 226 255
203 226 255
203 226 255
204 226 255
204 226 255
204 226 255
204 226 255
204 226 255
204 226 255
204 226 255
204 226 255
204 226 255
204 226 255
204 226 255
204 226 255
204 226 255
204 226 255
204 226 255
204 226 255
204 226 255
204 226 255
205 226 255
205 226 255
205 226 255
205 226 255
204 226 255
204 226 255
204 226 255
204 226 255
204 226 255
204 226 255
204 226 255
204 226 255
204 226 255
204 226 255
204 226 255
204 226 255
204 226 255
204 226 255
204 226 255
204 226 255
204 226 255
204 226 255
203 226 255
203 226 255
203 226 255
203 226 255
203 226 255
203 226 255
203 226 255
203 225 255
203 225 255
203 225 255
203 225 255
203 225 255
203 225 255
203 225 255
203 225 255
203 225 255
202 225 255
202 225 255
202 225 255
202 225 255
202 225 255
202 225 255
202 225 255
202 225 255
202 225 255
202 225 255
202 225 255
202 225 255
202 225 255
202 225 255
202 225 255
202 225 255
201 225 255
201 225 255
201 225 255
201 225 255
201 224 255
201 224 255
201 224 255
201 224 255
201 224 255
201 224 255
201 224 255
201 224 255
201 224 255
201 224 255
201 224 255
200 224 255
200 224 255
200 224 255
200 224 255
200 224 255
200 224 255
200 224 255
200 224 255
200 224 255
200 224 255
200 224 255
200 224 255
200 224 255
200 224 255
199 224 255
199 224 255
199 223 255
199 223 255
199 223 255
199 223 255
199 223 255
199 223 255
199 223 255
199 223 255
199 223 255
199 223 255
199 223 255
199 223 255
198 223 255
198 223 255
198 223 255
198 223 255
198 223 255
198 223 255
198 223 255
198 223 255
198 223 255
198 223 255
198 223 255
198 223 255
198 223 255
198 223 255
198 223 255
197 222 255
197 222 255
197 222 255
197 222 255
197 222 255
197 222 255
197 222 255
197 222 255
197 222 255
197 222 255
197 222 255
197 222 255
197 222 255
197 222 255
197 222 255
196 222 255
196 222 255
196 222 255
196 222 255
196 222 255
196 222 255
196 222 255
196 222 255
196 222 255
196 222 255
196 222 255
196 222 255
196 222 255
196 222 255
196 221 255
196 221 255
195 221 255
195 221 255
195 221 255
195 221 255
195 221 255
195 221 255
195 221 255
195 221 255
195 221 255
195 221 255
195 221 255
195 221 255
195 221 255
195 221 255
195 221 255
195 221 255
195 221 255
195 221 255
195 221 255
195 221 255
194 221 255
194 221 255
194 221 255
194 221 255
194 221 255
194 221 255
194 221 255
194 221 255
194 221 255
194 221 255
194 221 255
194 221 255
194 221 255
194 221 255
194 221 255
194 221 255
194 221 255
194 221 255
194 221 255
194 221 255
194 221 255
194 221 255
194 221 255
194 221 255
194 221 255
194 221 255
194 221 255
194 221 255
194 221 255
194 221 255
194 221 255
194 220 255
194 220 255
194 220 255
194 220 255
194 220 255
194 220 255
194 220 255
194 220 255
194 220 255
194 220 255
194 220 255
194 220 255
194 220 255
194 220 255
194 220 255
194 221 255
194 221 255
194 221 255
194 221 255
194 221 255
194 221 255
194 221 255
194 221 255
194 221 255
194 221 255
194 221 255
194 221 255
194 221 255
194 221 255
194 221 255
194 221 255
194 221 255
194 221 255
194 221 255
194 221 255
194 221 255
194 221 255
194 221 255
194 221 255
194 221 255
194 221 255
194 221 255
194 221 255
194 221 255
194 221 255
195 221 255
195 221 255
195 221 255
195 221 255
195 221 255
195 221 255
195 221 255
195 221 255
195 221 255
195 221 255
195 221 255
195 221 255
195 221 255
195 221 255
195 221 255
195 221 255
195 221 255
195 221 255
195 221 255
195 221 255
196 221 255
196 221 255
196 222 255
196 222 255
196 222 255
196 222 255
196 222 255
196 222 255
196 222 255
196 222 255
196 222 255
196 222 255
196 222 255
196 222 255
196 222 255
196 222 255
196 222 255
197 222 255
197 222 255
197 222 255
197 222 255
197 222 255
197 222 255
197 222 255
197 222 255
197 222 255
197 222 255
197 222 255
197 222 255
197 222 255
197 222 255
198 223 255
198 223 255
198 223 255
198 223 255
198 223 255
198 223 255
198 223 255
198 223 255
198 223 255
198 223 255
198 223 255
198 223 255
198 223 255
198 223 255
198 223 255
199 223 255
199 223 255
199 223 255
199 223 255
199 223 255
199 223 255
199 223 255
199 223 255
199 223 255
199 223 255
199 223 255
199 223 255
199 224 255
199 224 255
200 224 255
200 224 255
200 224 255
200 224 255
200 224 255
200 224 255
200 224 255
200 224 255
200 224 255
200 224 255
200 224 255
200 224 255
200 224 255
200 224 255
201 224 255
201 224 255
201 224 255
201 224 255
201 224 255
201 224 255
201 224 255
201 224 255
201 224 255
201 224 255
201 224 255
201 225 255
201 225 255
201 225 255
201 225 255
202 225 255
202 225 255
202 225 255
202 225 255
202 225 255
202 225 255
202 225 255
202 225 255
202 225 255
202 225 255
202 225 255
202 225 255
202 225 255
202 225 255
202 225 255
202 225 255
203 225 255
203 225 255
203 225 255
203 225 255
203 225 255
203 225 255
203 225 255
203 225 255
203 225 255
203 226 255
203 226 255
203 226 255
203 226 255
203 226 255
203 226 255
203 226 255
204 226 255
204 226 255
204 226 255
204 226 255
204 226 255
204 226 255
204 226 255
204 226 255
204 226 255
204 226 255
204 226 255
204 226 255
204 226 255
204 226 255
204 226 255
204 226 255
204 226 255
204 226 255
205 226 255
205 226 255
205 226 255
205 226 255
205 226 255
205 226 255
205 226 255
205 226 255
204 226 255
204 226 255
204 226 255
204 226 255
204 226 255
204 226 255
204 226 255
204 226 255
204 226 255
204 226 255
204 226 255
204 226 255
204 226 255
204 226 255
204 226 255
204 226 255
204 226 255
204 226 255
203 226 255
203 226 255
203 226 255
203 226 255
203 226 255
203 226 255
203 226 255
203 225 255
203 225 255
203 225 255
203 225 255
203 225 255
203 225 255
203 225 255
203 225 255
203 225 255
203 225 255
202 225 255
202 225 255
202 225 255
202 225 255
202 225 255
202 225 255
202 225 255
202 225 255
202 225 255
202 225 255
202 225 255
202 225 255
202 225 255
202 225 255
202 225 255
201 225 255
201 225 255
201 225 255
201 225 255
201 224 255
201 224 255
201 224 255
201 224 255
201 224 255
201 224 255
201 224 255
201 224 255
201 224 255
201 224 255
201 224 255
200 224 255
200 224 255
200 224 255
200 224 255
200 224 255
200 224 255
200 224 255
200 224 255
200 224 255
200 224 255
200 224 255
200 224 255
200 224 255
200 224 255
199 224 255
199 224 255
199 224 255
199 223 255
199 223 255
199 223 255
199 223 255
199 223 255
199 223 255
199 223 255
199 223 255
199 223 255
199 223 255
199 223 255
198 223 255
198 223 255
198 223 255
198 223 255
198 223 255
198 223 255
198 223 255
198 223 255
198 223 255
198 223 255
198 223 255
198 223 255
198 223 255
198 223 255
198 223 255
197 222 255
197 222 255
197 222 255
197 222 255
197 222 255
197 222 255
197 222 255
197 222 255
197 222 255
197 222 255
197 222 255
197 222 255
197 222 255
197 222 255
197 222 255
196 222 255
196 222 255
196 222 255
196 222 255
196 222 255
196 222 255
196 222 255
196 222 255
196 222 255
196 222 255
196 222 255
196 222 255
196 222 255
196 222 255
196 222 255
196 221 255
195 221 255
195 221 255
195 221 255
195 221 255
195 221 255
195 221 255
195 221 255
195 221 255
195 221 255
195 221 255
195 221 255
195 221 255
195 221 255
195 221 255
195 221 255
195 221 255
195 221 255
195 221 255
195 221 255
195 221 255
195 221 255
194 221 255
194 221 255
194 221 255
194 221 255
194 221 255
194 221 255
194 221 255
194 221 255
194 221 255
194 221 255
194 221 255
194 221 255
194 221 255
194 221 255
194 221 255
194 221 255
194 221 255
194 221 255
194 221 255
194 221 255
194 221 255
194 221 255
194 221 255
194 221 255
194 221 255
194 221 255
194 221 255
194 221 255
194 221 255
194 221 255
194 221 255
194 221 255
194 221 255
194 221 255
194 221 255
194 221 255
194 221 255
194 221 255
194 221 255
194 221 255
194 221 255
194 221 255
194 221 255
194 221 255
194 221 255
194 221 255
194 221 255
194 221 255
194 221 255
194 221 255
194 221 255
194 221 255
194 221 255
194 221 255
194 221 255
194 221 255
194 221 255
194 221 255
194 221 255
194 221 255
194 221 255
194 221 255
194 221 255
194 221 255
194 221 255
194 221 255
194 221 255
194 221 255
194 221 255
194 221 255
195 221 255
195 221 255
195 221 255
195 221 255
195 221 255
195 221 255
195 221 255
195 221 255
195 221 255
195 221 255
195 221 255
195 221 255
195 221 255
195 221 255
195 221 255
195 221 255
195 221 255
195 221 255
195 221 255
195 221 255
195 221 255
196 221 255
196 222 255
196 222 255
196 222 255
196 222 255
196 222 255
196 222 255
196 222 255
196 222 255
196 222 255
196 222 255
196 222 255
196 222 255
196 222 255
196 222 255
196 222 255
197 222 255
197 222 255
197 222 255
197 222 255
197 222 255
197 222 255
197 222 255
197 222 255
197 222 255
197 222 255
197 222 255
197 222 255
197 222 255
197 222 255
197 222 255
198 223 255
198 223 255
198 223 255
198 223 255
198 223 255
198 223 255
198 223 255
198 223 255
198 223 255
198 223 255
198 223 255
198 223 255
198 223 255
198 223 255
198 223 255
199 223 255
199 223 255
199 223 255
199 223 255
199 223 255
199 223 255
199 223 255
199 223 255
199 223 255
199 223 255
199 223 255
199 223 255
199 224 255
199 224 255
200 224 255
200 224 255
200 224 255
200 224 255
200 224 255
200 224 255
200 224 255
200 224 255
200 224 255
200 224 255
200 224 255
200 224 255
200 224 255
200 224 255
201 224 255
201 224 255
201 224 255
201 224 255
201 224 255
201 224 255
201 224 255
201 224 255
201 224 255
201 224 255
201 225 255
201 225 255
201 225 255
201 225 255
201 225 255
202 225 255
202 225 255
202 225 255
202 225 255
202 225 255
202 225 255
202 225 255
202 225 255
202 225 255
202 225 255
202 225 255
202 225 255
202 225 255
202 225 255
202 225 255
202 225 255
203 225 255
203 225 255
203 225 255
203 225 255
203 225 255
203 225 255
203 225 255
203 225 255
203 225 255
203 226 255
203 226 255
203 226 255
203 226 255
203 226 255
203 226 255
203 226 255
204 226 255
204 226 255
204 226 255
204 226 255
204 226 255
204 226 255
204 226 255
204 226 255
204 226 255
204 226 255
204 226 255
204 226 255
204 226 255
204 226 255
204 226 255
204 226 255
204 226 255
204 226 255
205 226 255
205 226 255
205 226 255
205 226 255
205 226 255
205 226 255
205 226 255
205 226 255
205 226 255
205 226 255
205 226 255
205 226 255
205 226 255
204 226 255
204 226 255
204 226 255
204 226 255
204 226 255
204 226 255
204 226 255
204 226 255
204 226 255
204 226 255
204 226 255
204 226 255
204 226 255
204 226 255
204 226 255
204 226 255
204 226 255
203 226 255
203 226 255
203 226 255
203 226 255
203 226 255
203 226 255
203 226 255
203 226 255
203 225 255
203 225 255
203 225 255
203 225 255
203 225 255
203 225 255
203 225 255
203 225 255
203 225 255
202 225 255
202 225 255
202 225 255
202 225 255
202 225 255
202 225 255
202 225 255
202 225 255
202 225 255
202 225 255
202 225 255
202 225 255
202 225 255
202 225 255
202 225 255
201 225 255
201 225 255
201 225 255
201 225 255
201 225 255
201 224 255
201 224 255
201 224 255
201 224 255
201 224 255
201 224 255
201 224 255
201 224 255
201 224 255
201 224 255
200 224 255
200 224 255
200 224 255
200 224 255
200 224 255
200 224 255
200 224 255
200 224 255
200 224 255
200 224 255
200 224 255
200 224 255
200 224 255
200 224 255
199 224 255
199 224 255
199 224 255
199 223 255
199 223 255
199 223 255
199 223 255
199 223 255
199 223 255
199 223 255
199 223 255
199 223 255
199 223 255
199 223 255
198 223 255
198 223 255
198 223 255
198 223 255
198 223 255
198 223 255
198 223 255
198 223 255
198 223 255
198 223 255
198 223 255
198 223 255
198 223 255
198 223 255
198 223 255
197 222 255
197 222 255
197 222 255
197 222 255
197 222 255
197 222 255
197 222 255
197 222 255
197 222 255
197 222 255
197 222 255
197 222 255
197 222 255
197 222 255
197 222 255
196 222 255
196 222 255
196 222 255
196 222 255
196 222 255
196 222 255
196 222 255
196 222 255
196 222 255
196 222 255
196 222 255
196 222 255
196 222 255
196 222 255
196 222 255
196 221 255
196 221 255
195 221 255
195 221 255
195 221 255
195 221 255
195 221 255
195 221 255
195 221 255
195 221 255
195 221 255
195 221 255
195 221 255
195 221 255
195 221 255
195 221 255
195 221 255
195 221 255
195 221 255
195 221 255
195 221 255
195 221 255
195 221 255
195 221 255
194 221 255
194 221 255
194 221 255
194 221 255
194 221 255
194 221 255
194 221 255
194 221 255
194 221 255
194 221 255
194 221 255
194 221 255
194 221 255
194 221 255
194 221 255
194 221 255
194 221 255
194 221 255
194 221 255
194 221 255
194 221 255
194 221 255
194 221 255
194 221 255
194 221 255
194 221 255
194 221 255
194 221 255
194 221 255
194 221 255
194 221 255
194 221 255
194 221 255
194 221 255
194 221 255
194 221 255
194 221 255
194 221 255
194 221 255
194 221 255
194 221 255
194 221 255
194 221 255
194 221 255
194 221 255
194 221 255
194 221 255
194 221 255
194 221 255
194 221 255
194 221 255
194 221 255
194 221 255
194 221 255
194 221 255
194 221 255
194 221 255
194 221 255
194 221 255
194 221 255
194 221 255
194 221 255
195 221 255
195 221 255
195 221 255
195 221 255
195 221 255
195 221 255
195 221 255
195 221 255
195 221 255
195 221 255
195 221 255
195 221 255
195 221 255
195 221 255
195 221 255
195 221 255
195 221 255
195 221 255
195 221 255
195 221 255
195 221 255
195 221 255
196 221 255
196 222 255
196 222 255
196 222 255
196 222 255
196 222 255
196 222 255
196 222 255
196 222 255
196 222 255
196 222 255
196 222 255
196 222 255
196 222 255
196 222 255
196 222 255
196 222 255
197 222 255
197 222 255
197 222 255
197 222 255
197 222 255
197 222 255
197 222 255
197 222 255
197 222 255
197 222 255
197 222 255
197 222 255
197 222 255
197 222 255
197 222 255
198 223 255
198 223 255
198 223 255
198 223 255
198 223 255
198 223 255
198 223 255
198 223 255
198 223 255
198 223 255
198 223 255
198 223 255
198 223 255
198 223 255
198 223 255
199 223 255
199 223 255
199 223 255
199 223 255
199 223 255
199 223 255
199 223 255
199 223 255
199 223 255
199 223 255
199 223 255
199 223 255
199 224 255
199 224 255
200 224 255
200 224 255
200 224 255
200 224 255
200 224 255
200 224 255
200 224 255
200 224 255
200 224 255
200 224 255
200 224 255
200 224 255
200 224 255
200 224 255
201 224 255
201 224 255
201 224 255
201 224 255
201 224 255
201 224 255
201 224 255
201 224 255
201 224 255
201 224 255
201 225 255
201 225 255
201 225 255
201 225 255
201 225 255
202 225 255
202 225 255
202 225 255
202 225 255
202 225 255
202 225 255
202 225 255
202 225 255
202 225 255
202 225 255
202 225 255
202 225 255
202 225 255
202 225 255
202 225 255
203 225 255
203 225 255
203 225 255
203 225 255
203 225 255
203 225 255
203 225 255
203 225 255
203 225 255
203 225 255
203 226 255
203 226 255
203 226 255
203 226 255
203 226 255
203 226 255
203 226 255
204 226 255
204 226 255
204 226 255
204 226 255
204 226 255
204 226 255
204 226 255
204 226 255
204 226 255
204 226 255
204 226 255
204 226 255
204 226 255
204 226 255
204 226 255
204 226 255
204 226 255
205 226 255
205 226 255
205 226 255
205 226 255
205 226 255
205 226 255
205 226 255
205 226 255
205 227 255
205 227 255
205 227 255
205 226 255
205 226 255
205 226 255
205 226 255
205 226 255
205 226 255
205 226 255
204 226 255
204 226 255
204 226 255
204 226 255
204 226 255
204 226 255
204 226 255
204 226 255
204 226 255
204 226 255
204 226 255
204 226 255
204 226 255
204 226 255
204 226 255
204 226 255
204 226 255
204 226 255
203 226 255
203 226 255
203 226 255
203 226 255
203 226 255
203 226 255
203 226 255
203 225 255
203 225 255
203 225 255
203 225 255
203 225 255
203 225 255
203 225 255
203 225 255
203 225 255
202 225 255
202 225 255
202 225 255
202 225 255
202 225 255
202 225 255
202 225 255
202 225 255
202 225 255
202 225 255
202 225 255
202 225 255
202 225 255
202 225 255
202 225 255
201 225 255
201 225 255
201 225 255
201 225 255
201 225 255
201 224 255
201 224 255
201 224 255
201 224 255
201 224 255
201 224 255
201 224 255
201 224 255
201 224 255
201 224 255
200 224 255
200 224 255
200 224 255
200 224 255
200 224 255
200 224 255
200 224 255
200 224 255
200 224 255
200 224 255
200 224 255
200 224 255
200 224 255
200 224 255
199 224 255
199 224 255
199 224 255
199 223 255
199 223 255
199 223 255
199 223 255
199 223 255
199 223 255
199 223 255
199 223 255
199 223 255
199 223 255
199 223 255
199 223 255
198 223 255
198 223 255
198 223 255
198 223 255
198 223 255
198 223 255
198 223 255
198 223 255
198 223 255
198 223 255
198 223 255
198 223 255
198 223 255
198 223 255
197 222 255
197 222 255
197 222 255
197 222 255
197 222 255
197 222 255
197 222 255
197 222 255
197 222 255
197 222 255
197 222 255
197 222 255
197 222 255
197 222 255
197 222 255
196 222 255
196 222 255
196 222 255
196 222 255
196 222 255
196 222 255
196 222 255
196 222 255
196 222 255
196 222 255
196 222 255
196 222 255
196 222 255
196 222 255
196 222 255
196 222 255
196 221 255
196 221 255
195 221 255
195 221 255
195 221 255
195 221 255
195 221 255
195 221 255
195 221 255
195 221 255
195 221 255
195 221 255
195 221 255
195 221 255
195 221 255
195 221 255
195 221 255
195 221 255
195 221 255
195 221 255
195 221 255
195 221 255
195 221 255
195 221 255
195 221 255
195 221 255
194 221 255
194 221 255
194 221 255
194 221 255
194 221 255
194 221 255
194 221 255
194 221 255
194 221 255
194 221 255
194 221 255
194 221 255
194 221 255
194 221 255
194 221 255
194 221 255
194 221 255
194 221 255
194 221 255
194 221 255
194 221 255
194 221 255
194 221 255
194 221 255
194 221 255
194 221 255
194 221 255
194 221 255
194 221 255
194 221 255
194 221 255
194 221 255
194 221 255
194 221 255
194 221 255
194 221 255
194 221 255
194 221 255
194 221 255
194 221 255
194 221 255
194 221 255
194 221 255
194 221 255
194 221 255
194 221 255
194 221 255
194 221 255
194 221 255
194 221 255
194 221 255
194 221 255
195 221 255
195 221 255
195 221 255
195 221 255
195 221 255
195 221 255
195 221 255
195 221 255
195 221 255
195 221 255
195 221 255
195 221 255
195 221 255
195 221 255
195 221 255
195 221 255
195 221 255
195 221 255
195 221 255
195 221 255
195 221 255
195 221 255
195 221 255
195 221 255
196 221 255
196 221 255
196 222 255
196 222 255
196 222 255
196 222 255
196 222 255
196 222 255
196 222 255
196 222 255
196 222 255
196 222 255
196 222 255
196 222 255
196 222 255
196 222 255
196 222 255
196 222 255
197 222 255
197 222 255
197 222 255
197 222 255
197 222 255
197 222 255
197 222 255
197 222 255
197 222 255
197 222 255
197 222 255
197 222 255
197 222 255
197 222 255
197 223 255
198 223 255
198 223 255
198 223 255
198 223 255
198 223 255
198 223 255
198 223 255
198 223 255
198 223 255
198 223 255
198 223 255
198 223 255
198 223 255
198 223 255
199 223 255
199 223 255
199 223 255
199 223 255
199 223 255
199 223 255
199 223 255
199 223 255
199 223 255
199 223 255
199 223 255
199 223 255
199 224 255
199 224 255
199 224 255
200 224 255
200 224 255
200 224 255
200 224 255
200 224 255
200 224 255
200 224 255
200 224 255
200 224 255
200 224 255
200 224 255
200 224 255
200 224 255
200 224 255
201 224 255
201 224 255
201 224 255
201 224 255
201 224 255
201 224 255
201 224 255
201 224 255
201 224 255
201 224 255
201 225 255
201 225 255
201 225 255
201 225 255
201 225 255
202 225 255
202 225 255
202 225 255
202 225 255
202 225 255
202 225 255
202 225 255
202 225 255
202 225 255
202 225 255
202 225 255
202 225 255
202 225 255
202 225 255
202 225 255
203 225 255
203 225 255
203 225 255
203 225 255
203 225 255
203 225 255
203 225 255
203 225 255
203 225 255
203 226 255
203 226 255
203 226 255
203 226 255
203 226 255
203 226 255
203 226 255
203 226 255
204 226 255
204 226 255
204 226 255
204 226 255
204 226 255
204 226 255
204 226 255
204 226 255
204 226 255
204 226 255
204 226 255
204 226 255
204 226 255
204 226 255
204 226 255
204 226 255
204 226 255
205 226 255
205 226 255
205 226 255
205 226 255
205 226 255
205 226 255
205 226 255
205 227 255
205 227 255
205 227 255
205 227 255
205 227 255
205 227 255
205 227 255
205 227 255
205 226 255
205 226 255
205 226 255
205 226 255
205 226 255
205 226 255
205 226 255
204 226 255
204 226 255
204 226 255
204 226 255
204 226 255
204 226 255
204 226 255
204 226 255
204 226 255
204 226 255
204 226 255
204 226 255
204 226 255
204 226 255
204 226 255
204 226 255
204 226 255
204 226 255
203 226 255
203 226 255
203 226 255
203 226 255
203 226 255
203 226 255
203 226 255
203 225 255
203 225 255
203 225 255
203 225 255
203 225 255
203 225 255
203 225 255
203 225 255
203 225 255
202 225 255
202 225 255
202 225 255
202 225 255
202 225 255
202 225 255
202 225 255
202 225 255
202 225 255
202 225 255
202 225 255
202 225 255
202 225 255
202 225 255
202 225 255
202 225 255
201 225 255
201 225 255
201 225 255
201 225 255
201 224 255
201 224 255
201 224 255
201 224 255
201 224 255
201 224 255
201 224 255
201 224 255
201 224 255
201 224 255
200 224 255
200 224 255
200 224 255
200 224 255
200 224 255
200 224 255
200 224 255
200 224 255
200 224 255
200 224 255
200 224 255
200 224 255
200 224 255
200 224 255
200 224 255
199 224 255
199 224 255
199 223 255
199 223 255
199 223 255
199 223 255
199 223 255
199 223 255
199 223 255
199 223 255
199 223 255
199 223 255
199 223 255
199 223 255
198 223 255
198 223 255
198 223 255
198 223 255
198 223 255
198 223 255
198 223 255
198 223 255
198 223 255
198 223 255
198 223 255
198 223 255
198 223 255
198 223 255
197 223 255
197 222 255
197 222 255
197 222 255
197 222 255
197 222 255
197 222 255
197 222 255
197 222 255
197 222 255
197 222 255
197 222 255
197 222 255
197 222 255
197 222 255
197 222 255
196 222 255
196 222 255
196 222 255
196 222 255
196 222 255
196 222 255
196 222 255
196 222 255
196 222 255
196 222 255
196 222 255
196 222 255
196 222 255
196 222 255
196 222 255
196 222 255
196 221 255
196 221 255
195 221 255
195 221 255
195 221 255
195 221 255
195 221 255
195 221 255
195 221 255
195 221 255
195 221 255
195 221 255
195 221 255
195 221 255
195 221 255
195 221 255
195 221 255
195 221 255
195 221 255
195 221 255
195 221 255
195 221 255
195 221 255
195 221 255
195 221 255
195 221 255
195 221 255
195 221 255
194 221 255
194 221 255
194 221 255
194 221 255
194 221 255
194 221 255
194 221 255
194 221 255
194 221 255
194 221 255
194 221 255
194 221 255
194 221 255
194 221 255
194 221 255
194 221 255
194 221 255
194 221 255
194 221 255
194 221 255
194 221 255
194 221 255
194 221 255
194 221 255
194 221 255
194 221 255
194 221 255
194 221 255
194 221 255
194 221 255
194 221 255
194 221 255
194 221 255
194 221 255
194 221 255
194 221 255
194 221 255
194 221 255
194 221 255
194 221 255
194 221 255
194 221 255
195 221 255
195 221 255
195 221 255
195 221 255
195 221 255
195 221 255
195 221 255
195 221 255
195 221 255
195 221 255
195 221 255
195 221 255
195 221 255
195 221 255
195 221 255
195 221 255
195 221 255
195 221 255
195 221 255
195 221 255
195 221 255
195 221 255
195 221 255
195 221 255
195 221 255
195 221 255
196 221 255
196 221 255
196 222 255
196 222 255
196 222 255
196 222 255
196 222 255
196 222 255
196 222 255
196 222 255
196 222 255
196 222 255
196 222 255
196 222 255
196 222 255
196 222 255
196 222 255
196 222 255
197 222 255
197 222 255
197 222 255
197 222 255
197 222 255
197 222 255
197 222 255
197 222 255
197 222 255
197 222 255
197 222 255
197 222 255
197 222 255
197 222 255
197 222 255
197 223 255
198 223 255
198 223 255
198 223 255
198 223 255
198 223 255
198 223 255
198 223 255
198 223 255
198 223 255
198 223 255
198 223 255
198 223 255
198 223 255
198 223 255
199 223 255
199 223 255
199 223 255
199 223 255
199 223 255
199 223 255
199 223 255
199 223 255
199 223 255
199 223 255
199 223 255
199 223 255
199 224 255
199 224 255
199 224 255
200 224 255
200 224 255
200 224 255
200 224 255
200 224 255
200 224 255
200 224 255
200 224 255
200 224 255
200 224 255
200 224 255
200 224 255
200 224 255
200 224 255
201 224 255
201 224 255
201 224 255
201 224 255
201 224 255
201 224 255
201 224 255
201 224 255
201 224 255
201 224 255
201 225 255
201 225 255
201 225 255
201 225 255
201 225 255
202 225 255
202 225 255
202 225 255
202 225 255
202 225 255
202 225 255
202 225 255
202 225 255
202 225 255
202 225 255
202 225 255
202 225 255
202 225 255
202 225 255
202 225 255
203 225 255
203 225 255
203 225 255
203 225 255
203 225 255
203 225 255
203 225 255
203 225 255
203 225 255
203 226 255
203 226 255
203 226 255
203 226 255
203 226 255
203 226 255
203 226 255
204 226 255
204 226 255
204 226 255
204 226 255
204 226 255
204 226 255
204 226 255
204 226 255
204 226 255
204 226 255
204 226 255
204 226 255
204 226 255
204 226 255
204 226 255
204 226 255
204 226 255
205 226 255
205 226 255
205 226 255
205 226 255
205 226 255
205 226 255
205 226 255
205 226 255
205 227 255
205 227 255
205 227 255
205 227 255
205 227 255
205 227 255
205 227 255
205 227 255
205 227 255
205 227 255
205 227 255
205 227 255
205 227 255
205 226 255
205 226 255
205 226 255
205 226 255
205 226 255
205 226 255
205 226 255
204 226 255
204 226 255
204 226 255
204 226 255
204 226 255
204 226 255
204 226 255
204 226 255
204 226 255
204 226 255
204 226 255
204 226 255
204 226 255
204 226 255
204 226 255
204 226 255
204 226 255
203 226 255
203 226 255
203 226 255
203 226 255
203 226 255
203 226 255
203 226 255
203 225 255
203 225 255
203 225 255
203 225 255
203 225 255
203 225 255
203 225 255
203 225 255
203 225 255
202 225 255
202 225 255
202 225 255
202 225 255
202 225 255
202 225 255
202 225 255
202 225 255
202 225 255
202 225 255
202 225 255
202 225 255
202 225 255
202 225 255
202 225 255
202 225 255
201 225 255
201 225 255
201 225 255
201 225 255
201 224 255
201 224 255
201 224 255
201 224 255
201 224 255
201 224 255
201 224 255
201 224 255
201 224 255
201 224 255
200 224 255
200 224 255
200 224 255
200 224 255
200 224 255
200 224 255
200 224 255
200 224 255
200 224 255
200 224 255
200 224 255
200 224 255
200 224 255
200 224 255
200 224 255
199 224 255
199 224 255
199 223 255
199 223 255
199 223 255
199 223 255
199 223 255
199 223 255
199 223 255
199 223 255
199 223 255
199 223 255
199 223 255
199 223 255
198 223 255
198 223 255
198 223 255
198 223 255
198 223 255
198 223 255
198 223 255
198 223 255
198 223 255
198 223 255
198 223 255
198 223 255
198 223 255
198 223 255
198 223 255
197 222 255
197 222 255
197 222 255
197 222 255
197 222 255
197 222 255
197 222 255
197 222 255
197 222 255
197 222 255
197 222 255
197 222 255
197 222 255
197 222 255
197 222 255
196 222 255
196 222 255
196 222 255
196 222 255
196 222 255
196 222 255
196 222 255
196 222 255
196 222 255
196 222 255
196 222 255
196 222 255
196 222 255
196 222 255
196 222 255
196 222 255
196 222 255
196 221 255
196 221 255
195 221 255
195 221 255
195 221 255
195 221 255
195 221 255
195 221 255
195 221 255
195 221 255
195 221 255
195 221 255
195 221 255
195 221 255
195 221 255
195 221 255
195 221 255
195 221 255
195 221 255
195 221 255
195 221 255
195 221 255
195 221 255
195 221 255
195 221 255
195 221 255
195 221 255
195 221 255
195 221 255
195 221 255
195 221 255
194 221 255
194 221 255
194 221 255
194 221 255
194 221 255
194 221 255
194 221 255
194 221 255
194 221 255
194 221 255
194 221 255
194 221 255
194 221 255
194 221 255
194 221 255
194 221 255
194 221 255
194 221 255
194 221 255
194 221 255
194 221 255
194 221 255
194 221 255
194 221 255
194 221 255
194 221 255
194 221 255
194 221 255
194 221 255
195 221 255
195 221 255
195 221 255
195 221 255
195 221 255
195 221 255
195 221 255
195 221 255
195 221 255
195 221 255
195 221 255
195 221 255
195 221 255
195 221 255
195 221 255
195 221 255
195 221 255
195 221 255
195 221 255
195 221 255
195 221 255
195 221 255
195 221 255
195 221 255
195 221 255
195 221 255
195 221 255
195 221 255
195 221 255
195 221 255
196 221 255
196 221 255
196 222 255
196 222 255
196 222 255
196 222 255
196 222 255
196 222 255
196 222 255
196 222 255
196 222 255
196 222 255
196 222 255
196 222 255
196 222 255
196 222 255
196 222 255
196 222 255
196 222 255
197 222 255
197 222 255
197 222 255
197 222 255
197 222 255
197 222 255
197 222 255
197 222 255
197 222 255
197 222 255
197 222 255
197 222 255
197 222 255
197 222 255
197 222 255
198 223 255
198 223 255
198 223 255
198 223 255
198 223 255
198 223 255
198 223 255
198 223 255
198 223 255
198 223 255
198 223 255
198 223 255
198 223 255
198 223 255
198 223 255
199 223 255
199 223 255
199 223 255
199 223 255
199 223 255
199 223 255
199 223 255
199 223 255
199 223 255
199 223 255
199 223 255
199 223 255
199 224 255
199 224 255
200 224 255
200 224 255
200 224 255
200 224 255
200 224 255
200 224 255
200 224 255
200 224 255
200 224 255
200 224 255
200 224 255
200 224 255
200 224 255
200 224 255
200 224 255
201 224 255
201 224 255
201 224 255
201 224 255
201 224 255
201 224 255
201 224 255
201 224 255
201 224 255
201 224 255
201 225 255
201 225 255
201 225 255
201 225 255
202 225 255
202 225 255
202 225 255
202 225 255
202 225 255
202 225 255
202 225 255
202 225 255
202 225 255
202 225 255
202 225 255
202 225 255
202 225 255
202 225 255
202 225 255
202 225 255
203 225 255
203 225 255
203 225 255
203 225 255
203 225 255
203 225 255
203 225 255
203 225 255
203 225 255
203 226 255
203 226 255
203 226 255
203 226 255
203 226 255
203 226 255
203 226 255
204 226 255
204 226 255
204 226 255
204 226 255
204 226 255
204 226 255
204 226 255
204 226 255
204 226 255
204 226 255
204 226 255
204 226 255
204 226 255
204 226 255
204 226 255
204 226 255
204 226 255
205 226 255
205 226 255
205 226 255
205 226 255
205 226 255
205 226 255
205 226 255
205 227 255
205 227 255
205 227 255
205 227 255
205 227 255
205 227 255
205 227 255
205 227 255
205 227 255
205 227 255
205 227 255
205 227 255
205 227 255
205 227 255
205 227 255
205 227 255
205 227 255
205 227 255
205 226 255
205 226 255
205 226 255
205 226 255
205 226 255
205 226 255
205 226 255
204 226 255
204 226 255
204 226 255
204 226 255
204 226 255
204 226 255
204 226 255
204 226 255
204 226 255
204 226 255
204 226 255
204 226 255
204 226 255
204 226 255
204 226 255
204 226 255
204 226 255
203 226 255
203 226 255
203 226 255
203 226 255
203 226 255
203 226 255
203 226 255
203 226 255
203 225 255
203 225 255
203 225 255
203 225 255
203 225 255
203 225 255
203 225 255
203 225 255
202 225 255
202 225 255
202 225 255
202 225 255
202 225 255
202 225 255
202 225 255
202 225 255
202 225 255
202 225 255
202 225 255
202 225 255
202 225 255
202 225 255
202 225 255
202 225 255
201 225 255
201 225 255
201 225 255
201 225 255
201 224 255
201 224 255
201 224 255
201 224 255
201 224 255
201 224 255
201 224 255
201 224 255
201 224 255
201 224 255
200 224 255
200 224 255
200 224 255
200 224 255
200 224 255
200 224 255
200 224 255
200 224 255
200 224 255
200 224 255
200 224 255
200 224 255
200 224 255
200 224 255
200 224 255
199 224 255
199 224 255
199 223 255
199 223 255
199 223 255
199 223 255
199 223 255
199 223 255
199 223 255
199 223 255
199 223 255
199 223 255
199 223 255
199 223 255
198 223 255
198 223 255
198 223 255
198 223 255
198 223 255
198 223 255
198 223 255
198 223 255
198 223 255
198 223 255
198 223 255
198 223 255
198 223 255
198 223 255
198 223 255
197 222 255
197 222 255
197 222 255
197 222 255
197 222 255
197 222 255
197 222 255
197 222 255
197 222 255
197 222 255
197 222 255
197 222 255
197 222 255
197 222 255
197 222 255
197 222 255
196 222 255
196 222 255
196 222 255
196 222 255
196 222 255
196 222 255
196 222 255
196 222 255
196 222 255
196 222 255
196 222 255
196 222 255
196 222 255
196 222 255
196 222 255
196 222 255
196 222 255
196 221 255
196 221 255
195 221 255
195 221 255
195 221 255
195 221 255
195 221 255
195 221 255
195 221 255
195 221 255
195 221 255
195 221 255
195 221 255
195 221 255
195 221 255
195 221 255
195 221 255
195 221 255
195 221 255
195 221 255
195 221 255
195 221 255
195 221 255
195 221 255
195 221 255
195 221 255
195 221 255
195 221 255
195 221 255
195 221 255
195 221 255
195 221 255
195 221 255
195 221 255
195 221 255
195 221 255
195 221 255
195 221 255
195 221 255
195 221 255
195 221 255
195 221 255
195 221 255
195 221 255
195 221 255
195 221 255
195 221 255
195 221 255
195 221 255
195 221 255
195 221 255
195 221 255
195 221 255
195 221 255
195 221 255
195 221 255
195 221 255
195 221 255
195 221 255
195 221 255
195 221 255
195 221 255
195 221 255
195 221 255
195 221 255
195 221 255
195 221 255
195 221 255
195 221 255
195 221 255
195 221 255
195 221 255
195 221 255
195 221 255
195 221 255
195 221 255
195 221 255
195 221 255
195 221 255
195 221 255
195 221 255
195 221 255
195 221 255
195 221 255
196 221 255
196 221 255
196 222 255
196 222 255
196 222 255
196 222 255
196 222 255
196 222 255
196 222 255
196 222 255
196 222 255
196 222 255
196 222 255
196 222 255
196 222 255
196 222 255
196 222 255
196 222 255
196 222 255
197 222 255
197 222 255
197 222 255
197 222 255
197 222 255
197 222 255
197 222 255
197 222 255
197 222 255
197 222 255
197 222 255
197 222 255
197 222 255
197 222 255
197 222 255
197 222 255
198 223 255
198 223 255
198 223 255
198 223 255
198 223 255
198 223 255
198 223 255
198 223 255
198 223 255
198 223 255
198 223 255
198 223 255
198 223 255
198 223 255
198 223 255
199 223 255
199 223 255
199 223 255
199 223 255
199 223 255
199 223 255
199 223 255
199 223 255
199 223 255
199 223 255
199 223 255
199 223 255
199 224 255
199 224 255
200 224 255
200 224 255
200 224 255
200 224 255
200 224 255
200 224 255
200 224 255
200 224 255
200 224 255
200 224 255
200 224 255
200 224 255
200 224 255
200 224 255
200 224 255
201 224 255
201 224 255
201 224 255
201 224 255
201 224 255
201 224 255
201 224 255
201 224 255
201 224 255
201 224 255
201 225 255
201 225 255
201 225 255
201 225 255
202 225 255
202 225 255
202 225 255
202 225 255
202 225 255
202 225 255
202 225 255
202 225 255
202 225 255
202 225 255
202 225 255
202 225 255
202 225 255
202 225 255
202 225 255
203 225 255
203 225 255
203 225 255
203 225 255
203 225 255
203 225 255
203 225 255
203 225 255
203 225 255
203 226 255
203 226 255
203 226 255
203 226 255
203 226 255
203 226 255
203 226 255
203 226 255
204 226 255
204 226 255
204 226 255
204 226 255
204 226 255
204 226 255
204 226 255
204 226 255
204 226 255
204 226 255
204 226 255
204 226 255
204 226 255
204 226 255
204 226 255
204 226 255
204 226 255
205 226 255
205 226 255
205 226 255
205 226 255
205 226 255
205 226 255
205 226 255
205 227 255
205 227 255
205 227 255
205 227 255
205 227 255
205 227 255
205 227 255
205 227 255
205 227 255
205 227 255
206 227 255
205 227 255
205 227 255
205 227 255
205 227 255
205 227 255
205 227 255
205 227 255
205 227 255
205 227 255
205 227 255
205 227 255
205 226 255
205 226 255
205 226 255
205 226 255
205 226 255
205 226 255
205 226 255
205 226 255
204 226 255
204 226 255
204 226 255
204 226 255
204 226 255
204 226 255
204 226 255
204 226 255
204 226 255
204 226 255
204 226 255
204 226 255
204 226 255
204 226 255
204 226 255
204 226 255
204 226 255
203 226 255
203 226 255
203 226 255
203 226 255
203 226 255
203 226 255
203 226 255
203 225 255
203 225 255
203 225 255
203 225 255
203 225 255
203 225 255
203 225 255
203 225 255
203 225 255
202 225 255
202 225 255
202 225 255
202 225 255
202 225 255
202 225 255
202 225 255
202 225 255
202 225 255
202 225 255
202 225 255
202 225 255
202 225 255
202 225 255
202 225 255
201 225 255
201 225 255
201 225 255
201 225 255
201 224 255
201 224 255
201 224 255
201 224 255
201 224 255
201 224 255
201 224 255
201 224 255
201 224 255
201 224 255
201 224 255
200 224 255
200 224 255
200 224 255
200 224 255
200 224 255
200 224 255
200 224 255
200 224 255
200 224 255
200 224 255
200 224 255
200 224 255
200 224 255
200 224 255
199 224 255
199 224 255
199 223 255
199 223 255
199 223 255
199 223 255
199 223 255
199 223 255
199 223 255
199 223 255
199 223 255
199 223 255
199 223 255
199 223 255
198 223 255
198 223 255
198 223 255
198 223 255
198 223 255
198 223 255
198 223 255
198 223 255
198 223 255
198 223 255
198 223 255
198 223 255
198 223 255
198 223 255
198 223 255
197 223 255
197 222 255
197 222 255
197 222 255
197 222 255
197 222 255
197 222 255
197 222 255
197 222 255
197 222 255
197 222 255
197 222 255
197 222 255
197 222 255
197 222 255
197 222 255
196 222 255
196 222 255
196 222 255
196 222 255
196 222 255
196 222 255
196 222 255
196 222 255
196 222 255
196 222 255
196 222 255
196 222 255
196 222 255
196 222 255
196 222 255
196 222 255
196 222 255
196 222 255
196 221 255
196 221 255
195 221 255
195 221 255
195 221 255
195 221 255
195 221 255
195 221 255
195 221 255
195 221 255
195 221 255
195 221 255
195 221 255
195 221 255
195 221 255
195 221 255
195 221 255
195 221 255
195 221 255
195 221 255
195 221 255
195 221 255
195 221 255
195 221 255
195 221 255
195 221 255
195 221 255
195 221 255
195 221 255
195 221 255
195 221 255
195 221 255
195 221 255
195 221 255
195 221 255
195 221 255
195 221 255
195 221 255
195 221 255
195 221 255
195 221 255
195 221 255
195 221 255
195 221 255
195 221 255
195 221 255
195 221 255
195 221 255
195 221 255
195 221 255
195 221 255
195 221 255
195 221 255
195 221 255
195 221 255
195 221 255
195 221 255
195 221 255
195 221 255
195 221 255
195 221 255
195 221 255
195 221 255
195 221 255
195 221 255
195 221 255
195 221 255
195 221 255
195 221 255
195 221 255
195 221 255
195 221 255
195 221 255
195 221 255
195 221 255
195 221 255
195 221 255
195 221 255
196 221 255
196 221 255
196 222 255
196 222 255
196 222 255
196 222 255
196 222 255
196 222 255
196 222 255
196 222 255
196 222 255
196 222 255
196 222 255
196 222 255
196 222 255
196 222 255
196 222 255
196 222 255
196 222 255
197 222 255
197 222 255
197 222 255
197 222 255
197 222 255
197 222 255
197 222 255
197 222 255
197 222 255
197 222 255
197 222 255
197 222 255
197 222 255
197 222 255
197 222 255
197 222 255
197 223 255
198 223 255
198 223 255
198 223 255
198 223 255
198 223 255
198 223 255
198 223 255
198 223 255
198 223 255
198 223 255
198 223 255
198 223 255
198 223 255
198 223 255
198 223 255
199 223 255
199 223 255
199 223 255
199 223 255
199 223 255
199 223 255
199 223 255
199 223 255
199 223 255
199 223 255
199 223 255
199 223 255
199 224 255
199 224 255
200 224 255
200 224 255
200 224 255
200 224 255
200 224 255
200 224 255
200 224 255
200 224 255
200 224 255
200 224 255
200 224 255
200 224 255
200 224 255
200 224 255
201 224 255
201 224 255
201 224 255
201 224 255
201 224 255
201 224 255
201 224 255
201 224 255
201 224 255
201 224 255
201 224 255
201 225 255
201 225 255
201 225 255
201 225 255
202 225 255
202 225 255
202 225 255
202 225 255
202 225 255
202 225 255
202 225 255
202 225 255
202 225 255
202 225 255
202 225 255
202 225 255
202 225 255
202 225 255
202 225 255
203 225 255
203 225 255
203 225 255
203 225 255
203 225 255
203 225 255
203 225 255
203 225 255
203 225 255
203 226 255
203 226 255
203 226 255
203 226 255
203 226 255
203 226 255
203 226 255
204 226 255
204 226 255
204 226 255
204 226 255
204 226 255
204 226 255
204 226 255
204 226 255
204 226 255
204 226 255
204 226 255
204 226 255
204 226 255
204 226 255
204 226 255
204 226 255
204 226 255
205 226 255
205 226 255
205 226 255
205 226 255
205 226 255
205 226 255
205 226 255
205 227 255
205 227 255
205 227 255
205 227 255
205 227 255
205 227 255
205 227 255
205 227 255
205 227 255
205 227 255
205 227 255
205 227 255
206 227 255
206 227 255
206 227 255
206 227 255
206 227 255
205 227 255
205 227 255
205 227 255
205 227 255
205 227 255
205 227 255
205 227 255
205 227 255
205 227 255
205 227 255
205 227 255
205 226 255
205 226 255
205 226 255
205 226 255
205 226 255
205 226 255
205 226 255
204 226 255
204 226 255
204 226 255
204 226 255
204 226 255
204 226 255
204 226 255
204 226 255
204 226 255
204 226 255
204 226 255
204 226 255
204 226 255
204 226 255
204 226 255
204 226 255
204 226 255
203 226 255
203 226 255
203 226 255
203 226 255
203 226 255
203 226 255
203 226 255
203 225 255
203 225 255
203 225 255
203 225 255
203 225 255
203 225 255
203 225 255
203 225 255
203 225 255
202 225 255
202 225 255
202 225 255
202 225 255
202 225 255
202 225 255
202 225 255
202 225 255
202 225 255
202 225 255
202 225 255
202 225 255
202 225 255
202 225 255
202 225 255
201 225 255
201 225 255
201 225 255
201 225 255
201 225 255
201 224 255
201 224 255
201 224 255
201 224 255
201 224 255
201 224 255
201 224 255
201 224 255
201 224 255
201 224 255
200 224 255
200 224 255
200 224 255
200 224 255
200 224 255
200 224 255
200 224 255
200 224 255
200 224 255
200 224 255
200 224 255
200 224 255
200 224 255
200 224 255
199 224 255
199 224 255
199 223 255
199 223 255
199 223 255
199 223 255
199 223 255
199 223 255
199 223 255
199 223 255
199 223 255
199 223 255
199 223 255
199 223 255
199 223 255
198 223 255
198 223 255
198 223 255
198 223 255
198 223 255
198 223 255
198 223 255
198 223 255
198 223 255
198 223 255
198 223 255
198 223 255
198 223 255
198 223 255
198 223 255
197 222 255
197 222 255
197 222 255
197 222 255
197 222 255
197 222 255
197 222 255
197 222 255
197 222 255
197 222 255
197 222 255
197 222 255
197 222 255
197 222 255
197 222 255
197 222 255
196 222 255
196 222 255
196 222 255
196 222 255
196 222 255
196 222 255
196 222 255
196 222 255
196 222 255
196 222 255
196 222 255
196 222 255
196 222 255
196 222 255
196 222 255
196 222 255
196 222 255
196 222 255
196 222 255
196 221 255
196 221 255
195 221 255
195 221 255
195 221 255
195 221 255
195 221 255
195 221 255
195 221 255
195 221 255
195 221 255
195 221 255
195 221 255
195 221 255
195 221 255
195 221 255
195 221 255
195 221 255
195 221 255
195 221 255
195 221 255
195 221 255
195 221 255
195 221 255
195 221 255
195 221 255
195 221 255
195 221 255
195 221 255
195 221 255
195 221 255
195 221 255
195 221 255
195 221 255
195 221 255
195 221 255
195 221 255
195 221 255
195 221 255
195 221 255
195 221 255
195 221 255
195 221 255
195 221 255
195 221 255
195 221 255
195 221 255
195 221 255
195 221 255
195 221 255
195 221 255
195 221 255
195 221 255
195 221 255
195 221 255
195 221 255
195 221 255
195 221 255
195 221 255
195 221 255
195 221 255
195 221 255
195 221 255
195 221 255
195 221 255
195 221 255
195 221 255
195 221 255
195 221 255
195 221 255
196 221 255
196 221 255
196 222 255
196 222 255
196 222 255
196 222 255
196 222 255
196 222 255
196 222 255
196 222 255
196 222 255
196 222 255
196 222 255
196 222 255
196 222 255
196 222 255
196 222 255
196 222 255
196 222 255
196 222 255
196 222 255
197 222 255
197 222 255
197 222 255
197 222 255
197 222 255
197 222 255
197 222 255
197 222 255
197 222 255
197 222 255
197 222 255
197 222 255
197 222 255
197 222 255
197 222 255
197 222 255
198 223 255
198 223 255
198 223 255
198 223 255
198 223 255
198 223 255
198 223 255
198 223 255
198 223 255
198 223 255
198 223 255
198 223 255
198 223 255
198 223 255
198 223 255
199 223 255
199 223 255
199 223 255
199 223 255
199 223 255
199 223 255
199 223 255
199 223 255
199 223 255
199 223 255
199 223 255
199 223 255
199 223 255
199 224 255
199 224 255
200 224 255
200 224 255
200 224 255
200 224 255
200 224 255
200 224 255
200 224 255
200 224 255
200 224 255
200 224 255
200 224 255
200 224 255
200 224 255
200 224 255
201 224 255
201 224 255
201 224 255
201 224 255
201 224 255
201 224 255
201 224 255
201 224 255
201 224 255
201 224 255
201 225 255
201 225 255
201 225 255
201 225 255
201 225 255
202 225 255
202 225 255
202 225 255
202 225 255
202 225 255
202 225 255
202 225 255
202 225 255
202 225 255
202 225 255
202 225 255
202 225 255
202 225 255
202 225 255
202 225 255
203 225 255
203 225 255
203 225 255
203 225 255
203 225 255
203 225 255
203 225 255
203 225 255
203 225 255
203 226 255
203 226 255
203 226 255
203 226 255
203 226 255
203 226 255
203 226 255
204 226 255
204 226 255
204 226 255
204 226 255
204 226 255
204 226 255
204 226 255
204 226 255
204 226 255
204 226 255
204 226 255
204 226 255
204 226 255
204 226 255
204 226 255
204 226 255
204 226 255
205 226 255
205 226 255
205 226 255
205 226 255
205 226 255
205 226 255
205 226 255
205 227 255
205 227 255
205 227 255
205 227 255
205 227 255
205 227 255
205 227 255
205 227 255
205 227 255
205 227 255
205 227 255
206 227 255
206 227 255
206 227 255
206 227 255
206 227 255
206 227 255
206 227 255
206 227 255
206 227 255
206 227 255
205 227 255
205 227 255
205 227 255
205 227 255
205 227 255
205 227 255
205 227 255
205 227 255
205 227 255
205 227 255
205 227 255
205 227 255
205 226 255
205 226 255
205 226 255
205 226 255
205 226 255
205 226 255
205 226 255
204 226 255
204 226 255
204 226 255
204 226 255
204 226 255
204 226 255
204 226 255
204 226 255
204 226 255
204 226 255
204 226 255
204 226 255
204 226 255
204 226 255
204 226 255
204 226 255
204 226 255
203 226 255
203 226 255
203 226 255
203 226 255
203 226 255
203 226 255
203 226 255
203 225 255
203 225 255
203 225 255
203 225 255
203 225 255
203 225 255
203 225 255
203 225 255
202 225 255
202 225 255
202 225 255
202 225 255
202 225 255
202 225 255
202 225 255
202 225 255
202 225 255
202 225 255
202 225 255
202 225 255
202 225 255
202 225 255
202 225 255
202 225 255
201 225 255
201 225 255
201 225 255
201 225 255
201 224 255
201 224 255
201 224 255
201 224 255
201 224 255
201 224 255
201 224 255
201 224 255
201 224 255
201 224 255
200 224 255
200 224 255
200 224 255
200 224 255
200 224 255
200 224 255
200 224 255
200 224 255
200 224 255
200 224 255
200 224 255
200 224 255
200 224 255
200 224 255
199 224 255
199 224 255
199 224 255
199 223 255
199 223 255
199 223 255
199 223 255
199 223 255
199 223 255
199 223 255
199 223 255
199 223 255
199 223 255
199 223 255
199 223 255
198 223 255
198 223 255
198 223 255
198 223 255
198 223 255
198 223 255
198 223 255
198 223 255
198 223 255
198 223 255
198 223 255
198 223 255
198 223 255
198 223 255
198 223 255
197 223 255
197 222 255
197 222 255
197 222 255
197 222 255
197 222 255
197 222 255
197 222 255
197 222 255
197 222 255
197 222 255
197 222 255
197 222 255
197 222 255
197 222 255
197 222 255
197 222 255
196 222 255
196 222 255
196 222 255
196 222 255
196 222 255
196 222 255
196 222 255
196 222 255
196 222 255
196 222 255
196 222 255
196 222 255
196 222 255
196 222 255
196 222 255
196 222 255
196 222 255
196 222 255
196 222 255
196 222 255
196 221 255
196 221 255
195 221 255
195 221 255
195 221 255
195 221 255
195 221 255
195 221 255
195 221 255
195 221 255
195 221 255
195 221 255
195 221 255
195 221 255
195 221 255
195 221 255
195 221 255
195 221 255
195 221 255
195 221 255
195 221 255
195 221 255
195 221 255
195 221 255
195 221 255
195 221 255
195 221 255
195 221 255
195 221 255
195 221 255
195 221 255
195 221 255
195 221 255
195 221 255
195 221 255
195 221 255
195 221 255
195 221 255
195 221 255
195 221 255
195 221 255
195 221 255
195 221 255
195 221 255
195 221 255
195 221 255
195 221 255
195 221 255
195 221 255
195 221 255
195 221 255
195 221 255
195 221 255
195 221 255
195 221 255
195 221 255
195 221 255
195 221 255
195 221 255
195 221 255
195 221 255
195 221 255
196 221 255
196 221 255
196 222 255
196 222 255
196 222 255
196 222 255
196 222 255
196 222 255
196 222 255
196 222 255
196 222 255
196 222 255
196 222 255
196 222 255
196 222 255
196 222 255
196 222 255
196 222 255
196 222 255
196 222 255
196 222 255
196 222 255
197 222 255
197 222 255
197 222 255
197 222 255
197 222 255
197 222 255
197 222 255
197 222 255
197 222 255
197 222 255
197 222 255
197 222 255
197 222 255
197 222 255
197 222 255
197 222 255
197 222 255
198 223 255
198 223 255
198 223 255
198 223 255
198 223 255
198 223 255
198 223 255
198 223 255
198 223 255
198 223 255
198 223 255
198 223 255
198 223 255
198 223 255
198 223 255
199 223 255
199 223 255
199 223 255
199 223 255
199 223 255
199 223 255
199 223 255
199 223 255
199 223 255
199 223 255
199 223 255
199 223 255
199 224 255
199 224 255
199 224 255
200 224 255
200 224 255
200 224 255
200 224 255
200 224 255
200 224 255
200 224 255
200 224 255
200 224 255
200 224 255
200 224 255
200 224 255
200 224 255
200 224 255
201 224 255
201 224 255
201 224 255
201 224 255
201 224 255
201 224 255
201 224 255
201 224 255
201 224 255
201 224 255
201 225 255
201 225 255
201 225 255
201 225 255
201 225 255
202 225 255
202 225 255
202 225 255
202 225 255
202 225 255
202 225 255
202 225 255
202 225 255
202 225 255
202 225 255
202 225 255
202 225 255
202 225 255
202 225 255
202 225 255
203 225 255
203 225 255
203 225 255
203 225 255
203 225 255
203 225 255
203 225 255
203 225 255
203 226 255
203 226 255
203 226 255
203 226 255
203 226 255
203 226 255
203 226 255
204 226 255
204 226 255
204 226 255
204 226 255
204 226 255
204 226 255
204 226 255
204 226 255
204 226 255
204 226 255
204 226 255
204 226 255
204 226 255
204 226 255
204 226 255
204 226 255
204 226 255
205 226 255
205 226 255
205 226 255
205 226 255
205 226 255
205 226 255
205 226 255
205 226 255
205 227 255
205 227 255
205 227 255
205 227 255
205 227 255
205 227 255
205 227 255
205 227 255
205 227 255
205 227 255
205 227 255
206 227 255
206 227 255
206 227 255
206 227 255
206 227 255
206 227 255
206 227 255
206 227 255
206 227 255
206 227 255
206 227 255
206 227 255
206 227 255
206 227 255
206 227 255
205 227 255
205 227 255
205 227 255
205 227 255
205 227 255
205 227 255
205 227 255
205 227 255
205 227 255
205 227 255
205 227 255
205 226 255
205 226 255
205 226 255
205 226 255
205 226 255
205 226 255
205 226 255
204 226 255
204 226 255
204 226 255
204 226 255
204 226 255
204 226 255
204 226 255
204 226 255
204 226 255
204 226 255
204 226 255
204 226 255
204 226 255
204 226 255
204 226 255
204 226 255
204 226 255
203 226 255
203 226 255
203 226 255
203 226 255
203 226 255
203 226 255
203 226 255
203 225 255
203 225 255
203 225 255
203 225 255
203 225 255
203 225 255
203 225 255
203 225 255
203 225 255
202 225 255
202 225 255
202 225 255
202 225 255
202 225 255
202 225 255
202 225 255
202 225 255
202 225 255
202 225 255
202 225 255
202 225 255
202 225 255
202 225 255
202 225 255
201 225 255
201 225 255
201 225 255
201 225 255
201 224 255
201 224 255
201 224 255
201 224 255
201 224 255
201 224 255
201 224 255
201 224 255
201 224 255
201 224 255
200 224 255
200 224 255
200 224 255
200 224 255
200 224 255
200 224 255
200 224 255
200 224 255
200 224 255
200 224 255
200 224 255
200 224 255
200 224 255
200 224 255
200 224 255
199 224 255
199 224 255
199 223 255
199 223 255
199 223 255
199 223 255
199 223 255
199 223 255
199 223 255
199 223 255
199 223 255
199 223 255
199 223 255
199 223 255
198 223 255
198 223 255
198 223 255
198 223 255
198 223 255
198 223 255
198 223 255
198 223 255
198 223 255
198 223 255
198 223 255
198 223 255
198 223 255
198 223 255
198 223 255
198 223 255
197 222 255
197 222 255
197 222 255
197 222 255
197 222 255
197 222 255
197 222 255
197 222 255
197 222 255
197 222 255
197 222 255
197 222 255
197 222 255
197 222 255
197 222 255
197 222 255
197 222 255
196 222 255
196 222 255
196 222 255
196 222 255
196 222 255
196 222 255
196 222 255
196 222 255
196 222 255
196 222 255
196 222 255
196 222 255
196 222 255
196 222 255
196 222 255
196 222 255
196 222 255
196 222 255
196 222 255
196 222 255
196 222 255
196 221 255
196 221 255
196 221 255
195 221 255
195 221 255
195 221 255
195 221 255
195 221 255
195 221 255
195 221 255
195 221 255
195 221 255
195 221 255
195 221 255
195 221 255
195 221 255
195 221 255
195 221 255
195 221 255
195 221 255
195 221 255
195 221 255
195 221 255
195 221 255
195 221 255
195 221 255
195 221 255
195 221 255
195 221 255
195 221 255
195 221 255
195 221 255
195 221 255
195 221 255
195 221 255
195 221 255
195 221 255
195 221 255
195 221 255
195 221 255
195 221 255
195 221 255
195 221 255
195 221 255
195 221 255
195 221 255
195 221 255
195 221 255
195 221 255
195 221 255
195 221 255
195 221 255
195 221 255
196 221 255
196 221 255
196 221 255
196 222 255
196 222 255
196 222 255
196 222 255
196 222 255
196 222 255
196 222 255
196 222 255
196 222 255
196 222 255
196 222 255
196 222 255
196 222 255
196 222 255
196 222 255
196 222 255
196 222 255
196 222 255
196 222 255
196 222 255
196 222 255
197 222 255
197 222 255
197 222 255
197 222 255
197 222 255
197 222 255
197 222 255
197 222 255
197 222 255
197 222 255
197 222 255
197 222 255
197 222 255
197 222 255
197 222 255
197 222 255
197 222 255
198 223 255
198 223 255
198 223 255
198 223 255
198 223 255
198 223 255
198 223 255
198 223 255
198 223 255
198 223 255
198 223 255
198 223 255
198 223 255
198 223 255
198 223 255
198 223 255
199 223 255
199 223 255
199 223 255
199 223 255
199 223 255
199 223 255
199 223 255
199 223 255
199 223 255
199 223 255
199 223 255
199 223 255
199 224 255
199 224 255
200 224 255
200 224 255
200 224 255
200 224 255
200 224 255
200 224 255
200 224 255
200 224 255
200 224 255
200 224 255
200 224 255
200 224 255
200 224 255
200 224 255
200 224 255
201 224 255
201 224 255
201 224 255
201 224 255
201 224 255
201 224 255
201 224 255
201 224 255
201 224 255
201 224 255
201 225 255
201 225 255
201 225 255
201 225 255
202 225 255
202 225 255
202 225 255
202 225 255
202 225 255
202 225 255
202 225 255
202 225 255
202 225 255
202 225 255
202 225 255
202 225 255
202 225 255
202 225 255
202 225 255
203 225 255
203 225 255
203 225 255
203 225 255
203 225 255
203 225 255
203 225 255
203 225 255
203 225 255
203 226 255
203 226 255
203 226 255
203 226 255
203 226 255
203 226 255
203 226 255
204 226 255
204 226 255
204 226 255
204 226 255
204 226 255
204 226 255
204 226 255
204 226 255
204 226 255
204 226 255
204 226 255
204 226 255
204 226 255
204 226 255
204 226 255
204 226 255
204 226 255
205 226 255
205 226 255
205 226 255
205 226 255
205 226 255
205 226 255
205 226 255
205 227 255
205 227 255
205 227 255
205 227 255
205 227 255
205 227 255
205 227 255
205 227 255
205 227 255
205 227 255
205 227 255
206 227 255
206 227 255
206 227 255
206 227 255
206 227 255
206 227 255
206 227 255
206 227 255
206 227 255
206 227 255
206 227 255
206 227 255
206 227 255
206 227 255
206 227 255
206 227 255
206 227 255
206 227 255
206 227 255
206 227 255
206 227 255
205 227 255
205 227 255
205 227 255
205 227 255
205 227 255
205 227 255
205 227 255
205 227 255
205 227 255
205 227 255
205 226 255
205 226 255
205 226 255
205 226 255
205 226 255
205 226 255
205 226 255
205 226 255
204 226 255
204 226 255
204 226 255
204 226 255
204 226 255
204 226 255
204 226 255
204 226 255
204 226 255
204 226 255
204 226 255
204 226 255
204 226 255
204 226 255
204 226 255
204 226 255
203 226 255
203 226 255
203 226 255
203 226 255
203 226 255
203 226 255
203 226 255
203 225 255
203 225 255
203 225 255
203 225 255
203 225 255
203 225 255
203 225 255
203 225 255
203 225 255
202 225 255
202 225 255
202 225 255
202 225 255
202 225 255
202 225 255
202 225 255
202 225 255
202 225 255
202 225 255
202 225 255
202 225 255
202 225 255
202 225 255
202 225 255
201 225 255
201 225 255
201 225 255
201 225 255
201 224 255
201 224 255
201 224 255
201 224 255
201 224 255
201 224 255
201 224 255
201 224 255
201 224 255
201 224 255
200 224 255
200 224 255
200 224 255
200 224 255
200 224 255
200 224 255
200 224 255
200 224 255
200 224 255
200 224 255
200 224 255
200 224 255
200 224 255
200 224 255
200 224 255
199 224 255
199 224 255
199 223 255
199 223 255
199 223 255
199 223 255
199 223 255
199 223 255
199 223 255
199 223 255
199 223 255
199 223 255
199 223 255
199 223 255
199 223 255
198 223 255
198 223 255
198 223 255
198 223 255
198 223 255
198 223 255
198 223 255
198 223 255
198 223 255
198 223 255
198 223 255
198 223 255
198 223 255
198 223 255
198 223 255
197 223 255
197 222 255
197 222 255
197 222 255
197 222 255
197 222 255
197 222 255
197 222 255
197 222 255
197 222 255
197 222 255
197 222 255
197 222 255
197 222 255
197 222 255
197 222 255
197 222 255
197 222 255
196 222 255
196 222 255
196 222 255
196 222 255
196 222 255
196 222 255
196 222 255
196 222 255
196 222 255
196 222 255
196 222 255
196 222 255
196 222 255
196 222 255
196 222 255
196 222 255
196 222 255
196 222 255
196 222 255
196 222 255
196 222 255
196 222 255
196 222 255
196 222 255
196 221 255
196 221 255
196 221 255
196 221 255
195 221 255
195 221 255
195 221 255
195 221 255
195 221 255
195 221 255
195 221 255
195 221 255
195 221 255
195 221 255
195 221 255
195 221 255
195 221 255
195 221 255
195 221 255
195 221 255
195 221 255
195 221 255
195 221 255
195 221 255
195 221 255
195 221 255
195 221 255
195 221 255
195 221 255
195 221 255
195 221 255
195 221 255
195 221 255
195 221 255
195 221 255
195 221 255
195 221 255
195 221 255
195 221 255
195 221 255
195 221 255
196 221 255
196 221 255
196 221 255
196 222 255
196 222 255
196 222 255
196 222 255
196 222 255
196 222 255
196 222 255
196 222 255
196 222 255
196 222 255
196 222 255
196 222 255
196 222 255
196 222 255
196 222 255
196 222 255
196 222 255
196 222 255
196 222 255
196 222 255
196 222 255
196 222 255
196 222 255
196 222 255
197 222 255
197 222 255
197 222 255
197 222 255
197 222 255
197 222 255
197 222 255
197 222 255
197 222 255
197 222 255
197 222 255
197 222 255
197 222 255
197 222 255
197 222 255
197 222 255
197 222 255
197 223 255
198 223 255
198 223 255
198 223 255
198 223 255
198 223 255
198 223 255
198 223 255
198 223 255
198 223 255
198 223 255
198 223 255
198 223 255
198 223 255
198 223 255
198 223 255
199 223 255
199 223 255
199 223 255
199 223 255
199 223 255
199 223 255
199 223 255
199 223 255
199 223 255
199 223 255
199 223 255
199 223 255
199 223 255
199 224 255
199 224 255
200 224 255
200 224 255
200 224 255
200 224 255
200 224 255
200 224 255
200 224 255
200 224 255
200 224 255
200 224 255
200 224 255
200 224 255
200 224 255
200 224 255
201 224 255
201 224 255
201 224 255
201 224 255
201 224 255
201 224 255
201 224 255
201 224 255
201 224 255
201 224 255
201 224 255
201 225 255
201 225 255
201 225 255
201 225 255
202 225 255
202 225 255
202 225 255
202 225 255
202 225 255
202 225 255
202 225 255
202 225 255
202 225 255
202 225 255
202 225 255
202 225 255
202 225 255
202 225 255
202 225 255
203 225 255
203 225 255
203 225 255
203 225 255
203 225 255
203 225 255
203 225 255
203 225 255
203 225 255
203 226 255
203 226 255
203 226 255
203 226 255
203 226 255
203 226 255
203 226 255
204 226 255
204 226 255
204 226 255
204 226 255
204 226 255
204 226 255
204 226 255
204 226 255
204 226 255
204 226 255
204 226 255
204 226 255
204 226 255
204 226 255
204 226 255
204 226 255
205 226 255
205 226 255
205 226 255
205 226 255
205 226 255
205 226 255
205 226 255
205 227 255
205 227 255
205 227 255
205 227 255
205 227 255
205 227 255
205 227 255
205 227 255
205 227 255
205 227 255
205 227 255
206 227 255
206 227 255
206 227 255
206 227 255
206 227 255
206 227 255
206 227 255
206 227 255
206 227 255
206 227 255
206 227 255
206 227 255
206 227 255
206 227 255
206 227 255
206 227 255
206 227 255
206 227 255
206 227 255
206 227 255
206 227 255
206 227 255
206 227 255
206 227 255
206 227 255
206 227 255
205 227 255
205 227 255
205 227 255
205 227 255
205 227 255
205 227 255
205 227 255
205 227 255
205 227 255
205 227 255
205 227 255
205 226 255
205 226 255
205 226 255
205 226 255
205 226 255
205 226 255
205 226 255
204 226 255
204 226 255
204 226 255
204 226 255
204 226 255
204 226 255
204 226 255
204 226 255
204 226 255
204 226 255
204 226 255
204 226 255
204 226 255
204 226 255
204 226 255
204 226 255
204 226 255
203 226 255
203 226 255
203 226 255
203 226 255
203 226 255
203 226 255
203 226 255
203 225 255
203 225 255
203 225 255
203 225 255
203 225 255
203 225 255
203 225 255
203 225 255
202 225 255
202 225 255
202 225 255
202 225 255
202 225 255
202 225 255
202 225 255
202 225 255
202 225 255
202 225 255
202 225 255
202 225 255
202 225 255
202 225 255
202 225 255
201 225 255
201 225 255
201 225 255
201 225 255
201 225 255
201 224 255
201 224 255
201 224 255
201 224 255
201 224 255
201 224 255
201 224 255
201 224 255
201 224 255
201 224 255
200 224 255
200 224 255
200 224 255
200 224 255
200 224 255
200 224 255
200 224 255
200 224 255
200 224 255
200 224 255
200 224 255
200 224 255
200 224 255
200 224 255
199 224 255
199 224 255
199 224 255
199 223 255
199 223 255
199 223 255
199 223 255
199 223 255
199 223 255
199 223 255
199 223 255
199 223 255
199 223 255
199 223 255
199 223 255
198 223 255
198 223 255
198 223 255
198 223 255
198 223 255
198 223 255
198 223 255
198 223 255
198 223 255
198 223 255
198 223 255
198 223 255
198 223 255
198 223 255
198 223 255
198 223 255
197 222 255
197 222 255
197 222 255
197 222 255
197 222 255
197 222 255
197 222 255
197 222 255
197 222 255
197 222 255
197 222 255
197 222 255
197 222 255
197 222 255
197 222 255
197 222 255
197 222 255
197 222 255
197 222 255
196 222 255
196 222 255
196 222 255
196 222 255
196 222 255
196 222 255
196 222 255
196 222 255
196 222 255
196 222 255
196 222 255
196 222 255
196 222 255
196 222 255
196 222 255
196 222 255
196 222 255
196 222 255
196 222 255
196 222 255
196 222 255
196 222 255
196 222 255
196 222 255
196 222 255
196 222 255
196 222 255
196 221 255
196 221 255
196 221 255
196 221 255
196 221 255
196 221 255
195 221 255
195 221 255
195 221 255
195 221 255
195 221 255
195 221 255
195 221 255
195 221 255
195 221 255
195 221 255
195 221 255
195 221 255
195 221 255
195 221 255
195 221 255
195 221 255
195 221 255
195 221 255
195 221 255
196 221 255
196 221 255
196 221 255
196 221 255
196 221 255
196 221 255
196 222 255
196 222 255
196 222 255
196 222 255
196 222 255
196 222 255
196 222 255
196 222 255
196 222 255
196 222 255
196 222 255
196 222 255
196 222 255
196 222 255
196 222 255
196 222 255
196 222 255
196 222 255
196 222 255
196 222 255
196 222 255
196 222 255
196 222 255
196 222 255
196 222 255
196 222 255
197 222 255
197 222 255
197 222 255
197 222 255
197 222 255
197 222 255
197 222 255
197 222 255
197 222 255
197 222 255
197 222 255
197 222 255
197 222 255
197 222 255
197 222 255
197 222 255
197 222 255
197 222 255
197 222 255
198 223 255
198 223 255
198 223 255
198 223 255
198 223 255
198 223 255
198 223 255
198 223 255
198 223 255
198 223 255
198 223 255
198 223 255
198 223 255
198 223 255
198 223 255
198 223 255
199 223 255
199 223 255
199 223 255
199 223 255
199 223 255
199 223 255
199 223 255
199 223 255
199 223 255
199 223 255
199 223 255
199 223 255
199 223 255
199 224 255
199 224 255
200 224 255
200 224 255
200 224 255
200 224 255
200 224 255
200 224 255
200 224 255
200 224 255
200 224 255
200 224 255
200 224 255
200 224 255
200 224 255
200 224 255
201 224 255
201 224 255
201 224 255
201 224 255
201 224 255
201 224 255
201 224 255
201 224 255
201 224 255
201 224 255
201 225 255
201 225 255
201 225 255
201 225 255
201 225 255
202 225 255
202 225 255
202 225 255
202 225 255
202 225 255
202 225 255
202 225 255
202 225 255
202 225 255
202 225 255
202 225 255
202 225 255
202 225 255
202 225 255
202 225 255
203 225 255
203 225 255
203 225 255
203 225 255
203 225 255
203 225 255
203 225 255
203 225 255
203 226 255
203 226 255
203 226 255
203 226 255
203 226 255
203 226 255
203 226 255
204 226 255
204 226 255
204 226 255
204 226 255
204 226 255
204 226 255
204 226 255
204 226 255
204 226 255
204 226 255
204 226 255
204 226 255
204 226 255
204 226 255
204 226 255
204 226 255
204 226 255
205 226 255
205 226 255
205 226 255
205 226 255
205 226 255
205 226 255
205 226 255
205 227 255
205 227 255
205 227 255
205 227 255
205 227 255
205 227 255
205 227 255
205 227 255
205 227 255
205 227 255
205 227 255
206 227 255
206 227 255
206 227 255
206 227 255
206 227 255
206 227 255
206 227 255
206 227 255
206 227 255
206 227 255
206 227 255
206 227 255
206 227 255
206 227 255
206 227 255
206 227 255
206 227 255
206 227 255
206 227 255
206 227 255
206 227 255
206 227 255
206 227 255
206 227 255
206 227 255
206 227 255
206 227 255
206 227 255
206 227 255
206 227 255
206 227 255
205 227 255
205 227 255
205 227 255
205 227 255
205 227 255
205 227 255
205 227 255
205 227 255
205 227 255
205 227 255
205 226 255
205 226 255
205 226 255
205 226 255
205 226 255
205 226 255
205 226 255
205 226 255
204 226 255
204 226 255
204 226 255
204 226 255
204 226 255
204 226 255
204 226 255
204 226 255
204 226 255
204 226 255
204 226 255
204 226 255
204 226 255
204 226 255
204 226 255
204 226 255
203 226 255
203 226 255
203 226 255
203 226 255
203 226 255
203 226 255
203 226 255
203 225 255
203 225 255
203 225 255
203 225 255
203 225 255
203 225 255
203 225 255
203 225 255
203 225 255
202 225 255
202 225 255
202 225 255
202 225 255
202 225 255
202 225 255
202 225 255
202 225 255
202 225 255
202 225 255
202 225 255
202 225 255
202 225 255
202 225 255
202 225 255
201 225 255
201 225 255
201 225 255
201 225 255
201 224 255
201 224 255
201 224 255
201 224 255
201 224 255
201 224 255
201 224 255
201 224 255
201 224 255
201 224 255
200 224 255
200 224 255
200 224 255
200 224 255
200 224 255
200 224 255
200 224 255
200 224 255
200 224 255
200 224 255
200 224 255
200 224 255
200 224 255
200 224 255
200 224 255
199 224 255
199 224 255
199 223 255
199 223 255
199 223 255
199 223 255
199 223 255
199 223 255
199 223 255
199 223 255
199 223 255
199 223 255
199 223 255
199 223 255
198 223 255
198 223 255
198 223 255
198 223 255
198 223 255
198 223 255
198 223 255
198 223 255
198 223 255
198 223 255
198 223 255
198 223 255
198 223 255
198 223 255
198 223 255
198 223 255
198 223 255
197 222 255
197 222 255
197 222 255
197 222 255
197 222 255
197 222 255
197 222 255
197 222 255
197 222 255
197 222 255
197 222 255
197 222 255
197 222 255
197 222 255
197 222 255
197 222 255
197 222 255
197 222 255
197 222 255
196 222 255
196 222 255
196 222 255
196 222 255
196 222 255
196 222 255
196 222 255
196 222 255
196 222 255
196 222 255
196 222 255
196 222 255
196 222 255
196 222 255
196 222 255
196 222 255
196 222 255
196 222 255
196 222 255
196 222 255
196 222 255
196 222 255
196 222 255
196 222 255
196 222 255
196 222 255
196 222 255
196 222 255
196 222 255
196 222 255
196 222 255
196 222 255
196 222 255
196 222 255
196 222 255
196 222 255
196 222 255
196 222 255
196 222 255
196 222 255
196 222 255
196 222 255
196 222 255
196 222 255
196 222 255
196 222 255
196 222 255
196 222 255
196 222 255
196 222 255
196 222 255
196 222 255
196 222 255
196 222 255
196 222 255
196 222 255
196 222 255
196 222 255
196 222 255
196 222 255
196 222 255
196 222 255
196 222 255
196 222 255
196 222 255
196 222 255
196 222 255
196 222 255
196 222 255
196 222 255
196 222 255
196 222 255
196 222 255
196 222 255
196 222 255
196 222 255
196 222 255
196 222 255
197 222 255
197 222 255
197 222 255
197 222 255
197 222 255
197 222 255
197 222 255
197 222 255
197 222 255
197 222 255
197 222 255
197 222 255
197 222 255
197 222 255
197 222 255
197 222 255
197 222 255
197 222 255
197 222 255
198 223 255
198 223 255
198 223 255
198 223 255
198 223 255
198 223 255
198 223 255
198 223 255
198 223 255
198 223 255
198 223 255
198 223 255
198 223 255
198 223 255
198 223 255
198 223 255
198 223 255
199 223 255
199 223 255
199 223 255
199 223 255
199 223 255
199 223 255
199 223 255
199 223 255
199 223 255
199 223 255
199 223 255
199 223 255
199 224 255
199 224 255
200 224 255
200 224 255
200 224 255
200 224 255
200 224 255
200 224 255
200 224 255
200 224 255
200 224 255
200 224 255
200 224 255
200 224 255
200 224 255
200 224 255
200 224 255
201 224 255
201 224 255
201 224 255
201 224 255
201 224 255
201 224 255
201 224 255
201 224 255
201 224 255
201 224 255
201 225 255
201 225 255
201 225 255
201 225 255
202 225 255
202 225 255
202 225 255
202 225 255
202 225 255
202 225 255
202 225 255
202 225 255
202 225 255
202 225 255
202 225 255
202 225 255
202 225 255
202 225 255
202 225 255
203 225 255
203 225 255
203 225 255
203 225 255
203 225 255
203 225 255
203 225 255
203 225 255
203 225 255
203 226 255
203 226 255
203 226 255
203 226 255
203 226 255
203 226 255
203 226 255
204 226 255
204 226 255
204 226 255
204 226 255
204 226 255
204 226 255
204 226 255
204 226 255
204 226 255
204 226 255
204 226 255
204 226 255
204 226 255
204 226 255
204 226 255
204 226 255
205 226 255
205 226 255
205 226 255
205 226 255
205 226 255
205 226 255
205 226 255
205 227 255
205 227 255
205 227 255
205 227 255
205 227 255
205 227 255
205 227 255
205 227 255
205 227 255
205 227 255
205 227 255
206 227 255
206 227 255
206 227 255
206 227 255
206 227 255
206 227 255
206 227 255
206 227 255
206 227 255
206 227 255
206 227 255
206 227 255
206 227 255
206 227 255
206 227 255
206 227 255
206 227 255
206 227 255
206 227 255
206 227 255
206 227 255
206 227 255
206 227 255
206 227 255
206 227 255
206 227 255
206 227 255
206 227 255
206 227 255
206 227 255
206 227 255
206 227 255
206 227 255
206 227 255
206 227 255
206 227 255
205 227 255
205 227 255
205 227 255
205 227 255
205 227 255
205 227 255
205 227 255
205 227 255
205 227 255
205 227 255
205 227 255
205 226 255
205 226 255
205 226 255
205 226 255
205 226 255
205 226 255
205 226 255
204 226 255
204 226 255
204 226 255
204 226 255
204 226 255
204 226 255
204 226 255
204 226 255
204 226 255
204 226 255
204 226 255
204 226 255
204 226 255
204 226 255
204 226 255
204 226 255
204 226 255
203 226 255
203 226 255
203 226 255
203 226 255
203 226 255
203 226 255
203 226 255
203 225 255
203 225 255
203 225 255
203 225 255
203 225 255
203 225 255
203 225 255
203 225 255
202 225 255
202 225 255
202 225 255
202 225 255
202 225 255
202 225 255
202 225 255
202 225 255
202 225 255
202 225 255
202 225 255
202 225 255
202 225 255
202 225 255
202 225 255
201 225 255
201 225 255
201 225 255
201 225 255
201 224 255
201 224 255
201 224 255
201 224 255
201 224 255
201 224 255
201 224 255
201 224 255
201 224 255
201 224 255
200 224 255
200 224 255
200 224 255
200 224 255
200 224 255
200 224 255
200 224 255
200 224 255
200 224 255
200 224 255
200 224 255
200 224 255
200 224 255
200 224 255
200 224 255
199 224 255
199 224 255
199 223 255
199 223 255
199 223 255
199 223 255
199 223 255
199 223 255
199 223 255
199 223 255
199 223 255
199 223 255
199 223 255
199 223 255
199 223 255
198 223 255
198 223 255
198 223 255
198 223 255
198 223 255
198 223 255
198 223 255
198 223 255
198 223 255
198 223 255
198 223 255
198 223 255
198 223 255
198 223 255
198 223 255
198 223 255
198 223 255
197 222 255
197 222 255
197 222 255
197 222 255
197 222 255
197 222 255
197 222 255
197 222 255
197 222 255
197 222 255
197 222 255
197 222 255
197 222 255
197 222 255
197 222 255
197 222 255
197 222 255
197 222 255
197 222 255
197 222 255
196 222 255
196 222 255
196 222 255
196 222 255
196 222 255
196 222 255
196 222 255
196 222 255
196 222 255
196 222 255
196 222 255
196 222 255
196 222 255
196 222 255
196 222 255
196 222 255
196 222 255
196 222 255
196 222 255
196 222 255
196 222 255
196 222 255
196 222 255
196 222 255
196 222 255
196 222 255
196 222 255
196 222 255
196 222 255
196 222 255
196 222 255
196 222 255
196 222 255
196 222 255
196 222 255
196 222 255
196 222 255
196 222 255
196 222 255
196 222 255
196 222 255
196 222 255
196 222 255
196 222 255
196 222 255
196 222 255
196 222 255
196 222 255
196 222 255
196 222 255
196 222 255
196 222 255
196 222 255
196 222 255
196 222 255
196 222 255
196 222 255
196 222 255
196 222 255
196 222 255
196 222 255
196 222 255
196 222 255
196 222 255
196 222 255
196 222 255
196 222 255
196 222 255
196 222 255
196 222 255
197 222 255
197 222 255
197 222 255
197 222 255
197 222 255
197 222 255
197 222 255
197 222 255
197 222 255
197 222 255
197 222 255
197 222 255
197 222 255
197 222 255
197 222 255
197 222 255
197 222 255
197 222 255
197 222 255
197 222 255
198 223 255
198 223 255
198 223 255
198 223 255
198 223 255
198 223 255
198 223 255
198 223 255
198 223 255
198 223 255
198 223 255
198 223 255
198 223 255
198 223 255
198 223 255
198 223 255
198 223 255
199 223 255
199 223 255
199 223 255
199 223 255
199 223 255
199 223 255
199 223 255
199 223 255
199 223 255
199 223 255
199 223 255
199 223 255
199 223 255
199 224 255
199 224 255
200 224 255
200 224 255
200 224 255
200 224 255
200 224 255
200 224 255
200 224 255
200 224 255
200 224 255
200 224 255
200 224 255
200 224 255
200 224 255
200 224 255
200 224 255
201 224 255
201 224 255
201 224 255
201 224 255
201 224 255
201 224 255
201 224 255
201 224 255
201 224 255
201 224 255
201 225 255
201 225 255
201 225 255
201 225 255
202 225 255
202 225 255
202 225 255
202 225 255
202 225 255
202 225 255
202 225 255
202 225 255
202 225 255
202 225 255
202 225 255
202 225 255
202 225 255
202 225 255
202 225 255
203 225 255
203 225 255
203 225 255
203 225 255
203 225 255
203 225 255
203 225 255
203 225 255
203 226 255
203 226 255
203 226 255
203 226 255
203 226 255
203 226 255
203 226 255
204 226 255
204 226 255
204 226 255
204 226 255
204 226 255
204 226 255
204 226 255
204 226 255
204 226 255
204 226 255
204 226 255
204 226 255
204 226 255
204 226 255
204 226 255
204 226 255
204 226 255
205 226 255
205 226 255
205 226 255
205 226 255
205 226 255
205 226 255
205 226 255
205 227 255
205 227 255
205 227 255
205 227 255
205 227 255
205 227 255
205 227 255
205 227 255
205 227 255
205 227 255
205 227 255
206 227 255
206 227 255
206 227 255
206 227 255
206 227 255
206 227 255
206 227 255
206 227 255
206 227 255
206 227 255
206 227 255
206 227 255
206 227 255
206 227 255
206 227 255
206 227 255
206 227 255
206 227 255
206 227 255
207 227 255
207 227 255
207 227 255
206 227 255
206 227 255
206 227 255
206 227 255
206 227 255
206 227 255
206 227 255
206 227 255
206 227 255
206 227 255
206 227 255
206 227 255
206 227 255
206 227 255
206 227 255
206 227 255
206 227 255
206 227 255
206 227 255
205 227 255
205 227 255
205 227 255
205 227 255
205 227 255
205 227 255
205 227 255
205 227 255
205 227 255
205 227 255
205 227 255
205 226 255
205 226 255
205 226 255
205 226 255
205 226 255
205 226 255
205 226 255
204 226 255
204 226 255
204 226 255
204 226 255
204 226 255
204 226 255
204 226 255
204 226 255
204 226 255
204 226 255
204 226 255
204 226 255
204 226 255
204 226 255
204 226 255
204 226 255
203 226 255
203 226 255
203 226 255
203 226 255
203 226 255
203 226 255
203 226 255
203 225 255
203 225 255
203 225 255
203 225 255
203 225 255
203 225 255
203 225 255
203 225 255
202 225 255
202 225 255
202 225 255
202 225 255
202 225 255
202 225 255
202 225 255
202 225 255
202 225 255
202 225 255
202 225 255
202 225 255
202 225 255
202 225 255
202 225 255
201 225 255
201 225 255
201 225 255
201 225 255
201 225 255
201 224 255
201 224 255
201 224 255
201 224 255
201 224 255
201 224 255
201 224 255
201 224 255
201 224 255
201 224 255
200 224 255
200 224 255
200 224 255
200 224 255
200 224 255
200 224 255
200 224 255
200 224 255
200 224 255
200 224 255
200 224 255
200 224 255
200 224 255
200 224 255
200 224 255
199 224 255
199 224 255
199 223 255
199 223 255
199 223 255
199 223 255
199 223 255
199 223 255
199 223 255
199 223 255
199 223 255
199 223 255
199 223 255
199 223 255
199 223 255
198 223 255
198 223 255
198 223 255
198 223 255
198 223 255
198 223 255
198 223 255
198 223 255
198 223 255
198 223 255
198 223 255
198 223 255
198 223 255
198 223 255
198 223 255
198 223 255
198 223 255
197 222 255
197 222 255
197 222 255
197 222 255
197 222 255
197 222 255
197 222 255
197 222 255
197 222 255
197 222 255
197 222 255
197 222 255
197 222 255
197 222 255
197 222 255
197 222 255
197 222 255
197 222 255
197 222 255
197 222 255
197 222 255
197 222 255
196 222 255
196 222 255
196 222 255
196 222 255
196 222 255
196 222 255
196 222 255
196 222 255
196 222 255
196 222 255
196 222 255
196 222 255
196 222 255
196 222 255
196 222 255
196 222 255
196 222 255
196 222 255
196 222 255
196 222 255
196 222 255
196 222 255
196 222 255
196 222 255
196 222 255
196 222 255
196 222 255
196 222 255
196 222 255
196 222 255
196 222 255
196 222 255
196 222 255
196 222 255
196 222 255
196 222 255
196 222 255
196 222 255
196 222 255
196 222 255
196 222 255
196 222 255
196 222 255
196 222 255
196 222 255
196 222 255
196 222 255
196 222 255
196 222 255
196 222 255
196 222 255
196 222 255
196 222 255
196 222 255
196 222 255
196 222 255
196 222 255
196 222 255
196 222 255
196 222 255
197 222 255
197 222 255
197 222 255
197 222 255
197 222 255
197 222 255
197 222 255
197 222 255
197 222 255
197 222 255
197 222 255
197 222 255
197 222 255
197 222 255
197 222 255
197 222 255
197 222 255
197 222 255
197 222 255
197 222 255
197 222 255
197 222 255
198 223 255
198 223 255
198 223 255
198 223 255
198 223 255
198 223 255
198 223 255
198 223 255
198 223 255
198 223 255
198 223 255
198 223 255
198 223 255
198 223 255
198 223 255
198 223 255
198 223 255
199 223 255
199 223 255
199 223 255
199 223 255
199 223 255
199 223 255
199 223 255
199 223 255
199 223 255
199 223 255
199 223 255
199 223 255
199 223 255
199 224 255
199 224 255
200 224 255
200 224 255
200 224 255
200 224 255
200 224 255
200 224 255
200 224 255
200 224 255
200 224 255
200 224 255
200 224 255
200 224 255
200 224 255
200 224 255
200 224 255
201 224 255
201 224 255
201 224 255
201 224 255
201 224 255
201 224 255
201 224 255
201 224 255
201 224 255
201 224 255
201 225 255
201 225 255
201 225 255
201 225 255
201 225 255
202 225 255
202 225 255
202 225 255
202 225 255
202 225 255
202 225 255
202 225 255
202 225 255
202 225 255
202 225 255
202 225 255
202 225 255
202 225 255
202 225 255
203 225 255
203 225 255
203 225 255
203 225 255
203 225 255
203 225 255
203 225 255
203 225 255
203 225 255
203 226 255
203 226 255
203 226 255
203 226 255
203 226 255
203 226 255
203 226 255
204 226 255
204 226 255
204 226 255
204 226 255
204 226 255
204 226 255
204 226 255
204 226 255
204 226 255
204 226 255
204 226 255
204 226 255
204 226 255
204 226 255
204 226 255
204 226 255
205 226 255
205 226 255
205 226 255
205 226 255
205 226 255
205 226 255
205 226 255
205 227 255
205 227 255
205 227 255
205 227 255
205 227 255
205 227 255
205 227 255
205 227 255
205 227 255
205 227 255
205 227 255
206 227 255
206 227 255
206 227 255
206 227 255
206 227 255
206 227 255
206 227 255
206 227 255
206 227 255
206 227 255
206 227 255
206 227 255
206 227 255
206 227 255
206 227 255
206 227 255
206 227 255
206 227 255
206 227 255
207 227 255
207 227 255
207 227 255
207 228 255
207 227 255
207 227 255
207 227 255
207 227 255
207 227 255
206 227 255
206 227 255
206 227 255
206 227 255
206 227 255
206 227 255
206 227 255
206 227 255
206 227 255
206 227 255
206 227 255
206 227 255
206 227 255
206 227 255
206 227 255
206 227 255
206 227 255
206 227 255
206 227 255
205 227 255
205 227 255
205 227 255
205 227 255
205 227 255
205 227 255
205 227 255
205 227 255
205 227 255
205 227 255
205 226 255
205 226 255
205 226 255
205 226 255
205 226 255
205 226 255
205 226 255
204 226 255
204 226 255
204 226 255
204 226 255
204 226 255
204 226 255
204 226 255
204 226 255
204 226 255
204 226 255
204 226 255
204 226 255
204 226 255
204 226 255
204 226 255
204 226 255
204 226 255
203 226 255
203 226 255
203 226 255
203 226 255
203 226 255
203 226 255
203 225 255
203 225 255
203 225 255
203 225 255
203 225 255
203 225 255
203 225 255
203 225 255
203 225 255
202 225 255
202 225 255
202 225 255
202 225 255
202 225 255
202 225 255
202 225 255
202 225 255
202 225 255
202 225 255
202 225 255
202 225 255
202 225 255
202 225 255
202 225 255
201 225 255
201 225 255
201 225 255
201 225 255
201 224 255
201 224 255
201 224 255
201 224 255
201 224 255
201 224 255
201 224 255
201 224 255
201 224 255
201 224 255
200 224 255
200 224 255
200 224 255
200 224 255
200 224 255
200 224 255
200 224 255
200 224 255
200 224 255
200 224 255
200 224 255
200 224 255
200 224 255
200 224 255
200 224 255
199 224 255
199 224 255
199 223 255
199 223 255
199 223 255
199 223 255
199 223 255
199 223 255
199 223 255
199 223 255
199 223 255
199 223 255
199 223 255
199 223 255
199 223 255
198 223 255
198 223 255
198 223 255
198 223 255
198 223 255
198 223 255
198 223 255
198 223 255
198 223 255
198 223 255
198 223 255
198 223 255
198 223 255
198 223 255
198 223 255
198 223 255
198 223 255
198 223 255
197 222 255
197 222 255
197 222 255
197 222 255
197 222 255
197 222 255
197 222 255
197 222 255
197 222 255
197 222 255
197 222 255
197 222 255
197 222 255
197 222 255
197 222 255
197 222 255
197 222 255
197 222 255
197 222 255
197 222 255
197 222 255
197 222 255
197 222 255
196 222 255
196 222 255
196 222 255
196 222 255
196 222 255
196 222 255
196 222 255
196 222 255
196 222 255
196 222 255
196 222 255
196 222 255
196 222 255
196 222 255
196 222 255
196 222 255
196 222 255
196 222 255
196 222 255
196 222 255
196 222 255
196 222 255
196 222 255
196 222 255
196 222 255
196 222 255
196 222 255
196 222 255
196 222 255
196 222 255
196 222 255
196 222 255
196 222 255
196 222 255
196 222 255
196 222 255
196 222 255
196 222 255
196 222 255
196 222 255
196 222 255
196 222 255
196 222 255
196 222 255
196 222 255
196 222 255
196 222 255
196 222 255
196 222 255
196 222 255
196 222 255
196 222 255
197 222 255
197 222 255
197 222 255
197 222 255
197 222 255
197 222 255
197 222 255
197 222 255
197 222 255
197 222 255
197 222 255
197 222 255
197 222 255
197 222 255
197 222 255
197 222 255
197 222 255
197 222 255
197 222 255
197 222 255
197 222 255
197 222 255
197 222 255
198 223 255
198 223 255
198 223 255
198 223 255
198 223 255
198 223 255
198 223 255
198 223 255
198 223 255
198 223 255
198 223 255
198 223 255
198 223 255
198 223 255
198 223 255
198 223 255
198 223 255
198 223 255
199 223 255
199 223 255
199 223 255
199 223 255
199 223 255
199 223 255
199 223 255
199 223 255
199 223 255
199 223 255
199 223 255
199 223 255
199 223 255
199 224 255
199 224 255
200 224 255
200 224 255
200 224 255
200 224 255
200 224 255
200 224 255
200 224 255
200 224 255
200 224 255
200 224 255
200 224 255
200 224 255
200 224 255
200 224 255
200 224 255
201 224 255
201 224 255
201 224 255
201 224 255
201 224 255
201 224 255
201 224 255
201 224 255
201 224 255
201 224 255
201 225 255
201 225 255
201 225 255
201 225 255
202 225 255
202 225 255
202 225 255
202 225 255
202 225 255
202 225 255
202 225 255
202 225 255
202 225 255
202 225 255
202 225 255
202 225 255
202 225 255
202 225 255
202 225 255
203 225 255
203 225 255
203 225 255
203 225 255
203 225 255
203 225 255
203 225 255
203 225 255
203 225 255
203 226 255
203 226 255
203 226 255
203 226 255
203 226 255
203 226 255
203 226 255
204 226 255
204 226 255
204 226 255
204 226 255
204 226 255
204 226 255
204 226 255
204 226 255
204 226 255
204 226 255
204 226 255
204 226 255
204 226 255
204 226 255
204 226 255
204 226 255
205 226 255
205 226 255
205 226 255
205 226 255
205 226 255
205 226 255
205 226 255
205 227 255
205 227 255
205 227 255
205 227 255
205 227 255
205 227 255
205 227 255
205 227 255
205 227 255
205 227 255
206 227 255
206 227 255
206 227 255
206 227 255
206 227 255
206 227 255
206 227 255
206 227 255
206 227 255
206 227 255
206 227 255
206 227 255
206 227 255
206 227 255
206 227 255
206 227 255
206 227 255
206 227 255
206 227 255
207 227 255
207 227 255
207 227 255
207 227 255
207 227 255
207 228 255
207 228 255
207 228 255
207 228 255
207 227 255
207 227 255
207 227 255
207 227 255
207 227 255
206 227 255
206 227 255
206 227 255
206 227 255
206 227 255
206 227 255
206 227 255
206 227 255
206 227 255
206 227 255
206 227 255
206 227 255
206 227 255
206 227 255
206 227 255
206 227 255
206 227 255
206 227 255
206 227 255
205 227 255
205 227 255
205 227 255
205 227 255
205 227 255
205 227 255
205 227 255
205 227 255
205 227 255
205 227 255
205 227 255
205 226 255
205 226 255
205 226 255
205 226 255
205 226 255
205 226 255
205 226 255
204 226 255
204 226 255
204 226 255
204 226 255
204 226 255
204 226 255
204 226 255
204 226 255
204 226 255
204 226 255
204 226 255
204 226 255
204 226 255
204 226 255
204 226 255
204 226 255
203 226 255
203 226 255
203 226 255
203 226 255
203 226 255
203 226 255
203 226 255
203 225 255
203 225 255
203 225 255
203 225 255
203 225 255
203 225 255
203 225 255
203 225 255
202 225 255
202 225 255
202 225 255
202 225 255
202 225 255
202 225 255
202 225 255
202 225 255
202 225 255
202 225 255
202 225 255
202 225 255
202 225 255
202 225 255
202 225 255
201 225 255
201 225 255
201 225 255
201 225 255
201 224 255
201 224 255
201 224 255
201 224 255
201 224 255
201 224 255
201 224 255
201 224 255
201 224 255
201 224 255
201 224 255
200 224 255
200 224 255
200 224 255
200 224 255
200 224 255
200 224 255
200 224 255
200 224 255
200 224 255
200 224 255
200 224 255
200 224 255
200 224 255
200 224 255
199 224 255
199 224 255
199 224 255
199 223 255
199 223 255
199 223 255
199 223 255
199 223 255
199 223 255
199 223 255
199 223 255
199 223 255
199 223 255
199 223 255
199 223 255
199 223 255
198 223 255
198 223 255
198 223 255
198 223 255
198 223 255
198 223 255
198 223 255
198 223 255
198 223 255
198 223 255
198 223 255
198 223 255
198 223 255
198 223 255
198 223 255
198 223 255
198 223 255
198 223 255
197 223 255
197 222 255
197 222 255
197 222 255
197 222 255
197 222 255
197 222 255
197 222 255
197 222 255
197 222 255
197 222 255
197 222 255
197 222 255
197 222 255
197 222 255
197 222 255
197 222 255
197 222 255
197 222 255
197 222 255
197 222 255
197 222 255
197 222 255
197 222 255
197 222 255
197 222 255
197 222 255
196 222 255
196 222 255
196 222 255
196 222 255
196 222 255
196 222 255
196 222 255
196 222 255
196 222 255
196 222 255
196 222 255
196 222 255
196 222 255
196 222 255
196 222 255
196 222 255
196 222 255
196 222 255
196 222 255
196 222 255
196 222 255
196 222 255
196 222 255
196 222 255
196 222 255
196 222 255
196 222 255
196 222 255
196 222 255
196 222 255
196 222 255
196 222 255
196 222 255
196 222 255
196 222 255
196 222 255
196 222 255
196 222 255
197 222 255
197 222 255
197 222 255
197 222 255
197 222 255
197 222 255
197 222 255
197 222 255
197 222 255
197 222 255
197 222 255
197 222 255
197 222 255
197 222 255
197 222 255
197 222 255
197 222 255
197 222 255
197 222 255
197 222 255
197 222 255
197 222 255
197 222 255
197 222 255
197 222 255
197 222 255
197 223 255
198 223 255
198 223 255
198 223 255
198 223 255
198 223 255
198 223 255
198 223 255
198 223 255
198 223 255
198 223 255
198 223 255
198 223 255
198 223 255
198 223 255
198 223 255
198 223 255
198 223 255
198 223 255
199 223 255
199 223 255
199 223 255
199 223 255
199 223 255
199 223 255
199 223 255
199 223 255
199 223 255
199 223 255
199 223 255
199 223 255
199 223 255
199 224 255
199 224 255
200 224 255
200 224 255
200 224 255
200 224 255
200 224 255
200 224 255
200 224 255
200 224 255
200 224 255
200 224 255
200 224 255
200 224 255
200 224 255
200 224 255
200 224 255
201 224 255
201 224 255
201 224 255
201 224 255
201 224 255
201 224 255
201 224 255
201 224 255
201 224 255
201 224 255
201 224 255
201 225 255
201 225 255
201 225 255
201 225 255
202 225 255
202 225 255
202 225 255
202 225 255
202 225 255
202 225 255
202 225 255
202 225 255
202 225 255
202 225 255
202 225 255
202 225 255
202 225 255
202 225 255
202 225 255
203 225 255
203 225 255
203 225 255
203 225 255
203 225 255
203 225 255
203 225 255
203 225 255
203 226 255
203 226 255
203 226 255
203 226 255
203 226 255
203 226 255
203 226 255
204 226 255
204 226 255
204 226 255
204 226 255
204 226 255
204 226 255
204 226 255
204 226 255
204 226 255
204 226 255
204 226 255
204 226 255
204 226 255
204 226 255
204 226 255
204 226 255
205 226 255
205 226 255
205 226 255
205 226 255
205 226 255
205 226 255
205 226 255
205 227 255
205 227 255
205 227 255
205 227 255
205 227 255
205 227 255
205 227 255
205 227 255
205 227 255
205 227 255
205 227 255
206 227 255
206 227 255
206 227 255
206 227 255
206 227 255
206 227 255
206 227 255
206 227 255
206 227 255
206 227 255
206 227 255
206 227 255
206 227 255
206 227 255
206 227 255
206 227 255
206 227 255
206 227 255
206 227 255
207 227 255
207 227 255
207 227 255
207 227 255
207 227 255
207 228 255
207 228 255
207 228 255
207 228 255
207 228 255
207 228 255
207 228 255
207 228 255
207 228 255
207 227 255
207 227 255
207 227 255
207 227 255
207 227 255
206 227 255
206 227 255
206 227 255
206 227 255
206 227 255
206 227 255
206 227 255
206 227 255
206 227 255
206 227 255
206 227 255
206 227 255
206 227 255
206 227 255
206 227 255
206 227 255
206 227 255
206 227 255
206 227 255
205 227 255
205 227 255
205 227 255
205 227 255
205 227 255
205 227 255
205 227 255
205 227 255
205 227 255
205 227 255
205 226 255
205 226 255
205 226 255
205 226 255
205 226 255
205 226 255
205 226 255
204 226 255
204 226 255
204 226 255
204 226 255
204 226 255
204 226 255
204 226 255
204 226 255
204 226 255
204 226 255
204 226 255
204 226 255
204 226 255
204 226 255
204 226 255
204 226 255
203 226 255
203 226 255
203 226 255
203 226 255
203 226 255
203 226 255
203 226 255
203 225 255
203 225 255
203 225 255
203 225 255
203 225 255
203 225 255
203 225 255
203 225 255
203 225 255
202 225 255
202 225 255
202 225 255
202 225 255
202 225 255
202 225 255
202 225 255
202 225 255
202 225 255
202 225 255
202 225 255
202 225 255
202 225 255
202 225 255
201 225 255
201 225 255
201 225 255
201 225 255
201 225 255
201 224 255
201 224 255
201 224 255
201 224 255
201 224 255
201 224 255
201 224 255
201 224 255
201 224 255
201 224 255
200 224 255
200 224 255
200 224 255
200 224 255
200 224 255
200 224 255
200 224 255
200 224 255
200 224 255
200 224 255
200 224 255
200 224 255
200 224 255
200 224 255
200 224 255
199 224 255
199 224 255
199 223 255
199 223 255
199 223 255
199 223 255
199 223 255
199 223 255
199 223 255
199 223 255
199 223 255
199 223 255
199 223 255
199 223 255
199 223 255
199 223 255
198 223 255
198 223 255
198 223 255
198 223 255
198 223 255
198 223 255
198 223 255
198 223 255
198 223 255
198 223 255
198 223 255
198 223 255
198 223 255
198 223 255
198 223 255
198 223 255
198 223 255
198 223 255
198 223 255
197 222 255
197 222 255
197 222 255
197 222 255
197 222 255
197 222 255
197 222 255
197 222 255
197 222 255
197 222 255
197 222 255
197 222 255
197 222 255
197 222 255
197 222 255
197 222 255
197 222 255
197 222 255
197 222 255
197 222 255
197 222 255
197 222 255
197 222 255
197 222 255
197 222 255
197 222 255
197 222 255
197 222 255
197 222 255
197 222 255
197 222 255
197 222 255
196 222 255
196 222 255
196 222 255
196 222 255
196 222 255
196 222 255
196 222 255
196 222 255
196 222 255
196 222 255
196 222 255
196 222 255
196 222 255
196 222 255
196 222 255
196 222 255
196 222 255
196 222 255
196 222 255
197 222 255
197 222 255
197 222 255
197 222 255
197 222 255
197 222 255
197 222 255
197 222 255
197 222 255
197 222 255
197 222 255
197 222 255
197 222 255
197 222 255
197 222 255
197 222 255
197 222 255
197 222 255
197 222 255
197 222 255
197 222 255
197 222 255
197 222 255
197 222 255
197 222 255
197 222 255
197 222 255
197 222 255
197 222 255
197 222 255
197 222 255
197 222 255
197 222 255
197 223 255
198 223 255
198 223 255
198 223 255
198 223 255
198 223 255
198 223 255
198 223 255
198 223 255
198 223 255
198 223 255
198 223 255
198 223 255
198 223 255
198 223 255
198 223 255
198 223 255
198 223 255
198 223 255
199 223 255
199 223 255
199 223 255
199 223 255
199 223 255
199 223 255
199 223 255
199 223 255
199 223 255
199 223 255
199 223 255
199 223 255
199 223 255
199 223 255
199 224 255
199 224 255
200 224 255
200 224 255
200 224 255
200 224 255
200 224 255
200 224 255
200 224 255
200 224 255
200 224 255
200 224 255
200 224 255
200 224 255
200 224 255
200 224 255
200 224 255
201 224 255
201 224 255
201 224 255
201 224 255
201 224 255
201 224 255
201 224 255
201 224 255
201 224 255
201 224 255
201 225 255
201 225 255
201 225 255
201 225 255
202 225 255
202 225 255
202 225 255
202 225 255
202 225 255
202 225 255
202 225 255
202 225 255
202 225 255
202 225 255
202 225 255
202 225 255
202 225 255
202 225 255
202 225 255
203 225 255
203 225 255
203 225 255
203 225 255
203 225 255
203 225 255
203 225 255
203 225 255
203 225 255
203 226 255
203 226 255
203 226 255
203 226 255
203 226 255
203 226 255
203 226 255
204 226 255
204 226 255
204 226 255
204 226 255
204 226 255
204 226 255
204 226 255
204 226 255
204 226 255
204 226 255
204 226 255
204 226 255
204 226 255
204 226 255
204 226 255
204 226 255
205 226 255
205 226 255
205 226 255
205 226 255
205 226 255
205 226 255
205 226 255
205 227 255
205 227 255
205 227 255
205 227 255
205 227 255
205 227 255
205 227 255
205 227 255
205 227 255
205 227 255
206 227 255
206 227 255
206 227 255
206 227 255
206 227 255
206 227 255
206 227 255
206 227 255
206 227 255
206 227 255
206 227 255
206 227 255
206 227 255
206 227 255
206 227 255
206 227 255
206 227 255
206 227 255
206 227 255
207 227 255
207 227 255
207 227 255
207 227 255
207 227 255
207 228 255
207 228 255
207 228 255
207 228 255
207 228 255
207 228 255
207 228 255
207 228 255
207 228 255
207 228 255
207 228 255
207 228 255
207 228 255
207 228 255
207 228 255
207 227 255
207 227 255
207 227 255
207 227 255
207 227 255
206 227 255
206 227 255
206 227 255
206 227 255
206 227 255
206 227 255
206 227 255
206 227 255
206 227 255
206 227 255
206 227 255
206 227 255
206 227 255
206 227 255
206 227 255
206 227 255
206 227 255
206 227 255
206 227 255
205 227 255
205 227 255
205 227 255
205 227 255
205 227 255
205 227 255
205 227 255
205 227 255
205 227 255
205 227 255
205 226 255
205 226 255
205 226 255
205 226 255
205 226 255
205 226 255
205 226 255
204 226 255
204 226 255
204 226 255
204 226 255
204 226 255
204 226 255
204 226 255
204 226 255
204 226 255
204 226 255
204 226 255
204 226 255
204 226 255
204 226 255
204 226 255
204 226 255
203 226 255
203 226 255
203 226 255
203 226 255
203 226 255
203 226 255
203 226 255
203 225 255
203 225 255
203 225 255
203 225 255
203 225 255
203 225 255
203 225 255
203 225 255
202 225 255
202 225 255
202 225 255
202 225 255
202 225 255
202 225 255
202 225 255
202 225 255
202 225 255
202 225 255
202 225 255
202 225 255
202 225 255
202 225 255
202 225 255
201 225 255
201 225 255
201 225 255
201 225 255
201 224 255
201 224 255
201 224 255
201 224 255
201 224 255
201 224 255
201 224 255
201 224 255
201 224 255
201 224 255
201 224 255
200 224 255
200 224 255
200 224 255
200 224 255
200 224 255
200 224 255
200 224 255
200 224 255
200 224 255
200 224 255
200 224 255
200 224 255
200 224 255
200 224 255
200 224 255
199 224 255
199 224 255
199 223 255
199 223 255
199 223 255
199 223 255
199 223 255
199 223 255
199 223 255
199 223 255
199 223 255
199 223 255
199 223 255
199 223 255
199 223 255
199 223 255
198 223 255
198 223 255
198 223 255
198 223 255
198 223 255
198 223 255
198 223 255
198 223 255
198 223 255
198 223 255
198 223 255
198 223 255
198 223 255
198 223 255
198 223 255
198 223 255
198 223 255
198 223 255
198 223 255
197 223 255
197 222 255
197 222 255
197 222 255
197 222 255
197 222 255
197 222 255
197 222 255
197 222 255
197 222 255
197 222 255
197 222 255
197 222 255
197 222 255
197 222 255
197 222 255
197 222 255
197 222 255
197 222 255
197 222 255
197 222 255
197 222 255
197 222 255
197 222 255
197 222 255
197 222 255
197 222 255
197 222 255
197 222 255
197 222 255
197 222 255
197 222 255
197 222 255
197 222 255
197 222 255
197 222 255
197 222 255
197 222 255
197 222 255
197 222 255
197 222 255
197 222 255
197 222 255
197 222 255
197 222 255
197 222 255
197 222 255
197 222 255
197 222 255
197 222 255
197 222 255
197 222 255
197 222 255
197 222 255
197 222 255
197 222 255
197 222 255
197 222 255
197 222 255
197 222 255
197 222 255
197 222 255
197 222 255
197 222 255
197 222 255
197 222 255
197 222 255
197 222 255
197 222 255
197 222 255
197 222 255
197 222 255
197 222 255
197 222 255
197 222 255
197 222 255
197 222 255
198 223 255
198 223 255
198 223 255
198 223 255
198 223 255
198 223 255
198 223 255
198 223 255
198 223 255
198 223 255
198 223 255
198 223 255
198 223 255
198 223 255
198 223 255
198 223 255
198 223 255
198 223 255
198 223 255
198 223 255
199 223 255
199 223 255
199 223 255
199 223 255
199 223 255
199 223 255
199 223 255
199 223 255
199 223 255
199 223 255
199 223 255
199 223 255
199 223 255
199 223 255
199 224 255
199 224 255
200 224 255
200 224 255
200 224 255
200 224 255
200 224 255
200 224 255
200 224 255
200 224 255
200 224 255
200 224 255
200 224 255
200 224 255
200 224 255
200 224 255
200 224 255
201 224 255
201 224 255
201 224 255
201 224 255
201 224 255
201 224 255
201 224 255
201 224 255
201 224 255
201 224 255
201 224 255
201 225 255
201 225 255
201 225 255
201 225 255
202 225 255
202 225 255
202 225 255
202 225 255
202 225 255
202 225 255
202 225 255
202 225 255
202 225 255
202 225 255
202 225 255
202 225 255
202 225 255
202 225 255
202 225 255
203 225 255
203 225 255
203 225 255
203 225 255
203 225 255
203 225 255
203 225 255
203 225 255
203 226 255
203 226 255
203 226 255
203 226 255
203 226 255
203 226 255
203 226 255
204 226 255
204 226 255
204 226 255
204 226 255
204 226 255
204 226 255
204 226 255
204 226 255
204 226 255
204 226 255
204 226 255
204 226 255
204 226 255
204 226 255
204 226 255
204 226 255
205 226 255
205 226 255
205 226 255
205 226 255
205 226 255
205 226 255
205 226 255
205 227 255
205 227 255
205 227 255
205 227 255
205 227 255
205 227 255
205 227 255
205 227 255
205 227 255
205 227 255
205 227 255
206 227 255
206 227 255
206 227 255
206 227 255
206 227 255
206 227 255
206 227 255
206 227 255
206 227 255
206 227 255
206 227 255
206 227 255
206 227 255
206 227 255
206 227 255
206 227 255
206 227 255
206 227 255
207 227 255
207 227 255
207 227 255
207 227 255
207 227 255
207 228 255
207 228 255
207 228 255
207 228 255
207 228 255
207 228 255
207 228 255
207 228 255
207 228 255
207 228 255
207 228 255
207 228 255
207 228 255
207 228 255
207 228 255
207 228 255
207 228 255
207 228 255
207 228 255
207 228 255
207 228 255
207 227 255
207 227 255
207 227 255
207 227 255
207 227 255
206 227 255
206 227 255
206 227 255
206 227 255
206 227 255
206 227 255
206 227 255
206 227 255
206 227 255
206 227 255
206 227 255
206 227 255
206 227 255
206 227 255
206 227 255
206 227 255
206 227 255
206 227 255
205 227 255
205 227 255
205 227 255
205 227 255
205 227 255
205 227 255
205 227 255
205 227 255
205 227 255
205 227 255
205 227 255
205 226 255
205 226 255
205 226 255
205 226 255
205 226 255
205 226 255
205 226 255
204 226 255
204 226 255
204 226 255
204 226 255
204 226 255
204 226 255
204 226 255
204 226 255
204 226 255
204 226 255
204 226 255
204 226 255
204 226 255
204 226 255
204 226 255
204 226 255
203 226 255
203 226 255
203 226 255
203 226 255
203 226 255
203 226 255
203 225 255
203 225 255
203 225 255
203 225 255
203 225 255
203 225 255
203 225 255
203 225 255
203 225 255
202 225 255
202 225 255
202 225 255
202 225 255
202 225 255
202 225 255
202 225 255
202 225 255
202 225 255
202 225 255
202 225 255
202 225 255
202 225 255
202 225 255
201 225 255
201 225 255
201 225 255
201 225 255
201 225 255
201 224 255
201 224 255
201 224 255
201 224 255
201 224 255
201 224 255
201 224 255
201 224 255
201 224 255
201 224 255
200 224 255
200 224 255
200 224 255
200 224 255
200 224 255
200 224 255
200 224 255
200 224 255
200 224 255
200 224 255
200 224 255
200 224 255
200 224 255
200 224 255
200 224 255
199 224 255
199 224 255
199 224 255
199 223 255
199 223 255
199 223 255
199 223 255
199 223 255
199 223 255
199 223 255
199 223 255
199 223 255
199 223 255
199 223 255
199 223 255
199 223 255
199 223 255
198 223 255
198 223 255
198 223 255
198 223 255
198 223 255
198 223 255
198 223 255
198 223 255
198 223 255
198 223 255
198 223 255
198 223 255
198 223 255
198 223 255
198 223 255
198 223 255
198 223 255
198 223 255
198 223 255
198 223 255
198 223 255
197 223 255
197 222 255
197 222 255
197 222 255
197 222 255
197 222 255
197 222 255
197 222 255
197 222 255
197 222 255
197 222 255
197 222 255
197 222 255
197 222 255
197 222 255
197 222 255
197 222 255
197 222 255
197 222 255
197 222 255
197 222 255
197 222 255
197 222 255
197 222 255
197 222 255
197 222 255
197 222 255
197 222 255
197 222 255
197 222 255
197 222 255
197 222 255
197 222 255
197 222 255
197 222 255
197 222 255
197 222 255
197 222 255
197 222 255
197 222 255
197 222 255
197 222 255
197 222 255
197 222 255
197 222 255
197 222 255
197 222 255
197 222 255
197 222 255
197 222 255
197 222 255
197 222 255
197 222 255
197 222 255
197 222 255
197 222 255
197 222 255
197 222 255
197 222 255
197 222 255
197 222 255
197 222 255
197 222 255
197 222 255
197 222 255
197 222 255
197 222 255
197 222 255
198 223 255
198 223 255
198 223 255
198 223 255
198 223 255
198 223 255
198 223 255
198 223 255
198 223 255
198 223 255
198 223 255
198 223 255
198 223 255
198 223 255
198 223 255
198 223 255
198 223 255
198 223 255
198 223 255
198 223 255
198 223 255
199 223 255
199 223 255
199 223 255
199 223 255
199 223 255
199 223 255
199 223 255
199 223 255
199 223 255
199 223 255
199 223 255
199 223 255
199 223 255
199 223 255
199 224 255
199 224 255
199 224 255
200 224 255
200 224 255
200 224 255
200 224 255
200 224 255
200 224 255
200 224 255
200 224 255
200 224 255
200 224 255
200 224 255
200 224 255
200 224 255
200 224 255
200 224 255
201 224 255
201 224 255
201 224 255
201 224 255
201 224 255
201 224 255
201 224 255
201 224 255
201 224 255
201 224 255
201 225 255
201 225 255
201 225 255
201 225 255
202 225 255
202 225 255
202 225 255
202 225 255
202 225 255
202 225 255
202 225 255
202 225 255
202 225 255
202 225 255
202 225 255
202 225 255
202 225 255
202 225 255
202 225 255
203 225 255
203 225 255
203 225 255
203 225 255
203 225 255
203 225 255
203 225 255
203 225 255
203 225 255
203 226 255
203 226 255
203 226 255
203 226 255
203 226 255
203 226 255
204 226 255
204 226 255
204 226 255
204 226 255
204 226 255
204 226 255
204 226 255
204 226 255
204 226 255
204 226 255
204 226 255
204 226 255
204 226 255
204 226 255
204 226 255
204 226 255
204 226 255
205 226 255
205 226 255
205 226 255
205 226 255
205 226 255
205 226 255
205 227 255
205 227 255
205 227 255
205 227 255
205 227 255
205 227 255
205 227 255
205 227 255
205 227 255
205 227 255
205 227 255
206 227 255
206 227 255
206 227 255
206 227 255
206 227 255
206 227 255
206 227 255
206 227 255
206 227 255
206 227 255
206 227 255
206 227 255
206 227 255
206 227 255
206 227 255
206 227 255
206 227 255
206 227 255
207 227 255
207 227 255
207 227 255
207 227 255
207 227 255
207 228 255
207 228 255
207 228 255
207 228 255
207 228 255
207 228 255
207 228 255
207 228 255
207 228 255
207 228 255
207 228 255
207 228 255
207 228 255
207 228 255
207 228 255
207 228 255
207 228 255
207 228 255
207 228 255
207 228 255
207 228 255
207 228 255
207 228 255
207 228 255
207 228 255
207 228 255
207 228 255
207 227 255
207 227 255
207 227 255
207 227 255
207 227 255
206 227 255
206 227 255
206 227 255
206 227 255
206 227 255
206 227 255
206 227 255
206 227 255
206 227 255
206 227 255
206 227 255
206 227 255
206 227 255
206 227 255
206 227 255
206 227 255
206 227 255
206 227 255
205 227 255
205 227 255
205 227 255
205 227 255
205 227 255
205 227 255
205 227 255
205 227 255
205 227 255
205 227 255
205 226 255
205 226 255
205 226 255
205 226 255
205 226 255
205 226 255
205 226 255
204 226 255
204 226 255
204 226 255
204 226 255
204 226 255
204 226 255
204 226 255
204 226 255
204 226 255
204 226 255
204 226 255
204 226 255
204 226 255
204 226 255
204 226 255
204 226 255
203 226 255
203 226 255
203 226 255
203 226 255
203 226 255
203 226 255
203 226 255
203 225 255
203 225 255
203 225 255
203 225 255
203 225 255
203 225 255
203 225 255
203 225 255
202 225 255
202 225 255
202 225 255
202 225 255
202 225 255
202 225 255
202 225 255
202 225 255
202 225 255
202 225 255
202 225 255
202 225 255
202 225 255
202 225 255
202 225 255
201 225 255
201 225 255
201 225 255
201 225 255
201 224 255
201 224 255
201 224 255
201 224 255
201 224 255
201 224 255
201 224 255
201 224 255
201 224 255
201 224 255
201 224 255
200 224 255
200 224 255
200 224 255
200 224 255
200 224 255
200 224 255
200 224 255
200 224 255
200 224 255
200 224 255
200 224 255
200 224 255
200 224 255
200 224 255
200 224 255
199 224 255
199 224 255
199 224 255
199 223 255
199 223 255
199 223 255
199 223 255
199 223 255
199 223 255
199 223 255
199 223 255
199 223 255
199 223 255
199 223 255
199 223 255
199 223 255
199 223 255
198 223 255
198 223 255
198 223 255
198 223 255
198 223 255
198 223 255
198 223 255
198 223 255
198 223 255
198 223 255
198 223 255
198 223 255
198 223 255
198 223 255
198 223 255
198 223 255
198 223 255
198 223 255
198 223 255
198 223 255
198 223 255
198 223 255
197 223 255
197 223 255
197 222 255
197 222 255
197 222 255
197 222 255
197 222 255
197 222 255
197 222 255
197 222 255
197 222 255
197 222 255
197 222 255
197 222 255
197 222 255
197 222 255
197 222 255
197 222 255
197 222 255
197 222 255
197 222 255
197 222 255
197 222 255
197 222 255
197 222 255
197 222 255
197 222 255
197 222 255
197 222 255
197 222 255
197 222 255
197 222 255
197 222 255
197 222 255
197 222 255
197 222 255
197 222 255
197 222 255
197 222 255
197 222 255
197 222 255
197 222 255
197 222 255
197 222 255
197 222 255
197 222 255
197 222 255
197 222 255
197 222 255
197 222 255
197 222 255
197 222 255
197 222 255
197 222 255
197 222 255
197 222 255
197 222 255
197 222 255
197 222 255
198 223 255
198 223 255
198 223 255
198 223 255
198 223 255
198 223 255
198 223 255
198 223 255
198 223 255
198 223 255
198 223 255
198 223 255
198 223 255
198 223 255
198 223 255
198 223 255
198 223 255
198 223 255
198 223 255
198 223 255
198 223 255
198 223 255
198 223 255
199 223 255
199 223 255
199 223 255
199 223 255
199 223 255
199 223 255
199 223 255
199 223 255
199 223 255
199 223 255
199 223 255
199 223 255
199 223 255
199 223 255
199 224 255
199 224 255
199 224 255
200 224 255
200 224 255
200 224 255
200 224 255
200 224 255
200 224 255
200 224 255
200 224 255
200 224 255
200 224 255
200 224 255
200 224 255
200 224 255
200 224 255
200 224 255
201 224 255
201 224 255
201 224 255
201 224 255
201 224 255
201 224 255
201 224 255
201 224 255
201 224 255
201 224 255
201 224 255
201 225 255
201 225 255
201 225 255
201 225 255
202 225 255
202 225 255
202 225 255
202 225 255
202 225 255
202 225 255
202 225 255
202 225 255
202 225 255
202 225 255
202 225 255
202 225 255
202 225 255
202 225 255
202 225 255
203 225 255
203 225 255
203 225 255
203 225 255
203 225 255
203 225 255
203 225 255
203 225 255
203 226 255
203 226 255
203 226 255
203 226 255
203 226 255
203 226 255
203 226 255
204 226 255
204 226 255
204 226 255
204 226 255
204 226 255
204 226 255
204 226 255
204 226 255
204 226 255
204 226 255
204 226 255
204 226 255
204 226 255
204 226 255
204 226 255
204 226 255
205 226 255
205 226 255
205 226 255
205 226 255
205 226 255
205 226 255
205 226 255
205 227 255
205 227 255
205 227 255
205 227 255
205 227 255
205 227 255
205 227 255
205 227 255
205 227 255
205 227 255
206 227 255
206 227 255
206 227 255
206 227 255
206 227 255
206 227 255
206 227 255
206 227 255
206 227 255
206 227 255
206 227 255
206 227 255
206 227 255
206 227 255
206 227 255
206 227 255
206 227 255
206 227 255
207 227 255
207 227 255
207 227 255
207 227 255
207 227 255
207 228 255
207 228 255
207 228 255
207 228 255
207 228 255
207 228 255
207 228 255
207 228 255
207 228 255
207 228 255
207 228 255
207 228 255
207 228 255
207 228 255
207 228 255
208 228 255
208 228 255
207 228 255
207 228 255
207 228 255
207 228 255
207 228 255
207 228 255
207 228 255
207 228 255
207 228 255
207 228 255
207 228 255
207 228 255
207 228 255
207 228 255
207 228 255
207 228 255
207 227 255
207 227 255
207 227 255
207 227 255
206 227 255
206 227 255
206 227 255
206 227 255
206 227 255
206 227 255
206 227 255
206 227 255
206 227 255
206 227 255
206 227 255
206 227 255
206 227 255
206 227 255
206 227 255
206 227 255
206 227 255
206 227 255
206 227 255
205 227 255
205 227 255
205 227 255
205 227 255
205 227 255
205 227 255
205 227 255
205 227 255
205 227 255
205 227 255
205 226 255
205 226 255
205 226 255
205 226 255
205 226 255
205 226 255
205 226 255
204 226 255
204 226 255
204 226 255
204 226 255
204 226 255
204 226 255
204 226 255
204 226 255
204 226 255
204 226 255
204 226 255
204 226 255
204 226 255
204 226 255
204 226 255
204 226 255
203 226 255
203 226 255
203 226 255
203 226 255
203 226 255
203 226 255
203 225 255
203 225 255
203 225 255
203 225 255
203 225 255
203 225 255
203 225 255
203 225 255
203 225 255
202 225 255
202 225 255
202 225 255
202 225 255
202 225 255
202 225 255
202 225 255
202 225 255
202 225 255
202 225 255
202 225 255
202 225 255
202 225 255
202 225 255
202 225 255
201 225 255
201 225 255
201 225 255
201 225 255
201 224 255
201 224 255
201 224 255
201 224 255
201 224 255
201 224 255
201 224 255
201 224 255
201 224 255
201 224 255
200 224 255
200 224 255
200 224 255
200 224 255
200 224 255
200 224 255
200 224 255
200 224 255
200 224 255
200 224 255
200 224 255
200 224 255
200 224 255
200 224 255
200 224 255
200 224 255
199 224 255
199 224 255
199 224 255
199 223 255
199 223 255
199 223 255
199 223 255
199 223 255
199 223 255
199 223 255
199 223 255
199 223 255
199 223 255
199 223 255
199 223 255
199 223 255
199 223 255
199 223 255
198 223 255
198 223 255
198 223 255
198 223 255
198 223 255
198 223 255
198 223 255
198 223 255
198 223 255
198 223 255
198 223 255
198 223 255
198 223 255
198 223 255
198 223 255
198 223 255
198 223 255
198 223 255
198 223 255
198 223 255
198 223 255
198 223 255
198 223 255
198 223 255
197 223 255
197 222 255
197 222 255
197 222 255
197 222 255
197 222 255
197 222 255
197 222 255
197 222 255
197 222 255
197 222 255
197 222 255
197 222 255
197 222 255
197 222 255
197 222 255
197 222 255
197 222 255
197 222 255
197 222 255
197 222 255
197 222 255
197 222 255
197 222 255
197 222 255
197 222 255
197 222 255
197 222 255
197 222 255
197 222 255
197 222 255
197 222 255
197 222 255
197 222 255
197 222 255
197 222 255
197 222 255
197 222 255
197 222 255
197 222 255
197 222 255
197 222 255
197 222 255
197 222 255
197 222 255
197 222 255
197 223 255
197 223 255
198 223 255
198 223 255
198 223 255
198 223 255
198 223 255
198 223 255
198 223 255
198 223 255
198 223 255
198 223 255
198 223 255
198 223 255
198 223 255
198 223 255
198 223 255
198 223 255
198 223 255
198 223 255
198 223 255
198 223 255
198 223 255
198 223 255
198 223 255
198 223 255
198 223 255
199 223 255
199 223 255
199 223 255
199 223 255
199 223 255
199 223 255
199 223 255
199 223 255
199 223 255
199 223 255
199 223 255
199 223 255
199 223 255
199 223 255
199 224 255
199 224 255
199 224 255
200 224 255
200 224 255
200 224 255
200 224 255
200 224 255
200 224 255
200 224 255
200 224 255
200 224 255
200 224 255
200 224 255
200 224 255
200 224 255
200 224 255
200 224 255
200 224 255
201 224 255
201 224 255
201 224 255
201 224 255
201 224 255
201 224 255
201 224 255
201 224 255
201 224 255
201 224 255
201 225 255
201 225 255
201 225 255
201 225 255
201 225 255
202 225 255
202 225 255
202 225 255
202 225 255
202 225 255
202 225 255
202 225 255
202 225 255
202 225 255
202 225 255
202 225 255
202 225 255
202 225 255
202 225 255
203 225 255
203 225 255
203 225 255
203 225 255
203 225 255
203 225 255
203 225 255
203 225 255
203 225 255
203 226 255
203 226 255
203 226 255
203 226 255
203 226 255
203 226 255
204 226 255
204 226 255
204 226 255
204 226 255
204 226 255
204 226 255
204 226 255
204 226 255
204 226 255
204 226 255
204 226 255
204 226 255
204 226 255
204 226 255
204 226 255
204 226 255
205 226 255
205 226 255
205 226 255
205 226 255
205 226 255
205 226 255
205 226 255
205 227 255
205 227 255
205 227 255
205 227 255
205 227 255
205 227 255
205 227 255
205 227 255
205 227 255
205 227 255
206 227 255
206 227 255
206 227 255
206 227 255
206 227 255
206 227 255
206 227 255
206 227 255
206 227 255
206 227 255
206 227 255
206 227 255
206 227 255
206 227 255
206 227 255
206 227 255
206 227 255
206 227 255
206 227 255
207 227 255
207 227 255
207 227 255
207 227 255
207 228 255
207 228 255
207 228 255
207 228 255
207 228 255
207 228 255
207 228 255
207 228 255
207 228 255
207 228 255
207 228 255
207 228 255
207 228 255
207 228 255
207 228 255
207 228 255
208 228 255
208 228 255
208 228 255
208 228 255
208 228 255
208 228 255
208 228 255
207 228 255
207 228 255
207 228 255
207 228 255
207 228 255
207 228 255
207 228 255
207 228 255
207 228 255
207 228 255
207 228 255
207 228 255
207 228 255
207 228 255
207 228 255
207 227 255
207 227 255
207 227 255
207 227 255
207 227 255
206 227 255
206 227 255
206 227 255
206 227 255
206 227 255
206 227 255
206 227 255
206 227 255
206 227 255
206 227 255
206 227 255
206 227 255
206 227 255
206 227 255
206 227 255
206 227 255
206 227 255
206 227 255
205 227 255
205 227 255
205 227 255
205 227 255
205 227 255
205 227 255
205 227 255
205 227 255
205 227 255
205 227 255
205 227 255
205 226 255
205 226 255
205 226 255
205 226 255
205 226 255
205 226 255
204 226 255
204 226 255
204 226 255
204 226 255
204 226 255
204 226 255
204 226 255
204 226 255
204 226 255
204 226 255
204 226 255
204 226 255
204 226 255
204 226 255
204 226 255
204 226 255
203 226 255
203 226 255
203 226 255
203 226 255
203 226 255
203 226 255
203 226 255
203 225 255
203 225 255
203 225 255
203 225 255
203 225 255
203 225 255
203 225 255
203 225 255
202 225 255
202 225 255
202 225 255
202 225 255
202 225 255
202 225 255
202 225 255
202 225 255
202 225 255
202 225 255
202 225 255
202 225 255
202 225 255
202 225 255
202 225 255
201 225 255
201 225 255
201 225 255
201 225 255
201 225 255
201 224 255
201 224 255
201 224 255
201 224 255
201 224 255
201 224 255
201 224 255
201 224 255
201 224 255
201 224 255
200 224 255
200 224 255
200 224 255
200 224 255
200 224 255
200 224 255
200 224 255
200 224 255
200 224 255
200 224 255
200 224 255
200 224 255
200 224 255
200 224 255
200 224 255
200 224 255
199 224 255
199 224 255
199 224 255
199 223 255
199 223 255
199 223 255
199 223 255
199 223 255
199 223 255
199 223 255
199 223 255
199 223 255
199 223 255
199 223 255
199 223 255
199 223 255
199 223 255
199 223 255
198 223 255
198 223 255
198 223 255
198 223 255
198 223 255
198 223 255
198 223 255
198 223 255
198 223 255
198 223 255
198 223 255
198 223 255
198 223 255
198 223 255
198 223 255
198 223 255
198 223 255
198 223 255
198 223 255
198 223 255
198 223 255
198 223 255
198 223 255
198 223 255
198 223 255
198 223 255
198 223 255
198 223 255
198 223 255
197 223 255
197 222 255
197 222 255
197 222 255
197 222 255
197 222 255
197 222 255
197 222 255
197 222 255
197 222 255
197 222 255
197 222 255
197 222 255
197 222 255
197 222 255
197 222 255
197 222 255
197 222 255
197 222 255
197 222 255
197 222 255
197 222 255
197 222 255
197 222 255
197 222 255
197 222 255
197 222 255
197 222 255
197 222 255
197 222 255
197 222 255
197 223 255
198 223 255
198 223 255
198 223 255
198 223 255
198 223 255
198 223 255
198 223 255
198 223 255
198 223 255
198 223 255
198 223 255
198 223 255
198 223 255
198 223 255
198 223 255
198 223 255
198 223 255
198 223 255
198 223 255
198 223 255
198 223 255
198 223 255
198 223 255
198 223 255
198 223 255
198 223 255
198 223 255
198 223 255
198 223 255
199 223 255
199 223 255
199 223 255
199 223 255
199 223 255
199 223 255
199 223 255
199 223 255
199 223 255
199 223 255
199 223 255
199 223 255
199 223 255
199 223 255
199 223 255
199 224 255
199 224 255
199 224 255
200 224 255
200 224 255
200 224 255
200 224 255
200 224 255
200 224 255
200 224 255
200 224 255
200 224 255
200 224 255
200 224 255
200 224 255
200 224 255
200 224 255
200 224 255
200 224 255
201 224 255
201 224 255
201 224 255
201 224 255
201 224 255
201 224 255
201 224 255
201 224 255
201 224 255
201 224 255
201 225 255
201 225 255
201 225 255
201 225 255
201 225 255
202 225 255
202 225 255
202 225 255
202 225 255
202 225 255
202 225 255
202 225 255
202 225 255
202 225 255
202 225 255
202 225 255
202 225 255
202 225 255
202 225 255
202 225 255
203 225 255
203 225 255
203 225 255
203 225 255
203 225 255
203 225 255
203 225 255
203 225 255
203 226 255
203 226 255
203 226 255
203 226 255
203 226 255
203 226 255
203 226 255
204 226 255
204 226 255
204 226 255
204 226 255
204 226 255
204 226 255
204 226 255
204 226 255
204 226 255
204 226 255
204 226 255
204 226 255
204 226 255
204 226 255
204 226 255
204 226 255
205 226 255
205 226 255
205 226 255
205 226 255
205 226 255
205 226 255
205 227 255
205 227 255
205 227 255
205 227 255
205 227 255
205 227 255
205 227 255
205 227 255
205 227 255
205 227 255
205 227 255
206 227 255
206 227 255
206 227 255
206 227 255
206 227 255
206 227 255
206 227 255
206 227 255
206 227 255
206 227 255
206 227 255
206 227 255
206 227 255
206 227 255
206 227 255
206 227 255
206 227 255
206 227 255
207 227 255
207 227 255
207 227 255
207 227 255
207 228 255
207 228 255
207 228 255
207 228 255
207 228 255
207 228 255
207 228 255
207 228 255
207 228 255
207 228 255
207 228 255
207 228 255
207 228 255
207 228 255
207 228 255
207 228 255
208 228 255
208 228 255
208 228 255
208 228 255
208 228 255
208 228 255
208 228 255
208 228 255
208 228 255
208 228 255
208 228 255
208 228 255
208 228 255
207 228 255
207 228 255
207 228 255
207 228 255
207 228 255
207 228 255
207 228 255
207 228 255
207 228 255
207 228 255
207 228 255
207 228 255
207 228 255
207 228 255
207 228 255
207 228 255
207 227 255
207 227 255
207 227 255
207 227 255
206 227 255
206 227 255
206 227 255
206 227 255
206 227 255
206 227 255
206 227 255
206 227 255
206 227 255
206 227 255
206 227 255
206 227 255
206 227 255
206 227 255
206 227 255
206 227 255
206 227 255
206 227 255
205 227 255
205 227 255
205 227 255
205 227 255
205 227 255
205 227 255
205 227 255
205 227 255
205 227 255
205 227 255
205 226 255
205 226 255
205 226 255
205 226 255
205 226 255
205 226 255
205 226 255
204 226 255
204 226 255
204 226 255
204 226 255
204 226 255
204 226 255
204 226 255
204 226 255
204 226 255
204 226 255
204 226 255
204 226 255
204 226 255
204 226 255
204 226 255
204 226 255
203 226 255
203 226 255
203 226 255
203 226 255
203 226 255
203 226 255
203 225 255
203 225 255
203 225 255
203 225 255
203 225 255
203 225 255
203 225 255
203 225 255
203 225 255
202 225 255
202 225 255
202 225 255
202 225 255
202 225 255
202 225 255
202 225 255
202 225 255
202 225 255
202 225 255
202 225 255
202 225 255
202 225 255
202 225 255
202 225 255
201 225 255
201 225 255
201 225 255
201 225 255
201 224 255
201 224 255
201 224 255
201 224 255
201 224 255
201 224 255
201 224 255
201 224 255
201 224 255
201 224 255
201 224 255
200 224 255
200 224 255
200 224 255
200 224 255
200 224 255
200 224 255
200 224 255
200 224 255
200 224 255
200 224 255
200 224 255
200 224 255
200 224 255
200 224 255
200 224 255
200 224 255
199 224 255
199 224 255
199 224 255
199 223 255
199 223 255
199 223 255
199 223 255
199 223 255
199 223 255
199 223 255
199 223 255
199 223 255
199 223 255
199 223 255
199 223 255
199 223 255
199 223 255
199 223 255
199 223 255
198 223 255
198 223 255
198 223 255
198 223 255
198 223 255
198 223 255
198 223 255
198 223 255
198 223 255
198 223 255
198 223 255
198 223 255
198 223 255
198 223 255
198 223 255
198 223 255
198 223 255
198 223 255
198 223 255
198 223 255
198 223 255
198 223 255
198 223 255
198 223 255
198 223 255
198 223 255
198 223 255
198 223 255
198 223 255
198 223 255
198 223 255
198 223 255
198 223 255
198 223 255
198 223 255
198 223 255
198 223 255
198 223 255
198 223 255
198 223 255
198 223 255
198 223 255
198 223 255
198 223 255
198 223 255
198 223 255
198 223 255
198 223 255
198 223 255
198 223 255
198 223 255
198 223 255
198 223 255
198 223 255
198 223 255
198 223 255
198 223 255
198 223 255
198 223 255
198 223 255
198 223 255
198 223 255
198 223 255
198 223 255
198 223 255
198 223 255
198 223 255
198 223 255
198 223 255
198 223 255
198 223 255
198 223 255
198 223 255
198 223 255
198 223 255
198 223 255
198 223 255
198 223 255
198 223 255
198 223 255
198 223 255
198 223 255
199 223 255
199 223 255
199 223 255
199 223 255
199 223 255
199 223 255
199 223 255
199 223 255
199 223 255
199 223 255
199 223 255
199 223 255
199 223 255
199 223 255
199 223 255
199 223 255
199 224 255
199 224 255
199 224 255
200 224 255
200 224 255
200 224 255
200 224 255
200 224 255
200 224 255
200 224 255
200 224 255
200 224 255
200 224 255
200 224 255
200 224 255
200 224 255
200 224 255
200 224 255
200 224 255
201 224 255
201 224 255
201 224 255
201 224 255
201 224 255
201 224 255
201 224 255
201 224 255
201 224 255
201 224 255
201 224 255
201 225 255
201 225 255
201 225 255
201 225 255
202 225 255
202 225 255
202 225 255
202 225 255
202 225 255
202 225 255
202 225 255
202 225 255
202 225 255
202 225 255
202 225 255
202 225 255
202 225 255
202 225 255
202 225 255
203 225 255
203 225 255
203 225 255
203 225 255
203 225 255
203 225 255
203 225 255
203 225 255
203 226 255
203 226 255
203 226 255
203 226 255
203 226 255
203 226 255
203 226 255
204 226 255
204 226 255
204 226 255
204 226 255
204 226 255
204 226 255
204 226 255
204 226 255
204 226 255
204 226 255
204 226 255
204 226 255
204 226 255
204 226 255
204 226 255
204 226 255
205 226 255
205 226 255
205 226 255
205 226 255
205 226 255
205 226 255
205 226 255
205 227 255
205 227 255
205 227 255
205 227 255
205 227 255
205 227 255
205 227 255
205 227 255
205 227 255
205 227 255
206 227 255
206 227 255
206 227 255
206 227 255
206 227 255
206 227 255
206 227 255
206 227 255
206 227 255
206 227 255
206 227 255
206 227 255
206 227 255
206 227 255
206 227 255
206 227 255
206 227 255
206 227 255
207 227 255
207 227 255
207 227 255
207 227 255
207 227 255
207 228 255
207 228 255
207 228 255
207 228 255
207 228 255
207 228 255
207 228 255
207 228 255
207 228 255
207 228 255
207 228 255
207 228 255
207 228 255
207 228 255
207 228 255
208 228 255
208 228 255
208 228 255
208 228 255
208 228 255
208 228 255
208 228 255
208 228 255
208 228 255
208 228 255
208 228 255
208 228 255
208 228 255
208 228 255
208 228 255
208 228 255
208 228 255
208 228 255
208 228 255
207 228 255
207 228 255
207 228 255
207 228 255
207 228 255
207 228 255
207 228 255
207 228 255
207 228 255
207 228 255
207 228 255
207 228 255
207 228 255
207 228 255
207 228 255
207 227 255
207 227 255
207 227 255
207 227 255
207 227 255
206 227 255
206 227 255
206 227 255
206 227 255
206 227 255
206 227 255
206 227 255
206 227 255
206 227 255
206 227 255
206 227 255
206 227 255
206 227 255
206 227 255
206 227 255
206 227 255
206 227 255
206 227 255
205 227 255
205 227 255
205 227 255
205 227 255
205 227 255
205 227 255
205 227 255
205 227 255
205 227 255
205 227 255
205 226 255
205 226 255
205 226 255
205 226 255
205 226 255
205 226 255
205 226 255
204 226 255
204 226 255
204 226 255
204 226 255
204 226 255
204 226 255
204 226 255
204 226 255
204 226 255
204 226 255
204 226 255
204 226 255
204 226 255
204 226 255
204 226 255
203 226 255
203 226 255
203 226 255
203 226 255
203 226 255
203 226 255
203 226 255
203 225 255
203 225 255
203 225 255
203 225 255
203 225 255
203 225 255
203 225 255
203 225 255
203 225 255
202 225 255
202 225 255
202 225 255
202 225 255
202 225 255
202 225 255
202 225 255
202 225 255
202 225 255
202 225 255
202 225 255
202 225 255
202 225 255
202 225 255
201 225 255
201 225 255
201 225 255
201 225 255
201 225 255
201 224 255
201 224 255
201 224 255
201 224 255
201 224 255
201 224 255
201 224 255
201 224 255
201 224 255
201 224 255
201 224 255
200 224 255
200 224 255
200 224 255
200 224 255
200 224 255
200 224 255
200 224 255
200 224 255
200 224 255
200 224 255
200 224 255
200 224 255
200 224 255
200 224 255
200 224 255
200 224 255
199 224 255
199 224 255
199 224 255
199 223 255
199 223 255
199 223 255
199 223 255
199 223 255
199 223 255
199 223 255
199 223 255
199 223 255
199 223 255
199 223 255
199 223 255
199 223 255
199 223 255
199 223 255
199 223 255
199 223 255
199 223 255
198 223 255
198 223 255
198 223 255
198 223 255
198 223 255
198 223 255
198 223 255
198 223 255
198 223 255
198 223 255
198 223 255
198 223 255
198 223 255
198 223 255
198 223 255
198 223 255
198 223 255
198 223 255
198 223 255
198 223 255
198 223 255
198 223 255
198 223 255
198 223 255
198 223 255
198 223 255
198 223 255
198 223 255
198 223 255
198 223 255
198 223 255
198 223 255
198 223 255
198 223 255
198 223 255
198 223 255
198 223 255
198 223 255
198 223 255
198 223 255
198 223 255
198 223 255
198 223 255
198 223 255
198 223 255
198 223 255
198 223 255
198 223 255
198 223 255
198 223 255
198 223 255
198 223 255
198 223 255
198 223 255
198 223 255
198 223 255
198 223 255
198 223 255
198 223 255
198 223 255
198 223 255
198 223 255
198 223 255
198 223 255
198 223 255
198 223 255
198 223 255
198 223 255
198 223 255
198 223 255
198 223 255
198 223 255
198 223 255
199 223 255
199 223 255
199 223 255
199 223 255
199 223 255
199 223 255
199 223 255
199 223 255
199 223 255
199 223 255
199 223 255
199 223 255
199 223 255
199 223 255
199 223 255
199 223 255
199 223 255
199 224 255
199 224 255
199 224 255
200 224 255
200 224 255
200 224 255
200 224 255
200 224 255
200 224 255
200 224 255
200 224 255
200 224 255
200 224 255
200 224 255
200 224 255
200 224 255
200 224 255
200 224 255
200 224 255
201 224 255
201 224 255
201 224 255
201 224 255
201 224 255
201 224 255
201 224 255
201 224 255
201 224 255
201 224 255
201 224 255
201 225 255
201 225 255
201 225 255
201 225 255
202 225 255
202 225 255
202 225 255
202 225 255
202 225 255
202 225 255
202 225 255
202 225 255
202 225 255
202 225 255
202 225 255
202 225 255
202 225 255
202 225 255
202 225 255
203 225 255
203 225 255
203 225 255
203 225 255
203 225 255
203 225 255
203 225 255
203 225 255
203 225 255
203 226 255
203 226 255
203 226 255
203 226 255
203 226 255
203 226 255
203 226 255
204 226 255
204 226 255
204 226 255
204 226 255
204 226 255
204 226 255
204 226 255
204 226 255
204 226 255
204 226 255
204 226 255
204 226 255
204 226 255
204 226 255
204 226 255
205 226 255
205 226 255
205 226 255
205 226 255
205 226 255
205 226 255
205 226 255
205 227 255
205 227 255
205 227 255
205 227 255
205 227 255
205 227 255
205 227 255
205 227 255
205 227 255
205 227 255
206 227 255
206 227 255
206 227 255
206 227 255
206 227 255
206 227 255
206 227 255
206 227 255
206 227 255
206 227 255
206 227 255
206 227 255
206 227 255
206 227 255
206 227 255
206 227 255
206 227 255
206 227 255
207 227 255
207 227 255
207 227 255
207 227 255
207 227 255
207 228 255
207 228 255
207 228 255
207 228 255
207 228 255
207 228 255
207 228 255
207 228 255
207 228 255
207 228 255
207 228 255
207 228 255
207 228 255
207 228 255
207 228 255
208 228 255
208 228 255
208 228 255
208 228 255
208 228 255
208 228 255
208 228 255
208 228 255
208 228 255
208 228 255
208 228 255
208 228 255
208 228 255
208 228 255
208 228 255
208 228 255
208 228 255
208 228 255
208 228 255
208 228 255
208 228 255
208 228 255
208 228 255
208 228 255
208 228 255
207 228 255
207 228 255
207 228 255
207 228 255
207 228 255
207 228 255
207 228 255
207 228 255
207 228 255
207 228 255
207 228 255
207 228 255
207 228 255
207 228 255
207 228 255
207 227 255
207 227 255
207 227 255
207 227 255
207 227 255
206 227 255
206 227 255
206 227 255
206 227 255
206 227 255
206 227 255
206 227 255
206 227 255
206 227 255
206 227 255
206 227 255
206 227 255
206 227 255
206 227 255
206 227 255
206 227 255
206 227 255
206 227 255
205 227 255
205 227 255
205 227 255
205 227 255
205 227 255
205 227 255
205 227 255
205 227 255
205 227 255
205 227 255
205 226 255
205 226 255
205 226 255
205 226 255
205 226 255
205 226 255
204 226 255
204 226 255
204 226 255
204 226 255
204 226 255
204 226 255
204 226 255
204 226 255
204 226 255
204 226 255
204 226 255
204 226 255
204 226 255
204 226 255
204 226 255
204 226 255
203 226 255
203 226 255
203 226 255
203 226 255
203 226 255
203 226 255
203 226 255
203 225 255
203 225 255
203 225 255
203 225 255
203 225 255
203 225 255
203 225 255
203 225 255
202 225 255
202 225 255
202 225 255
202 225 255
202 225 255
202 225 255
202 225 255
202 225 255
202 225 255
202 225 255
202 225 255
202 225 255
202 225 255
202 225 255
202 225 255
201 225 255
201 225 255
201 225 255
201 225 255
201 225 255
201 224 255
201 224 255
201 224 255
201 224 255
201 224 255
201 224 255
201 224 255
201 224 255
201 224 255
201 224 255
201 224 255
200 224 255
200 224 255
200 224 255
200 224 255
200 224 255
200 224 255
200 224 255
200 224 255
200 224 255
200 224 255
200 224 255
200 224 255
200 224 255
200 224 255
200 224 255
200 224 255
200 224 255
199 224 255
199 224 255
199 224 255
199 223 255
199 223 255
199 223 255
199 223 255
199 223 255
199 223 255
199 223 255
199 223 255
199 223 255
199 223 255
199 223 255
199 223 255
199 223 255
199 223 255
199 223 255
199 223 255
199 223 255
199 223 255
198 223 255
198 223 255
198 223 255
198 223 255
198 223 255
198 223 255
198 223 255
198 223 255
198 223 255
198 223 255
198 223 255
198 223 255
198 223 255
198 223 255
198 223 255
198 223 255
198 223 255
198 223 255
198 223 255
198 223 255
198 223 255
198 223 255
198 223 255
198 223 255
198 223 255
198 223 255
198 223 255
198 223 255
198 223 255
198 223 255
198 223 255
198 223 255
198 223 255
198 223 255
198 223 255
198 223 255
198 223 255
198 223 255
198 223 255
198 223 255
198 223 255
198 223 255
198 223 255
198 223 255
198 223 255
198 223 255
198 223 255
198 223 255
198 223 255
198 223 255
198 223 255
198 223 255
198 223 255
198 223 255
198 223 255
198 223 255
198 223 255
198 223 255
198 223 255
198 223 255
198 223 255
198 223 255
198 223 255
198 223 255
199 223 255
199 223 255
199 223 255
199 223 255
199 223 255
199 223 255
199 223 255
199 223 255
199 223 255
199 223 255
199 223 255
199 223 255
199 223 255
199 223 255
199 223 255
199 223 255
199 223 255
199 223 255
199 224 255
199 224 255
199 224 255
200 224 255
200 224 255
200 224 255
200 224 255
200 224 255
200 224 255
200 224 255
200 224 255
200 224 255
200 224 255
200 224 255
200 224 255
200 224 255
200 224 255
200 224 255
200 224 255
200 224 255
201 224 255
201 224 255
201 224 255
201 224 255
201 224 255
201 224 255
201 224 255
201 224 255
201 224 255
201 224 255
201 224 255
201 225 255
201 225 255
201 225 255
201 225 255
201 225 255
202 225 255
202 225 255
202 225 255
202 225 255
202 225 255
202 225 255
202 225 255
202 225 255
202 225 255
202 225 255
202 225 255
202 225 255
202 225 255
202 225 255
202 225 255
203 225 255
203 225 255
203 225 255
203 225 255
203 225 255
203 225 255
203 225 255
203 225 255
203 226 255
203 226 255
203 226 255
203 226 255
203 226 255
203 226 255
203 226 255
204 226 255
204 226 255
204 226 255
204 226 255
204 226 255
204 226 255
204 226 255
204 226 255
204 226 255
204 226 255
204 226 255
204 226 255
204 226 255
204 226 255
204 226 255
204 226 255
205 226 255
205 226 255
205 226 255
205 226 255
205 226 255
205 226 255
205 227 255
205 227 255
205 227 255
205 227 255
205 227 255
205 227 255
205 227 255
205 227 255
205 227 255
205 227 255
206 227 255
206 227 255
206 227 255
206 227 255
206 227 255
206 227 255
206 227 255
206 227 255
206 227 255
206 227 255
206 227 255
206 227 255
206 227 255
206 227 255
206 227 255
206 227 255
206 227 255
206 227 255
207 227 255
207 227 255
207 227 255
207 227 255
207 227 255
207 228 255
207 228 255
207 228 255
207 228 255
207 228 255
207 228 255
207 228 255
207 228 255
207 228 255
207 228 255
207 228 255
207 228 255
207 228 255
207 228 255
207 228 255
208 228 255
208 228 255
208 228 255
208 228 255
208 228 255
208 228 255
208 228 255
208 228 255
208 228 255
208 228 255
208 228 255
208 228 255
208 228 255
208 228 255
208 228 255
208 228 255
208 228 255
208 228 255
208 228 255
208 228 255
208 228 255
208 228 255
208 228 255
208 228 255
208 228 255
208 228 255
208 228 255
208 228 255
208 228 255
208 228 255
208 228 255
207 228 255
207 228 255
207 228 255
207 228 255
207 228 255
207 228 255
207 228 255
207 228 255
207 228 255
207 228 255
207 228 255
207 228 255
207 228 255
207 228 255
207 228 255
207 227 255
207 227 255
207 227 255
207 227 255
207 227 255
206 227 255
206 227 255
206 227 255
206 227 255
206 227 255
206 227 255
206 227 255
206 227 255
206 227 255
206 227 255
206 227 255
206 227 255
206 227 255
206 227 255
206 227 255
206 227 255
206 227 255
206 227 255
205 227 255
205 227 255
205 227 255
205 227 255
205 227 255
205 227 255
205 227 255
205 227 255
205 227 255
205 227 255
205 226 255
205 226 255
205 226 255
205 226 255
205 226 255
205 226 255
204 226 255
204 226 255
204 226 255
204 226 255
204 226 255
204 226 255
204 226 255
204 226 255
204 226 255
204 226 255
204 226 255
204 226 255
204 226 255
204 226 255
204 226 255
204 226 255
203 226 255
203 226 255
203 226 255
203 226 255
203 226 255
203 226 255
203 225 255
203 225 255
203 225 255
203 225 255
203 225 255
203 225 255
203 225 255
203 225 255
203 225 255
202 225 255
202 225 255
202 225 255
202 225 255
202 225 255
202 225 255
202 225 255
202 225 255
202 225 255
202 225 255
202 225 255
202 225 255
202 225 255
202 225 255
202 225 255
201 225 255
201 225 255
201 225 255
201 225 255
201 225 255
201 224 255
201 224 255
201 224 255
201 224 255
201 224 255
201 224 255
201 224 255
201 224 255
201 224 255
201 224 255
201 224 255
200 224 255
200 224 255
200 224 255
200 224 255
200 224 255
200 224 255
200 224 255
200 224 255
200 224 255
200 224 255
200 224 255
200 224 255
200 224 255
200 224 255
200 224 255
200 224 255
200 224 255
199 224 255
199 224 255
199 224 255
199 224 255
199 223 255
199 223 255
199 223 255
199 223 255
199 223 255
199 223 255
199 223 255
199 223 255
199 223 255
199 223 255
199 223 255
199 223 255
199 223 255
199 223 255
199 223 255
199 223 255
199 223 255
199 223 255
199 223 255
199 223 255
198 223 255
198 223 255
198 223 255
198 223 255
198 223 255
198 223 255
198 223 255
198 223 255
198 223 255
198 223 255
198 223 255
198 223 255
198 223 255
198 223 255
198 223 255
198 223 255
198 223 255
198 223 255
198 223 255
198 223 255
198 223 255
198 223 255
198 223 255
198 223 255
198 223 255
198 223 255
198 223 255
198 223 255
198 223 255
198 223 255
198 223 255
198 223 255
198 223 255
198 223 255
198 223 255
198 223 255
198 223 255
198 223 255
198 223 255
198 223 255
198 223 255
198 223 255
198 223 255
198 223 255
198 223 255
198 223 255
198 223 255
198 223 255
198 223 255
198 223 255
198 223 255
198 223 255
199 223 255
199 223 255
199 223 255
199 223 255
199 223 255
199 223 255
199 223 255
199 223 255
199 223 255
199 223 255
199 223 255
199 223 255
199 223 255
199 223 255
199 223 255
199 223 255
199 223 255
199 223 255
199 223 255
199 223 255
199 224 255
199 224 255
199 224 255
199 224 255
200 224 255
200 224 255
200 224 255
200 224 255
200 224 255
200 224 255
200 224 255
200 224 255
200 224 255
200 224 255
200 224 255
200 224 255
200 224 255
200 224 255
200 224 255
200 224 255
200 224 255
201 224 255
201 224 255
201 224 255
201 224 255
201 224 255
201 224 255
201 224 255
201 224 255
201 224 255
201 224 255
201 224 255
201 225 255
201 225 255
201 225 255
201 225 255
201 225 255
202 225 255
202 225 255
202 225 255
202 225 255
202 225 255
202 225 255
202 225 255
202 225 255
202 225 255
202 225 255
202 225 255
202 225 255
202 225 255
202 225 255
202 225 255
203 225 255
203 225 255
203 225 255
203 225 255
203 225 255
203 225 255
203 225 255
203 225 255
203 226 255
203 226 255
203 226 255
203 226 255
203 226 255
203 226 255
203 226 255
204 226 255
204 226 255
204 226 255
204 226 255
204 226 255
204 226 255
204 226 255
204 226 255
204 226 255
204 226 255
204 226 255
204 226 255
204 226 255
204 226 255
204 226 255
204 226 255
205 226 255
205 226 255
205 226 255
205 226 255
205 226 255
205 226 255
205 227 255
205 227 255
205 227 255
205 227 255
205 227 255
205 227 255
205 227 255
205 227 255
205 227 255
205 227 255
206 227 255
206 227 255
206 227 255
206 227 255
206 227 255
206 227 255
206 227 255
206 227 255
206 227 255
206 227 255
206 227 255
206 227 255
206 227 255
206 227 255
206 227 255
206 227 255
206 227 255
206 227 255
207 227 255
207 227 255
207 227 255
207 227 255
207 227 255
207 228 255
207 228 255
207 228 255
207 228 255
207 228 255
207 228 255
207 228 255
207 228 255
207 228 255
207 228 255
207 228 255
207 228 255
207 228 255
207 228 255
207 228 255
208 228 255
208 228 255
208 228 255
208 228 255
208 228 255
208 228 255
208 228 255
208 228 255
208 228 255
208 228 255
208 228 255
208 228 255
208 228 255
208 228 255
208 228 255
208 228 255
208 228 255
208 228 255
208 228 255
208 228 255
208 228 255
208 228 255
208 228 255
208 228 255
208 228 255
208 228 255
208 228 255
208 228 255
208 228 255
208 228 255
208 228 255
208 228 255
208 228 255
208 228 255
208 228 255
208 228 255
208 228 255
207 228 255
207 228 255
207 228 255
207 228 255
207 228 255
207 228 255
207 228 255
207 228 255
207 228 255
207 228 255
207 228 255
207 228 255
207 228 255
207 228 255
207 228 255
207 227 255
207 227 255
207 227 255
207 227 255
207 227 255
206 227 255
206 227 255
206 227 255
206 227 255
206 227 255
206 227 255
206 227 255
206 227 255
206 227 255
206 227 255
206 227 255
206 227 255
206 227 255
206 227 255
206 227 255
206 227 255
206 227 255
205 227 255
205 227 255
205 227 255
205 227 255
205 227 255
205 227 255
205 227 255
205 227 255
205 227 255
205 227 255
205 226 255
205 226 255
205 226 255
205 226 255
205 226 255
205 226 255
205 226 255
204 226 255
204 226 255
204 226 255
204 226 255
204 226 255
204 226 255
204 226 255
204 226 255
204 226 255
204 226 255
204 226 255
204 226 255
204 226 255
204 226 255
204 226 255
203 226 255
203 226 255
203 226 255
203 226 255
203 226 255
203 226 255
203 226 255
203 225 255
203 225 255
203 225 255
203 225 255
203 225 255
203 225 255
203 225 255
203 225 255
203 225 255
202 225 255
202 225 255
202 225 255
202 225 255
202 225 255
202 225 255
202 225 255
202 225 255
202 225 255
202 225 255
202 225 255
202 225 255
202 225 255
202 225 255
202 225 255
201 225 255
201 225 255
201 225 255
201 225 255
201 225 255
201 224 255
201 224 255
201 224 255
201 224 255
201 224 255
201 224 255
201 224 255
201 224 255
201 224 255
201 224 255
201 224 255
200 224 255
200 224 255
200 224 255
200 224 255
200 224 255
200 224 255
200 224 255
200 224 255
200 224 255
200 224 255
200 224 255
200 224 255
200 224 255
200 224 255
200 224 255
200 224 255
200 224 255
200 224 255
199 224 255
199 224 255
199 224 255
199 224 255
199 223 255
199 223 255
199 223 255
199 223 255
199 223 255
199 223 255
199 223 255
199 223 255
199 223 255
199 223 255
199 223 255
199 223 255
199 223 255
199 223 255
199 223 255
199 223 255
199 223 255
199 223 255
199 223 255
199 223 255
199 223 255
199 223 255
199 223 255
198 223 255
198 223 255
198 223 255
198 223 255
198 223 255
198 223 255
198 223 255
198 223 255
198 223 255
198 223 255
198 223 255
198 223 255
198 223 255
198 223 255
198 223 255
198 223 255
198 223 255
198 223 255
198 223 255
198 223 255
198 223 255
198 223 255
198 223 255
198 223 255
198 223 255
198 223 255
198 223 255
198 223 255
198 223 255
198 223 255
198 223 255
198 223 255
198 223 255
198 223 255
198 223 255
198 223 255
198 223 255
198 223 255
199 223 255
199 223 255
199 223 255
199 223 255
199 223 255
199 223 255
199 223 255
199 223 255
199 223 255
199 223 255
199 223 255
199 223 255
199 223 255
199 223 255
199 223 255
199 223 255
199 223 255
199 223 255
199 223 255
199 223 255
199 223 255
199 223 255
199 223 255
199 224 255
199 224 255
199 224 255
199 224 255
200 224 255
200 224 255
200 224 255
200 224 255
200 224 255
200 224 255
200 224 255
200 224 255
200 224 255
200 224 255
200 224 255
200 224 255
200 224 255
200 224 255
200 224 255
200 224 255
200 224 255
200 224 255
201 224 255
201 224 255
201 224 255
201 224 255
201 224 255
201 224 255
201 224 255
201 224 255
201 224 255
201 224 255
201 224 255
201 225 255
201 225 255
201 225 255
201 225 255
201 225 255
202 225 255
202 225 255
202 225 255
202 225 255
202 225 255
202 225 255
202 225 255
202 225 255
202 225 255
202 225 255
202 225 255
202 225 255
202 225 255
202 225 255
202 225 255
203 225 255
203 225 255
203 225 255
203 225 255
203 225 255
203 225 255
203 225 255
203 225 255
203 225 255
203 226 255
203 226 255
203 226 255
203 226 255
203 226 255
203 226 255
204 226 255
204 226 255
204 226 255
204 226 255
204 226 255
204 226 255
204 226 255
204 226 255
204 226 255
204 226 255
204 226 255
204 226 255
204 226 255
204 226 255
204 226 255
204 226 255
205 226 255
205 226 255
205 226 255
205 226 255
205 226 255
205 226 255
205 226 255
205 227 255
205 227 255
205 227 255
205 227 255
205 227 255
205 227 255
205 227 255
205 227 255
205 227 255
205 227 255
206 227 255
206 227 255
206 227 255
206 227 255
206 227 255
206 227 255
206 227 255
206 227 255
206 227 255
206 227 255
206 227 255
206 227 255
206 227 255
206 227 255
206 227 255
206 227 255
206 227 255
207 227 255
207 227 255
207 227 255
207 227 255
207 227 255
207 228 255
207 228 255
207 228 255
207 228 255
207 228 255
207 228 255
207 228 255
207 228 255
207 228 255
207 228 255
207 228 255
207 228 255
207 228 255
207 228 255
207 228 255
208 228 255
208 228 255
208 228 255
208 228 255
208 228 255
208 228 255
208 228 255
208 228 255
208 228 255
208 228 255
208 228 255
208 228 255
208 228 255
208 228 255
208 228 255
208 228 255
208 228 255
208 228 255
208 228 255
208 228 255
209 229 255
209 228 255
208 228 255
208 228 255
208 228 255
208 228 255
208 228 255
208 228 255
208 228 255
208 228 255
208 228 255
208 228 255
208 228 255
208 228 255
208 228 255
208 228 255
208 228 255
208 228 255
208 228 255
208 228 255
208 228 255
208 228 255
208 228 255
207 228 255
207 228 255
207 228 255
207 228 255
207 228 255
207 228 255
207 228 255
207 228 255
207 228 255
207 228 255
207 228 255
207 228 255
207 228 255
207 228 255
207 228 255
207 227 255
207 227 255
207 227 255
207 227 255
207 227 255
206 227 255
206 227 255
206 227 255
206 227 255
206 227 255
206 227 255
206 227 255
206 227 255
206 227 255
206 227 255
206 227 255
206 227 255
206 227 255
206 227 255
206 227 255
206 227 255
206 227 255
205 227 255
205 227 255
205 227 255
205 227 255
205 227 255
205 227 255
205 227 255
205 227 255
205 227 255
205 227 255
205 226 255
205 226 255
205 226 255
205 226 255
205 226 255
205 226 255
205 226 255
204 226 255
204 226 255
204 226 255
204 226 255
204 226 255
204 226 255
204 226 255
204 226 255
204 226 255
204 226 255
204 226 255
204 226 255
204 226 255
204 226 255
204 226 255
203 226 255
203 226 255
203 226 255
203 226 255
203 226 255
203 226 255
203 226 255
203 225 255
203 225 255
203 225 255
203 225 255
203 225 255
203 225 255
203 225 255
203 225 255
203 225 255
202 225 255
202 225 255
202 225 255
202 225 255
202 225 255
202 225 255
202 225 255
202 225 255
202 225 255
202 225 255
202 225 255
202 225 255
202 225 255
202 225 255
202 225 255
201 225 255
201 225 255
201 225 255
201 225 255
201 225 255
201 224 255
201 224 255
201 224 255
201 224 255
201 224 255
201 224 255
201 224 255
201 224 255
201 224 255
201 224 255
201 224 255
200 224 255
200 224 255
200 224 255
200 224 255
200 224 255
200 224 255
200 224 255
200 224 255
200 224 255
200 224 255
200 224 255
200 224 255
200 224 255
200 224 255
200 224 255
200 224 255
200 224 255
200 224 255
200 224 255
199 224 255
199 224 255
199 224 255
199 224 255
199 223 255
199 223 255
199 223 255
199 223 255
199 223 255
199 223 255
199 223 255
199 223 255
199 223 255
199 223 255
199 223 255
199 223 255
199 223 255
199 223 255
199 223 255
199 223 255
199 223 255
199 223 255
199 223 255
199 223 255
199 223 255
199 223 255
199 223 255
199 223 255
199 223 255
199 223 255
199 223 255
199 223 255
199 223 255
199 223 255
199 223 255
199 223 255
198 223 255
198 223 255
198 223 255
198 223 255
198 223 255
198 223 255
198 223 255
198 223 255
198 223 255
198 223 255
198 223 255
198 223 255
198 223 255
199 223 255
199 223 255
199 223 255
199 223 255
199 223 255
199 223 255
199 223 255
199 223 255
199 223 255
199 223 255
199 223 255
199 223 255
199 223 255
199 223 255
199 223 255
199 223 255
199 223 255
199 223 255
199 223 255
199 223 255
199 223 255
199 223 255
199 223 255
199 223 255
199 223 255
199 223 255
199 223 255
199 223 255
199 223 255
199 223 255
199 223 255
199 224 255
199 224 255
199 224 255
199 224 255
200 224 255
200 224 255
200 224 255
200 224 255
200 224 255
200 224 255
200 224 255
200 224 255
200 224 255
200 224 255
200 224 255
200 224 255
200 224 255
200 224 255
200 224 255
200 224 255
200 224 255
200 224 255
200 224 255
201 224 255
201 224 255
201 224 255
201 224 255
201 224 255
201 224 255
201 224 255
201 224 255
201 224 255
201 224 255
201 224 255
201 225 255
201 225 255
201 225 255
201 225 255
201 225 255
202 225 255
202 225 255
202 225 255
202 225 255
202 225 255
202 225 255
202 225 255
202 225 255
202 225 255
202 225 255
202 225 255
202 225 255
202 225 255
202 225 255
202 225 255
203 225 255
203 225 255
203 225 255
203 225 255
203 225 255
203 225 255
203 225 255
203 225 255
203 225 255
203 226 255
203 226 255
203 226 255
203 226 255
203 226 255
203 226 255
203 226 255
204 226 255
204 226 255
204 226 255
204 226 255
204 226 255
204 226 255
204 226 255
204 226 255
204 226 255
204 226 255
204 226 255
204 226 255
204 226 255
204 226 255
204 226 255
205 226 255
205 226 255
205 226 255
205 226 255
205 226 255
205 226 255
205 226 255
205 227 255
205 227 255
205 227 255
205 227 255
205 227 255
205 227 255
205 227 255
205 227 255
205 227 255
205 227 255
206 227 255
206 227 255
206 227 255
206 227 255
206 227 255
206 227 255
206 227 255
206 227 255
206 227 255
206 227 255
206 227 255
206 227 255
206 227 255
206 227 255
206 227 255
206 227 255
206 227 255
207 227 255
207 227 255
207 227 255
207 227 255
207 227 255
207 228 255
207 228 255
207 228 255
207 228 255
207 228 255
207 228 255
207 228 255
207 228 255
207 228 255
207 228 255
207 228 255
207 228 255
207 228 255
207 228 255
207 228 255
208 228 255
208 228 255
208 228 255
208 228 255
208 228 255
208 228 255
208 228 255
208 228 255
208 228 255
208 228 255
208 228 255
208 228 255
208 228 255
208 228 255
208 228 255
208 228 255
208 228 255
208 228 255
208 228 255
208 228 255
208 228 255
209 228 255
209 229 255
209 229 255
209 229 255
209 229 255
209 229 255
209 228 255
208 228 255
208 228 255
208 228 255
208 228 255
208 228 255
208 228 255
208 228 255
208 228 255
208 228 255
208 228 255
208 228 255
208 228 255
208 228 255
208 228 255
208 228 255
208 228 255
208 228 255
208 228 255
208 228 255
208 228 255
208 228 255
208 228 255
207 228 255
207 228 255
207 228 255
207 228 255
207 228 255
207 228 255
207 228 255
207 228 255
207 228 255
207 228 255
207 228 255
207 228 255
207 228 255
207 228 255
207 227 255
207 227 255
207 227 255
207 227 255
207 227 255
206 227 255
206 227 255
206 227 255
206 227 255
206 227 255
206 227 255
206 227 255
206 227 255
206 227 255
206 227 255
206 227 255
206 227 255
206 227 255
206 227 255
206 227 255
206 227 255
206 227 255
205 227 255
205 227 255
205 227 255
205 227 255
205 227 255
205 227 255
205 227 255
205 227 255
205 227 255
205 227 255
205 226 255
205 226 255
205 226 255
205 226 255
205 226 255
205 226 255
205 226 255
204 226 255
204 226 255
204 226 255
204 226 255
204 226 255
204 226 255
204 226 255
204 226 255
204 226 255
204 226 255
204 226 255
204 226 255
204 226 255
204 226 255
204 226 255
203 226 255
203 226 255
203 226 255
203 226 255
203 226 255
203 226 255
203 226 255
203 225 255
203 225 255
203 225 255
203 225 255
203 225 255
203 225 255
203 225 255
203 225 255
202 225 255
202 225 255
202 225 255
202 225 255
202 225 255
202 225 255
202 225 255
202 225 255
202 225 255
202 225 255
202 225 255
202 225 255
202 225 255
202 225 255
202 225 255
202 225 255
201 225 255
201 225 255
201 225 255
201 225 255
201 225 255
201 224 255
201 224 255
201 224 255
201 224 255
201 224 255
201 224 255
201 224 255
201 224 255
201 224 255
201 224 255
201 224 255
201 224 255
200 224 255
200 224 255
200 224 255
200 224 255
200 224 255
200 224 255
200 224 255
200 224 255
200 224 255
200 224 255
200 224 255
200 224 255
200 224 255
200 224 255
200 224 255
200 224 255
200 224 255
200 224 255
200 224 255
200 224 255
199 224 255
199 224 255
199 224 255
199 224 255
199 223 255
199 223 255
199 223 255
199 223 255
199 223 255
199 223 255
199 223 255
199 223 255
199 223 255
199 223 255
199 223 255
199 223 255
199 223 255
199 223 255
199 223 255
199 223 255
199 223 255
199 223 255
199 223 255
199 223 255
199 223 255
199 223 255
199 223 255
199 223 255
199 223 255
199 223 255
199 223 255
199 223 255
199 223 255
199 223 255
199 223 255
199 223 255
199 223 255
199 223 255
199 223 255
199 223 255
199 223 255
199 223 255
199 223 255
199 223 255
199 223 255
199 223 255
199 223 255
199 223 255
199 223 255
199 223 255
199 223 255
199 223 255
199 223 255
199 223 255
199 223 255
199 223 255
199 223 255
199 223 255
199 223 255
199 223 255
199 223 255
199 223 255
199 223 255
199 223 255
199 223 255
199 223 255
199 223 255
199 223 255
199 223 255
199 223 255
199 224 255
199 224 255
199 224 255
199 224 255
200 224 255
200 224 255
200 224 255
200 224 255
200 224 255
200 224 255
200 224 255
200 224 255
200 224 255
200 224 255
200 224 255
200 224 255
200 224 255
200 224 255
200 224 255
200 224 255
200 224 255
200 224 255
200 224 255
200 224 255
201 224 255
201 224 255
201 224 255
201 224 255
201 224 255
201 224 255
201 224 255
201 224 255
201 224 255
201 224 255
201 224 255
201 224 255
201 225 255
201 225 255
201 225 255
201 225 255
201 225 255
202 225 255
202 225 255
202 225 255
202 225 255
202 225 255
202 225 255
202 225 255
202 225 255
202 225 255
202 225 255
202 225 255
202 225 255
202 225 255
202 225 255
202 225 255
202 225 255
203 225 255
203 225 255
203 225 255
203 225 255
203 225 255
203 225 255
203 225 255
203 225 255
203 226 255
203 226 255
203 226 255
203 226 255
203 226 255
203 226 255
203 226 255
204 226 255
204 226 255
204 226 255
204 226 255
204 226 255
204 226 255
204 226 255
204 226 255
204 226 255
204 226 255
204 226 255
204 226 255
204 226 255
204 226 255
204 226 255
204 226 255
205 226 255
205 226 255
205 226 255
205 226 255
205 226 255
205 226 255
205 227 255
205 227 255
205 227 255
205 227 255
205 227 255
205 227 255
205 227 255
205 227 255
205 227 255
205 227 255
206 227 255
206 227 255
206 227 255
206 227 255
206 227 255
206 227 255
206 227 255
206 227 255
206 227 255
206 227 255
206 227 255
206 227 255
206 227 255
206 227 255
206 227 255
206 227 255
206 227 255
207 227 255
207 227 255
207 227 255
207 227 255
207 227 255
207 228 255
207 228 255
207 228 255
207 228 255
207 228 255
207 228 255
207 228 255
207 228 255
207 228 255
207 228 255
207 228 255
207 228 255
207 228 255
207 228 255
208 228 255
208 228 255
208 228 255
208 228 255
208 228 255
208 228 255
208 228 255
208 228 255
208 228 255
208 228 255
208 228 255
208 228 255
208 228 255
208 228 255
208 228 255
208 228 255
208 228 255
208 228 255
208 228 255
208 228 255
208 228 255
209 228 255
209 228 255
209 229 255
209 229 255
209 229 255
209 229 255
209 229 255
209 229 255
209 229 255
209 229 255
209 229 255
209 229 255
209 229 255
209 228 255
209 228 255
208 228 255
208 228 255
208 228 255
208 228 255
208 228 255
208 228 255
208 228 255
208 228 255
208 228 255
208 228 255
208 228 255
208 228 255
208 228 255
208 228 255
208 228 255
208 228 255
208 228 255
208 228 255
208 228 255
208 228 255
208 228 255
207 228 255
207 228 255
207 228 255
207 228 255
207 228 255
207 228 255
207 228 255
207 228 255
207 228 255
207 228 255
207 228 255
207 228 255
207 228 255
207 228 255
207 227 255
207 227 255
207 227 255
207 227 255
207 227 255
206 227 255
206 227 255
206 227 255
206 227 255
206 227 255
206 227 255
206 227 255
206 227 255
206 227 255
206 227 255
206 227 255
206 227 255
206 227 255
206 227 255
206 227 255
206 227 255
206 227 255
205 227 255
205 227 255
205 227 255
205 227 255
205 227 255
205 227 255
205 227 255
205 227 255
205 227 255
205 227 255
205 226 255
205 226 255
205 226 255
205 226 255
205 226 255
205 226 255
204 226 255
204 226 255
204 226 255
204 226 255
204 226 255
204 226 255
204 226 255
204 226 255
204 226 255
204 226 255
204 226 255
204 226 255
204 226 255
204 226 255
204 226 255
204 226 255
203 226 255
203 226 255
203 226 255
203 226 255
203 226 255
203 226 255
203 226 255
203 225 255
203 225 255
203 225 255
203 225 255
203 225 255
203 225 255
203 225 255
203 225 255
202 225 255
202 225 255
202 225 255
202 225 255
202 225 255
202 225 255
202 225 255
202 225 255
202 225 255
202 225 255
202 225 255
202 225 255
202 225 255
202 225 255
202 225 255
202 225 255
201 225 255
201 225 255
201 225 255
201 225 255
201 225 255
201 224 255
201 224 255
201 224 255
201 224 255
201 224 255
201 224 255
201 224 255
201 224 255
201 224 255
201 224 255
201 224 255
201 224 255
200 224 255
200 224 255
200 224 255
200 224 255
200 224 255
200 224 255
200 224 255
200 224 255
200 224 255
200 224 255
200 224 255
200 224 255
200 224 255
200 224 255
200 224 255
200 224 255
200 224 255
200 224 255
200 224 255
200 224 255
200 224 255
199 224 255
199 224 255
199 224 255
199 224 255
199 224 255
199 223 255
199 223 255
199 223 255
199 223 255
199 223 255
199 223 255
199 223 255
199 223 255
199 223 255
199 223 255
199 223 255
199 223 255
199 223 255
199 223 255
199 223 255
199 223 255
199 223 255
199 223 255
199 223 255
199 223 255
199 223 255
199 223 255
199 223 255
199 223 255
199 223 255
199 223 255
199 223 255
199 223 255
199 223 255
199 223 255
199 223 255
199 223 255
199 223 255
199 223 255
199 223 255
199 223 255
199 223 255
199 223 255
199 223 255
199 223 255
199 223 255
199 223 255
199 223 255
199 223 255
199 223 255
199 223 255
199 223 255
199 223 255
199 223 255
199 223 255
199 223 255
199 223 255
199 223 255
199 223 255
199 223 255
199 223 255
199 224 255
199 224 255
199 224 255
199 224 255
200 224 255
200 224 255
200 224 255
200 224 255
200 224 255
200 224 255
200 224 255
200 224 255
200 224 255
200 224 255
200 224 255
200 224 255
200 224 255
200 224 255
200 224 255
200 224 255
200 224 255
200 224 255
200 224 255
200 224 255
200 224 255
200 224 255
201 224 255
201 224 255
201 224 255
201 224 255
201 224 255
201 224 255
201 224 255
201 224 255
201 224 255
201 224 255
201 224 255
201 224 255
201 225 255
201 225 255
201 225 255
201 225 255
201 225 255
202 225 255
202 225 255
202 225 255
202 225 255
202 225 255
202 225 255
202 225 255
202 225 255
202 225 255
202 225 255
202 225 255
202 225 255
202 225 255
202 225 255
202 225 255
202 225 255
203 225 255
203 225 255
203 225 255
203 225 255
203 225 255
203 225 255
203 225 255
203 225 255
203 226 255
203 226 255
203 226 255
203 226 255
203 226 255
203 226 255
203 226 255
204 226 255
204 226 255
204 226 255
204 226 255
204 226 255
204 226 255
204 226 255
204 226 255
204 226 255
204 226 255
204 226 255
204 226 255
204 226 255
204 226 255
204 226 255
204 226 255
205 226 255
205 226 255
205 226 255
205 226 255
205 226 255
205 226 255
205 227 255
205 227 255
205 227 255
205 227 255
205 227 255
205 227 255
205 227 255
205 227 255
205 227 255
205 227 255
206 227 255
206 227 255
206 227 255
206 227 255
206 227 255
206 227 255
206 227 255
206 227 255
206 227 255
206 227 255
206 227 255
206 227 255
206 227 255
206 227 255
206 227 255
206 227 255
206 227 255
207 227 255
207 227 255
207 227 255
207 227 255
207 227 255
207 228 255
207 228 255
207 228 255
207 228 255
207 228 255
207 228 255
207 228 255
207 228 255
207 228 255
207 228 255
207 228 255
207 228 255
207 228 255
207 228 255
208 228 255
208 228 255
208 228 255
208 228 255
208 228 255
208 228 255
208 228 255
208 228 255
208 228 255
208 228 255
208 228 255
208 228 255
208 228 255
208 228 255
208 228 255
208 228 255
208 228 255
208 228 255
208 228 255
208 228 255
208 228 255
209 228 255
209 228 255
209 229 255
209 229 255
209 229 255
209 229 255
209 229 255
209 229 255
209 229 255
209 229 255
209 229 255
209 229 255
209 229 255
209 229 255
209 229 255
209 229 255
209 229 255
209 229 255
209 229 255
209 228 255
209 228 255
208 228 255
208 228 255
208 228 255
208 228 255
208 228 255
208 228 255
208 228 255
208 228 255
208 228 255
208 228 255
208 228 255
208 228 255
208 228 255
208 228 255
208 228 255
208 228 255
208 228 255
208 228 255
208 228 255
208 228 255
208 228 255
207 228 255
207 228 255
207 228 255
207 228 255
207 228 255
207 228 255
207 228 255
207 228 255
207 228 255
207 228 255
207 228 255
207 228 255
207 228 255
207 228 255
207 227 255
207 227 255
207 227 255
207 227 255
207 227 255
206 227 255
206 227 255
206 227 255
206 227 255
206 227 255
206 227 255
206 227 255
206 227 255
206 227 255
206 227 255
206 227 255
206 227 255
206 227 255
206 227 255
206 227 255
206 227 255
206 227 255
205 227 255
205 227 255
205 227 255
205 227 255
205 227 255
205 227 255
205 227 255
205 227 255
205 227 255
205 227 255
205 226 255
205 226 255
205 226 255
205 226 255
205 226 255
205 226 255
204 226 255
204 226 255
204 226 255
204 226 255
204 226 255
204 226 255
204 226 255
204 226 255
204 226 255
204 226 255
204 226 255
204 226 255
204 226 255
204 226 255
204 226 255
204 226 255
203 226 255
203 226 255
203 226 255
203 226 255
203 226 255
203 226 255
203 226 255
203 225 255
203 225 255
203 225 255
203 225 255
203 225 255
203 225 255
203 225 255
203 225 255
202 225 255
202 225 255
202 225 255
202 225 255
202 225 255
202 225 255
202 225 255
202 225 255
202 225 255
202 225 255
202 225 255
202 225 255
202 225 255
202 225 255
202 225 255
202 225 255
201 225 255
201 225 255
201 225 255
201 225 255
201 225 255
201 224 255
201 224 255
201 224 255
201 224 255
201 224 255
201 224 255
201 224 255
201 224 255
201 224 255
201 224 255
201 224 255
201 224 255
201 224 255
200 224 255
200 224 255
200 224 255
200 224 255
200 224 255
200 224 255
200 224 255
200 224 255
200 224 255
200 224 255
200 224 255
200 224 255
200 224 255
200 224 255
200 224 255
200 224 255
200 224 255
200 224 255
200 224 255
200 224 255
200 224 255
200 224 255
200 224 255
200 224 255
199 224 255
199 224 255
199 224 255
199 224 255
199 224 255
199 223 255
199 223 255
199 223 255
199 223 255
199 223 255
199 223 255
199 223 255
199 223 255
199 223 255
199 223 255
199 223 255
199 223 255
199 223 255
199 223 255
199 223 255
199 223 255
199 223 255
199 223 255
199 223 255
199 223 255
199 223 255
199 223 255
199 223 255
199 223 255
199 223 255
199 223 255
199 223 255
199 223 255
199 223 255
199 223 255
199 223 255
199 223 255
199 223 255
199 223 255
199 223 255
199 223 255
199 223 255
199 223 255
199 223 255
199 223 255
199 223 255
199 223 255
199 224 255
199 224 255
199 224 255
199 224 255
199 224 255
200 224 255
200 224 255
200 224 255
200 224 255
200 224 255
200 224 255
200 224 255
200 224 255
200 224 255
200 224 255
200 224 255
200 224 255
200 224 255
200 224 255
200 224 255
200 224 255
200 224 255
200 224 255
200 224 255
200 224 255
200 224 255
200 224 255
200 224 255
200 224 255
201 224 255
201 224 255
201 224 255
201 224 255
201 224 255
201 224 255
201 224 255
201 224 255
201 224 255
201 224 255
201 224 255
201 224 255
201 224 255
201 225 255
201 225 255
201 225 255
201 225 255
201 225 255
202 225 255
202 225 255
202 225 255
202 225 255
202 225 255
202 225 255
202 225 255
202 225 255
202 225 255
202 225 255
202 225 255
202 225 255
202 225 255
202 225 255
202 225 255
202 225 255
203 225 255
203 225 255
203 225 255
203 225 255
203 225 255
203 225 255
203 225 255
203 225 255
203 226 255
203 226 255
203 226 255
203 226 255
203 226 255
203 226 255
203 226 255
204 226 255
204 226 255
204 226 255
204 226 255
204 226 255
204 226 255
204 226 255
204 226 255
204 226 255
204 226 255
204 226 255
204 226 255
204 226 255
204 226 255
204 226 255
204 226 255
205 226 255
205 226 255
205 226 255
205 226 255
205 226 255
205 226 255
205 227 255
205 227 255
205 227 255
205 227 255
205 227 255
205 227 255
205 227 255
205 227 255
205 227 255
205 227 255
206 227 255
206 227 255
206 227 255
206 227 255
206 227 255
206 227 255
206 227 255
206 227 255
206 227 255
206 227 255
206 227 255
206 227 255
206 227 255
206 227 255
206 227 255
206 227 255
206 227 255
207 227 255
207 227 255
207 227 255
207 227 255
207 227 255
207 228 255
207 228 255
207 228 255
207 228 255
207 228 255
207 228 255
207 228 255
207 228 255
207 228 255
207 228 255
207 228 255
207 228 255
207 228 255
207 228 255
208 228 255
208 228 255
208 228 255
208 228 255
208 228 255
208 228 255
208 228 255
208 228 255
208 228 255
208 228 255
208 228 255
208 228 255
208 228 255
208 228 255
208 228 255
208 228 255
208 228 255
208 228 255
208 228 255
208 228 255
208 228 255
209 228 255
209 229 255
209 229 255
209 229 255
209 229 255
209 229 255
209 229 255
209 229 255
209 229 255
209 229 255
209 229 255
209 229 255
209 229 255
209 229 255
209 229 255
209 229 255
209 229 255
209 229 255
209 229 255
209 229 255
209 229 255
209 229 255
209 229 255
209 229 255
209 229 255
209 229 255
209 228 255
208 228 255
208 228 255
208 228 255
208 228 255
208 228 255
208 228 255
208 228 255
208 228 255
208 228 255
208 228 255
208 228 255
208 228 255
208 228 255
208 228 255
208 228 255
208 228 255
208 228 255
208 228 255
208 228 255
208 228 255
208 228 255
207 228 255
207 228 255
207 228 255
207 228 255
207 228 255
207 228 255
207 228 255
207 228 255
207 228 255
207 228 255
207 228 255
207 228 255
207 228 255
207 228 255
207 227 255
207 227 255
207 227 255
207 227 255
207 227 255
206 227 255
206 227 255
206 227 255
206 227 255
206 227 255
206 227 255
206 227 255
206 227 255
206 227 255
206 227 255
206 227 255
206 227 255
206 227 255
206 227 255
206 227 255
206 227 255
206 227 255
205 227 255
205 227 255
205 227 255
205 227 255
205 227 255
205 227 255
205 227 255
205 227 255
205 227 255
205 227 255
205 226 255
205 226 255
205 226 255
205 226 255
205 226 255
205 226 255
204 226 255
204 226 255
204 226 255
204 226 255
204 226 255
204 226 255
204 226 255
204 226 255
204 226 255
204 226 255
204 226 255
204 226 255
204 226 255
204 226 255
204 226 255
204 226 255
203 226 255
203 226 255
203 226 255
203 226 255
203 226 255
203 226 255
203 226 255
203 225 255
203 225 255
203 225 255
203 225 255
203 225 255
203 225 255
203 225 255
203 225 255
202 225 255
202 225 255
202 225 255
202 225 255
202 225 255
202 225 255
202 225 255
202 225 255
202 225 255
202 225 255
202 225 255
202 225 255
202 225 255
202 225 255
202 225 255
202 225 255
202 225 255
201 225 255
201 225 255
201 225 255
201 225 255
201 225 255
201 224 255
201 224 255
201 224 255
201 224 255
201 224 255
201 224 255
201 224 255
201 224 255
201 224 255
201 224 255
201 224 255
201 224 255
201 224 255
200 224 255
200 224 255
200 224 255
200 224 255
200 224 255
200 224 255
200 224 255
200 224 255
200 224 255
200 224 255
200 224 255
200 224 255
200 224 255
200 224 255
200 224 255
200 224 255
200 224 255
200 224 255
200 224 255
200 224 255
200 224 255
200 224 255
200 224 255
200 224 255
200 224 255
200 224 255
200 224 255
199 224 255
199 224 255
199 224 255
199 224 255
199 224 255
199 224 255
199 224 255
199 224 255
199 223 255
199 223 255
199 223 255
199 223 255
199 223 255
199 223 255
199 223 255
199 223 255
199 223 255
199 223 255
199 223 255
199 223 255
199 223 255
199 223 255
199 223 255
199 223 255
199 223 255
199 223 255
199 223 255
199 223 255
199 223 255
199 224 255
199 224 255
199 224 255
199 224 255
199 224 255
199 224 255
199 224 255
199 224 255
199 224 255
200 224 255
200 224 255
200 224 255
200 224 255
200 224 255
200 224 255
200 224 255
200 224 255
200 224 255
200 224 255
200 224 255
200 224 255
200 224 255
200 224 255
200 224 255
200 224 255
200 224 255
200 224 255
200 224 255
200 224 255
200 224 255
200 224 255
200 224 255
200 224 255
200 224 255
200 224 255
200 224 255
201 224 255
201 224 255
201 224 255
201 224 255
201 224 255
201 224 255
201 224 255
201 224 255
201 224 255
201 224 255
201 224 255
201 224 255
201 224 255
201 225 255
201 225 255
201 225 255
201 225 255
201 225 255
202 225 255
202 225 255
202 225 255
202 225 255
202 225 255
202 225 255
202 225 255
202 225 255
202 225 255
202 225 255
202 225 255
202 225 255
202 225 255
202 225 255
202 225 255
202 225 255
202 225 255
203 225 255
203 225 255
203 225 255
203 225 255
203 225 255
203 225 255
203 225 255
203 225 255
203 226 255
203 226 255
203 226 255
203 226 255
203 226 255
203 226 255
203 226 255
204 226 255
204 226 255
204 226 255
204 226 255
204 226 255
204 226 255
204 226 255
204 226 255
204 226 255
204 226 255
204 226 255
204 226 255
204 226 255
204 226 255
204 226 255
204 226 255
205 226 255
205 226 255
205 226 255
205 226 255
205 226 255
205 226 255
205 227 255
205 227 255
205 227 255
205 227 255
205 227 255
205 227 255
205 227 255
205 227 255
205 227 255
205 227 255
206 227 255
206 227 255
206 227 255
206 227 255
206 227 255
206 227 255
206 227 255
206 227 255
206 227 255
206 227 255
206 227 255
206 227 255
206 227 255
206 227 255
206 227 255
206 227 255
206 227 255
207 227 255
207 227 255
207 227 255
207 227 255
207 227 255
207 228 255
207 228 255
207 228 255
207 228 255
207 228 255
207 228 255
207 228 255
207 228 255
207 228 255
207 228 255
207 228 255
207 228 255
207 228 255
207 228 255
208 228 255
208 228 255
208 228 255
208 228 255
208 228 255
208 228 255
208 228 255
208 228 255
208 228 255
208 228 255
208 228 255
208 228 255
208 228 255
208 228 255
208 228 255
208 228 255
208 228 255
208 228 255
208 228 255
208 228 255
208 228 255
209 228 255
209 229 255
209 229 255
209 229 255
209 229 255
209 229 255
209 229 255
209 229 255
209 229 255
209 229 255
209 229 255
209 229 255
209 229 255
209 229 255
209 229 255
209 229 255
209 229 255
209 229 255
209 229 255
209 229 255
209 229 255
209 229 255
209 229 255
209 229 255
209 229 255
209 229 255
209 229 255
209 229 255
209 229 255
209 229 255
209 229 255
209 229 255
209 228 255
209 228 255
208 228 255
208 228 255
208 228 255
208 228 255
208 228 255
208 228 255
208 228 255
208 228 255
208 228 255
208 228 255
208 228 255
208 228 255
208 228 255
208 228 255
208 228 255
208 228 255
208 228 255
208 228 255
208 228 255
208 228 255
207 228 255
207 228 255
207 228 255
207 228 255
207 228 255
207 228 255
207 228 255
207 228 255
207 228 255
207 228 255
207 228 255
207 228 255
207 228 255
207 228 255
207 227 255
207 227 255
207 227 255
207 227 255
207 227 255
206 227 255
206 227 255
206 227 255
206 227 255
206 227 255
206 227 255
206 227 255
206 227 255
206 227 255
206 227 255
206 227 255
206 227 255
206 227 255
206 227 255
206 227 255
206 227 255
206 227 255
205 227 255
205 227 255
205 227 255
205 227 255
205 227 255
205 227 255
205 227 255
205 227 255
205 227 255
205 226 255
205 226 255
205 226 255
205 226 255
205 226 255
205 226 255
205 226 255
204 226 255
204 226 255
204 226 255
204 226 255
204 226 255
204 226 255
204 226 255
204 226 255
204 226 255
204 226 255
204 226 255
204 226 255
204 226 255
204 226 255
204 226 255
204 226 255
203 226 255
203 226 255
203 226 255
203 226 255
203 226 255
203 226 255
203 226 255
203 225 255
203 225 255
203 225 255
203 225 255
203 225 255
203 225 255
203 225 255
203 225 255
202 225 255
202 225 255
202 225 255
202 225 255
202 225 255
202 225 255
202 225 255
202 225 255
202 225 255
202 225 255
202 225 255
202 225 255
202 225 255
202 225 255
202 225 255
202 225 255
202 225 255
201 225 255
201 225 255
201 225 255
201 225 255
201 225 255
201 224 255
201 224 255
201 224 255
201 224 255
201 224 255
201 224 255
201 224 255
201 224 255
201 224 255
201 224 255
201 224 255
201 224 255
201 224 255
201 224 255
200 224 255
200 224 255
200 224 255
200 224 255
200 224 255
200 224 255
200 224 255
200 224 255
200 224 255
200 224 255
200 224 255
200 224 255
200 224 255
200 224 255
200 224 255
200 224 255
200 224 255
200 224 255
200 224 255
200 224 255
200 224 255
200 224 255
200 224 255
200 224 255
200 224 255
200 224 255
200 224 255
200 224 255
200 224 255
200 224 255
200 224 255
200 224 255
200 224 255
200 224 255
200 224 255
200 224 255
200 224 255
199 224 255
199 224 255
199 224 255
199 224 255
199 224 255
199 224 255
199 224 255
199 224 255
199 224 255
200 224 255
199 224 255
200 224 255
200 224 255
200 224 255
200 224 255
200 224 255
200 224 255
200 224 255
200 224 255
200 224 255
200 224 255
200 224 255
200 224 255
200 224 255
200 224 255
200 224 255
200 224 255
200 224 255
200 224 255
200 224 255
200 224 255
200 224 255
200 224 255
200 224 255
200 224 255
200 224 255
200 224 255
200 224 255
200 224 255
200 224 255
200 224 255
200 224 255
200 224 255
200 224 255
200 224 255
200 224 255
200 224 255
201 224 255
201 224 255
201 224 255
201 224 255
201 224 255
201 224 255
201 224 255
201 224 255
201 224 255
201 224 255
201 224 255
201 224 255
201 224 255
201 224 255
201 225 255
201 225 255
201 225 255
201 225 255
201 225 255
202 225 255
202 225 255
202 225 255
202 225 255
202 225 255
202 225 255
202 225 255
202 225 255
202 225 255
202 225 255
202 225 255
202 225 255
202 225 255
202 225 255
202 225 255
202 225 255
202 225 255
203 225 255
203 225 255
203 225 255
203 225 255
203 225 255
203 225 255
203 225 255
203 225 255
203 226 255
203 226 255
203 226 255
203 226 255
203 226 255
203 226 255
203 226 255
204 226 255
204 226 255
204 226 255
204 226 255
204 226 255
204 226 255
204 226 255
204 226 255
204 226 255
204 226 255
204 226 255
204 226 255
204 226 255
204 226 255
204 226 255
204 226 255
205 226 255
205 226 255
205 226 255
205 226 255
205 226 255
205 226 255
205 226 255
205 227 255
205 227 255
205 227 255
205 227 255
205 227 255
205 227 255
205 227 255
205 227 255
205 227 255
206 227 255
206 227 255
206 227 255
206 227 255
206 227 255
206 227 255
206 227 255
206 227 255
206 227 255
206 227 255
206 227 255
206 227 255
206 227 255
206 227 255
206 227 255
206 227 255
206 227 255
207 227 255
207 227 255
207 227 255
207 227 255
207 227 255
207 228 255
207 228 255
207 228 255
207 228 255
207 228 255
207 228 255
207 228 255
207 228 255
207 228 255
207 228 255
207 228 255
207 228 255
207 228 255
207 228 255
208 228 255
208 228 255
208 228 255
208 228 255
208 228 255
208 228 255
208 228 255
208 228 255
208 228 255
208 228 255
208 228 255
208 228 255
208 228 255
208 228 255
208 228 255
208 228 255
208 228 255
208 228 255
208 228 255
208 228 255
209 228 255
209 228 255
209 229 255
209 229 255
209 229 255
209 229 255
209 229 255
209 229 255
209 229 255
209 229 255
209 229 255
209 229 255
209 229 255
209 229 255
209 229 255
209 229 255
209 229 255
209 229 255
209 229 255
209 229 255
209 229 255
209 229 255
209 229 255
209 229 255
209 229 255
209 229 255
209 229 255
209 229 255
209 229 255
209 229 255
209 229 255
209 229 255
209 229 255
209 229 255
209 229 255
209 229 255
209 229 255
209 229 255
209 229 255
209 228 255
209 228 255
208 228 255
208 228 255
208 228 255
208 228 255
208 228 255
208 228 255
208 228 255
208 228 255
208 228 255
208 228 255
208 228 255
208 228 255
208 228 255
208 228 255
208 228 255
208 228 255
208 228 255
208 228 255
208 228 255
208 228 255
207 228 255
207 228 255
207 228 255
207 228 255
207 228 255
207 228 255
207 228 255
207 228 255
207 228 255
207 228 255
207 228 255
207 228 255
207 228 255
207 228 255
207 227 255
207 227 255
207 227 255
207 227 255
207 227 255
206 227 255
206 227 255
206 227 255
206 227 255
206 227 255
206 227 255
206 227 255
206 227 255
206 227 255
206 227 255
206 227 255
206 227 255
206 227 255
206 227 255
206 227 255
206 227 255
206 227 255
205 227 255
205 227 255
205 227 255
205 227 255
205 227 255
205 227 255
205 227 255
205 227 255
205 227 255
205 227 255
205 226 255
205 226 255
205 226 255
205 226 255
205 226 255
205 226 255
204 226 255
204 226 255
204 226 255
204 226 255
204 226 255
204 226 255
204 226 255
204 226 255
204 226 255
204 226 255
204 226 255
204 226 255
204 226 255
204 226 255
204 226 255
204 226 255
203 226 255
203 226 255
203 226 255
203 226 255
203 226 255
203 226 255
203 226 255
203 225 255
203 225 255
203 225 255
203 225 255
203 225 255
203 225 255
203 225 255
203 225 255
203 225 255
202 225 255
202 225 255
202 225 255
202 225 255
202 225 255
202 225 255
202 225 255
202 225 255
202 225 255
202 225 255
202 225 255
202 225 255
202 225 255
202 225 255
202 225 255
202 225 255
202 225 255
201 225 255
201 225 255
201 225 255
201 225 255
201 225 255
201 224 255
201 224 255
201 224 255
201 224 255
201 224 255
201 224 255
201 224 255
201 224 255
201 224 255
201 224 255
201 224 255
201 224 255
201 224 255
201 224 255
201 224 255
200 224 255
200 224 255
200 224 255
200 224 255
200 224 255
200 224 255
200 224 255
200 224 255
200 224 255
200 224 255
200 224 255
200 224 255
200 224 255
200 224 255
200 224 255
200 224 255
200 224 255
200 224 255
200 224 255
200 224 255
200 224 255
200 224 255
200 224 255
200 224 255
200 224 255
200 224 255
200 224 255
200 224 255
200 224 255
200 224 255
200 224 255
200 224 255
200 224 255
200 224 255
200 224 255
200 224 255
200 224 255
200 224 255
200 224 255
200 224 255
200 224 255
200 224 255
200 224 255
200 224 255
200 224 255
200 224 255
200 224 255
200 224 255
200 224 255
200 224 255
200 224 255
200 224 255
200 224 255
200 224 255
200 224 255
200 224 255
200 224 255
200 224 255
200 224 255
200 224 255
200 224 255
200 224 255
200 224 255
200 224 255
200 224 255
200 224 255
200 224 255
200 224 255
200 224 255
200 224 255
200 224 255
200 224 255
200 224 255
200 224 255
201 224 255
201 224 255
201 224 255
201 224 255
201 224 255
201 224 255
201 224 255
201 224 255
201 224 255
201 224 255
201 224 255
201 224 255
201 224 255
201 224 255
201 224 255
201 225 255
201 225 255
201 225 255
201 225 255
201 225 255
202 225 255
202 225 255
202 225 255
202 225 255
202 225 255
202 225 255
202 225 255
202 225 255
202 225 255
202 225 255
202 225 255
202 225 255
202 225 255
202 225 255
202 225 255
202 225 255
202 225 255
203 225 255
203 225 255
203 225 255
203 225 255
203 225 255
203 225 255
203 225 255
203 225 255
203 225 255
203 226 255
203 226 255
203 226 255
203 226 255
203 226 255
203 226 255
203 226 255
204 226 255
204 226 255
204 226 255
204 226 255
204 226 255
204 226 255
204 226 255
204 226 255
204 226 255
204 226 255
204 226 255
204 226 255
204 226 255
204 226 255
204 226 255
204 226 255
205 226 255
205 226 255
205 226 255
205 226 255
205 226 255
205 226 255
205 227 255
205 227 255
205 227 255
205 227 255
205 227 255
205 227 255
205 227 255
205 227 255
205 227 255
205 227 255
206 227 255
206 227 255
206 227 255
206 227 255
206 227 255
206 227 255
206 227 255
206 227 255
206 227 255
206 227 255
206 227 255
206 227 255
206 227 255
206 227 255
206 227 255
206 227 255
206 227 255
207 227 255
207 227 255
207 227 255
207 227 255
207 227 255
207 228 255
207 228 255
207 228 255
207 228 255
207 228 255
207 228 255
207 228 255
207 228 255
207 228 255
207 228 255
207 228 255
207 228 255
207 228 255
207 228 255
208 228 255
208 228 255
208 228 255
208 228 255
208 228 255
208 228 255
208 228 255
208 228 255
208 228 255
208 228 255
208 228 255
208 228 255
208 228 255
208 228 255
208 228 255
208 228 255
208 228 255
208 228 255
208 228 255
208 228 255
209 228 255
209 228 255
209 229 255
209 229 255
209 229 255
209 229 255
209 229 255
209 229 255
209 229 255
209 229 255
209 229 255
209 229 255
209 229 255
209 229 255
209 229 255
209 229 255
209 229 255
209 229 255
209 229 255
209 229 255
209 229 255
209 229 255
210 229 255
210 229 255
210 229 255
209 229 255
209 229 255
209 229 255
209 229 255
209 229 255
209 229 255
209 229 255
209 229 255
209 229 255
209 229 255
209 229 255
209 229 255
209 229 255
209 229 255
209 229 255
209 229 255
209 229 255
209 229 255
209 229 255
209 229 255
209 229 255
209 228 255
208 228 255
208 228 255
208 228 255
208 228 255
208 228 255
208 228 255
208 228 255
208 228 255
208 228 255
208 228 255
208 228 255
208 228 255
208 228 255
208 228 255
208 228 255
208 228 255
208 228 255
208 228 255
208 228 255
208 228 255
207 228 255
207 228 255
207 228 255
207 228 255
207 228 255
207 228 255
207 228 255
207 228 255
207 228 255
207 228 255
207 228 255
207 228 255
207 228 255
207 228 255
207 227 255
207 227 255
207 227 255
207 227 255
207 227 255
206 227 255
206 227 255
206 227 255
206 227 255
206 227 255
206 227 255
206 227 255
206 227 255
206 227 255
206 227 255
206 227 255
206 227 255
206 227 255
206 227 255
206 227 255
206 227 255
206 227 255
205 227 255
205 227 255
205 227 255
205 227 255
205 227 255
205 227 255
205 227 255
205 227 255
205 227 255
205 227 255
205 226 255
205 226 255
205 226 255
205 226 255
205 226 255
205 226 255
204 226 255
204 226 255
204 226 255
204 226 255
204 226 255
204 226 255
204 226 255
204 226 255
204 226 255
204 226 255
204 226 255
204 226 255
204 226 255
204 226 255
204 226 255
204 226 255
203 226 255
203 226 255
203 226 255
203 226 255
203 226 255
203 226 255
203 226 255
203 225 255
203 225 255
203 225 255
203 225 255
203 225 255
203 225 255
203 225 255
203 225 255
203 225 255
202 225 255
202 225 255
202 225 255
202 225 255
202 225 255
202 225 255
202 225 255
202 225 255
202 225 255
202 225 255
202 225 255
202 225 255
202 225 255
202 225 255
202 225 255
202 225 255
202 225 255
202 225 255
201 225 255
201 225 255
201 225 255
201 225 255
201 225 255
201 224 255
201 224 255
201 224 255
201 224 255
201 224 255
201 224 255
201 224 255
201 224 255
201 224 255
201 224 255
201 224 255
201 224 255
201 224 255
201 224 255
201 224 255
201 224 255
200 224 255
200 224 255
200 224 255
200 224 255
200 224 255
200 224 255
200 224 255
200 224 255
200 224 255
200 224 255
200 224 255
200 224 255
200 224 255
200 224 255
200 224 255
200 224 255
200 224 255
200 224 255
200 224 255
200 224 255
200 224 255
200 224 255
200 224 255
200 224 255
200 224 255
200 224 255
200 224 255
200 224 255
200 224 255
200 224 255
200 224 255
200 224 255
200 224 255
200 224 255
200 224 255
200 224 255
200 224 255
200 224 255
200 224 255
200 224 255
200 224 255
200 224 255
200 224 255
200 224 255
200 224 255
200 224 255
200 224 255
200 224 255
200 224 255
200 224 255
200 224 255
200 224 255
200 224 255
200 224 255
200 224 255
200 224 255
200 224 255
200 224 255
200 224 255
200 224 255
200 224 255
200 224 255
200 224 255
201 224 255
201 224 255
201 224 255
201 224 255
201 224 255
201 224 255
201 224 255
201 224 255
201 224 255
201 224 255
201 224 255
201 224 255
201 224 255
201 224 255
201 224 255
201 224 255
201 224 255
201 225 255
201 225 255
201 225 255
201 225 255
201 225 255
201 225 255
202 225 255
202 225 255
202 225 255
202 225 255
202 225 255
202 225 255
202 225 255
202 225 255
202 225 255
202 225 255
202 225 255
202 225 255
202 225 255
202 225 255
202 225 255
202 225 255
202 225 255
203 225 255
203 225 255
203 225 255
203 225 255
203 225 255
203 225 255
203 225 255
203 225 255
203 225 255
203 226 255
203 226 255
203 226 255
203 226 255
203 226 255
203 226 255
203 226 255
204 226 255
204 226 255
204 226 255
204 226 255
204 226 255
204 226 255
204 226 255
204 226 255
204 226 255
204 226 255
204 226 255
204 226 255
204 226 255
204 226 255
204 226 255
204 226 255
205 226 255
205 226 255
205 226 255
205 226 255
205 226 255
205 226 255
205 226 255
205 227 255
205 227 255
205 227 255
205 227 255
205 227 255
205 227 255
205 227 255
205 227 255
205 227 255
206 227 255
206 227 255
206 227 255
206 227 255
206 227 255
206 227 255
206 227 255
206 227 255
206 227 255
206 227 255
206 227 255
206 227 255
206 227 255
206 227 255
206 227 255
206 227 255
206 227 255
207 227 255
207 227 255
207 227 255
207 227 255
207 227 255
207 228 255
207 228 255
207 228 255
207 228 255
207 228 255
207 228 255
207 228 255
207 228 255
207 228 255
207 228 255
207 228 255
207 228 255
207 228 255
207 228 255
208 228 255
208 228 255
208 228 255
208 228 255
208 228 255
208 228 255
208 228 255
208 228 255
208 228 255
208 228 255
208 228 255
208 228 255
208 228 255
208 228 255
208 228 255
208 228 255
208 228 255
208 228 255
208 228 255
208 228 255
209 228 255
209 229 255
209 229 255
209 229 255
209 229 255
209 229 255
209 229 255
209 229 255
209 229 255
209 229 255
209 229 255
209 229 255
209 229 255
209 229 255
209 229 255
209 229 255
209 229 255
209 229 255
209 229 255
209 229 255
209 229 255
209 229 255
210 229 255
210 229 255
210 229 255
210 229 255
210 229 255
210 229 255
210 229 255
210 229 255
210 229 255
209 229 255
209 229 255
209 229 255
209 229 255
209 229 255
209 229 255
209 229 255
209 229 255
209 229 255
209 229 255
209 229 255
209 229 255
209 229 255
209 229 255
209 229 255
209 229 255
209 229 255
209 229 255
209 229 255
209 229 255
209 229 255
209 228 255
209 228 255
208 228 255
208 228 255
208 228 255
208 228 255
208 228 255
208 228 255
208 228 255
208 228 255
208 228 255
208 228 255
208 228 255
208 228 255
208 228 255
208 228 255
208 228 255
208 228 255
208 228 255
208 228 255
208 228 255
208 228 255
207 228 255
207 228 255
207 228 255
207 228 255
207 228 255
207 228 255
207 228 255
207 228 255
207 228 255
207 228 255
207 228 255
207 228 255
207 228 255
207 228 255
207 227 255
207 227 255
207 227 255
207 227 255
206 227 255
206 227 255
206 227 255
206 227 255
206 227 255
206 227 255
206 227 255
206 227 255
206 227 255
206 227 255
206 227 255
206 227 255
206 227 255
206 227 255
206 227 255
206 227 255
206 227 255
205 227 255
205 227 255
205 227 255
205 227 255
205 227 255
205 227 255
205 227 255
205 227 255
205 227 255
205 227 255
205 226 255
205 226 255
205 226 255
205 226 255
205 226 255
205 226 255
204 226 255
204 226 255
204 226 255
204 226 255
204 226 255
204 226 255
204 226 255
204 226 255
204 226 255
204 226 255
204 226 255
204 226 255
204 226 255
204 226 255
204 226 255
204 226 255
203 226 255
203 226 255
203 226 255
203 226 255
203 226 255
203 226 255
203 226 255
203 225 255
203 225 255
203 225 255
203 225 255
203 225 255
203 225 255
203 225 255
203 225 255
203 225 255
202 225 255
202 225 255
202 225 255
202 225 255
202 225 255
202 225 255
202 225 255
202 225 255
202 225 255
202 225 255
202 225 255
202 225 255
202 225 255
202 225 255
202 225 255
202 225 255
202 225 255
202 225 255
202 225 255
201 225 255
201 225 255
201 225 255
201 225 255
201 225 255
201 225 255
201 224 255
201 224 255
201 224 255
201 224 255
201 224 255
201 224 255
201 224 255
201 224 255
201 224 255
201 224 255
201 224 255
201 224 255
201 224 255
201 224 255
201 224 255
201 224 255
201 224 255
201 224 255
200 224 255
200 224 255
200 224 255
200 224 255
200 224 255
200 224 255
200 224 255
200 224 255
200 224 255
200 224 255
200 224 255
200 224 255
200 224 255
200 224 255
200 224 255
200 224 255
200 224 255
200 224 255
200 224 255
200 224 255
200 224 255
200 224 255
200 224 255
200 224 255
200 224 255
200 224 255
200 224 255
200 224 255
200 224 255
200 224 255
200 224 255
200 224 255
200 224 255
200 224 255
200 224 255
200 224 255
200 224 255
200 224 255
200 224 255
200 224 255
200 224 255
200 224 255
200 224 255
200 224 255
200 224 255
200 224 255
200 224 255
200 224 255
200 224 255
200 224 255
201 224 255
201 224 255
201 224 255
201 224 255
201 224 255
201 224 255
201 224 255
201 224 255
201 224 255
201 224 255
201 224 255
201 224 255
201 224 255
201 224 255
201 224 255
201 224 255
201 224 255
201 224 255
201 225 255
201 225 255
201 225 255
201 225 255
201 225 255
201 225 255
201 225 255
202 225 255
202 225 255
202 225 255
202 225 255
202 225 255
202 225 255
202 225 255
202 225 255
202 225 255
202 225 255
202 225 255
202 225 255
202 225 255
202 225 255
202 225 255
202 225 255
202 225 255
202 225 255
203 225 255
203 225 255
203 225 255
203 225 255
203 225 255
203 225 255
203 225 255
203 225 255
203 225 255
203 226 255
203 226 255
203 226 255
203 226 255
203 226 255
203 226 255
203 226 255
204 226 255
204 226 255
204 226 255
204 226 255
204 226 255
204 226 255
204 226 255
204 226 255
204 226 255
204 226 255
204 226 255
204 226 255
204 226 255
204 226 255
204 226 255
204 226 255
205 226 255
205 226 255
205 226 255
205 226 255
205 226 255
205 226 255
205 227 255
205 227 255
205 227 255
205 227 255
205 227 255
205 227 255
205 227 255
205 227 255
205 227 255
205 227 255
206 227 255
206 227 255
206 227 255
206 227 255
206 227 255
206 227 255
206 227 255
206 227 255
206 227 255
206 227 255
206 227 255
206 227 255
206 227 255
206 227 255
206 227 255
206 227 255
206 227 255
207 227 255
207 227 255
207 227 255
207 227 255
207 228 255
207 228 255
207 228 255
207 228 255
207 228 255
207 228 255
207 228 255
207 228 255
207 228 255
207 228 255
207 228 255
207 228 255
207 228 255
207 228 255
208 228 255
208 228 255
208 228 255
208 228 255
208 228 255
208 228 255
208 228 255
208 228 255
208 228 255
208 228 255
208 228 255
208 228 255
208 228 255
208 228 255
208 228 255
208 228 255
208 228 255
208 228 255
208 228 255
208 228 255
209 228 255
209 228 255
209 229 255
209 229 255
209 229 255
209 229 255
209 229 255
209 229 255
209 229 255
209 229 255
209 229 255
209 229 255
209 229 255
209 229 255
209 229 255
209 229 255
209 229 255
209 229 255
209 229 255
209 229 255
209 229 255
209 229 255
209 229 255
210 229 255
210 229 255
210 229 255
210 229 255
210 229 255
210 229 255
210 229 255
210 229 255
210 229 255
210 229 255
210 229 255
210 229 255
210 229 255
210 229 255
210 229 255
210 229 255
209 229 255
209 229 255
209 229 255
209 229 255
209 229 255
209 229 255
209 229 255
209 229 255
209 229 255
209 229 255
209 229 255
209 229 255
209 229 255
209 229 255
209 229 255
209 229 255
209 229 255
209 229 255
209 229 255
209 229 255
209 229 255
209 228 255
208 228 255
208 228 255
208 228 255
208 228 255
208 228 255
208 228 255
208 228 255
208 228 255
208 228 255
208 228 255
208 228 255
208 228 255
208 228 255
208 228 255
208 228 255
208 228 255
208 228 255
208 228 255
208 228 255
208 228 255
207 228 255
207 228 255
207 228 255
207 228 255
207 228 255
207 228 255
207 228 255
207 228 255
207 228 255
207 228 255
207 228 255
207 228 255
207 228 255
207 228 255
207 227 255
207 227 255
207 227 255
207 227 255
206 227 255
206 227 255
206 227 255
206 227 255
206 227 255
206 227 255
206 227 255
206 227 255
206 227 255
206 227 255
206 227 255
206 227 255
206 227 255
206 227 255
206 227 255
206 227 255
206 227 255
205 227 255
205 227 255
205 227 255
205 227 255
205 227 255
205 227 255
205 227 255
205 227 255
205 227 255
205 227 255
205 226 255
205 226 255
205 226 255
205 226 255
205 226 255
205 226 255
204 226 255
204 226 255
204 226 255
204 226 255
204 226 255
204 226 255
204 226 255
204 226 255
204 226 255
204 226 255
204 226 255
204 226 255
204 226 255
204 226 255
204 226 255
204 226 255
203 226 255
203 226 255
203 226 255
203 226 255
203 226 255
203 226 255
203 226 255
203 226 255
203 225 255
203 225 255
203 225 255
203 225 255
203 225 255
203 225 255
203 225 255
203 225 255
203 225 255
202 225 255
202 225 255
202 225 255
202 225 255
202 225 255
202 225 255
202 225 255
202 225 255
202 225 255
202 225 255
202 225 255
202 225 255
202 225 255
202 225 255
202 225 255
202 225 255
202 225 255
202 225 255
202 225 255
201 225 255
201 225 255
201 225 255
201 225 255
201 225 255
201 225 255
201 224 255
201 224 255
201 224 255
201 224 255
201 224 255
201 224 255
201 224 255
201 224 255
201 224 255
201 224 255
201 224 255
201 224 255
201 224 255
201 224 255
201 224 255
201 224 255
201 224 255
201 224 255
201 224 255
201 224 255
201 224 255
201 224 255
201 224 255
200 224 255
200 224 255
200 224 255
200 224 255
200 224 255
200 224 255
200 224 255
200 224 255
200 224 255
200 224 255
200 224 255
200 224 255
200 224 255
200 224 255
200 224 255
200 224 255
200 224 255
200 224 255
200 224 255
200 224 255
200 224 255
200 224 255
200 224 255
200 224 255
200 224 255
200 224 255
200 224 255
200 224 255
200 224 255
200 224 255
200 224 255
200 224 255
201 224 255
201 224 255
201 224 255
201 224 255
201 224 255
201 224 255
201 224 255
201 224 255
201 224 255
201 224 255
201 224 255
201 224 255
201 224 255
201 224 255
201 224 255
201 224 255
201 224 255
201 224 255
201 224 255
201 224 255
201 224 255
201 224 255
201 224 255
201 225 255
201 225 255
201 225 255
201 225 255
201 225 255
201 225 255
202 225 255
202 225 255
202 225 255
202 225 255
202 225 255
202 225 255
202 225 255
202 225 255
202 225 255
202 225 255
202 225 255
202 225 255
202 225 255
202 225 255
202 225 255
202 225 255
202 225 255
202 225 255
202 225 255
203 225 255
203 225 255
203 225 255
203 225 255
203 225 255
203 225 255
203 225 255
203 225 255
203 225 255
203 225 255
203 226 255
203 226 255
203 226 255
203 226 255
203 226 255
203 226 255
203 226 255
204 226 255
204 226 255
204 226 255
204 226 255
204 226 255
204 226 255
204 226 255
204 226 255
204 226 255
204 226 255
204 226 255
204 226 255
204 226 255
204 226 255
204 226 255
204 226 255
205 226 255
205 226 255
205 226 255
205 226 255
205 226 255
205 226 255
205 227 255
205 227 255
205 227 255
205 227 255
205 227 255
205 227 255
205 227 255
205 227 255
205 227 255
205 227 255
206 227 255
206 227 255
206 227 255
206 227 255
206 227 255
206 227 255
206 227 255
206 227 255
206 227 255
206 227 255
206 227 255
206 227 255
206 227 255
206 227 255
206 227 255
206 227 255
206 227 255
207 227 255
207 227 255
207 227 255
207 227 255
207 227 255
207 228 255
207 228 255
207 228 255
207 228 255
207 228 255
207 228 255
207 228 255
207 228 255
207 228 255
207 228 255
207 228 255
207 228 255
207 228 255
208 228 255
208 228 255
208 228 255
208 228 255
208 228 255
208 228 255
208 228 255
208 228 255
208 228 255
208 228 255
208 228 255
208 228 255
208 228 255
208 228 255
208 228 255
208 228 255
208 228 255
208 228 255
208 228 255
208 228 255
209 228 255
209 229 255
209 229 255
209 229 255
209 229 255
209 229 255
209 229 255
209 229 255
209 229 255
209 229 255
209 229 255
209 229 255
209 229 255
209 229 255
209 229 255
209 229 255
209 229 255
209 229 255
209 229 255
209 229 255
209 229 255
209 229 255
210 229 255
210 229 255
210 229 255
210 229 255
210 229 255
210 229 255
210 229 255
210 229 255
210 229 255
210 229 255
210 229 255
210 229 255
210 229 255
210 229 255
210 229 255
210 229 255
210 229 255
210 229 255
210 229 255
210 229 255
210 229 255
210 229 255
210 229 255
209 229 255
209 229 255
209 229 255
209 229 255
209 229 255
209 229 255
209 229 255
209 229 255
209 229 255
209 229 255
209 229 255
209 229 255
209 229 255
209 229 255
209 229 255
209 229 255
209 229 255
209 229 255
209 229 255
209 229 255
209 229 255
209 228 255
209 228 255
208 228 255
208 228 255
208 228 255
208 228 255
208 228 255
208 228 255
208 228 255
208 228 255
208 228 255
208 228 255
208 228 255
208 228 255
208 228 255
208 228 255
208 228 255
208 228 255
208 228 255
208 228 255
208 228 255
207 228 255
207 228 255
207 228 255
207 228 255
207 228 255
207 228 255
207 228 255
207 228 255
207 228 255
207 228 255
207 228 255
207 228 255
207 228 255
207 228 255
207 227 255
207 227 255
207 227 255
207 227 255
206 227 255
206 227 255
206 227 255
206 227 255
206 227 255
206 227 255
206 227 255
206 227 255
206 227 255
206 227 255
206 227 255
206 227 255
206 227 255
206 227 255
206 227 255
206 227 255
206 227 255
205 227 255
205 227 255
205 227 255
205 227 255
205 227 255
205 227 255
205 227 255
205 227 255
205 227 255
205 227 255
205 226 255
205 226 255
205 226 255
205 226 255
205 226 255
205 226 255
204 226 255
204 226 255
204 226 255
204 226 255
204 226 255
204 226 255
204 226 255
204 226 255
204 226 255
204 226 255
204 226 255
204 226 255
204 226 255
204 226 255
204 226 255
204 226 255
204 226 255
203 226 255
203 226 255
203 226 255
203 226 255
203 226 255
203 226 255
203 226 255
203 225 255
203 225 255
203 225 255
203 225 255
203 225 255
203 225 255
203 225 255
203 225 255
203 225 255
202 225 255
202 225 255
202 225 255
202 225 255
202 225 255
202 225 255
202 225 255
202 225 255
202 225 255
202 225 255
202 225 255
202 225 255
202 225 255
202 225 255
202 225 255
202 225 255
202 225 255
202 225 255
202 225 255
202 225 255
202 225 255
201 225 255
201 225 255
201 225 255
201 225 255
201 225 255
201 225 255
201 225 255
201 224 255
201 224 255
201 224 255
201 224 255
201 224 255
201 224 255
201 224 255
201 224 255
201 224 255
201 224 255
201 224 255
201 224 255
201 224 255
201 224 255
201 224 255
201 224 255
201 224 255
201 224 255
201 224 255
201 224 255
201 224 255
201 224 255
201 224 255
201 224 255
201 224 255
201 224 255
201 224 255
201 224 255
201 224 255
201 224 255
201 224 255
201 224 255
201 224 255
201 224 255
201 224 255
201 224 255
201 224 255
201 224 255
201 224 255
201 224 255
201 224 255
201 224 255
201 224 255
201 224 255
201 224 255
201 224 255
201 224 255
201 224 255
201 224 255
201 224 255
201 224 255
201 224 255
201 224 255
201 224 255
201 224 255
201 224 255
201 224 255
201 224 255
201 224 255
201 224 255
201 224 255
201 224 255
201 224 255
201 224 255
201 224 255
201 224 255
201 225 255
201 225 255
201 225 255
201 225 255
201 225 255
201 225 255
201 225 255
202 225 255
202 225 255
202 225 255
202 225 255
202 225 255
202 225 255
202 225 255
202 225 255
202 225 255
202 225 255
202 225 255
202 225 255
202 225 255
202 225 255
202 225 255
202 225 255
202 225 255
202 225 255
202 225 255
202 225 255
203 225 255
203 225 255
203 225 255
203 225 255
203 225 255
203 225 255
203 225 255
203 225 255
203 225 255
203 225 255
203 226 255
203 226 255
203 226 255
203 226 255
203 226 255
203 226 255
203 226 255
204 226 255
204 226 255
204 226 255
204 226 255
204 226 255
204 226 255
204 226 255
204 226 255
204 226 255
204 226 255
204 226 255
204 226 255
204 226 255
204 226 255
204 226 255
204 226 255
204 226 255
205 226 255
205 226 255
205 226 255
205 226 255
205 226 255
205 226 255
205 227 255
205 227 255
205 227 255
205 227 255
205 227 255
205 227 255
205 227 255
205 227 255
205 227 255
205 227 255
206 227 255
206 227 255
206 227 255
206 227 255
206 227 255
206 227 255
206 227 255
206 227 255
206 227 255
206 227 255
206 227 255
206 227 255
206 227 255
206 227 255
206 227 255
206 227 255
206 227 255
207 227 255
207 227 255
207 227 255
207 227 255
207 228 255
207 228 255
207 228 255
207 228 255
207 228 255
207 228 255
207 228 255
207 228 255
207 228 255
207 228 255
207 228 255
207 228 255
207 228 255
207 228 255
208 228 255
208 228 255
208 228 255
208 228 255
208 228 255
208 228 255
208 228 255
208 228 255
208 228 255
208 228 255
208 228 255
208 228 255
208 228 255
208 228 255
208 228 255
208 228 255
208 228 255
208 228 255
208 228 255
208 228 255
209 228 255
209 229 255
209 229 255
209 229 255
209 229 255
209 229 255
209 229 255
209 229 255
209 229 255
209 229 255
209 229 255
209 229 255
209 229 255
209 229 255
209 229 255
209 229 255
209 229 255
209 229 255
209 229 255
209 229 255
209 229 255
210 229 255
210 229 255
210 229 255
210 229 255
210 229 255
210 229 255
210 229 255
210 229 255
210 229 255
210 229 255
210 229 255
210 229 255
210 229 255
210 229 255
210 229 255
210 229 255
210 229 255
210 229 255
210 229 255
210 229 255
210 229 255
210 229 255
210 229 255
210 229 255
210 229 255
210 229 255
210 229 255
210 229 255
210 229 255
210 229 255
210 229 255
209 229 255
209 229 255
209 229 255
209 229 255
209 229 255
209 229 255
209 229 255
209 229 255
209 229 255
209 229 255
209 229 255
209 229 255
209 229 255
209 229 255
209 229 255
209 229 255
209 229 255
209 229 255
209 229 255
209 229 255
209 228 255
209 228 255
208 228 255
208 228 255
208 228 255
208 228 255
208 228 255
208 228 255
208 228 255
208 228 255
208 228 255
208 228 255
208 228 255
208 228 255
208 228 255
208 228 255
208 228 255
208 228 255
208 228 255
208 228 255
208 228 255
207 228 255
207 228 255
207 228 255
207 228 255
207 228 255
207 228 255
207 228 255
207 228 255
207 228 255
207 228 255
207 228 255
207 228 255
207 228 255
207 228 255
207 227 255
207 227 255
207 227 255
207 227 255
206 227 255
206 227 255
206 227 255
206 227 255
206 227 255
206 227 255
206 227 255
206 227 255
206 227 255
206 227 255
206 227 255
206 227 255
206 227 255
206 227 255
206 227 255
206 227 255
206 227 255
205 227 255
205 227 255
205 227 255
205 227 255
205 227 255
205 227 255
205 227 255
205 227 255
205 227 255
205 227 255
205 226 255
205 226 255
205 226 255
205 226 255
205 226 255
205 226 255
205 226 255
204 226 255
204 226 255
204 226 255
204 226 255
204 226 255
204 226 255
204 226 255
204 226 255
204 226 255
204 226 255
204 226 255
204 226 255
204 226 255
204 226 255
204 226 255
204 226 255
203 226 255
203 226 255
203 226 255
203 226 255
203 226 255
203 226 255
203 226 255
203 226 255
203 225 255
203 225 255
203 225 255
203 225 255
203 225 255
203 225 255
203 225 255
203 225 255
203 225 255
203 225 255
202 225 255
202 225 255
202 225 255
202 225 255
202 225 255
202 225 255
202 225 255
202 225 255
202 225 255
202 225 255
202 225 255
202 225 255
202 225 255
202 225 255
202 225 255
202 225 255
202 225 255
202 225 255
202 225 255
202 225 255
202 225 255
201 225 255
201 225 255
201 225 255
201 225 255
201 225 255
201 225 255
201 225 255
201 225 255
201 224 255
201 224 255
201 224 255
201 224 255
201 224 255
201 224 255
201 224 255
201 224 255
201 224 255
201 224 255
201 224 255
201 224 255
201 224 255
201 224 255
201 224 255
201 224 255
201 224 255
201 224 255
201 224 255
201 224 255
201 224 255
201 224 255
201 224 255
201 224 255
201 224 255
201 224 255
201 224 255
201 224 255
201 224 255
201 224 255
201 224 255
201 224 255
201 224 255
201 224 255
201 224 255
201 224 255
201 224 255
201 224 255
201 224 255
201 224 255
201 224 255
201 224 255
201 224 255
201 224 255
201 224 255
201 224 255
201 224 255
201 224 255
201 224 255
201 224 255
201 224 255
201 224 255
201 224 255
201 224 255
201 225 255
201 225 255
201 225 255
201 225 255
201 225 255
201 225 255
201 225 255
201 225 255
202 225 255
202 225 255
202 225 255
202 225 255
202 225 255
202 225 255
202 225 255
202 225 255
202 225 255
202 225 255
202 225 255
202 225 255
202 225 255
202 225 255
202 225 255
202 225 255
202 225 255
202 225 255
202 225 255
202 225 255
202 225 255
203 225 255
203 225 255
203 225 255
203 225 255
203 225 255
203 225 255
203 225 255
203 225 255
203 225 255
203 225 255
203 226 255
203 226 255
203 226 255
203 226 255
203 226 255
203 226 255
203 226 255
203 226 255
204 226 255
204 226 255
204 226 255
204 226 255
204 226 255
204 226 255
204 226 255
204 226 255
204 226 255
204 226 255
204 226 255
204 226 255
204 226 255
204 226 255
204 226 255
204 226 255
205 226 255
205 226 255
205 226 255
205 226 255
205 226 255
205 226 255
205 226 255
205 227 255
205 227 255
205 227 255
205 227 255
205 227 255
205 227 255
205 227 255
205 227 255
205 227 255
205 227 255
206 227 255
206 227 255
206 227 255
206 227 255
206 227 255
206 227 255
206 227 255
206 227 255
206 227 255
206 227 255
206 227 255
206 227 255
206 227 255
206 227 255
206 227 255
206 227 255
206 227 255
207 227 255
207 227 255
207 227 255
207 227 255
207 228 255
207 228 255
207 228 255
207 228 255
207 228 255
207 228 255
207 228 255
207 228 255
207 228 255
207 228 255
207 228 255
207 228 255
207 228 255
208 228 255
208 228 255
208 228 255
208 228 255
208 228 255
208 228 255
208 228 255
208 228 255
208 228 255
208 228 255
208 228 255
208 228 255
208 228 255
208 228 255
208 228 255
208 228 255
208 228 255
208 228 255
208 228 255
208 228 255
209 228 255
209 228 255
209 229 255
209 229 255
209 229 255
209 229 255
209 229 255
209 229 255
209 229 255
209 229 255
209 229 255
209 229 255
209 229 255
209 229 255
209 229 255
209 229 255
209 229 255
209 229 255
209 229 255
209 229 255
209 229 255
209 229 255
210 229 255
210 229 255
210 229 255
210 229 255
210 229 255
210 229 255
210 229 255
210 229 255
210 229 255
210 229 255
210 229 255
210 229 255
210 229 255
210 229 255
210 229 255
210 229 255
210 229 255
210 229 255
210 229 255
210 229 255
210 229 255
210 229 255
210 229 255
210 229 255
210 229 255
210 229 255
210 229 255
210 229 255
210 229 255
210 229 255
210 229 255
210 229 255
210 229 255
210 229 255
210 229 255
210 229 255
210 229 255
210 229 255
209 229 255
209 229 255
209 229 255
209 229 255
209 229 255
209 229 255
209 229 255
209 229 255
209 229 255
209 229 255
209 229 255
209 229 255
209 229 255
209 229 255
209 229 255
209 229 255
209 229 255
209 229 255
209 229 255
209 229 255
209 228 255
208 228 255
208 228 255
208 228 255
208 228 255
208 228 255
208 228 255
208 228 255
208 228 255
208 228 255
208 228 255
208 228 255
208 228 255
208 228 255
208 228 255
208 228 255
208 228 255
208 228 255
208 228 255
208 228 255
208 228 255
207 228 255
207 228 255
207 228 255
207 228 255
207 228 255
207 228 255
207 228 255
207 228 255
207 228 255
207 228 255
207 228 255
207 228 255
207 228 255
207 227 255
207 227 255
207 227 255
207 227 255
207 227 255
206 227 255
206 227 255
206 227 255
206 227 255
206 227 255
206 227 255
206 227 255
206 227 255
206 227 255
206 227 255
206 227 255
206 227 255
206 227 255
206 227 255
206 227 255
206 227 255
206 227 255
205 227 255
205 227 255
205 227 255
205 227 255
205 227 255
205 227 255
205 227 255
205 227 255
205 227 255
205 226 255
205 226 255
205 226 255
205 226 255
205 226 255
205 226 255
205 226 255
204 226 255
204 226 255
204 226 255
204 226 255
204 226 255
204 226 255
204 226 255
204 226 255
204 226 255
204 226 255
204 226 255
204 226 255
204 226 255
204 226 255
204 226 255
204 226 255
204 226 255
203 226 255
203 226 255
203 226 255
203 226 255
203 226 255
203 226 255
203 226 255
203 225 255
203 225 255
203 225 255
203 225 255
203 225 255
203 225 255
203 225 255
203 225 255
203 225 255
203 225 255
203 225 255
202 225 255
202 225 255
202 225 255
202 225 255
202 225 255
202 225 255
202 225 255
202 225 255
202 225 255
202 225 255
202 225 255
202 225 255
202 225 255
202 225 255
202 225 255
202 225 255
202 225 255
202 225 255
202 225 255
202 225 255
202 225 255
202 225 255
202 225 255
201 225 255
201 225 255
201 225 255
201 225 255
201 225 255
201 225 255
201 225 255
201 225 255
201 225 255
201 225 255
201 225 255
201 224 255
201 224 255
201 224 255
201 224 255
201 224 255
201 224 255
201 224 255
201 224 255
201 224 255
201 224 255
201 224 255
201 224 255
201 224 255
201 224 255
201 224 255
201 224 255
201 224 255
201 224 255
201 224 255
201 224 255
201 224 255
201 224 255
201 224 255
201 224 255
201 224 255
201 224 255
201 224 255
201 224 255
201 224 255
201 224 255
201 224 255
201 224 255
201 224 255
201 224 255
201 224 255
201 224 255
201 225 255
201 225 255
201 225 255
201 225 255
201 225 255
201 225 255
201 225 255
201 225 255
201 225 255
201 225 255
201 225 255
202 225 255
202 225 255
202 225 255
202 225 255
202 225 255
202 225 255
202 225 255
202 225 255
202 225 255
202 225 255
202 225 255
202 225 255
202 225 255
202 225 255
202 225 255
202 225 255
202 225 255
202 225 255
202 225 255
202 225 255
202 225 255
202 225 255
202 225 255
203 225 255
203 225 255
203 225 255
203 225 255
203 225 255
203 225 255
203 225 255
203 225 255
203 225 255
203 225 255
203 225 255
203 226 255
203 226 255
203 226 255
203 226 255
203 226 255
203 226 255
203 226 255
204 226 255
204 226 255
204 226 255
204 226 255
204 226 255
204 226 255
204 226 255
204 226 255
204 226 255
204 226 255
204 226 255
204 226 255
204 226 255
204 226 255
204 226 255
204 226 255
204 226 255
205 226 255
205 226 255
205 226 255
205 226 255
205 226 255
205 226 255
205 226 255
205 227 255
205 227 255
205 227 255
205 227 255
205 227 255
205 227 255
205 227 255
205 227 255
205 227 255
205 227 255
206 227 255
206 227 255
206 227 255
206 227 255
206 227 255
206 227 255
206 227 255
206 227 255
206 227 255
206 227 255
206 227 255
206 227 255
206 227 255
206 227 255
206 227 255
206 227 255
207 227 255
207 227 255
207 227 255
207 227 255
207 228 255
207 228 255
207 228 255
207 228 255
207 228 255
207 228 255
207 228 255
207 228 255
207 228 255
207 228 255
207 228 255
207 228 255
207 228 255
207 228 255
208 228 255
208 228 255
208 228 255
208 228 255
208 228 255
208 228 255
208 228 255
208 228 255
208 228 255
208 228 255
208 228 255
208 228 255
208 228 255
208 228 255
208 228 255
208 228 255
208 228 255
208 228 255
208 228 255
208 228 255
209 228 255
209 229 255
209 229 255
209 229 255
209 229 255
209 229 255
209 229 255
209 229 255
209 229 255
209 229 255
209 229 255
209 229 255
209 229 255
209 229 255
209 229 255
209 229 255
209 229 255
209 229 255
209 229 255
209 229 255
209 229 255
210 229 255
210 229 255
210 229 255
210 229 255
210 229 255
210 229 255
210 229 255
210 229 255
210 229 255
210 229 255
210 229 255
210 229 255
210 229 255
210 229 255
210 229 255
210 229 255
210 229 255
210 229 255
210 229 255
210 229 255
210 229 255
210 230 255
210 230 255
210 230 255
210 229 255
210 229 255
210 229 255
210 229 255
210 229 255
210 229 255
210 229 255
210 229 255
210 229 255
210 229 255
210 229 255
210 229 255
210 229 255
210 229 255
210 229 255
210 229 255
210 229 255
210 229 255
210 229 255
210 229 255
210 229 255
209 229 255
209 229 255
209 229 255
209 229 255
209 229 255
209 229 255
209 229 255
209 229 255
209 229 255
209 229 255
209 229 255
209 229 255
209 229 255
209 229 255
209 229 255
209 229 255
209 229 255
209 229 255
209 229 255
209 229 255
209 228 255
209 228 255
208 228 255
208 228 255
208 228 255
208 228 255
208 228 255
208 228 255
208 228 255
208 228 255
208 228 255
208 228 255
208 228 255
208 228 255
208 228 255
208 228 255
208 228 255
208 228 255
208 228 255
208 228 255
208 228 255
207 228 255
207 228 255
207 228 255
207 228 255
207 228 255
207 228 255
207 228 255
207 228 255
207 228 255
207 228 255
207 228 255
207 228 255
207 228 255
207 228 255
207 227 255
207 227 255
207 227 255
207 227 255
206 227 255
206 227 255
206 227 255
206 227 255
206 227 255
206 227 255
206 227 255
206 227 255
206 227 255
206 227 255
206 227 255
206 227 255
206 227 255
206 227 255
206 227 255
206 227 255
206 227 255
205 227 255
205 227 255
205 227 255
205 227 255
205 227 255
205 227 255
205 227 255
205 227 255
205 227 255
205 227 255
205 226 255
205 226 255
205 226 255
205 226 255
205 226 255
205 226 255
205 226 255
204 226 255
204 226 255
204 226 255
204 226 255
204 226 255
204 226 255
204 226 255
204 226 255
204 226 255
204 226 255
204 226 255
204 226 255
204 226 255
204 226 255
204 226 255
204 226 255
203 226 255
203 226 255
203 226 255
203 226 255
203 226 255
203 226 255
203 226 255
203 226 255
203 225 255
203 225 255
203 225 255
203 225 255
203 225 255
203 225 255
203 225 255
203 225 255
203 225 255
203 225 255
203 225 255
202 225 255
202 225 255
202 225 255
202 225 255
202 225 255
202 225 255
202 225 255
202 225 255
202 225 255
202 225 255
202 225 255
202 225 255
202 225 255
202 225 255
202 225 255
202 225 255
202 225 255
202 225 255
202 225 255
202 225 255
202 225 255
202 225 255
202 225 255
202 225 255
202 225 255
202 225 255
201 225 255
201 225 255
201 225 255
201 225 255
201 225 255
201 225 255
201 225 255
201 225 255
201 225 255
201 225 255
201 225 255
201 225 255
201 225 255
201 225 255
201 225 255
201 225 255
201 225 255
201 225 255
201 225 255
201 225 255
201 225 255
201 225 255
201 225 255
201 225 255
201 225 255
201 225 255
201 225 255
201 225 255
201 225 255
201 225 255
201 225 255
201 225 255
201 225 255
201 225 255
201 225 255
201 225 255
201 225 255
201 225 255
201 225 255
201 225 255
201 225 255
201 225 255
201 225 255
201 225 255
202 225 255
202 225 255
202 225 255
202 225 255
202 225 255
202 225 255
202 225 255
202 225 255
202 225 255
202 225 255
202 225 255
202 225 255
202 225 255
202 225 255
202 225 255
202 225 255
202 225 255
202 225 255
202 225 255
202 225 255
202 225 255
202 225 255
202 225 255
202 225 255
202 225 255
202 225 255
203 225 255
203 225 255
203 225 255
203 225 255
203 225 255
203 225 255
203 225 255
203 225 255
203 225 255
203 225 255
203 225 255
203 226 255
203 226 255
203 226 255
203 226 255
203 226 255
203 226 255
203 226 255
203 226 255
204 226 255
204 226 255
204 226 255
204 226 255
204 226 255
204 226 255
204 226 255
204 226 255
204 226 255
204 226 255
204 226 255
204 226 255
204 226 255
204 226 255
204 226 255
204 226 255
204 226 255
205 226 255
205 226 255
205 226 255
205 226 255
205 226 255
205 226 255
205 227 255
205 227 255
205 227 255
205 227 255
205 227 255
205 227 255
205 227 255
205 227 255
205 227 255
205 227 255
206 227 255
206 227 255
206 227 255
206 227 255
206 227 255
206 227 255
206 227 255
206 227 255
206 227 255
206 227 255
206 227 255
206 227 255
206 227 255
206 227 255
206 227 255
206 227 255
206 227 255
207 227 255
207 227 255
207 227 255
207 227 255
207 228 255
207 228 255
207 228 255
207 228 255
207 228 255
207 228 255
207 228 255
207 228 255
207 228 255
207 228 255
207 228 255
207 228 255
207 228 255
207 228 255
208 228 255
208 228 255
208 228 255
208 228 255
208 228 255
208 228 255
208 228 255
208 228 255
208 228 255
208 228 255
208 228 255
208 228 255
208 228 255
208 228 255
208 228 255
208 228 255
208 228 255
208 228 255
208 228 255
209 228 255
209 228 255
209 229 255
209 229 255
209 229 255
209 229 255
209 229 255
209 229 255
209 229 255
209 229 255
209 229 255
209 229 255
209 229 255
209 229 255
209 229 255
209 229 255
209 229 255
209 229 255
209 229 255
209 229 255
209 229 255
209 229 255
210 229 255
210 229 255
210 229 255
210 229 255
210 229 255
210 229 255
210 229 255
210 229 255
210 229 255
210 229 255
210 229 255
210 229 255
210 229 255
210 229 255
210 229 255
210 229 255
210 229 255
210 229 255
210 229 255
210 229 255
210 229 255
210 230 255
210 230 255
210 230 255
211 230 255
211 230 255
211 230 255
211 230 255
210 230 255
210 230 255
210 230 255
210 229 255
210 229 255
210 229 255
210 229 255
210 229 255
210 229 255
210 229 255
210 229 255
210 229 255
210 229 255
210 229 255
210 229 255
210 229 255
210 229 255
210 229 255
210 229 255
210 229 255
210 229 255
210 229 255
210 229 255
210 229 255
209 229 255
209 229 255
209 229 255
209 229 255
209 229 255
209 229 255
209 229 255
209 229 255
209 229 255
209 229 255
209 229 255
209 229 255
209 229 255
209 229 255
209 229 255
209 229 255
209 229 255
209 229 255
209 229 255
209 229 255
209 228 255
208 228 255
208 228 255
208 228 255
208 228 255
208 228 255
208 228 255
208 228 255
208 228 255
208 228 255
208 228 255
208 228 255
208 228 255
208 228 255
208 228 255
208 228 255
208 228 255
208 228 255
208 228 255
208 228 255
208 228 255
207 228 255
207 228 255
207 228 255
207 228 255
207 228 255
207 228 255
207 228 255
207 228 255
207 228 255
207 228 255
207 228 255
207 228 255
207 228 255
207 227 255
207 227 255
207 227 255
207 227 255
206 227 255
206 227 255
206 227 255
206 227 255
206 227 255
206 227 255
206 227 255
206 227 255
206 227 255
206 227 255
206 227 255
206 227 255
206 227 255
206 227 255
206 227 255
206 227 255
206 227 255
205 227 255
205 227 255
205 227 255
205 227 255
205 227 255
205 227 255
205 227 255
205 227 255
205 227 255
205 227 255
205 226 255
205 226 255
205 226 255
205 226 255
205 226 255
205 226 255
205 226 255
204 226 255
204 226 255
204 226 255
204 226 255
204 226 255
204 226 255
204 226 255
204 226 255
204 226 255
204 226 255
204 226 255
204 226 255
204 226 255
204 226 255
204 226 255
204 226 255
204 226 255
203 226 255
203 226 255
203 226 255
203 226 255
203 226 255
203 226 255
203 226 255
203 226 255
203 225 255
203 225 255
203 225 255
203 225 255
203 225 255
203 225 255
203 225 255
203 225 255
203 225 255
203 225 255
203 225 255
203 225 255
202 225 255
202 225 255
202 225 255
202 225 255
202 225 255
202 225 255
202 225 255
202 225 255
202 225 255
202 225 255
202 225 255
202 225 255
202 225 255
202 225 255
202 225 255
202 225 255
202 225 255
202 225 255
202 225 255
202 225 255
202 225 255
202 225 255
202 225 255
202 225 255
202 225 255
202 225 255
202 225 255
202 225 255
202 225 255
202 225 255
202 225 255
202 225 255
202 225 255
202 225 255
202 225 255
201 225 255
201 225 255
201 225 255
201 225 255
201 225 255
201 225 255
201 225 255
201 225 255
201 225 255
201 225 255
201 225 255
201 225 255
201 225 255
201 225 255
201 225 255
201 225 255
202 225 255
202 225 255
202 225 255
202 225 255
202 225 255
202 225 255
202 225 255
202 225 255
202 225 255
202 225 255
202 225 255
202 225 255
202 225 255
202 225 255
202 225 255
202 225 255
202 225 255
202 225 255
202 225 255
202 225 255
202 225 255
202 225 255
202 225 255
202 225 255
202 225 255
202 225 255
202 225 255
202 225 255
202 225 255
202 225 255
202 225 255
202 225 255
202 225 255
202 225 255
202 225 255
203 225 255
203 225 255
203 225 255
203 225 255
203 225 255
203 225 255
203 225 255
203 225 255
203 225 255
203 225 255
203 225 255
203 225 255
203 226 255
203 226 255
203 226 255
203 226 255
203 226 255
203 226 255
203 226 255
203 226 255
204 226 255
204 226 255
204 226 255
204 226 255
204 226 255
204 226 255
204 226 255
204 226 255
204 226 255
204 226 255
204 226 255
204 226 255
204 226 255
204 226 255
204 226 255
204 226 255
204 226 255
205 226 255
205 226 255
205 226 255
205 226 255
205 226 255
205 226 255
205 226 255
205 227 255
205 227 255
205 227 255
205 227 255
205 227 255
205 227 255
205 227 255
205 227 255
205 227 255
205 227 255
206 227 255
206 227 255
206 227 255
206 227 255
206 227 255
206 227 255
206 227 255
206 227 255
206 227 255
206 227 255
206 227 255
206 227 255
206 227 255
206 227 255
206 227 255
206 227 255
206 227 255
207 227 255
207 227 255
207 227 255
207 227 255
207 228 255
207 228 255
207 228 255
207 228 255
207 228 255
207 228 255
207 228 255
207 228 255
207 228 255
207 228 255
207 228 255
207 228 255
207 228 255
208 228 255
208 228 255
208 228 255
208 228 255
208 228 255
208 228 255
208 228 255
208 228 255
208 228 255
208 228 255
208 228 255
208 228 255
208 228 255
208 228 255
208 228 255
208 228 255
208 228 255
208 228 255
208 228 255
208 228 255
209 228 255
209 229 255
209 229 255
209 229 255
209 229 255
209 229 255
209 229 255
209 229 255
209 229 255
209 229 255
209 229 255
209 229 255
209 229 255
209 229 255
209 229 255
209 229 255
209 229 255
209 229 255
209 229 255
209 229 255
209 229 255
210 229 255
210 229 255
210 229 255
210 229 255
210 229 255
210 229 255
210 229 255
210 229 255
210 229 255
210 229 255
210 229 255
210 229 255
210 229 255
210 229 255
210 229 255
210 229 255
210 229 255
210 229 255
210 229 255
210 229 255
210 229 255
210 230 255
210 230 255
210 230 255
211 230 255
211 230 255
211 230 255
211 230 255
211 230 255
211 230 255
211 230 255
211 230 255
211 230 255
211 230 255
211 230 255
211 230 255
210 230 255
210 230 255
210 230 255
210 229 255
210 229 255
210 229 255
210 229 255
210 229 255
210 229 255
210 229 255
210 229 255
210 229 255
210 229 255
210 229 255
210 229 255
210 229 255
210 229 255
210 229 255
210 229 255
210 229 255
210 229 255
210 229 255
210 229 255
210 229 255
209 229 255
209 229 255
209 229 255
209 229 255
209 229 255
209 229 255
209 229 255
209 229 255
209 229 255
209 229 255
209 229 255
209 229 255
209 229 255
209 229 255
209 229 255
209 229 255
209 229 255
209 229 255
209 229 255
209 228 255
209 228 255
208 228 255
208 228 255
208 228 255
208 228 255
208 228 255
208 228 255
208 228 255
208 228 255
208 228 255
208 228 255
208 228 255
208 228 255
208 228 255
208 228 255
208 228 255
208 228 255
208 228 255
208 228 255
208 228 255
207 228 255
207 228 255
207 228 255
207 228 255
207 228 255
207 228 255
207 228 255
207 228 255
207 228 255
207 228 255
207 228 255
207 228 255
207 228 255
207 228 255
207 227 255
207 227 255
207 227 255
207 227 255
206 227 255
206 227 255
206 227 255
206 227 255
206 227 255
206 227 255
206 227 255
206 227 255
206 227 255
206 227 255
206 227 255
206 227 255
206 227 255
206 227 255
206 227 255
206 227 255
206 227 255
205 227 255
205 227 255
205 227 255
205 227 255
205 227 255
205 227 255
205 227 255
205 227 255
205 227 255
205 227 255
205 226 255
205 226 255
205 226 255
205 226 255
205 226 255
205 226 255
205 226 255
204 226 255
204 226 255
204 226 255
204 226 255
204 226 255
204 226 255
204 226 255
204 226 255
204 226 255
204 226 255
204 226 255
204 226 255
204 226 255
204 226 255
204 226 255
204 226 255
204 226 255
203 226 255
203 226 255
203 226 255
203 226 255
203 226 255
203 226 255
203 226 255
203 226 255
203 226 255
203 225 255
203 225 255
203 225 255
203 225 255
203 225 255
203 225 255
203 225 255
203 225 255
203 225 255
203 225 255
203 225 255
203 225 255
202 225 255
202 225 255
202 225 255
202 225 255
202 225 255
202 225 255
202 225 255
202 225 255
202 225 255
202 225 255
202 225 255
202 225 255
202 225 255
202 225 255
202 225 255
202 225 255
202 225 255
202 225 255
202 225 255
202 225 255
202 225 255
202 225 255
202 225 255
202 225 255
202 225 255
202 225 255
202 225 255
202 225 255
202 225 255
202 225 255
202 225 255
202 225 255
202 225 255
202 225 255
202 225 255
202 225 255
202 225 255
202 225 255
202 225 255
202 225 255
202 225 255
202 225 255
202 225 255
202 225 255
202 225 255
202 225 255
202 225 255
202 225 255
202 225 255
202 225 255
202 225 255
202 225 255
202 225 255
202 225 255
202 225 255
202 225 255
202 225 255
202 225 255
202 225 255
202 225 255
202 225 255
202 225 255
202 225 255
202 225 255
202 225 255
202 225 255
202 225 255
202 225 255
202 225 255
202 225 255
202 225 255
202 225 255
202 225 255
202 225 255
202 225 255
202 225 255
203 225 255
203 225 255
203 225 255
203 225 255
203 225 255
203 225 255
203 225 255
203 225 255
203 225 255
203 225 255
203 225 255
203 225 255
203 226 255
203 226 255
203 226 255
203 226 255
203 226 255
203 226 255
203 226 255
203 226 255
203 226 255
204 226 255
204 226 255
204 226 255
204 226 255
204 226 255
204 226 255
204 226 255
204 226 255
204 226 255
204 226 255
204 226 255
204 226 255
204 226 255
204 226 255
204 226 255
204 226 255
204 226 255
204 226 255
205 226 255
205 226 255
205 226 255
205 226 255
205 226 255
205 226 255
205 227 255
205 227 255
205 227 255
205 227 255
205 227 255
205 227 255
205 227 255
205 227 255
205 227 255
205 227 255
206 227 255
206 227 255
206 227 255
206 227 255
206 227 255
206 227 255
206 227 255
206 227 255
206 227 255
206 227 255
206 227 255
206 227 255
206 227 255
206 227 255
206 227 255
206 227 255
206 227 255
207 227 255
207 227 255
207 227 255
207 227 255
207 227 255
207 228 255
207 228 255
207 228 255
207 228 255
207 228 255
207 228 255
207 228 255
207 228 255
207 228 255
207 228 255
207 228 255
207 228 255
207 228 255
208 228 255
208 228 255
208 228 255
208 228 255
208 228 255
208 228 255
208 228 255
208 228 255
208 228 255
208 228 255
208 228 255
208 228 255
208 228 255
208 228 255
208 228 255
208 228 255
208 228 255
208 228 255
208 228 255
209 228 255
209 228 255
209 229 255
209 229 255
209 229 255
209 229 255
209 229 255
209 229 255
209 229 255
209 229 255
209 229 255
209 229 255
209 229 255
209 229 255
209 229 255
209 229 255
209 229 255
209 229 255
209 229 255
209 229 255
209 229 255
210 229 255
210 229 255
210 229 255
210 229 255
210 229 255
210 229 255
210 229 255
210 229 255
210 229 255
210 229 255
210 229 255
210 229 255
210 229 255
210 229 255
210 229 255
210 229 255
210 229 255
210 229 255
210 229 255
210 229 255
210 229 255
210 230 255
210 230 255
210 230 255
211 230 255
211 230 255
211 230 255
211 230 255
211 230 255
211 230 255
211 230 255
211 230 255
211 230 255
211 230 255
211 230 255
211 230 255
211 230 255
211 230 255
211 230 255
211 230 255
211 230 255
211 230 255
211 230 255
211 230 255
210 230 255
210 230 255
210 229 255
210 229 255
210 229 255
210 229 255
210 229 255
210 229 255
210 229 255
210 229 255
210 229 255
210 229 255
210 229 255
210 229 255
210 229 255
210 229 255
210 229 255
210 229 255
210 229 255
210 229 255
210 229 255
210 229 255
210 229 255
210 229 255
209 229 255
207 227 253
207 226 252
200 220 246
202 221 247
201 221 247
198 217 243
196 216 242
198 218 245
195 214 241
194 214 240
194 214 241
193 213 239
189 209 236
191 211 237
192 212 239
190 210 236
193 213 240
191 211 238
195 214 241
196 216 243
196 216 243
198 218 245
201 221 248
201 221 248
202 222 249
204 224 251
207 227 254
207 228 255
208 228 255
208 228 255
208 228 255
208 228 255
208 228 255
208 228 255
208 228 255
208 228 255
208 228 255
208 228 255
207 228 255
207 228 255
207 228 255
207 228 255
207 228 255
207 228 255
207 228 255
207 228 255
207 228 255
207 228 255
207 228 255
207 228 255
207 228 255
207 228 255
207 227 255
207 227 255
207 227 255
207 227 255
206 227 255
206 227 255
206 227 255
206 227 255
206 227 255
206 227 255
206 227 255
206 227 255
206 227 255
206 227 255
206 227 255
206 227 255
206 227 255
206 227 255
206 227 255
206 227 255
206 227 255
205 227 255
205 227 255
205 227 255
205 227 255
205 227 255
205 227 255
205 227 255
205 227 255
205 227 255
205 227 255
205 226 255
205 226 255
205 226 255
205 226 255
205 226 255
205 226 255
205 226 255
204 226 255
204 226 255
204 226 255
204 226 255
204 226 255
204 226 255
204 226 255
204 226 255
204 226 255
204 226 255
204 226 255
204 226 255
204 226 255
204 226 255
204 226 255
204 226 255
204 226 255
204 226 255
204 226 255
203 226 255
203 226 255
203 226 255
203 226 255
203 226 255
203 226 255
203 226 255
203 226 255
203 226 255
203 225 255
203 225 255
203 225 255
203 225 255
203 225 255
203 225 255
203 225 255
203 225 255
203 225 255
203 225 255
203 225 255
203 225 255
203 225 255
202 225 255
202 225 255
202 225 255
202 225 255
202 225 255
202 225 255
202 225 255
202 225 255
202 225 255
202 225 255
202 225 255
202 225 255
202 225 255
202 225 255
202 225 255
202 225 255
202 225 255
202 225 255
202 225 255
202 225 255
202 225 255
202 225 255
202 225 255
202 225 255
202 225 255
202 225 255
202 225 255
202 225 255
202 225 255
202 225 255
202 225 255
202 225 255
202 225 255
202 225 255
202 225 255
202 225 255
202 225 255
202 225 255
202 225 255
202 225 255
202 225 255
202 225 255
202 225 255
202 225 255
202 225 255
202 225 255
202 225 255
202 225 255
202 225 255
202 225 255
202 225 255
202 225 255
202 225 255
202 225 255
202 225 255
202 225 255
202 225 255
202 225 255
202 225 255
202 225 255
202 225 255
202 225 255
202 225 255
202 225 255
203 225 255
203 225 255
203 225 255
203 225 255
203 225 255
203 225 255
203 225 255
203 225 255
203 225 255
203 225 255
203 225 255
203 225 255
203 225 255
203 226 255
203 226 255
203 226 255
203 226 255
203 226 255
203 226 255
203 226 255
203 226 255
203 226 255
204 226 255
204 226 255
204 226 255
204 226 255
204 226 255
204 226 255
204 226 255
204 226 255
204 226 255
204 226 255
204 226 255
204 226 255
204 226 255
204 226 255
204 226 255
204 226 255
204 226 255
204 226 255
204 226 255
205 226 255
205 226 255
205 226 255
205 226 255
205 226 255
205 226 255
205 226 255
205 227 255
205 227 255
205 227 255
205 227 255
205 227 255
205 227 255
205 227 255
205 227 255
205 227 255
205 227 255
206 227 255
206 227 255
206 227 255
206 227 255
206 227 255
206 227 255
206 227 255
206 227 255
206 227 255
206 227 255
206 227 255
206 227 255
206 227 255
206 227 255
206 227 255
206 227 255
206 227 255
207 227 255
207 227 255
207 227 255
207 227 255
207 228 255
207 228 255
207 228 255
207 228 255
207 228 255
207 228 255
207 228 255
207 228 255
207 228 255
207 228 255
207 228 255
207 228 255
207 228 255
208 228 255
208 228 255
208 228 255
208 228 255
208 228 255
208 228 255
208 228 255
208 228 255
208 228 255
208 228 255
208 228 255
208 228 255
207 227 254
204 224 251
202 222 249
199 218 245
198 218 245
197 217 243
195 215 242
195 214 241
194 214 240
193 213 239
191 211 237
189 209 236
191 210 237
191 210 237
191 211 237
190 210 236
194 214 240
193 213 240
194 213 240
194 214 240
196 215 242
197 217 243
201 220 247
202 221 248
204 223 250
206 225 252
207 226 252
209 229 255
209 229 255
210 229 255
210 229 255
210 229 255
210 229 255
210 229 255
210 229 255
210 229 255
210 229 255
210 229 255
210 229 255
210 229 255
210 229 255
210 229 255
210 229 255
210 229 255
210 229 255
210 229 255
210 229 255
210 229 255
210 229 255
210 229 255
210 230 255
210 230 255
211 230 255
211 230 255
211 230 255
211 230 255
211 230 255
211 230 255
211 230 255
211 230 255
211 230 255
211 230 255
211 230 255
211 230 255
211 230 255
211 230 255
211 230 255
211 230 255
211 230 255
211 230 255
211 230 255
211 230 255
211 230 255
211 230 255
211 230 255
211 230 255
211 230 255
211 230 255
211 230 255
211 230 255
210 230 255
210 230 255
210 230 255
210 229 255
210 229 255
210 229 255
210 229 255
210 229 255
210 229 255
210 229 255
210 229 255
210 229 255
210 229 255
207 227 253
202 222 247
195 214 240
197 216 242
189 209 234
190 209 236
184 204 230
182 202 228
182 202 228
181 201 228
181 201 228
180 201 228
180 201 228
179 200 228
179 200 228
179 200 228
178 200 228
178 200 228
178 200 228
178 200 228
178 200 228
177 199 228
177 199 228
177 199 228
177 199 228
177 199 228
177 199 228
177 199 228
177 199 228
178 200 228
178 200 228
178 200 228
178 200 228
179 200 228
179 200 228
179 200 228
181 202 230
184 205 232
188 209 236
192 212 239
196 217 244
199 219 247
202 222 249
206 226 253
208 228 255
208 228 255
208 228 255
208 228 255
208 228 255
208 228 255
207 228 255
207 228 255
207 228 255
207 228 255
207 228 255
207 228 255
207 228 255
207 228 255
207 228 255
207 228 255
207 228 255
207 228 255
207 228 255
207 227 255
207 227 255
207 227 255
207 227 255
207 227 255
206 227 255
206 227 255
206 227 255
206 227 255
206 227 255
206 227 255
206 227 255
206 227 255
206 227 255
206 227 255
206 227 255
206 227 255
206 227 255
206 227 255
206 227 255
206 227 255
206 227 255
205 227 255
205 227 255
205 227 255
205 227 255
205 227 255
205 227 255
205 227 255
205 227 255
205 227 255
205 227 255
205 226 255
205 226 255
205 226 255
205 226 255
205 226 255
205 226 255
205 226 255
204 226 255
204 226 255
204 226 255
204 226 255
204 226 255
204 226 255
204 226 255
204 226 255
204 226 255
204 226 255
204 226 255
204 226 255
204 226 255
204 226 255
204 226 255
204 226 255
204 226 255
204 226 255
204 226 255
203 226 255
203 226 255
203 226 255
203 226 255
203 226 255
203 226 255
203 226 255
203 226 255
203 226 255
203 226 255
203 225 255
203 225 255
203 225 255
203 225 255
203 225 255
203 225 255
203 225 255
203 225 255
203 225 255
203 225 255
203 225 255
203 225 255
203 225 255
203 225 255
203 225 255
203 225 255
202 225 255
202 225 255
202 225 255
202 225 255
202 225 255
202 225 255
202 225 255
202 225 255
202 225 255
202 225 255
202 225 255
202 225 255
202 225 255
202 225 255
202 225 255
202 225 255
202 225 255
202 225 255
202 225 255
202 225 255
202 225 255
202 225 255
202 225 255
202 225 255
202 225 255
202 225 255
202 225 255
202 225 255
202 225 255
202 225 255
202 225 255
202 225 255
202 225 255
202 225 255
202 225 255
202 225 255
202 225 255
202 225 255
202 225 255
202 225 255
202 225 255
202 225 255
202 225 255
202 225 255
202 225 255
202 225 255
202 225 255
202 225 255
202 225 255
203 225 255
203 225 255
203 225 255
203 225 255
203 225 255
203 225 255
203 225 255
203 225 255
203 225 255
203 225 255
203 225 255
203 225 255
203 225 255
203 225 255
203 225 255
203 226 255
203 226 255
203 226 255
203 226 255
203 226 255
203 226 255
203 226 255
203 226 255
203 226 255
203 226 255
204 226 255
204 226 255
204 226 255
204 226 255
204 226 255
204 226 255
204 226 255
204 226 255
204 226 255
204 226 255
204 226 255
204 226 255
204 226 255
204 226 255
204 226 255
204 226 255
204 226 255
204 226 255
204 226 255
205 226 255
205 226 255
205 226 255
205 226 255
205 226 255
205 226 255
205 226 255
205 227 255
205 227 255
205 227 255
205 227 255
205 227 255
205 227 255
205 227 255
205 227 255
205 227 255
205 227 255
206 227 255
206 227 255
206 227 255
206 227 255
206 227 255
206 227 255
206 227 255
206 227 255
206 227 255
206 227 255
206 227 255
206 227 255
206 227 255
206 227 255
206 227 255
206 227 255
206 227 255
207 227 255
207 227 255
207 227 255
207 227 255
207 227 255
207 228 255
207 228 255
207 228 255
207 228 255
207 228 255
207 228 255
207 228 255
207 228 255
207 228 255
207 228 255
207 228 255
207 228 255
207 228 255
208 228 255
208 228 255
208 228 255
208 228 255
208 228 255
208 228 255
206 226 254
202 222 250
199 219 246
194 214 241
195 215 242
188 208 236
186 207 234
181 201 229
180 201 229
179 200 228
178 200 228
178 200 228
178 200 228
178 200 228
177 199 228
177 199 228
177 199 228
177 199 228
177 199 228
177 199 228
177 199 228
177 199 228
177 199 228
178 200 228
178 200 228
178 200 228
178 200 228
178 200 228
179 200 228
179 200 228
180 201 228
180 201 228
180 201 228
181 201 228
181 201 228
182 202 228
182 202 228
185 205 231
190 210 236
192 211 237
196 215 241
202 221 247
201 220 246
207 227 253
209 229 255
210 229 255
210 229 255
210 229 255
210 229 255
210 229 255
210 229 255
210 229 255
210 229 255
210 229 255
210 230 255
210 230 255
210 230 255
211 230 255
211 230 255
211 230 255
211 230 255
211 230 255
211 230 255
211 230 255
211 230 255
211 230 255
211 230 255
211 230 255
211 230 255
211 230 255
211 230 255
211 230 255
211 230 255
211 230 255
211 230 255
211 230 255
211 230 255
211 230 255
211 230 255
211 230 255
211 230 255
211 230 255
211 230 255
211 230 255
211 230 255
211 230 255
211 230 255
211 230 255
211 230 255
211 230 255
211 230 255
211 230 255
211 230 255
210 230 255
210 230 255
210 229 255
208 227 253
201 220 245
198 217 243
191 210 236
186 205 231
184 203 229
182 202 228
181 201 228
181 201 228
180 201 228
180 201 228
179 200 228
179 200 228
178 200 228
178 200 228
178 199 228
177 199 228
177 199 228
177 199 228
176 199 228
176 199 228
176 199 228
176 198 228
175 198 228
175 198 228
175 198 228
175 198 228
175 198 228
175 198 228
174 198 228
174 198 228
174 198 228
174 198 228
174 198 228
174 198 228
174 198 228
174 198 228
174 198 228
174 198 228
174 198 228
175 198 228
175 198 228
175 198 228
175 198 228
176 199 228
176 199 228
177 199 228
177 199 228
178 200 228
179 200 229
182 203 230
190 211 238
191 212 239
196 217 244
200 220 247
206 227 254
208 228 255
208 228 255
208 228 255
208 228 255
207 228 255
207 228 255
207 228 255
207 228 255
207 228 255
207 228 255
207 228 255
207 228 255
207 228 255
207 228 255
207 228 255
207 228 255
207 228 255
207 227 255
207 227 255
207 227 255
207 227 255
206 227 255
206 227 255
206 227 255
206 227 255
206 227 255
206 227 255
206 227 255
206 227 255
206 227 255
206 227 255
206 227 255
206 227 255
206 227 255
206 227 255
206 227 255
206 227 255
206 227 255
206 227 255
205 227 255
205 227 255
205 227 255
205 227 255
205 227 255
205 227 255
205 227 255
205 227 255
205 227 255
205 227 255
205 226 255
205 226 255
205 226 255
205 226 255
205 226 255
205 226 255
205 226 255
204 226 255
204 226 255
204 226 255
204 226 255
204 226 255
204 226 255
204 226 255
204 226 255
204 226 255
204 226 255
204 226 255
204 226 255
204 226 255
204 226 255
204 226 255
204 226 255
204 226 255
204 226 255
204 226 255
204 226 255
203 226 255
203 226 255
203 226 255
203 226 255
203 226 255
203 226 255
203 226 255
203 226 255
203 226 255
203 226 255
203 226 255
203 225 255
203 225 255
203 225 255
203 225 255
203 225 255
203 225 255
203 225 255
203 225 255
203 225 255
203 225 255
203 225 255
203 225 255
203 225 255
203 225 255
203 225 255
203 225 255
203 225 255
203 225 255
203 225 255
203 225 255
203 225 255
202 225 255
202 225 255
202 225 255
202 225 255
202 225 255
202 225 255
202 225 255
202 225 255
202 225 255
202 225 255
202 225 255
202 225 255
202 225 255
202 225 255
202 225 255
202 225 255
202 225 255
202 225 255
202 225 255
202 225 255
202 225 255
202 225 255
202 225 255
202 225 255
202 225 255
202 225 255
203 225 255
203 225 255
203 225 255
203 225 255
203 225 255
203 225 255
203 225 255
203 225 255
203 225 255
203 225 255
203 225 255
203 225 255
203 225 255
203 225 255
203 225 255
203 225 255
203 225 255
203 225 255
203 225 255
203 225 255
203 225 255
203 226 255
203 226 255
203 226 255
203 226 255
203 226 255
203 226 255
203 226 255
203 226 255
203 226 255
203 226 255
203 226 255
204 226 255
204 226 255
204 226 255
204 226 255
204 226 255
204 226 255
204 226 255
204 226 255
204 226 255
204 226 255
204 226 255
204 226 255
204 226 255
204 226 255
204 226 255
204 226 255
204 226 255
204 226 255
204 226 255
204 226 255
205 226 255
205 226 255
205 226 255
205 226 255
205 226 255
205 226 255
205 226 255
205 227 255
205 227 255
205 227 255
205 227 255
205 227 255
205 227 255
205 227 255
205 227 255
205 227 255
205 227 255
205 227 255
206 227 255
206 227 255
206 227 255
206 227 255
206 227 255
206 227 255
206 227 255
206 227 255
206 227 255
206 227 255
206 227 255
206 227 255
206 227 255
206 227 255
206 227 255
206 227 255
206 227 255
207 227 255
207 227 255
207 227 255
207 227 255
207 228 255
207 228 255
207 228 255
207 228 255
207 228 255
207 228 255
207 228 255
207 228 255
207 228 255
207 228 255
207 228 255
207 228 255
207 228 255
207 228 255
208 228 255
208 228 255
208 228 255
206 227 254
201 221 248
196 216 243
194 215 242
186 207 235
182 203 231
179 200 228
178 200 228
177 199 228
176 199 228
176 199 228
175 198 228
175 198 228
175 198 228
175 198 228
174 198 228
174 198 228
174 198 228
174 198 228
174 198 228
174 198 228
174 198 228
174 198 228
174 198 228
174 198 228
174 198 228
174 198 228
175 198 228
175 198 228
175 198 228
175 198 228
175 198 228
175 198 228
176 198 228
176 199 228
176 199 228
176 199 228
177 199 228
177 199 228
177 199 228
178 199 228
178 200 228
178 200 228
179 200 228
179 200 228
180 201 228
180 201 228
181 201 228
181 202 228
182 202 228
183 202 228
188 208 234
192 211 236
194 213 239
201 219 245
208 227 253
210 230 255
210 230 255
210 230 255
211 230 255
211 230 255
211 230 255
211 230 255
211 230 255
211 230 255
211 230 255
211 230 255
211 230 255
211 230 255
211 230 255
211 230 255
211 230 255
211 230 255
211 230 255
211 230 255
211 230 255
211 230 255
211 230 255
211 230 255
211 230 255
211 230 255
211 230 255
211 230 255
211 230 255
211 230 255
211 230 255
211 230 255
211 230 255
211 230 255
211 230 255
211 230 255
211 230 255
211 230 255
211 230 255
211 230 255
211 230 255
211 230 255
208 227 253
202 220 246
194 212 237
189 208 234
185 204 230
183 202 228
182 202 228
181 201 228
181 201 228
180 201 228
179 201 228
179 200 228
179 200 228
178 200 228
178 199 228
177 199 228
177 199 228
176 199 228
176 199 228
176 199 228
175 198 228
175 198 228
175 198 228
175 198 228
174 198 228
174 198 228
174 197 228
174 197 228
173 197 228
173 197 228
173 197 228
173 197 228
173 197 228
172 197 228
172 197 228
172 197 228
172 197 228
172 196 228
172 197 228
172 196 228
172 196 228
172 196 228
172 196 228
172 196 228
172 196 228
172 196 228
172 197 228
172 197 228
172 197 228
172 197 228
173 197 228
173 197 228
173 197 228
173 197 228
174 198 228
174 198 228
175 198 228
175 198 228
177 199 228
177 199 228
178 200 228
184 205 233
189 209 237
196 216 243
203 223 250
207 228 255
208 228 255
208 228 255
207 228 255
207 228 255
207 228 255
207 228 255
207 228 255
207 228 255
207 228 255
207 228 255
207 228 255
207 228 255
207 228 255
207 228 255
207 228 255
207 228 255
207 227 255
207 227 255
207 227 255
207 227 255
206 227 255
206 227 255
206 227 255
206 227 255
206 227 255
206 227 255
206 227 255
206 227 255
206 227 255
206 227 255
206 227 255
206 227 255
206 227 255
206 227 255
206 227 255
206 227 255
206 227 255
205 227 255
205 227 255
205 227 255
205 227 255
205 227 255
205 227 255
205 227 255
205 227 255
205 227 255
205 227 255
205 227 255
205 226 255
205 226 255
205 226 255
205 226 255
205 226 255
205 226 255
205 226 255
205 226 255
204 226 255
204 226 255
204 226 255
204 226 255
204 226 255
204 226 255
204 226 255
204 226 255
204 226 255
204 226 255
204 226 255
204 226 255
204 226 255
204 226 255
204 226 255
204 226 255
204 226 255
204 226 255
204 226 255
204 226 255
204 226 255
203 226 255
203 226 255
203 226 255
203 226 255
203 226 255
203 226 255
203 226 255
203 226 255
203 226 255
203 226 255
203 226 255
203 226 255
203 225 255
203 225 255
203 225 255
203 225 255
203 225 255
203 225 255
203 225 255
203 225 255
203 225 255
203 225 255
203 225 255
203 225 255
203 225 255
203 225 255
203 225 255
203 225 255
203 225 255
203 225 255
203 225 255
203 225 255
203 225 255
203 225 255
203 225 255
203 225 255
203 225 255
203 225 255
203 225 255
203 225 255
203 225 255
203 225 255
203 225 255
203 225 255
203 225 255
203 225 255
203 225 255
203 225 255
203 225 255
203 225 255
203 225 255
203 225 255
203 225 255
203 225 255
203 225 255
203 225 255
203 225 255
203 225 255
203 225 255
203 225 255
203 225 255
203 225 255
203 225 255
203 225 255
203 225 255
203 225 255
203 226 255
203 226 255
203 226 255
203 226 255
203 226 255
203 226 255
203 226 255
203 226 255
203 226 255
203 226 255
203 226 255
203 226 255
204 226 255
204 226 255
204 226 255
204 226 255
204 226 255
204 226 255
204 226 255
204 226 255
204 226 255
204 226 255
204 226 255
204 226 255
204 226 255
204 226 255
204 226 255
204 226 255
204 226 255
204 226 255
204 226 255
204 226 255
204 226 255
205 226 255
205 226 255
205 226 255
205 226 255
205 226 255
205 226 255
205 226 255
205 226 255
205 227 255
205 227 255
205 227 255
205 227 255
205 227 255
205 227 255
205 227 255
205 227 255
205 227 255
205 227 255
205 227 255
206 227 255
206 227 255
206 227 255
206 227 255
206 227 255
206 227 255
206 227 255
206 227 255
206 227 255
206 227 255
206 227 255
206 227 255
206 227 255
206 227 255
206 227 255
206 227 255
206 227 255
207 227 255
207 227 255
207 227 255
207 227 255
207 228 255
207 228 255
207 228 255
207 228 255
207 228 255
207 228 255
207 228 255
207 228 255
207 228 255
207 228 255
207 228 255
207 228 255
207 228 255
207 228 255
208 228 255
208 228 255
207 227 254
201 221 248
198 218 246
193 213 241
185 206 234
179 200 229
177 199 228
176 199 228
175 198 228
175 198 228
174 198 228
174 198 228
173 197 228
173 197 228
173 197 228
173 197 228
172 197 228
172 197 228
172 197 228
172 197 228
172 196 228
172 196 228
172 196 228
172 196 228
172 196 228
172 196 228
172 196 228
172 196 228
172 197 228
172 197 228
172 197 228
172 197 228
172 197 228
173 197 228
173 197 228
173 197 228
173 197 228
173 197 228
174 197 228
174 198 228
174 198 228
174 198 228
175 198 228
175 198 228
175 198 228
175 198 228
176 199 228
176 199 228
176 199 228
177 199 228
177 199 228
178 200 228
178 200 228
178 200 228
179 200 228
180 201 228
180 201 228
181 201 228
181 201 228
182 202 228
183 202 228
185 204 230
189 208 233
197 216 242
201 219 245
208 227 253
211 230 255
211 230 255
211 230 255
211 230 255
211 230 255
211 230 255
211 230 255
211 230 255
211 230 255
211 230 255
211 230 255
211 230 255
211 230 255
211 230 255
211 230 255
211 230 255
211 230 255
211 230 255
212 230 255
212 230 255
211 230 255
211 230 255
211 230 255
211 230 255
211 230 255
211 230 255
211 230 255
211 230 255
211 230 255
211 230 255
211 230 255
211 230 255
205 223 248
203 221 247
194 212 237
187 206 232
184 203 228
183 202 228
182 202 228
181 201 228
180 201 228
180 201 228
179 200 228
179 200 228
178 200 228
178 200 228
177 199 228
177 199 228
177 199 228
176 199 228
176 199 228
176 198 228
175 198 228
175 198 228
175 198 228
174 198 228
174 198 228
174 197 228
173 197 228
173 197 228
173 197 228
173 197 228
172 197 228
172 197 228
172 196 228
172 196 228
171 196 228
171 196 228
171 196 228
171 196 228
171 196 228
171 196 228
170 196 228
170 196 228
170 196 228
170 196 228
170 196 228
170 195 228
170 195 228
170 195 228
170 195 228
170 195 228
170 195 228
170 195 228
170 196 228
170 196 228
170 196 228
170 196 228
171 196 228
171 196 228
171 196 228
171 196 228
172 196 228
172 196 228
172 197 228
173 197 228
173 197 228
174 198 228
175 198 228
176 198 228
177 199 228
180 201 229
188 209 236
196 216 244
201 221 248
207 227 255
208 228 255
208 228 255
207 228 255
207 228 255
207 228 255
207 228 255
207 228 255
207 228 255
207 228 255
207 228 255
207 228 255
207 228 255
207 228 255
207 228 255
207 228 255
207 227 255
207 227 255
207 227 255
207 227 255
207 227 255
206 227 255
206 227 255
206 227 255
206 227 255
206 227 255
206 227 255
206 227 255
206 227 255
206 227 255
206 227 255
206 227 255
206 227 255
206 227 255
206 227 255
206 227 255
206 227 255
206 227 255
205 227 255
205 227 255
205 227 255
205 227 255
205 227 255
205 227 255
205 227 255
205 227 255
205 227 255
205 227 255
205 227 255
205 226 255
205 226 255
205 226 255
205 226 255
205 226 255
205 226 255
205 226 255
205 226 255
204 226 255
204 226 255
204 226 255
204 226 255
204 226 255
204 226 255
204 226 255
204 226 255
204 226 255
204 226 255
204 226 255
204 226 255
204 226 255
204 226 255
204 226 255
204 226 255
204 226 255
204 226 255
204 226 255
204 226 255
204 226 255
204 226 255
204 226 255
203 226 255
203 226 255
203 226 255
203 226 255
203 226 255
203 226 255
203 226 255
203 226 255
203 226 255
203 226 255
203 226 255
203 226 255
203 226 255
203 226 255
203 226 255
203 225 255
203 225 255
203 225 255
203 225 255
203 225 255
203 225 255
203 225 255
203 225 255
203 225 255
203 225 255
203 225 255
203 225 255
203 225 255
203 225 255
203 225 255
203 225 255
203 225 255
203 225 255
203 225 255
203 225 255
203 225 255
203 225 255
203 225 255
203 225 255
203 225 255
203 225 255
203 225 255
203 225 255
203 225 255
203 225 255
203 225 255
203 225 255
203 225 255
203 225 255
203 225 255
203 225 255
203 226 255
203 226 255
203 226 255
203 226 255
203 226 255
203 226 255
203 226 255
203 226 255
203 226 255
203 226 255
203 226 255
203 226 255
203 226 255
203 226 255
203 226 255
204 226 255
204 226 255
204 226 255
204 226 255
204 226 255
204 226 255
204 226 255
204 226 255
204 226 255
204 226 255
204 226 255
204 226 255
204 226 255
204 226 255
204 226 255
204 226 255
204 226 255
204 226 255
204 226 255
204 226 255
204 226 255
204 226 255
204 226 255
205 226 255
205 226 255
205 226 255
205 226 255
205 226 255
205 226 255
205 226 255
205 226 255
205 227 255
205 227 255
205 227 255
205 227 255
205 227 255
205 227 255
205 227 255
205 227 255
205 227 255
205 227 255
205 227 255
206 227 255
206 227 255
206 227 255
206 227 255
206 227 255
206 227 255
206 227 255
206 227 255
206 227 255
206 227 255
206 227 255
206 227 255
206 227 255
206 227 255
206 227 255
206 227 255
206 227 255
207 227 255
207 227 255
207 227 255
207 227 255
207 227 255
207 228 255
207 228 255
207 228 255
207 228 255
207 228 255
207 228 255
207 228 255
207 228 255
207 228 255
207 228 255
207 228 255
207 228 255
207 228 255
208 228 255
208 228 255
207 228 255
200 220 248
195 215 243
186 207 234
181 202 230
177 199 228
176 199 228
175 198 228
174 198 228
173 197 228
173 197 228
173 197 228
172 196 228
172 196 228
171 196 228
171 196 228
171 196 228
171 196 228
170 196 228
170 196 228
170 196 228
170 195 228
170 196 228
170 195 228
170 195 228
170 195 228
170 195 228
170 195 228
170 196 228
170 196 228
170 196 228
170 196 228
170 196 228
170 196 228
171 196 228
171 196 228
171 196 228
171 196 228
171 196 228
171 196 228
172 196 228
172 196 228
172 197 228
172 197 228
173 197 228
173 197 228
173 197 228
173 197 228
174 197 228
174 198 228
174 198 228
175 198 228
175 198 228
175 198 228
176 198 228
176 199 228
176 199 228
177 199 228
177 199 228
177 199 228
178 200 228
178 200 228
179 200 228
179 200 228
180 201 228
180 201 228
181 201 228
182 202 228
183 202 228
183 203 228
187 206 232
192 211 236
199 218 243
207 225 251
211 230 255
211 230 255
211 230 255
211 230 255
211 230 255
211 230 255
211 230 255
211 230 255
211 230 255
211 230 255
211 230 255
211 230 255
212 230 255
212 230 255
212 230 255
212 230 255
212 230 255
212 230 255
212 230 255
212 230 255
211 230 255
211 230 255
211 230 255
211 230 255
209 227 252
201 220 245
198 216 241
188 206 231
184 203 228
183 202 228
182 202 228
181 202 228
181 201 228
180 201 228
180 201 228
179 200 228
179 200 228
178 200 228
178 200 228
177 199 228
177 199 228
176 199 228
176 199 228
176 198 228
175 198 228
175 198 228
175 198 228
174 198 228
174 198 228
174 197 228
173 197 228
173 197 228
173 197 228
172 197 228
172 197 228
172 196 228
172 196 228
171 196 228
171 196 228
171 196 228
171 196 228
170 196 228
170 196 228
170 196 228
170 195 228
170 195 228
170 195 228
169 195 228
169 195 228
169 195 228
169 195 228
169 195 228
169 195 228
169 195 228
169 195 228
168 195 228
168 195 228
168 195 228
168 195 228
168 195 228
168 195 228
168 195 228
168 195 228
169 195 228
169 195 228
169 195 228
169 195 228
169 195 228
169 195 228
170 195 228
170 195 228
170 196 228
171 196 228
171 196 228
172 196 228
172 197 228
173 197 228
173 197 228
175 198 228
175 198 228
177 199 228
178 200 229
186 207 235
195 215 242
205 225 252
208 228 255
208 228 255
207 228 255
207 228 255
207 228 255
207 228 255
207 228 255
207 228 255
207 228 255
207 228 255
207 228 255
207 228 255
207 228 255
207 228 255
207 228 255
207 228 255
207 227 255
207 227 255
207 227 255
207 227 255
207 227 255
206 227 255
206 227 255
206 227 255
206 227 255
206 227 255
206 227 255
206 227 255
206 227 255
206 227 255
206 227 255
206 227 255
206 227 255
206 227 255
206 227 255
206 227 255
206 227 255
206 227 255
205 227 255
205 227 255
205 227 255
205 227 255
205 227 255
205 227 255
205 227 255
205 227 255
205 227 255
205 227 255
205 227 255
205 226 255
205 226 255
205 226 255
205 226 255
205 226 255
205 226 255
205 226 255
205 226 255
205 226 255
204 226 255
204 226 255
204 226 255
204 226 255
204 226 255
204 226 255
204 226 255
204 226 255
204 226 255
204 226 255
204 226 255
204 226 255
204 226 255
204 226 255
204 226 255
204 226 255
204 226 255
204 226 255
204 226 255
204 226 255
204 226 255
204 226 255
204 226 255
204 226 255
204 226 255
204 226 255
203 226 255
203 226 255
203 226 255
203 226 255
203 226 255
203 226 255
203 226 255
203 226 255
203 226 255
203 226 255
203 226 255
203 226 255
203 226 255
203 226 255
203 226 255
203 226 255
203 226 255
203 226 255
203 226 255
203 226 255
203 226 255
203 226 255
203 226 255
203 226 255
203 226 255
203 226 255
203 226 255
203 226 255
203 226 255
203 226 255
203 226 255
203 226 255
203 226 255
203 226 255
203 226 255
203 226 255
203 226 255
203 226 255
203 226 255
203 226 255
203 226 255
203 226 255
203 226 255
203 226 255
203 226 255
203 226 255
203 226 255
203 226 255
203 226 255
203 226 255
204 226 255
204 226 255
204 226 255
204 226 255
204 226 255
204 226 255
204 226 255
204 226 255
204 226 255
204 226 255
204 226 255
204 226 255
204 226 255
204 226 255
204 226 255
204 226 255
204 226 255
204 226 255
204 226 255
204 226 255
204 226 255
204 226 255
204 226 255
204 226 255
204 226 255
204 226 255
205 226 255
205 226 255
205 226 255
205 226 255
205 226 255
205 226 255
205 226 255
205 226 255
205 226 255
205 227 255
205 227 255
205 227 255
205 227 255
205 227 255
205 227 255
205 227 255
205 227 255
205 227 255
205 227 255
205 227 255
206 227 255
206 227 255
206 227 255
206 227 255
206 227 255
206 227 255
206 227 255
206 227 255
206 227 255
206 227 255
206 227 255
206 227 255
206 227 255
206 227 255
206 227 255
206 227 255
206 227 255
206 227 255
207 227 255
207 227 255
207 227 255
207 227 255
207 228 255
207 228 255
207 228 255
207 228 255
207 228 255
207 228 255
207 228 255
207 228 255
207 228 255
207 228 255
207 228 255
207 228 255
207 228 255
208 228 255
208 228 255
208 228 255
204 224 251
195 216 243
188 209 237
179 201 230
177 199 228
175 198 228
175 198 228
174 197 228
173 197 228
172 197 228
171 196 228
171 196 228
171 196 228
170 196 228
170 195 228
170 195 228
169 195 228
169 195 228
169 195 228
169 195 228
169 195 228
169 195 228
168 195 228
168 195 228
168 195 228
168 195 228
168 195 228
168 195 228
168 195 228
168 195 228
169 195 228
169 195 228
169 195 228
169 195 228
169 195 228
169 195 228
169 195 228
169 195 228
169 195 228
170 195 228
170 195 228
170 196 228
170 196 228
170 196 228
171 196 228
171 196 228
171 196 228
171 196 228
172 196 228
172 196 228
172 197 228
172 197 228
173 197 228
173 197 228
173 197 228
174 197 228
174 198 228
174 198 228
175 198 228
175 198 228
175 198 228
176 198 228
176 199 228
176 199 228
177 199 228
177 199 228
178 200 228
178 200 228
179 200 228
179 200 228
180 201 228
180 201 228
181 201 228
181 202 228
182 202 228
183 202 228
184 203 228
188 206 231
194 212 237
202 220 245
210 228 254
211 230 255
211 230 255
211 230 255
211 230 255
212 230 255
212 230 255
212 230 255
212 230 255
212 230 255
212 230 255
212 230 255
212 230 255
212 230 255
212 230 255
212 230 255
212 230 255
212 230 255
208 226 251
200 218 243
191 209 234
185 204 229
184 203 228
183 202 228
182 202 228
181 202 228
181 201 228
180 201 228
180 201 228
179 200 228
179 200 228
178 200 228
178 200 228
177 199 228
177 199 228
176 199 228
176 199 228
176 198 228
175 198 228
175 198 228
175 198 228
174 198 228
174 198 228
174 197 228
173 197 228
173 197 228
173 197 228
172 197 228
172 197 228
172 196 228
171 196 228
171 196 228
171 196 228
171 196 228
170 196 228
170 196 228
170 195 228
170 195 228
170 195 228
169 195 228
169 195 228
169 195 228
169 195 228
169 195 228
168 195 228
168 195 228
168 194 228
168 194 228
168 194 228
168 194 228
168 194 228
167 194 228
167 194 228
167 194 228
167 194 228
167 194 228
167 194 228
167 194 228
167 194 228
167 194 228
167 194 228
167 194 228
167 194 228
167 194 228
167 194 228
168 194 228
168 194 228
168 194 228
168 195 228
168 195 228
169 195 228
169 195 228
169 195 228
170 195 228
170 196 228
171 196 228
172 196 228
172 197 228
173 197 228
174 198 228
176 198 228
177 199 228
182 203 231
195 215 242
200 220 247
208 228 255
208 228 255
208 228 255
207 228 255
207 228 255
207 228 255
207 228 255
207 228 255
207 228 255
207 228 255
207 228 255
207 228 255
207 228 255
207 228 255
207 228 255
207 228 255
207 228 255
207 227 255
207 227 255
207 227 255
207 227 255
206 227 255
206 227 255
206 227 255
206 227 255
206 227 255
206 227 255
206 227 255
206 227 255
206 227 255
206 227 255
206 227 255
206 227 255
206 227 255
206 227 255
206 227 255
206 227 255
206 227 255
206 227 255
206 227 255
205 227 255
205 227 255
205 227 255
205 227 255
205 227 255
205 227 255
205 227 255
205 227 255
205 227 255
205 227 255
205 227 255
205 226 255
205 226 255
205 226 255
205 226 255
205 226 255
205 226 255
205 226 255
205 226 255
205 226 255
204 226 255
204 226 255
204 226 255
204 226 255
204 226 255
204 226 255
204 226 255
204 226 255
204 226 255
204 226 255
204 226 255
204 226 255
204 226 255
204 226 255
204 226 255
204 226 255
204 226 255
204 226 255
204 226 255
204 226 255
204 226 255
204 226 255
204 226 255
204 226 255
204 226 255
204 226 255
204 226 255
204 226 255
204 226 255
204 226 255
204 226 255
204 226 255
203 226 255
203 226 255
203 226 255
203 226 255
203 226 255
203 226 255
203 226 255
203 226 255
203 226 255
203 226 255
203 226 255
203 226 255
203 226 255
203 226 255
203 226 255
203 226 255
203 226 255
203 226 255
203 226 255
203 226 255
203 226 255
203 226 255
203 226 255
203 226 255
203 226 255
203 226 255
203 226 255
203 226 255
204 226 255
204 226 255
204 226 255
204 226 255
204 226 255
204 226 255
204 226 255
204 226 255
204 226 255
204 226 255
204 226 255
204 226 255
204 226 255
204 226 255
204 226 255
204 226 255
204 226 255
204 226 255
204 226 255
204 226 255
204 226 255
204 226 255
204 226 255
204 226 255
204 226 255
204 226 255
204 226 255
204 226 255
204 226 255
204 226 255
204 226 255
204 226 255
205 226 255
205 226 255
205 226 255
205 226 255
205 226 255
205 226 255
205 226 255
205 226 255
205 227 255
205 227 255
205 227 255
205 227 255
205 227 255
205 227 255
205 227 255
205 227 255
205 227 255
205 227 255
205 227 255
205 227 255
206 227 255
206 227 255
206 227 255
206 227 255
206 227 255
206 227 255
206 227 255
206 227 255
206 227 255
206 227 255
206 227 255
206 227 255
206 227 255
206 227 255
206 227 255
206 227 255
206 227 255
206 227 255
206 227 255
207 227 255
207 227 255
207 227 255
207 227 255
207 228 255
207 228 255
207 228 255
207 228 255
207 228 255
207 228 255
207 228 255
207 228 255
207 228 255
207 228 255
207 228 255
207 228 255
207 228 255
207 228 255
208 228 255
208 228 255
207 228 255
199 219 246
192 213 240
181 203 231
177 199 228
176 198 228
174 198 228
173 197 228
172 197 228
172 196 228
171 196 228
170 196 228
170 195 228
169 195 228
169 195 228
169 195 228
168 195 228
168 195 228
168 194 228
168 194 228
168 194 228
167 194 228
167 194 228
167 194 228
167 194 228
167 194 228
167 194 228
167 194 228
167 194 228
167 194 228
167 194 228
167 194 228
167 194 228
167 194 228
167 194 228
168 194 228
168 194 228
168 194 228
168 194 228
168 194 228
168 195 228
168 195 228
169 195 228
169 195 228
169 195 228
169 195 228
169 195 228
170 195 228
170 195 228
170 195 228
170 196 228
170 196 228
171 196 228
171 196 228
171 196 228
171 196 228
172 196 228
172 197 228
172 197 228
173 197 228
173 197 228
173 197 228
174 197 228
174 197 228
174 198 228
174 198 228
175 198 228
175 198 228
176 198 228
176 199 228
176 199 228
177 199 228
177 199 228
178 200 228
178 200 228
179 200 228
179 200 228
180 201 228
180 201 228
181 201 228
181 202 228
182 202 228
183 202 228
184 203 228
185 204 229
192 210 235
200 218 243
207 226 251
212 230 255
212 230 255
212 230 255
212 230 255
212 230 255
212 230 255
212 230 255
212 230 255
212 230 255
212 230 255
212 230 255
209 228 253
199 218 242
189 207 232
185 204 228
184 203 228
183 202 228
182 202 228
182 202 228
181 201 228
180 201 228
180 201 228
179 200 228
179 200 228
178 200 228
178 200 228
177 199 228
177 199 228
177 199 228
176 199 228
176 199 228
175 198 228
175 198 228
175 198 228
174 198 228
174 198 228
174 197 228
173 197 228
173 197 228
173 197 228
172 197 228
172 197 228
172 196 228
171 196 228
171 196 228
171 196 228
171 196 228
170 196 228
170 196 228
170 195 228
170 195 228
169 195 228
169 195 228
169 195 228
169 195 228
169 195 228
168 195 228
168 195 228
168 194 228
168 194 228
168 194 228
167 194 228
167 194 228
167 194 228
167 194 228
167 194 228
167 194 228
167 194 228
166 194 228
166 194 228
166 194 228
166 194 228
166 193 228
166 193 228
166 193 228
166 193 228
166 193 228
166 193 228
166 193 228
166 193 228
166 193 228
166 194 228
166 194 228
166 194 228
167 194 228
167 194 228
167 194 228
167 194 228
168 194 228
168 194 228
168 195 228
169 195 228
169 195 228
170 195 228
170 196 228
171 196 228
172 196 228
173 197 228
174 197 228
175 198 228
177 199 228
181 202 231
191 211 239
201 221 248
207 228 255
208 228 255
208 228 255
208 228 255
207 228 255
207 228 255
207 228 255
207 228 255
207 228 255
207 228 255
207 228 255
207 228 255
207 228 255
207 228 255
207 228 255
207 228 255
207 228 255
207 228 255
207 227 255
207 227 255
207 227 255
207 227 255
206 227 255
206 227 255
206 227 255
206 227 255
206 227 255
206 227 255
206 227 255
206 227 255
206 227 255
206 227 255
206 227 255
206 227 255
206 227 255
206 227 255
206 227 255
206 227 255
206 227 255
206 227 255
206 227 255
205 227 255
205 227 255
205 227 255
205 227 255
205 227 255
205 227 255
205 227 255
205 227 255
205 227 255
205 227 255
205 227 255
205 227 255
205 226 255
205 226 255
205 226 255
205 226 255
205 226 255
205 226 255
205 226 255
205 226 255
205 226 255
205 226 255
204 226 255
204 226 255
204 226 255
204 226 255
204 226 255
204 226 255
204 226 255
204 226 255
204 226 255
204 226 255
204 226 255
204 226 255
204 226 255
204 226 255
204 226 255
204 226 255
204 226 255
204 226 255
204 226 255
204 226 255
204 226 255
204 226 255
204 226 255
204 226 255
204 226 255
204 226 255
204 226 255
204 226 255
204 226 255
204 226 255
204 226 255
204 226 255
204 226 255
204 226 255
204 226 255
204 226 255
204 226 255
204 226 255
204 226 255
204 226 255
204 226 255
204 226 255
204 226 255
204 226 255
204 226 255
204 226 255
204 226 255
204 226 255
204 226 255
204 226 255
204 226 255
204 226 255
204 226 255
204 226 255
204 226 255
204 226 255
204 226 255
204 226 255
204 226 255
204 226 255
204 226 255
204 226 255
204 226 255
204 226 255
204 226 255
204 226 255
204 226 255
204 226 255
204 226 255
204 226 255
204 226 255
204 226 255
204 226 255
204 226 255
204 226 255
204 226 255
204 226 255
204 226 255
204 226 255
204 226 255
204 226 255
205 226 255
205 226 255
205 226 255
205 226 255
205 226 255
205 226 255
205 226 255
205 226 255
205 226 255
205 227 255
205 227 255
205 227 255
205 227 255
205 227 255
205 227 255
205 227 255
205 227 255
205 227 255
205 227 255
205 227 255
205 227 255
206 227 255
206 227 255
206 227 255
206 227 255
206 227 255
206 227 255
206 227 255
206 227 255
206 227 255
206 227 255
206 227 255
206 227 255
206 227 255
206 227 255
206 227 255
206 227 255
206 227 255
206 227 255
206 227 255
207 227 255
207 227 255
207 227 255
207 227 255
207 228 255
207 228 255
207 228 255
207 228 255
207 228 255
207 228 255
207 228 255
207 228 255
207 228 255
207 228 255
207 228 255
207 228 255
207 228 255
207 228 255
208 228 255
208 228 255
208 228 255
207 228 255
202 222 250
192 212 240
181 203 231
176 199 228
175 198 228
174 198 228
173 197 228
172 196 228
171 196 228
170 196 228
170 195 228
169 195 228
169 195 228
168 195 228
168 194 228
168 194 228
167 194 228
167 194 228
167 194 228
167 194 228
166 194 228
166 194 228
166 194 228
166 193 228
166 193 228
166 193 228
166 193 228
166 193 228
166 193 228
166 193 228
166 193 228
166 193 228
166 194 228
166 194 228
166 194 228
166 194 228
167 194 228
167 194 228
167 194 228
167 194 228
167 194 228
167 194 228
167 194 228
168 194 228
168 194 228
168 194 228
168 195 228
168 195 228
169 195 228
169 195 228
169 195 228
169 195 228
169 195 228
170 195 228
170 195 228
170 196 228
170 196 228
171 196 228
171 196 228
171 196 228
172 196 228
172 196 228
172 197 228
172 197 228
173 197 228
173 197 228
173 197 228
174 197 228
174 198 228
174 198 228
175 198 228
175 198 228
175 198 228
176 199 228
176 199 228
177 199 228
177 199 228
178 199 228
178 200 228
178 200 228
179 200 228
179 200 228
180 201 228
180 201 228
181 201 228
182 202 228
182 202 228
183 202 228
184 203 228
185 204 228
189 207 232
200 218 243
208 226 251
212 230 255
212 230 255
212 230 255
212 230 255
212 230 255
209 228 252
202 220 244
192 210 235
185 204 228
184 203 228
183 203 228
183 202 228
182 202 228
181 202 228
181 201 228
180 201 228
180 201 228
179 200 228
179 200 228
178 200 228
178 200 228
177 199 228
177 199 228
177 199 228
176 199 228
176 199 228
175 198 228
175 198 228
175 198 228
174 198 228
174 198 228
174 197 228
173 197 228
173 197 228
173 197 228
172 197 228
172 197 228
172 196 228
171 196 228
171 196 228
171 196 228
171 196 228
170 196 228
170 196 228
170 195 228
170 195 228
169 195 228
169 195 228
169 195 228
169 195 228
168 195 228
168 195 228
168 194 228
168 194 228
167 194 228
167 194 228
167 194 228
167 194 228
167 194 228
167 194 228
166 194 228
166 194 228
166 194 228
166 193 228
166 193 228
166 193 228
166 193 228
165 193 228
165 193 228
165 193 228
165 193 228
165 193 228
165 193 228
165 193 228
165 193 228
165 193 228
165 193 228
165 193 228
165 193 228
165 193 228
165 193 228
165 193 228
166 193 228
166 193 228
166 193 228
166 193 228
166 194 228
167 194 228
167 194 228
167 194 228
168 194 228
168 194 228
169 195 228
169 195 228
170 195 228
171 196 228
171 196 228
172 197 228
173 197 228
175 198 228
177 199 228
181 203 231
191 212 239
201 221 248
208 228 255
208 228 255
208 228 255
208 228 255
208 228 255
207 228 255
207 228 255
207 228 255
207 228 255
207 228 255
207 228 255
207 228 255
207 228 255
207 228 255
207 228 255
207 228 255
207 228 255
207 228 255
207 228 255
207 227 255
207 227 255
207 227 255
207 227 255
207 227 255
206 227 255
206 227 255
206 227 255
206 227 255
206 227 255
206 227 255
206 227 255
206 227 255
206 227 255
206 227 255
206 227 255
206 227 255
206 227 255
206 227 255
206 227 255
206 227 255
206 227 255
206 227 255
206 227 255
205 227 255
205 227 255
205 227 255
205 227 255
205 227 255
205 227 255
205 227 255
205 227 255
205 227 255
205 227 255
205 227 255
205 227 255
205 227 255
205 226 255
205 226 255
205 226 255
205 226 255
205 226 255
205 226 255
205 226 255
205 226 255
205 226 255
205 226 255
204 226 255
204 226 255
204 226 255
204 226 255
204 226 255
204 226 255
204 226 255
204 226 255
204 226 255
204 226 255
204 226 255
204 226 255
204 226 255
204 226 255
204 226 255
204 226 255
204 226 255
204 226 255
204 226 255
204 226 255
204 226 255
204 226 255
204 226 255
204 226 255
204 226 255
204 226 255
204 226 255
204 226 255
204 226 255
204 226 255
204 226 255
204 226 255
204 226 255
204 226 255
204 226 255
204 226 255
204 226 255
204 226 255
204 226 255
204 226 255
204 226 255
204 226 255
204 226 255
204 226 255
204 226 255
204 226 255
204 226 255
204 226 255
204 226 255
204 226 255
204 226 255
204 226 255
204 226 255
204 226 255
204 226 255
204 226 255
204 226 255
204 226 255
204 226 255
204 226 255
204 226 255
204 226 255
204 226 255
204 226 255
204 226 255
204 226 255
204 226 255
204 226 255
205 226 255
205 226 255
205 226 255
205 226 255
205 226 255
205 226 255
205 226 255
205 226 255
205 226 255
205 226 255
205 227 255
205 227 255
205 227 255
205 227 255
205 227 255
205 227 255
205 227 255
205 227 255
205 227 255
205 227 255
205 227 255
205 227 255
205 227 255
206 227 255
206 227 255
206 227 255
206 227 255
206 227 255
206 227 255
206 227 255
206 227 255
206 227 255
206 227 255
206 227 255
206 227 255
206 227 255
206 227 255
206 227 255
206 227 255
206 227 255
206 227 255
206 227 255
207 227 255
207 227 255
207 227 255
207 227 255
207 227 255
207 228 255
207 228 255
207 228 255
207 228 255
207 228 255
207 228 255
207 228 255
207 228 255
207 228 255
207 228 255
207 228 255
207 228 255
207 228 255
207 228 255
208 228 255
208 228 255
208 228 255
208 228 255
208 228 255
203 223 251
193 214 241
181 202 230
176 199 228
175 198 228
173 197 228
172 197 228
171 196 228
170 196 228
170 195 228
169 195 228
168 195 228
168 194 228
167 194 228
167 194 228
167 194 228
166 194 228
166 194 228
166 193 228
166 193 228
166 193 228
165 193 228
165 193 228
165 193 228
165 193 228
165 193 228
165 193 228
165 193 228
165 193 228
165 193 228
165 193 228
165 193 228
165 193 228
165 193 228
165 193 228
165 193 228
166 193 228
166 193 228
166 193 228
166 193 228
166 193 228
166 194 228
166 194 228
166 194 228
167 194 228
167 194 228
167 194 228
167 194 228
167 194 228
168 194 228
168 194 228
168 194 228
168 195 228
168 195 228
169 195 228
169 195 228
169 195 228
169 195 228
170 195 228
170 195 228
170 196 228
170 196 228
171 196 228
171 196 228
171 196 228
172 196 228
172 196 228
172 197 228
172 197 228
173 197 228
173 197 228
173 197 228
174 197 228
174 198 228
174 198 228
175 198 228
175 198 228
175 198 228
176 199 228
176 199 228
177 199 228
177 199 228
177 199 228
178 200 228
178 200 228
179 200 228
179 200 228
180 201 228
180 201 228
181 201 228
181 202 228
182 202 228
183 202 228
183 203 228
184 203 228
186 204 228
192 210 234
200 217 242
211 229 254
212 230 255
197 214 239
186 204 229
185 203 228
184 203 228
183 203 228
182 202 228
182 202 228
181 202 228
181 201 228
180 201 228
180 201 228
179 200 228
179 200 228
178 200 228
178 200 228
177 199 228
177 199 228
177 199 228
176 199 228
176 199 228
175 198 228
175 198 228
175 198 228
174 198 228
174 198 228
174 197 228
173 197 228
173 197 228
173 197 228
173 197 228
172 197 228
172 196 228
172 196 228
171 196 228
171 196 228
171 196 228
170 196 228
170 196 228
170 195 228
170 195 228
169 195 228
169 195 228
169 195 228
169 195 228
168 195 228
168 195 228
168 194 228
168 194 228
167 194 228
167 194 228
167 194 228
167 194 228
167 194 228
166 194 228
166 194 228
166 193 228
166 193 228
166 193 228
166 193 228
165 193 228
165 193 228
165 193 228
165 193 228
165 193 228
165 193 228
165 193 228
165 193 228
165 193 228
164 193 228
164 193 228
164 193 228
164 193 228
164 193 228
164 193 228
164 193 228
164 193 228
164 193 228
164 193 228
165 193 228
165 193 228
165 193 228
165 193 228
165 193 228
165 193 228
165 193 228
166 193 228
166 193 228
166 194 228
167 194 228
167 194 228
168 194 228
168 195 228
169 195 228
169 195 228
170 196 228
171 196 228
172 197 228
174 197 228
175 198 228
177 199 228
186 207 235
197 218 245
206 226 253
208 228 255
208 228 255
208 228 255
208 228 255
208 228 255
208 228 255
207 228 255
207 228 255
207 228 255
207 228 255
207 228 255
207 228 255
207 228 255
207 228 255
207 228 255
207 228 255
207 228 255
207 228 255
207 228 255
207 228 255
207 228 255
207 227 255
207 227 255
207 227 255
207 227 255
206 227 255
206 227 255
206 227 255
206 227 255
206 227 255
206 227 255
206 227 255
206 227 255
206 227 255
206 227 255
206 227 255
206 227 255
206 227 255
206 227 255
206 227 255
206 227 255
206 227 255
206 227 255
206 227 255
206 227 255
205 227 255
205 227 255
205 227 255
205 227 255
205 227 255
205 227 255
205 227 255
205 227 255
205 227 255
205 227 255
205 227 255
205 227 255
205 227 255
205 227 255
205 226 255
205 226 255
205 226 255
205 226 255
205 226 255
205 226 255
205 226 255
205 226 255
205 226 255
205 226 255
205 226 255
205 226 255
204 226 255
204 226 255
204 226 255
204 226 255
204 226 255
204 226 255
204 226 255
204 226 255
204 226 255
204 226 255
204 226 255
204 226 255
204 226 255
204 226 255
204 226 255
204 226 255
204 226 255
204 226 255
204 226 255
204 226 255
204 226 255
204 226 255
204 226 255
204 226 255
204 226 255
204 226 255
204 226 255
204 226 255
204 226 255
204 226 255
204 226 255
204 226 255
204 226 255
204 226 255
204 226 255
204 226 255
204 226 255
204 226 255
204 226 255
204 226 255
204 226 255
204 226 255
204 226 255
204 226 255
204 226 255
204 226 255
204 226 255
204 226 255
204 226 255
204 226 255
204 226 255
204 226 255
205 226 255
205 226 255
205 226 255
205 226 255
205 226 255
205 226 255
205 226 255
205 226 255
205 226 255
205 226 255
205 226 255
205 226 255
205 227 255
205 227 255
205 227 255
205 227 255
205 227 255
205 227 255
205 227 255
205 227 255
205 227 255
205 227 255
205 227 255
205 227 255
205 227 255
205 227 255
206 227 255
206 227 255
206 227 255
206 227 255
206 227 255
206 227 255
206 227 255
206 227 255
206 227 255
206 227 255
206 227 255
206 227 255
206 227 255
206 227 255
206 227 255
206 227 255
206 227 255
206 227 255
206 227 255
206 227 255
207 227 255
207 227 255
207 227 255
207 227 255
207 227 255
207 228 255
207 228 255
207 228 255
207 228 255
207 228 255
207 228 255
207 228 255
207 228 255
207 228 255
207 228 255
207 228 255
207 228 255
207 228 255
207 228 255
208 228 255
208 228 255
208 228 255
208 228 255
208 228 255
208 228 255
206 227 254
195 215 242
185 206 234
177 199 228
175 198 228
174 197 228
172 197 228
171 196 228
170 196 228
170 195 228
169 195 228
168 195 228
168 194 228
167 194 228
167 194 228
166 194 228
166 193 228
166 193 228
165 193 228
165 193 228
165 193 228
165 193 228
165 193 228
165 193 228
164 193 228
164 193 228
164 193 228
164 193 228
164 193 228
164 193 228
164 193 228
164 193 228
164 193 228
164 193 228
164 193 228
165 193 228
165 193 228
165 193 228
165 193 228
165 193 228
165 193 228
165 193 228
165 193 228
165 193 228
166 193 228
166 193 228
166 193 228
166 193 228
166 194 228
166 194 228
167 194 228
167 194 228
167 194 228
167 194 228
167 194 228
168 194 228
168 194 228
168 195 228
168 195 228
169 195 228
169 195 228
169 195 228
169 195 228
170 195 228
170 195 228
170 196 228
170 196 228
171 196 228
171 196 228
171 196 228
172 196 228
172 196 228
172 197 228
172 197 228
173 197 228
173 197 228
173 197 228
174 197 228
174 198 228
174 198 228
175 198 228
175 198 228
176 198 228
176 199 228
176 199 228
177 199 228
177 199 228
177 199 228
178 200 228
178 200 228
179 200 228
179 200 228
180 201 228
180 201 228
181 201 228
181 201 228
182 202 228
183 202 228
183 203 228
184 203 228
185 203 228
186 204 229
195 213 237
185 203 228
184 203 228
183 203 228
183 202 228
182 202 228
181 201 228
181 201 228
180 201 228
180 201 228
179 200 228
179 200 228
178 200 228
178 200 228
178 199 228
177 199 228
177 199 228
176 199 228
176 199 228
176 198 228
175 198 228
175 198 228
175 198 228
174 198 228
174 198 228
174 197 228
173 197 228
173 197 228
173 197 228
172 197 228
172 197 228
172 196 228
171 196 228
171 196 228
171 196 228
171 196 228
170 196 228
170 196 228
170 195 228
170 195 228
169 195 228
169 195 228
169 195 228
169 195 228
168 195 228
168 194 228
168 194 228
168 194 228
167 194 228
167 194 228
167 194 228
167 194 228
166 194 228
166 194 228
166 193 228
166 193 228
166 193 228
166 193 228
165 193 228
165 193 228
165 193 228
165 193 228
165 193 228
165 193 228
164 193 228
164 193 228
164 193 228
164 192 228
164 192 228
164 192 228
164 192 228
164 192 228
164 192 228
164 192 228
164 192 228
164 192 228
164 192 228
164 192 228
164 192 228
164 192 228
164 192 228
164 192 228
164 192 228
164 192 228
164 192 228
164 193 228
165 193 228
165 193 228
165 193 228
165 193 228
166 193 228
166 193 228
166 194 228
167 194 228
167 194 228
168 194 228
169 195 228
170 195 228
170 196 228
171 196 228
173 197 228
174 198 228
176 199 228
179 201 230
190 211 238
202 222 250
208 228 255
208 228 255
208 228 255
208 228 255
208 228 255
208 228 255
208 228 255
208 228 255
207 228 255
207 228 255
207 228 255
207 228 255
207 228 255
207 228 255
207 228 255
207 228 255
207 228 255
207 228 255
207 228 255
207 228 255
207 228 255
207 228 255
207 228 255
207 227 255
207 227 255
207 227 255
207 227 255
206 227 255
206 227 255
206 227 255
206 227 255
206 227 255
206 227 255
206 227 255
206 227 255
206 227 255
206 227 255
206 227 255
206 227 255
206 227 255
206 227 255
206 227 255
206 227 255
206 227 255
206 227 255
206 227 255
206 227 255
206 227 255
205 227 255
205 227 255
205 227 255
205 227 255
205 227 255
205 227 255
205 227 255
205 227 255
205 227 255
205 227 255
205 227 255
205 227 255
205 227 255
205 227 255
205 227 255
205 227 255
205 226 255
205 226 255
205 226 255
205 226 255
205 226 255
205 226 255
205 226 255
205 226 255
205 226 255
205 226 255
205 226 255
205 226 255
205 226 255
205 226 255
205 226 255
205 226 255
205 226 255
205 226 255
204 226 255
204 226 255
204 226 255
204 226 255
204 226 255
204 226 255
204 226 255
204 226 255
204 226 255
204 226 255
204 226 255
204 226 255
204 226 255
204 226 255
204 226 255
204 226 255
204 226 255
204 226 255
204 226 255
204 226 255
204 226 255
204 226 255
204 226 255
204 226 255
204 226 255
204 226 255
205 226 255
205 226 255
205 226 255
205 226 255
205 226 255
205 226 255
205 226 255
205 226 255
205 226 255
205 226 255
205 226 255
205 226 255
205 226 255
205 226 255
205 226 255
205 226 255
205 226 255
205 226 255
205 227 255
205 227 255
205 227 255
205 227 255
205 227 255
205 227 255
205 227 255
205 227 255
205 227 255
205 227 255
205 227 255
205 227 255
205 227 255
205 227 255
205 227 255
206 227 255
206 227 255
206 227 255
206 227 255
206 227 255
206 227 255
206 227 255
206 227 255
206 227 255
206 227 255
206 227 255
206 227 255
206 227 255
206 227 255
206 227 255
206 227 255
206 227 255
206 227 255
206 227 255
206 227 255
206 227 255
207 227 255
207 227 255
207 227 255
207 227 255
207 227 255
207 228 255
207 228 255
207 228 255
207 228 255
207 228 255
207 228 255
207 228 255
207 228 255
207 228 255
207 228 255
207 228 255
207 228 255
207 228 255
207 228 255
207 228 255
208 228 255
208 228 255
208 228 255
208 228 255
208 228 255
208 228 255
208 228 255
208 228 255
204 224 251
190 210 237
180 202 230
176 198 228
174 198 228
173 197 228
171 196 228
170 196 228
169 195 228
169 195 228
168 194 228
167 194 228
167 194 228
166 194 228
166 193 228
166 193 228
165 193 228
165 193 228
165 193 228
165 193 228
164 193 228
164 192 228
164 192 228
164 192 228
164 192 228
164 192 228
164 192 228
164 192 228
164 192 228
164 192 228
164 192 228
164 192 228
164 192 228
164 192 228
164 192 228
164 192 228
164 192 228
164 192 228
164 192 228
164 193 228
164 193 228
164 193 228
165 193 228
165 193 228
165 193 228
165 193 228
165 193 228
165 193 228
166 193 228
166 193 228
166 193 228
166 193 228
166 194 228
167 194 228
167 194 228
167 194 228
167 194 228
167 194 228
168 194 228
168 194 228
168 194 228
168 195 228
169 195 228
169 195 228
169 195 228
169 195 228
170 195 228
170 195 228
170 196 228
170 196 228
171 196 228
171 196 228
171 196 228
171 196 228
172 196 228
172 197 228
172 197 228
173 197 228
173 197 228
173 197 228
174 197 228
174 198 228
174 198 228
175 198 228
175 198 228
175 198 228
176 198 228
176 199 228
176 199 228
177 199 228
177 199 228
178 200 228
178 200 228
178 200 228
179 200 228
179 200 228
180 201 228
180 201 228
181 201 228
181 202 228
182 202 228
182 202 228
183 203 228
184 203 228
185 203 228
183 203 228
183 202 228
182 202 228
181 202 228
181 201 228
180 201 228
180 201 228
180 201 228
179 200 228
179 200 228
178 200 228
178 200 228
177 199 228
177 199 228
177 199 228
176 199 228
176 199 228
176 198 228
175 198 228
175 198 228
175 198 228
174 198 228
174 198 228
174 197 228
173 197 228
173 197 228
173 197 228
172 197 228
172 197 228
172 196 228
171 196 228
171 196 228
171 196 228
171 196 228
170 196 228
170 196 228
170 195 228
170 195 228
169 195 228
169 195 228
169 195 228
169 195 228
168 195 228
168 194 228
168 194 228
168 194 228
167 194 228
167 194 228
167 194 228
167 194 228
166 194 228
166 194 228
166 193 228
166 193 228
166 193 228
165 193 228
165 193 228
165 193 228
165 193 228
165 193 228
165 193 228
164 193 228
164 193 228
164 192 228
164 192 228
164 192 228
164 192 228
164 192 228
163 192 228
163 192 228
163 192 228
163 192 228
163 192 228
163 192 228
163 192 228
163 192 228
163 192 228
163 192 228
163 192 228
163 192 228
163 192 228
163 192 228
163 192 228
163 192 228
163 192 228
164 192 228
164 192 228
164 192 228
164 192 228
164 193 228
165 193 228
165 193 228
165 193 228
166 193 228
166 194 228
167 194 228
168 194 228
168 195 228
169 195 228
170 195 228
171 196 228
172 197 228
173 197 228
175 198 228
177 199 228
186 207 234
200 220 247
208 228 255
208 228 255
208 228 255
208 228 255
208 228 255
208 228 255
208 228 255
208 228 255
208 228 255
208 228 255
208 228 255
207 228 255
207 228 255
207 228 255
207 228 255
207 228 255
207 228 255
207 228 255
207 228 255
207 228 255
207 228 255
207 228 255
207 228 255
207 228 255
207 228 255
207 227 255
207 227 255
207 227 255
207 227 255
207 227 255
206 227 255
206 227 255
206 227 255
206 227 255
206 227 255
206 227 255
206 227 255
206 227 255
206 227 255
206 227 255
206 227 255
206 227 255
206 227 255
206 227 255
206 227 255
206 227 255
206 227 255
206 227 255
206 227 255
206 227 255
206 227 255
206 227 255
206 227 255
205 227 255
205 227 255
205 227 255
205 227 255
205 227 255
205 227 255
205 227 255
205 227 255
205 227 255
205 227 255
205 227 255
205 227 255
205 227 255
205 227 255
205 227 255
205 227 255
205 227 255
205 227 255
205 227 255
205 226 255
205 226 255
205 226 255
205 226 255
205 226 255
205 226 255
205 226 255
205 226 255
205 226 255
205 226 255
205 226 255
205 226 255
205 226 255
205 226 255
205 226 255
205 226 255
205 226 255
205 226 255
205 226 255
205 226 255
205 226 255
205 226 255
205 226 255
205 226 255
205 226 255
205 226 255
205 226 255
205 226 255
205 226 255
205 226 255
205 226 255
205 226 255
205 226 255
205 226 255
205 226 255
205 226 255
205 226 255
205 226 255
205 226 255
205 226 255
205 226 255
205 226 255
205 227 255
205 227 255
205 227 255
205 227 255
205 227 255
205 227 255
205 227 255
205 227 255
205 227 255
205 227 255
205 227 255
205 227 255
205 227 255
205 227 255
205 227 255
205 227 255
205 227 255
205 227 255
205 227 255
206 227 255
206 227 255
206 227 255
206 227 255
206 227 255
206 227 255
206 227 255
206 227 255
206 227 255
206 227 255
206 227 255
206 227 255
206 227 255
206 227 255
206 227 255
206 227 255
206 227 255
206 227 255
206 227 255
206 227 255
206 227 255
206 227 255
206 227 255
207 227 255
207 227 255
207 227 255
207 227 255
207 227 255
207 228 255
207 228 255
207 228 255
207 228 255
207 228 255
207 228 255
207 228 255
207 228 255
207 228 255
207 228 255
207 228 255
207 228 255
207 228 255
207 228 255
208 228 255
208 228 255
208 228 255
208 228 255
208 228 255
208 228 255
208 228 255
208 228 255
208 228 255
208 228 255
208 228 255
201 221 248
186 207 234
178 200 228
175 198 228
173 197 228
172 196 228
171 196 228
170 195 228
169 195 228
168 195 228
167 194 228
167 194 228
166 194 228
166 193 228
165 193 228
165 193 228
165 193 228
164 193 228
164 193 228
164 192 228
164 192 228
164 192 228
163 192 228
163 192 228
163 192 228
163 192 228
163 192 228
163 192 228
163 192 228
163 192 228
163 192 228
163 192 228
163 192 228
163 192 228
163 192 228
163 192 228
163 192 228
163 192 228
164 192 228
164 192 228
164 192 228
164 192 228
164 192 228
164 192 228
164 193 228
164 193 228
165 193 228
165 193 228
165 193 228
165 193 228
165 193 228
165 193 228
166 193 228
166 193 228
166 193 228
166 194 228
166 194 228
167 194 228
167 194 228
167 194 228
167 194 228
168 194 228
168 194 228
168 194 228
168 195 228
169 195 228
169 195 228
169 195 228
169 195 228
170 195 228
170 195 228
170 196 228
170 196 228
171 196 228
171 196 228
171 196 228
171 196 228
172 196 228
172 197 228
172 197 228
173 197 228
173 197 228
173 197 228
174 197 228
174 198 228
174 198 228
175 198 228
175 198 228
175 198 228
176 198 228
176 199 228
176 199 228
177 199 228
177 199 228
177 199 228
178 200 228
178 200 228
179 200 228
179 200 228
179 201 228
180 201 228
180 201 228
181 201 228
181 202 228
182 202 228
183 202 228
183 203 228
182 202 228
182 202 228
181 201 228
181 201 228
180 201 228
180 201 228
179 200 228
179 200 228
178 200 228
178 200 228
178 200 228
177 199 228
177 199 228
177 199 228
176 199 228
176 199 228
176 198 228
175 198 228
175 198 228
175 198 228
174 198 228
174 198 228
174 197 228
173 197 228
173 197 228
173 197 228
172 197 228
172 197 228
172 196 228
172 196 228
171 196 228
171 196 228
171 196 228
170 196 228
170 196 228
170 195 228
170 195 228
169 195 228
169 195 228
169 195 228
169 195 228
168 195 228
168 195 228
168 194 228
168 194 228
167 194 228
167 194 228
167 194 228
167 194 228
166 194 228
166 194 228
166 193 228
166 193 228
166 193 228
165 193 228
165 193 228
165 193 228
165 193 228
165 193 228
165 193 228
164 193 228
164 192 228
164 192 228
164 192 228
164 192 228
164 192 228
163 192 228
163 192 228
163 192 228
163 192 228
163 192 228
163 192 228
163 192 228
163 192 228
163 192 228
163 192 228
163 192 228
163 192 228
163 192 228
163 192 228
163 192 228
163 192 228
163 192 228
163 192 228
163 192 228
163 192 228
163 192 228
163 192 228
163 192 228
164 192 228
164 192 228
164 192 228
164 193 228
165 193 228
165 193 228
165 193 228
166 193 228
166 194 228
167 194 228
168 194 228
168 195 228
169 195 228
170 196 228
171 196 228
173 197 228
175 198 228
177 199 228
183 204 232
196 216 243
208 228 255
208 228 255
208 228 255
208 228 255
208 228 255
208 228 255
208 228 255
208 228 255
208 228 255
208 228 255
208 228 255
208 228 255
208 228 255
207 228 255
207 228 255
207 228 255
207 228 255
207 228 255
207 228 255
207 228 255
207 228 255
207 228 255
207 228 255
207 228 255
207 228 255
207 228 255
207 228 255
207 228 255
207 227 255
207 227 255
207 227 255
207 227 255
207 227 255
206 227 255
206 227 255
206 227 255
206 227 255
206 227 255
206 227 255
206 227 255
206 227 255
206 227 255
206 227 255
206 227 255
206 227 255
206 227 255
206 227 255
206 227 255
206 227 255
206 227 255
206 227 255
206 227 255
206 227 255
206 227 255
206 227 255
206 227 255
206 227 255
206 227 255
205 227 255
205 227 255
205 227 255
205 227 255
205 227 255
205 227 255
205 227 255
205 227 255
205 227 255
205 227 255
205 227 255
205 227 255
205 227 255
205 227 255
205 227 255
205 227 255
205 227 255
205 227 255
205 227 255
205 227 255
205 227 255
205 227 255
205 227 255
205 227 255
205 227 255
205 227 255
205 227 255
205 227 255
205 227 255
205 227 255
205 227 255
205 227 255
205 227 255
205 227 255
205 227 255
205 227 255
205 227 255
205 227 255
205 227 255
205 227 255
205 227 255
205 227 255
205 227 255
205 227 255
205 227 255
205 227 255
205 227 255
205 227 255
205 227 255
205 227 255
205 227 255
205 227 255
205 227 255
205 227 255
205 227 255
205 227 255
205 227 255
205 227 255
205 227 255
205 227 255
205 227 255
205 227 255
205 227 255
205 227 255
205 227 255
205 227 255
206 227 255
206 227 255
206 227 255
206 227 255
206 227 255
206 227 255
206 227 255
206 227 255
206 227 255
206 227 255
206 227 255
206 227 255
206 227 255
206 227 255
206 227 255
206 227 255
206 227 255
206 227 255
206 227 255
206 227 255
206 227 255
206 227 255
206 227 255
206 227 255
206 227 255
207 227 255
207 227 255
207 227 255
207 227 255
207 227 255
207 228 255
207 228 255
207 228 255
207 228 255
207 228 255
207 228 255
207 228 255
207 228 255
207 228 255
207 228 255
207 228 255
207 228 255
207 228 255
207 228 255
207 228 255
208 228 255
208 228 255
208 228 255
208 228 255
208 228 255
208 228 255
208 228 255
208 228 255
208 228 255
208 228 255
208 228 255
208 228 255
208 228 255
197 217 244
183 204 232
177 199 228
175 198 228
173 197 228
171 196 228
170 196 228
169 195 228
168 195 228
168 194 228
167 194 228
166 194 228
166 193 228
165 193 228
165 193 228
165 193 228
164 193 228
164 192 228
164 192 228
164 192 228
163 192 228
163 192 228
163 192 228
163 192 228
163 192 228
163 192 228
163 192 228
163 192 228
163 192 228
163 192 228
163 192 228
163 192 228
163 192 228
163 192 228
163 192 228
163 192 228
163 192 228
163 192 228
163 192 228
163 192 228
163 192 228
163 192 228
163 192 228
164 192 228
164 192 228
164 192 228
164 192 228
164 192 228
164 193 228
165 193 228
165 193 228
165 193 228
165 193 228
165 193 228
165 193 228
166 193 228
166 193 228
166 193 228
166 194 228
166 194 228
167 194 228
167 194 228
167 194 228
167 194 228
168 194 228
168 194 228
168 195 228
168 195 228
169 195 228
169 195 228
169 195 228
169 195 228
170 195 228
170 195 228
170 196 228
170 196 228
171 196 228
171 196 228
171 196 228
172 196 228
172 196 228
172 197 228
172 197 228
173 197 228
173 197 228
173 197 228
174 197 228
174 198 228
174 198 228
175 198 228
175 198 228
175 198 228
176 198 228
176 199 228
176 199 228
177 199 228
177 199 228
177 199 228
178 200 228
178 200 228
179 200 228
179 200 228
179 200 228
180 201 228
180 201 228
181 201 228
181 201 228
182 202 228
182 202 228
182 202 228
181 201 228
181 201 228
180 201 228
180 201 228
179 200 228
179 200 228
178 200 228
178 200 228
178 200 228
177 199 228
177 199 228
177 199 228
176 199 228
176 199 228
176 198 228
175 198 228
175 198 228
175 198 228
174 198 228
174 198 228
174 197 228
173 197 228
173 197 228
173 197 228
173 197 228
172 197 228
172 197 228
172 196 228
171 196 228
171 196 228
171 196 228
171 196 228
170 196 228
170 196 228
170 195 228
170 195 228
169 195 228
169 195 228
169 195 228
169 195 228
168 195 228
168 194 228
168 194 228
168 194 228
167 194 228
167 194 228
167 194 228
167 194 228
166 194 228
166 194 228
166 193 228
166 193 228
166 193 228
165 193 228
165 193 228
165 193 228
165 193 228
165 193 228
164 193 228
164 193 228
164 192 228
164 192 228
164 192 228
164 192 228
163 192 228
163 192 228
163 192 228
163 192 228
163 192 228
163 192 228
163 192 228
163 192 228
162 192 228
162 192 228
162 192 228
162 192 228
162 191 228
162 191 228
162 191 228
162 191 228
162 191 228
162 191 228
162 191 228
162 192 228
162 192 228
162 192 228
163 192 228
163 192 228
163 192 228
163 192 228
163 192 228
163 192 228
164 192 228
164 192 228
164 193 228
165 193 228
165 193 228
166 193 228
166 193 228
167 194 228
167 194 228
168 195 228
169 195 228
170 196 228
171 196 228
173 197 228
174 198 228
177 199 228
182 203 231
198 218 245
207 227 254
208 228 255
208 228 255
208 228 255
208 228 255
208 228 255
208 228 255
208 228 255
208 228 255
208 228 255
208 228 255
208 228 255
208 228 255
208 228 255
208 228 255
208 228 255
207 228 255
207 228 255
207 228 255
207 228 255
207 228 255
207 228 255
207 228 255
207 228 255
207 228 255
207 228 255
207 228 255
207 228 255
207 228 255
207 228 255
207 228 255
207 227 255
207 227 255
207 227 255
207 227 255
207 227 255
207 227 255
206 227 255
206 227 255
206 227 255
206 227 255
206 227 255
206 227 255
206 227 255
206 227 255
206 227 255
206 227 255
206 227 255
206 227 255
206 227 255
206 227 255
206 227 255
206 227 255
206 227 255
206 227 255
206 227 255
206 227 255
206 227 255
206 227 255
206 227 255
206 227 255
206 227 255
206 227 255
206 227 255
206 227 255
205 227 255
205 227 255
205 227 255
205 227 255
205 227 255
205 227 255
205 227 255
205 227 255
205 227 255
205 227 255
205 227 255
205 227 255
205 227 255
205 227 255
205 227 255
205 227 255
205 227 255
205 227 255
201 223 253
192 213 246
180 202 237
165 187 228
166 189 228
176 198 236
171 194 233
171 193 233
175 197 235
191 212 245
196 217 249
199 220 251
205 227 255
205 227 255
205 227 255
205 227 255
205 227 255
205 227 255
205 227 255
205 227 255
205 227 255
205 227 255
205 227 255
205 227 255
205 227 255
205 227 255
205 227 255
205 227 255
205 227 255
205 227 255
205 227 255
206 227 255
206 227 255
206 227 255
206 227 255
206 227 255
206 227 255
206 227 255
206 227 255
206 227 255
206 227 255
206 227 255
206 227 255
206 227 255
206 227 255
206 227 255
206 227 255
206 227 255
206 227 255
206 227 255
206 227 255
206 227 255
206 227 255
206 227 255
206 227 255
206 227 255
206 227 255
206 227 255
207 227 255
207 227 255
207 227 255
207 227 255
207 227 255
207 227 255
207 228 255
207 228 255
207 228 255
207 228 255
207 228 255
207 228 255
207 228 255
207 228 255
207 228 255
207 228 255
207 228 255
207 228 255
207 228 255
207 228 255
207 228 255
208 228 255
208 228 255
208 228 255
208 228 255
208 228 255
208 228 255
208 228 255
208 228 255
208 228 255
208 228 255
208 228 255
208 228 255
208 228 255
208 228 255
208 228 255
208 228 255
199 219 246
183 204 232
177 199 228
174 198 228
173 197 228
171 196 228
170 195 228
169 195 228
168 195 228
168 194 228
167 194 228
166 194 228
166 193 228
165 193 228
165 193 228
164 193 228
164 192 228
164 192 228
163 192 228
163 192 228
163 192 228
163 192 228
163 192 228
163 192 228
162 192 228
162 192 228
162 192 228
162 191 228
162 191 228
162 191 228
162 191 228
162 191 228
162 191 228
162 191 228
162 192 228
162 192 228
162 192 228
162 192 228
163 192 228
163 192 228
163 192 228
163 192 228
163 192 228
163 192 228
163 192 228
163 192 228
164 192 228
164 192 228
164 192 228
164 192 228
164 193 228
164 193 228
165 193 228
165 193 228
165 193 228
165 193 228
165 193 228
166 193 228
166 193 228
166 193 228
166 194 228
166 194 228
167 194 228
167 194 228
167 194 228
167 194 228
168 194 228
168 194 228
168 194 228
168 195 228
169 195 228
169 195 228
169 195 228
169 195 228
170 195 228
170 195 228
170 196 228
170 196 228
171 196 228
171 196 228
171 196 228
171 196 228
172 196 228
172 197 228
172 197 228
173 197 228
173 197 228
173 197 228
173 197 228
174 197 228
174 198 228
174 198 228
175 198 228
175 198 228
175 198 228
176 198 228
176 199 228
176 199 228
177 199 228
177 199 228
177 199 228
178 200 228
178 200 228
178 200 228
179 200 228
179 200 228
180 201 228
180 201 228
181 201 228
181 201 228
181 202 228
181 201 228
180 201 228
180 201 228
180 201 228
179 200 228
179 200 228
178 200 228
178 200 228
178 200 228
177 199 228
177 199 228
177 199 228
176 199 228
176 199 228
176 199 228
175 198 228
175 198 228
175 198 228
174 198 228
174 198 228
174 198 228
174 197 228
173 197 228
173 197 228
173 197 228
172 197 228
172 197 228
172 196 228
172 196 228
171 196 228
171 196 228
171 196 228
171 196 228
170 196 228
170 195 228
170 195 228
169 195 228
169 195 228
169 195 228
169 195 228
168 195 228
168 195 228
168 194 228
168 194 228
168 194 228
167 194 228
167 194 228
167 194 228
167 194 228
166 194 228
166 194 228
166 193 228
166 193 228
166 193 228
165 193 228
165 193 228
165 193 228
165 193 228
165 193 228
164 193 228
164 192 228
164 192 228
164 192 228
164 192 228
163 192 228
163 192 228
163 192 228
163 192 228
163 192 228
163 192 228
163 192 228
163 192 228
162 192 228
162 192 228
162 191 228
162 191 228
162 191 228
162 191 228
162 191 228
162 191 228
162 191 228
162 191 228
162 191 228
162 191 228
162 191 228
162 191 228
162 191 228
162 191 228
162 191 228
162 192 228
162 192 228
163 192 228
163 192 228
163 192 228
163 192 228
163 192 228
164 192 228
164 192 228
165 193 228
165 193 228
165 193 228
166 193 228
167 194 228
167 194 228
168 194 228
169 195 228
170 196 228
171 196 228
173 197 228
174 198 228
177 199 228
183 204 232
197 217 244
207 227 254
208 228 255
208 228 255
208 228 255
208 228 255
208 228 255
208 228 255
208 228 255
208 228 255
208 228 255
208 228 255
208 228 255
208 228 255
208 228 255
208 228 255
208 228 255
208 228 255
208 228 255
208 228 255
207 228 255
207 228 255
207 228 255
207 228 255
207 228 255
207 228 255
207 228 255
207 228 255
207 228 255
207 228 255
207 228 255
207 228 255
207 228 255
207 228 255
207 228 255
207 228 255
207 227 255
207 227 255
207 227 255
207 227 255
207 227 255
207 227 255
206 227 255
206 227 255
206 227 255
206 227 255
206 227 255
206 227 255
206 227 255
206 227 255
206 227 255
206 227 255
206 227 255
206 227 255
206 227 255
206 227 255
206 227 255
206 227 255
206 227 255
206 227 255
206 227 255
206 227 255
206 227 255
206 227 255
206 227 255
206 227 255
206 227 255
206 227 255
206 227 255
206 227 255
206 227 255
206 227 255
206 227 255
206 227 255
206 227 255
206 227 255
202 223 253
183 204 240
152 175 221
137 161 211
112 139 198
73 107 183
62 99 177
62 99 179
63 100 178
62 99 176
62 98 173
62 99 175
62 99 179
62 99 176
62 99 176
63 100 179
61 98 172
62 99 177
80 112 182
111 138 199
143 166 213
153 176 221
191 213 244
202 223 252
206 227 255
206 227 255
206 227 255
206 227 255
206 227 255
206 227 255
206 227 255
206 227 255
206 227 255
206 227 255
206 227 255
206 227 255
206 227 255
206 227 255
206 227 255
206 227 255
206 227 255
206 227 255
206 227 255
206 227 255
206 227 255
206 227 255
206 227 255
206 227 255
206 227 255
206 227 255
206 227 255
206 227 255
206 227 255
206 227 255
206 227 255
206 227 255
206 227 255
206 227 255
207 227 255
207 227 255
207 227 255
207 227 255
207 227 255
207 227 255
207 228 255
207 228 255
207 228 255
207 228 255
207 228 255
207 228 255
207 228 255
207 228 255
207 228 255
207 228 255
207 228 255
207 228 255
207 228 255
207 228 255
207 228 255
207 228 255
208 228 255
208 228 255
208 228 255
208 228 255
208 228 255
208 228 255
208 228 255
208 228 255
208 228 255
208 228 255
208 228 255
208 228 255
208 228 255
208 228 255
208 228 255
208 228 255
208 228 255
208 228 255
208 228 255
197 217 243
181 202 230
176 199 228
174 198 228
173 197 228
171 196 228
170 195 228
169 195 228
168 195 228
167 194 228
167 194 228
166 193 228
165 193 228
165 193 228
165 193 228
164 192 228
164 192 228
163 192 228
163 192 228
163 192 228
163 192 228
163 192 228
162 192 228
162 192 228
162 191 228
162 191 228
162 191 228
162 191 228
162 191 228
162 191 228
162 191 228
162 191 228
162 191 228
162 191 228
162 191 228
162 191 228
162 191 228
162 191 228
162 191 228
162 192 228
162 192 228
163 192 228
163 192 228
163 192 228
163 192 228
163 192 228
163 192 228
163 192 228
164 192 228
164 192 228
164 192 228
164 192 228
164 192 228
164 193 228
165 193 228
165 193 228
165 193 228
165 193 228
165 193 228
166 193 228
166 193 228
166 193 228
166 194 228
166 194 228
167 194 228
167 194 228
167 194 228
167 194 228
168 194 228
168 194 228
168 194 228
168 195 228
168 195 228
169 195 228
169 195 228
169 195 228
169 195 228
170 195 228
170 195 228
170 196 228
171 196 228
171 196 228
171 196 228
171 196 228
172 196 228
172 196 228
172 197 228
172 197 228
173 197 228
173 197 228
173 197 228
174 197 228
174 198 228
174 198 228
174 198 228
175 198 228
175 198 228
175 198 228
176 199 228
176 199 228
176 199 228
177 199 228
177 199 228
177 199 228
178 200 228
178 200 228
179 200 228
179 200 228
179 200 228
180 201 228
180 201 228
180 201 228
181 201 228
180 201 228
180 201 228
180 201 228
179 200 228
179 200 228
179 200 228
178 200 228
178 200 228
178 199 228
177 199 228
177 199 228
177 199 228
176 199 228
176 199 228
176 198 228
175 198 228
175 198 228
175 198 228
174 198 228
174 198 228
174 197 228
174 197 228
173 197 228
173 197 228
173 197 228
172 197 228
172 197 228
172 196 228
172 196 228
171 196 228
171 196 228
171 196 228
171 196 228
170 196 228
170 195 228
170 195 228
170 195 228
169 195 228
169 195 228
169 195 228
169 195 228
168 195 228
168 194 228
168 194 228
168 194 228
167 194 228
167 194 228
167 194 228
167 194 228
166 194 228
166 194 228
166 193 228
166 193 228
166 193 228
165 193 228
165 193 228
165 193 228
165 193 228
165 193 228
164 193 228
164 192 228
164 192 228
164 192 228
164 192 228
164 192 228
163 192 228
163 192 228
163 192 228
163 192 228
163 192 228
163 192 228
162 192 228
162 192 228
162 192 228
162 191 228
162 191 228
162 191 228
162 191 228
162 191 228
162 191 228
162 191 228
162 191 228
162 191 228
162 191 228
162 191 228
162 191 228
162 191 228
162 191 228
162 191 228
162 191 228
162 191 228
162 191 228
162 192 228
162 192 228
163 192 228
163 192 228
163 192 228
163 192 228
164 192 228
164 192 228
164 193 228
165 193 228
165 193 228
166 193 228
167 194 228
167 194 228
168 195 228
169 195 228
170 196 228
171 196 228
173 197 228
174 198 228
177 199 228
184 205 232
201 221 248
209 228 255
208 228 255
208 228 255
208 228 255
208 228 255
208 228 255
208 228 255
208 228 255
208 228 255
208 228 255
208 228 255
208 228 255
208 228 255
208 228 255
208 228 255
208 228 255
208 228 255
208 228 255
208 228 255
208 228 255
208 228 255
208 228 255
207 228 255
207 228 255
207 228 255
207 228 255
207 228 255
207 228 255
207 228 255
207 228 255
207 228 255
207 228 255
207 228 255
207 228 255
207 228 255
207 228 255
207 228 255
207 228 255
207 228 255
207 227 255
207 227 255
207 227 255
207 227 255
207 227 255
207 227 255
206 227 255
206 227 255
206 227 255
206 227 255
206 227 255
206 227 255
206 227 255
206 227 255
206 227 255
206 227 255
206 227 255
206 227 255
206 227 255
206 227 255
206 227 255
206 227 255
206 227 255
206 227 255
206 227 255
206 227 255
206 227 255
206 227 255
206 227 255
206 227 255
205 226 255
187 209 242
144 167 213
104 131 194
68 103 178
62 99 177
62 99 177
62 99 177
62 99 178
62 99 178
62 98 174
61 98 175
62 99 178
62 99 175
62 99 172
63 99 177
61 98 173
62 99 178
61 98 167
62 99 178
62 99 177
62 99 176
62 99 174
62 98 171
62 99 176
61 99 178
61 98 174
65 101 179
114 141 199
147 170 217
184 206 241
204 225 254
206 227 255
206 227 255
206 227 255
206 227 255
206 227 255
206 227 255
206 227 255
206 227 255
206 227 255
206 227 255
206 227 255
206 227 255
206 227 255
206 227 255
206 227 255
206 227 255
206 227 255
206 227 255
206 227 255
206 227 255
206 227 255
206 227 255
206 227 255
207 227 255
207 227 255
207 227 255
207 227 255
207 227 255
207 227 255
207 227 255
207 228 255
207 228 255
207 228 255
207 228 255
207 228 255
207 228 255
207 228 255
207 228 255
207 228 255
207 228 255
207 228 255
207 228 255
207 228 255
207 228 255
207 228 255
207 228 255
207 228 255
208 228 255
208 228 255
208 228 255
208 228 255
208 228 255
208 228 255
208 228 255
208 228 255
208 228 255
208 228 255
208 228 255
208 228 255
208 228 255
208 228 255
208 228 255
208 228 255
208 228 255
208 228 255
208 228 255
208 228 255
209 228 255
208 228 255
200 220 247
186 206 234
177 199 228
175 198 228
173 197 228
171 196 228
170 196 228
169 195 228
168 195 228
167 194 228
167 194 228
166 193 228
165 193 228
165 193 228
164 193 228
164 192 228
164 192 228
163 192 228
163 192 228
163 192 228
163 192 228
162 192 228
162 192 228
162 191 228
162 191 228
162 191 228
162 191 228
162 191 228
162 191 228
162 191 228
162 191 228
162 191 228
162 191 228
162 191 228
162 191 228
162 191 228
162 191 228
162 191 228
162 191 228
162 191 228
162 191 228
162 192 228
162 192 228
163 192 228
163 192 228
163 192 228
163 192 228
163 192 228
163 192 228
163 192 228
164 192 228
164 192 228
164 192 228
164 192 228
164 192 228
164 193 228
165 193 228
165 193 228
165 193 228
165 193 228
165 193 228
166 193 228
166 193 228
166 193 228
166 194 228
166 194 228
167 194 228
167 194 228
167 194 228
167 194 228
168 194 228
168 194 228
168 194 228
168 195 228
169 195 228
169 195 228
169 195 228
169 195 228
170 195 228
170 195 228
170 195 228
170 196 228
171 196 228
171 196 228
171 196 228
171 196 228
172 196 228
172 196 228
172 197 228
172 197 228
173 197 228
173 197 228
173 197 228
173 197 228
174 197 228
174 198 228
174 198 228
175 198 228
175 198 228
175 198 228
176 198 228
176 199 228
176 199 228
177 199 228
177 199 228
177 199 228
178 199 228
178 200 228
178 200 228
179 200 228
179 200 228
179 200 228
180 201 228
180 201 228
180 201 228
180 201 228
180 201 228
179 200 228
179 200 228
179 200 228
178 200 228
178 200 228
178 200 228
177 199 228
177 199 228
177 199 228
176 199 228
176 199 228
176 199 228
175 198 228
175 198 228
175 198 228
175 198 228
174 198 228
174 198 228
174 197 228
173 197 228
173 197 228
173 197 228
173 197 228
172 197 228
172 197 228
172 196 228
172 196 228
171 196 228
171 196 228
171 196 228
171 196 228
170 196 228
170 196 228
170 195 228
170 195 228
169 195 228
169 195 228
169 195 228
169 195 228
168 195 228
168 195 228
168 194 228
168 194 228
167 194 228
167 194 228
167 194 228
167 194 228
167 194 228
166 194 228
166 193 228
166 193 228
166 193 228
165 193 228
165 193 228
165 193 228
165 193 228
165 193 228
164 193 228
164 193 228
164 192 228
164 192 228
164 192 228
164 192 228
163 192 228
163 192 228
163 192 228
163 192 228
163 192 228
163 192 228
163 192 228
162 192 228
162 192 228
162 191 228
162 191 228
162 191 228
162 191 228
162 191 228
162 191 228
162 191 228
162 191 228
162 191 228
162 191 228
162 191 228
162 191 228
162 191 228
162 191 228
162 191 228
162 191 228
162 191 228
162 191 228
162 191 228
162 191 228
162 191 228
162 192 228
163 192 228
163 192 228
163 192 228
163 192 228
164 192 228
164 192 228
164 193 228
165 193 228
165 193 228
166 193 228
167 194 228
167 194 228
168 195 228
169 195 228
170 196 228
172 196 228
173 197 228
175 198 228
177 199 228
189 209 236
203 223 250
209 229 255
209 229 255
209 229 255
209 228 255
208 228 255
208 228 255
208 228 255
208 228 255
208 228 255
208 228 255
208 228 255
208 228 255
208 228 255
208 228 255
208 228 255
208 228 255
208 228 255
208 228 255
208 228 255
208 228 255
208 228 255
208 228 255
208 228 255
208 228 255
208 228 255
207 228 255
207 228 255
207 228 255
207 228 255
207 228 255
207 228 255
207 228 255
207 228 255
207 228 255
207 228 255
207 228 255
207 228 255
207 228 255
207 228 255
207 228 255
207 228 255
207 228 255
207 228 255
207 228 255
207 227 255
207 227 255
207 227 255
207 227 255
207 227 255
207 227 255
207 227 255
206 227 255
206 227 255
206 227 255
206 227 255
206 227 255
206 227 255
206 227 255
206 227 255
206 227 255
206 227 255
206 227 255
206 227 255
206 227 255
206 227 255
185 207 242
135 159 209
83 114 184
62 99 174
62 99 175
62 99 174
62 99 176
62 99 177
62 99 174
63 99 177
62 98 170
62 99 175
62 99 172
62 99 175
62 99 171
62 99 176
62 98 169
62 99 176
62 98 173
62 99 176
62 99 173
62 99 177
62 99 174
62 99 177
62 99 173
62 98 171
62 99 175
61 98 176
62 99 173
62 98 167
62 99 175
62 99 176
62 99 179
75 108 181
144 168 213
181 203 237
205 226 255
206 227 255
206 227 255
206 227 255
206 227 255
206 227 255
206 227 255
206 227 255
206 227 255
206 227 255
206 227 255
206 227 255
206 227 255
206 227 255
207 227 255
207 227 255
207 227 255
207 227 255
207 227 255
207 227 255
207 227 255
207 228 255
207 228 255
207 228 255
207 228 255
207 228 255
207 228 255
207 228 255
207 228 255
207 228 255
207 228 255
207 228 255
207 228 255
207 228 255
207 228 255
207 228 255
207 228 255
207 228 255
207 228 255
207 228 255
208 228 255
208 228 255
208 228 255
208 228 255
208 228 255
208 228 255
208 228 255
208 228 255
208 228 255
208 228 255
208 228 255
208 228 255
208 228 255
208 228 255
208 228 255
208 228 255
208 228 255
208 228 255
208 228 255
208 228 255
208 228 255
209 228 255
209 229 255
209 229 255
209 229 255
204 224 251
189 209 237
177 199 228
175 198 228
173 197 228
172 196 228
170 196 228
169 195 228
168 195 228
167 194 228
167 194 228
166 193 228
165 193 228
165 193 228
164 193 228
164 192 228
164 192 228
163 192 228
163 192 228
163 192 228
163 192 228
162 192 228
162 191 228
162 191 228
162 191 228
162 191 228
162 191 228
162 191 228
162 191 228
162 191 228
162 191 228
162 191 228
162 191 228
162 191 228
162 191 228
162 191 228
162 191 228
162 191 228
162 191 228
162 191 228
162 191 228
162 191 228
162 191 228
162 192 228
162 192 228
163 192 228
163 192 228
163 192 228
163 192 228
163 192 228
163 192 228
163 192 228
164 192 228
164 192 228
164 192 228
164 192 228
164 193 228
164 193 228
165 193 228
165 193 228
165 193 228
165 193 228
165 193 228
166 193 228
166 193 228
166 193 228
166 194 228
167 194 228
167 194 228
167 194 228
167 194 228
167 194 228
168 194 228
168 194 228
168 195 228
168 195 228
169 195 228
169 195 228
169 195 228
169 195 228
170 195 228
170 195 228
170 196 228
170 196 228
171 196 228
171 196 228
171 196 228
171 196 228
172 196 228
172 196 228
172 197 228
172 197 228
173 197 228
173 197 228
173 197 228
173 197 228
174 197 228
174 198 228
174 198 228
175 198 228
175 198 228
175 198 228
175 198 228
176 199 228
176 199 228
176 199 228
177 199 228
177 199 228
177 199 228
178 200 228
178 200 228
178 200 228
179 200 228
179 200 228
179 200 228
180 201 228
180 201 228
180 201 228
180 201 228
179 200 228
179 200 228
179 200 228
178 200 228
178 200 228
178 200 228
177 199 228
177 199 228
177 199 228
176 199 228
176 199 228
176 199 228
175 198 228
175 198 228
175 198 228
175 198 228
174 198 228
174 198 228
174 197 228
174 197 228
173 197 228
173 197 228
173 197 228
172 197 228
172 197 228
172 197 228
172 196 228
171 196 228
171 196 228
171 196 228
171 196 228
170 196 228
170 196 228
170 195 228
170 195 228
169 195 228
169 195 228
169 195 228
169 195 228
168 195 228
168 195 228
168 194 228
168 194 228
168 194 228
167 194 228
167 194 228
167 194 228
167 194 228
166 194 228
166 194 228
166 193 228
166 193 228
166 193 228
165 193 228
165 193 228
165 193 228
165 193 228
165 193 228
164 193 228
164 193 228
164 192 228
164 192 228
164 192 228
164 192 228
163 192 228
163 192 228
163 192 228
163 192 228
163 192 228
163 192 228
162 192 228
162 192 228
162 191 228
162 191 228
162 191 228
162 191 228
162 191 228
162 191 228
162 191 228
162 191 228
162 191 228
162 191 228
161 191 228
161 191 228
161 191 228
161 191 228
161 191 228
161 191 228
162 191 228
162 191 228
162 191 228
162 191 228
162 191 228
162 191 228
162 191 228
162 192 228
163 192 228
163 192 228
163 192 228
163 192 228
164 192 228
164 192 228
165 193 228
165 193 228
166 193 228
166 194 228
167 194 228
168 194 228
169 195 228
170 195 228
171 196 228
172 197 228
174 197 228
176 199 228
179 200 229
193 213 240
207 227 254
209 229 255
209 229 255
209 229 255
209 229 255
209 229 255
209 229 255
209 228 255
208 228 255
208 228 255
208 228 255
208 228 255
208 228 255
208 228 255
208 228 255
208 228 255
208 228 255
208 228 255
208 228 255
208 228 255
208 228 255
208 228 255
208 228 255
208 228 255
208 228 255
208 228 255
208 228 255
208 228 255
208 228 255
208 228 255
207 228 255
207 228 255
207 228 255
207 228 255
207 228 255
207 228 255
207 228 255
207 228 255
207 228 255
207 228 255
207 228 255
207 228 255
207 228 255
207 228 255
207 228 255
207 228 255
207 228 255
207 228 255
207 228 255
207 228 255
207 228 255
207 227 255
207 227 255
207 227 255
207 227 255
207 227 255
207 227 255
207 227 255
207 227 255
207 227 255
207 227 255
198 219 250
153 176 220
94 124 188
62 99 177
62 99 176
62 99 175
62 98 177
62 99 174
62 99 174
62 98 172
62 99 176
62 98 171
62 99 173
62 99 178
62 99 170
61 98 173
62 99 171
62 99 177
62 99 172
63 100 177
62 99 173
62 98 167
62 98 171
62 99 172
61 98 172
62 98 171
62 99 170
62 99 175
62 98 172
62 99 173
62 99 174
62 99 174
62 98 172
62 99 175
62 99 172
62 99 176
61 97 166
61 98 173
62 99 175
96 125 190
171 193 233
201 222 252
206 227 255
207 227 255
207 227 255
207 227 255
207 227 255
207 227 255
207 227 255
207 227 255
207 227 255
207 227 255
207 228 255
207 228 255
207 228 255
207 228 255
207 228 255
207 228 255
207 228 255
207 228 255
207 228 255
207 228 255
207 228 255
207 228 255
207 228 255
207 228 255
207 228 255
207 228 255
207 228 255
207 228 255
207 228 255
207 228 255
207 228 255
208 228 255
208 228 255
208 228 255
208 228 255
208 228 255
208 228 255
208 228 255
208 228 255
208 228 255
208 228 255
208 228 255
208 228 255
208 228 255
208 228 255
208 228 255
208 228 255
208 228 255
208 228 255
208 228 255
208 228 255
208 228 255
208 228 255
209 228 255
209 229 255
209 229 255
209 229 255
209 229 255
209 229 255
209 229 255
208 227 254
192 212 239
179 200 228
176 199 228
174 197 228
172 197 228
171 196 228
170 195 228
169 195 228
168 194 228
167 194 228
166 194 228
166 193 228
165 193 228
165 193 228
164 192 228
164 192 228
163 192 228
163 192 228
163 192 228
163 192 228
162 192 228
162 191 228
162 191 228
162 191 228
162 191 228
162 191 228
162 191 228
162 191 228
161 191 228
161 191 228
161 191 228
161 191 228
161 191 228
161 191 228
162 191 228
162 191 228
162 191 228
162 191 228
162 191 228
162 191 228
162 191 228
162 191 228
162 191 228
162 192 228
162 192 228
162 192 228
163 192 228
163 192 228
163 192 228
163 192 228
163 192 228
163 192 228
164 192 228
164 192 228
164 192 228
164 192 228
164 193 228
164 193 228
165 193 228
165 193 228
165 193 228
165 193 228
165 193 228
166 193 228
166 193 228
166 193 228
166 194 228
166 194 228
167 194 228
167 194 228
167 194 228
167 194 228
168 194 228
168 194 228
168 194 228
168 195 228
168 195 228
169 195 228
169 195 228
169 195 228
169 195 228
170 195 228
170 195 228
170 196 228
170 196 228
171 196 228
171 196 228
171 196 228
171 196 228
172 196 228
172 197 228
172 197 228
172 197 228
173 197 228
173 197 228
173 197 228
174 197 228
174 197 228
174 198 228
174 198 228
175 198 228
175 198 228
175 198 228
175 198 228
176 199 228
176 199 228
176 199 228
177 199 228
177 199 228
177 199 228
178 200 228
178 200 228
178 200 228
179 200 228
179 200 228
179 200 228
180 201 228
180 201 228
180 201 228
179 200 228
179 200 228
179 200 228
178 200 228
178 200 228
178 200 228
178 199 228
177 199 228
177 199 228
177 199 228
176 199 228
176 199 228
176 199 228
176 198 228
175 198 228
175 198 228
175 198 228
174 198 228
174 198 228
174 198 228
174 197 228
173 197 228
173 197 228
173 197 228
173 197 228
172 197 228
172 197 228
172 196 228
172 196 228
171 196 228
171 196 228
171 196 228
171 196 228
170 196 228
170 196 228
170 195 228
170 195 228
169 195 228
169 195 228
169 195 228
169 195 228
168 195 228
168 195 228
168 194 228
168 194 228
168 194 228
167 194 228
167 194 228
167 194 228
167 194 228
166 194 228
166 194 228
166 193 228
166 193 228
166 193 228
165 193 228
165 193 228
165 193 228
165 193 228
165 193 228
164 193 228
164 193 228
164 192 228
164 192 228
164 192 228
164 192 228
163 192 228
163 192 228
163 192 228
163 192 228
163 192 228
163 192 228
163 192 228
162 192 228
162 192 228
162 191 228
162 191 228
162 191 228
162 191 228
162 191 228
162 191 228
162 191 228
162 191 228
162 191 228
161 191 228
161 191 228
161 191 228
161 191 228
161 191 228
161 191 228
161 191 228
162 191 228
162 191 228
162 191 228
162 191 228
162 191 228
162 191 228
162 191 228
162 192 228
163 192 228
163 192 228
163 192 228
164 192 228
164 192 228
164 193 228
165 193 228
165 193 228
166 193 228
167 194 228
167 194 228
168 194 228
169 195 228
170 196 228
171 196 228
173 197 228
174 198 228
177 199 228
184 205 232
196 216 243
209 229 255
209 229 255
209 229 255
209 229 255
209 229 255
209 229 255
209 229 255
209 229 255
209 229 255
209 229 255
209 228 255
209 228 255
208 228 255
208 228 255
208 228 255
208 228 255
208 228 255
208 228 255
208 228 255
208 228 255
208 228 255
208 228 255
208 228 255
208 228 255
208 228 255
208 228 255
208 228 255
208 228 255
208 228 255
208 228 255
208 228 255
208 228 255
208 228 255
208 228 255
208 228 255
207 228 255
207 228 255
207 228 255
207 228 255
207 228 255
207 228 255
207 228 255
207 228 255
207 228 255
207 228 255
207 228 255
207 228 255
207 228 255
207 228 255
207 228 255
207 228 255
207 228 255
207 228 255
207 228 255
207 228 255
207 228 255
207 228 255
191 212 244
147 170 217
64 100 174
62 98 173
61 98 174
62 98 173
62 99 176
62 98 172
62 99 175
62 99 175
62 99 173
62 98 169
62 99 173
62 99 173
62 98 171
62 98 171
63 99 173
62 99 173
62 98 171
62 98 171
61 98 163
62 99 171
62 99 171
62 99 170
62 99 174
62 98 170
62 99 173
63 99 171
62 98 164
62 99 180
62 99 177
62 99 170
62 99 176
62 99 174
62 98 172
62 99 179
62 98 169
62 99 177
62 99 176
62 99 177
62 99 174
62 99 175
61 98 176
71 105 179
135 159 208
188 209 242
207 228 255
207 228 255
207 228 255
207 228 255
207 228 255
207 228 255
207 228 255
207 228 255
207 228 255
207 228 255
207 228 255
207 228 255
207 228 255
207 228 255
207 228 255
207 228 255
207 228 255
207 228 255
207 228 255
207 228 255
207 228 255
207 228 255
207 228 255
208 228 255
208 228 255
208 228 255
208 228 255
208 228 255
208 228 255
208 228 255
208 228 255
208 228 255
208 228 255
208 228 255
208 228 255
208 228 255
208 228 255
208 228 255
208 228 255
208 228 255
208 228 255
208 228 255
208 228 255
208 228 255
208 228 255
208 228 255
209 228 255
209 229 255
209 229 255
209 229 255
209 229 255
209 229 255
209 229 255
209 229 255
209 229 255
209 229 255
209 229 255
200 220 246
181 202 230
177 199 228
174 198 228
173 197 228
171 196 228
170 196 228
169 195 228
168 194 228
167 194 228
167 194 228
166 193 228
165 193 228
165 193 228
164 193 228
164 192 228
164 192 228
163 192 228
163 192 228
163 192 228
162 192 228
162 191 228
162 191 228
162 191 228
162 191 228
162 191 228
162 191 228
162 191 228
161 191 228
161 191 228
161 191 228
161 191 228
161 191 228
161 191 228
161 191 228
162 191 228
162 191 228
162 191 228
162 191 228
162 191 228
162 191 228
162 191 228
162 191 228
162 191 228
162 192 228
162 192 228
163 192 228
163 192 228
163 192 228
163 192 228
163 192 228
163 192 228
163 192 228
164 192 228
164 192 228
164 192 228
164 192 228
164 193 228
164 193 228
165 193 228
165 193 228
165 193 228
165 193 228
165 193 228
166 193 228
166 193 228
166 193 228
166 194 228
166 194 228
167 194 228
167 194 228
167 194 228
167 194 228
168 194 228
168 194 228
168 194 228
168 195 228
168 195 228
169 195 228
169 195 228
169 195 228
169 195 228
170 195 228
170 195 228
170 196 228
170 196 228
171 196 228
171 196 228
171 196 228
171 196 228
172 196 228
172 196 228
172 197 228
172 197 228
173 197 228
173 197 228
173 197 228
173 197 228
174 197 228
174 198 228
174 198 228
174 198 228
175 198 228
175 198 228
175 198 228
176 198 228
176 199 228
176 199 228
176 199 228
177 199 228
177 199 228
177 199 228
178 199 228
178 200 228
178 200 228
178 200 228
179 200 228
179 200 228
179 200 228
180 201 228
180 201 228
179 200 228
179 200 228
179 200 228
178 200 228
178 200 228
178 200 228
178 199 228
177 199 228
177 199 228
177 199 228
176 199 228
176 199 228
176 199 228
176 198 228
175 198 228
175 198 228
175 198 228
175 198 228
174 198 228
174 198 228
174 197 228
173 197 228
173 197 228
173 197 228
173 197 228
173 197 228
172 197 228
172 197 228
172 196 228
172 196 228
171 196 228
171 196 228
171 196 228
171 196 228
170 196 228
170 196 228
170 195 228
170 195 228
169 195 228
169 195 228
169 195 228
169 195 228
168 195 228
168 195 228
168 194 228
168 194 228
168 194 228
167 194 228
167 194 228
167 194 228
167 194 228
166 194 228
166 194 228
166 193 228
166 193 228
166 193 228
165 193 228
165 193 228
165 193 228
165 193 228
165 193 228
165 193 228
164 193 228
164 192 228
164 192 228
164 192 228
164 192 228
163 192 228
163 192 228
163 192 228
163 192 228
163 192 228
163 192 228
163 192 228
162 192 228
162 192 228
162 191 228
162 191 228
162 191 228
162 191 228
162 191 228
162 191 228
162 191 228
162 191 228
162 191 228
162 191 228
161 191 228
161 191 228
161 191 228
161 191 228
161 191 228
162 191 228
162 191 228
162 191 228
162 191 228
162 191 228
162 191 228
162 191 228
162 191 228
162 192 228
163 192 228
163 192 228
163 192 228
163 192 228
164 192 228
164 193 228
165 193 228
165 193 228
166 193 228
166 194 228
167 194 228
168 194 228
169 195 228
170 195 228
171 196 228
172 196 228
174 197 228
175 198 228
179 200 228
188 209 236
205 225 251
209 229 255
209 229 255
209 229 255
209 229 255
209 229 255
209 229 255
209 229 255
209 229 255
209 229 255
209 229 255
209 229 255
209 229 255
209 229 255
209 228 255
209 228 255
208 228 255
208 228 255
208 228 255
208 228 255
208 228 255
208 228 255
208 228 255
208 228 255
208 228 255
208 228 255
208 228 255
208 228 255
208 228 255
208 228 255
208 228 255
208 228 255
208 228 255
208 228 255
208 228 255
208 228 255
208 228 255
208 228 255
208 228 255
208 228 255
208 228 255
207 228 255
207 228 255
207 228 255
207 228 255
207 228 255
207 228 255
207 228 255
207 228 255
207 228 255
207 228 255
207 228 255
207 228 255
207 228 255
194 214 246
132 156 208
68 103 181
62 99 174
62 99 175
62 98 175
62 98 168
62 98 171
62 99 171
62 99 176
61 98 168
61 97 165
62 99 167
62 99 172
62 98 172
61 98 167
62 98 169
62 99 171
63 99 175
62 99 175
62 98 164
62 98 173
62 98 165
62 98 168
62 99 169
61 98 169
62 99 172
62 99 169
62 98 167
62 99 176
62 99 168
62 99 169
63 99 173
62 98 168
62 99 169
61 98 169
63 99 175
62 98 167
62 99 174
62 98 173
61 98 167
62 98 171
61 97 163
63 99 175
61 98 171
62 99 172
62 99 175
65 100 177
139 163 213
197 218 249
207 228 255
207 228 255
207 228 255
207 228 255
207 228 255
207 228 255
207 228 255
207 228 255
207 228 255
207 228 255
207 228 255
207 228 255
207 228 255
208 228 255
208 228 255
208 228 255
208 228 255
208 228 255
208 228 255
208 228 255
208 228 255
208 228 255
208 228 255
208 228 255
208 228 255
208 228 255
208 228 255
208 228 255
208 228 255
208 228 255
208 228 255
208 228 255
208 228 255
208 228 255
208 228 255
208 228 255
208 228 255
208 228 255
209 228 255
209 228 255
209 229 255
209 229 255
209 229 255
209 229 255
209 229 255
209 229 255
209 229 255
209 229 255
209 229 255
209 229 255
209 229 255
209 229 255
209 229 255
206 225 252
187 207 234
178 200 228
175 198 228
174 197 228
172 197 228
171 196 228
169 195 228
169 195 228
168 194 228
167 194 228
166 194 228
166 193 228
165 193 228
165 193 228
164 192 228
164 192 228
163 192 228
163 192 228
163 192 228
163 192 228
162 192 228
162 191 228
162 191 228
162 191 228
162 191 228
162 191 228
162 191 228
162 191 228
162 191 228
161 191 228
161 191 228
161 191 228
161 191 228
161 191 228
162 191 228
162 191 228
162 191 228
162 191 228
162 191 228
162 191 228
162 191 228
162 191 228
162 191 228
162 191 228
162 192 228
162 192 228
163 192 228
163 192 228
163 192 228
163 192 228
163 192 228
163 192 228
163 192 228
164 192 228
164 192 228
164 192 228
164 192 228
164 193 228
165 193 228
165 193 228
165 193 228
165 193 228
165 193 228
165 193 228
166 193 228
166 193 228
166 193 228
166 194 228
166 194 228
167 194 228
167 194 228
167 194 228
167 194 228
168 194 228
168 194 228
168 194 228
168 195 228
168 195 228
169 195 228
169 195 228
169 195 228
169 195 228
170 195 228
170 195 228
170 196 228
170 196 228
171 196 228
171 196 228
171 196 228
171 196 228
172 196 228
172 196 228
172 197 228
172 197 228
173 197 228
173 197 228
173 197 228
173 197 228
173 197 228
174 197 228
174 198 228
174 198 228
175 198 228
175 198 228
175 198 228
175 198 228
176 198 228
176 199 228
176 199 228
176 199 228
177 199 228
177 199 228
177 199 228
178 199 228
178 200 228
178 200 228
178 200 228
179 200 228
179 200 228
179 200 228
180 201 228
180 201 228
179 200 228
179 200 228
179 200 228
178 200 228
178 200 228
178 200 228
178 200 228
177 199 228
177 199 228
177 199 228
177 199 228
176 199 228
176 199 228
176 198 228
175 198 228
175 198 228
175 198 228
175 198 228
174 198 228
174 198 228
174 198 228
174 197 228
173 197 228
173 197 228
173 197 228
173 197 228
172 197 228
172 197 228
172 197 228
172 196 228
171 196 228
171 196 228
171 196 228
171 196 228
171 196 228
170 196 228
170 196 228
170 195 228
170 195 228
169 195 228
169 195 228
169 195 228
169 195 228
169 195 228
168 195 228
168 194 228
168 194 228
168 194 228
167 194 228
167 194 228
167 194 228
167 194 228
167 194 228
166 194 228
166 194 228
166 193 228
166 193 228
166 193 228
165 193 228
165 193 228
165 193 228
165 193 228
165 193 228
164 193 228
164 193 228
164 192 228
164 192 228
164 192 228
164 192 228
163 192 228
163 192 228
163 192 228
163 192 228
163 192 228
163 192 228
163 192 228
162 192 228
162 192 228
162 192 228
162 191 228
162 191 228
162 191 228
162 191 228
162 191 228
162 191 228
162 191 228
162 191 228
162 191 228
162 191 228
162 191 228
162 191 228
162 191 228
162 191 228
162 191 228
162 191 228
162 191 228
162 191 228
162 191 228
162 191 228
162 192 228
162 192 228
163 192 228
163 192 228
163 192 228
163 192 228
164 192 228
164 192 228
165 193 228
165 193 228
166 193 228
166 193 228
167 194 228
167 194 228
168 195 228
169 195 228
170 196 228
171 196 228
173 197 228
175 198 228
177 199 228
181 202 230
199 218 245
209 229 255
209 229 255
209 229 255
209 229 255
209 229 255
209 229 255
209 229 255
209 229 255
209 229 255
209 229 255
209 229 255
209 229 255
209 229 255
209 229 255
209 229 255
209 229 255
209 229 255
209 229 255
209 228 255
209 228 255
208 228 255
208 228 255
208 228 255
208 228 255
208 228 255
208 228 255
208 228 255
208 228 255
208 228 255
208 228 255
208 228 255
208 228 255
208 228 255
208 228 255
208 228 255
208 228 255
208 228 255
208 228 255
208 228 255
208 228 255
208 228 255
208 228 255
208 228 255
208 228 255
208 228 255
208 228 255
208 228 255
208 228 255
207 228 255
207 228 255
200 220 250
155 178 221
74 107 181
62 98 172
62 98 174
62 98 173
62 98 170
63 99 173
62 99 173
62 99 169
62 98 172
63 99 173
61 98 166
61 98 170
62 99 175
62 98 171
62 99 170
62 99 170
61 97 164
62 98 173
61 98 164
63 99 174
62 99 170
62 99 174
61 98 168
63 100 175
62 99 172
62 99 170
62 99 174
63 99 175
62 99 169
62 98 166
62 98 175
63 99 169
61 98 168
62 99 171
63 99 176
62 98 170
62 98 168
62 99 170
62 99 168
63 100 179
62 98 168
61 98 174
62 99 176
62 99 174
62 99 175
61 98 171
63 99 177
61 97 163
62 99 171
71 105 176
137 160 209
202 222 252
207 228 255
208 228 255
208 228 255
208 228 255
208 228 255
208 228 255
208 228 255
208 228 255
208 228 255
208 228 255
208 228 255
208 228 255
208 228 255
208 228 255
208 228 255
208 228 255
208 228 255
208 228 255
208 228 255
208 228 255
208 228 255
208 228 255
208 228 255
208 228 255
208 228 255
208 228 255
208 228 255
208 228 255
208 228 255
208 228 255
209 228 255
209 229 255
209 229 255
209 229 255
209 229 255
209 229 255
209 229 255
209 229 255
209 229 255
209 229 255
209 229 255
209 229 255
209 229 255
209 229 255
209 229 255
209 229 255
209 229 255
209 229 255
209 229 255
209 229 255
200 219 246
180 201 229
177 199 228
175 198 228
173 197 228
171 196 228
170 196 228
169 195 228
168 195 228
167 194 228
167 194 228
166 193 228
165 193 228
165 193 228
165 193 228
164 192 228
164 192 228
163 192 228
163 192 228
163 192 228
163 192 228
162 192 228
162 192 228
162 191 228
162 191 228
162 191 228
162 191 228
162 191 228
162 191 228
162 191 228
162 191 228
162 191 228
162 191 228
162 191 228
162 191 228
162 191 228
162 191 228
162 191 228
162 191 228
162 191 228
162 191 228
162 191 228
162 191 228
162 192 228
162 192 228
162 192 228
163 192 228
163 192 228
163 192 228
163 192 228
163 192 228
163 192 228
163 192 228
164 192 228
164 192 228
164 192 228
164 192 228
164 193 228
164 193 228
165 193 228
165 193 228
165 193 228
165 193 228
165 193 228
166 193 228
166 193 228
166 193 228
166 194 228
166 194 228
167 194 228
167 194 228
167 194 228
167 194 228
167 194 228
168 194 228
168 194 228
168 194 228
168 195 228
169 195 228
169 195 228
169 195 228
169 195 228
169 195 228
170 195 228
170 195 228
170 196 228
170 196 228
171 196 228
171 196 228
171 196 228
171 196 228
171 196 228
172 196 228
172 197 228
172 197 228
172 197 228
173 197 228
173 197 228
173 197 228
173 197 228
174 197 228
174 198 228
174 198 228
174 198 228
175 198 228
175 198 228
175 198 228
175 198 228
176 199 228
176 199 228
176 199 228
177 199 228
177 199 228
177 199 228
177 199 228
178 200 228
178 200 228
178 200 228
178 200 228
179 200 228
179 200 228
179 200 228
180 201 228
180 201 228
179 200 228
179 200 228
179 200 228
179 200 228
178 200 228
178 200 228
178 200 228
177 199 228
177 199 228
177 199 228
177 199 228
176 199 228
176 199 228
176 199 228
176 198 228
175 198 228
175 198 228
175 198 228
175 198 228
174 198 228
174 198 228
174 198 228
174 197 228
173 197 228
173 197 228
173 197 228
173 197 228
172 197 228
172 197 228
172 197 228
172 196 228
172 196 228
171 196 228
171 196 228
171 196 228
171 196 228
170 196 228
170 196 228
170 195 228
170 195 228
169 195 228
169 195 228
169 195 228
169 195 228
169 195 228
168 195 228
168 195 228
168 194 228
168 194 228
168 194 228
167 194 228
167 194 228
167 194 228
167 194 228
167 194 228
166 194 228
166 193 228
166 193 228
166 193 228
166 193 228
165 193 228
165 193 228
165 193 228
165 193 228
165 193 228
164 193 228
164 193 228
164 192 228
164 192 228
164 192 228
164 192 228
163 192 228
163 192 228
163 192 228
163 192 228
163 192 228
163 192 228
163 192 228
163 192 228
162 192 228
162 192 228
162 191 228
162 191 228
162 191 228
162 191 228
162 191 228
162 191 228
162 191 228
162 191 228
162 191 228
162 191 228
162 191 228
162 191 228
162 191 228
162 191 228
162 191 228
162 191 228
162 191 228
162 191 228
162 191 228
162 192 228
163 192 228
163 192 228
163 192 228
163 192 228
163 192 228
164 192 228
164 192 228
165 193 228
165 193 228
165 193 228
166 193 228
167 194 228
167 194 228
168 194 228
169 195 228
170 195 228
171 196 228
172 197 228
174 198 228
176 199 228
179 200 228
192 211 238
208 228 254
210 229 255
209 229 255
209 229 255
209 229 255
209 229 255
209 229 255
209 229 255
209 229 255
209 229 255
209 229 255
209 229 255
209 229 255
209 229 255
209 229 255
209 229 255
209 229 255
209 229 255
209 229 255
209 229 255
209 229 255
209 229 255
209 229 255
209 229 255
209 228 255
209 228 255
208 228 255
208 228 255
208 228 255
208 228 255
208 228 255
208 228 255
208 228 255
208 228 255
208 228 255
208 228 255
208 228 255
208 228 255
208 228 255
208 228 255
208 228 255
208 228 255
208 228 255
208 228 255
208 228 255
208 228 255
208 228 255
208 228 255
177 198 235
90 119 185
63 99 177
62 98 171
61 98 175
62 98 172
62 99 173
62 99 172
62 99 174
62 98 168
62 99 174
63 99 174
62 98 167
63 99 172
61 97 167
62 98 162
61 97 166
62 98 161
62 98 166
60 97 157
63 99 170
62 98 168
61 97 164
62 98 164
62 98 167
62 98 168
63 99 175
63 99 172
62 99 167
63 99 169
62 99 167
62 99 172
62 99 171
62 98 167
62 98 164
62 98 164
61 97 163
61 98 167
63 99 173
62 98 162
62 98 168
62 98 168
61 97 167
61 98 166
62 99 173
61 98 172
62 98 170
62 98 174
62 99 173
62 99 176
62 99 175
62 99 176
63 98 170
61 98 173
86 116 183
162 184 225
208 228 255
208 228 255
208 228 255
208 228 255
208 228 255
208 228 255
208 228 255
208 228 255
208 228 255
208 228 255
208 228 255
208 228 255
208 228 255
208 228 255
208 228 255
208 228 255
208 228 255
208 228 255
208 228 255
208 228 255
208 228 255
208 228 255
209 228 255
209 228 255
209 229 255
209 229 255
209 229 255
209 229 255
209 229 255
209 229 255
209 229 255
209 229 255
209 229 255
209 229 255
209 229 255
209 229 255
209 229 255
209 229 255
209 229 255
209 229 255
209 229 255
209 229 255
209 229 255
209 229 255
209 229 255
209 229 255
210 229 255
209 228 254
192 212 238
179 200 228
176 199 228
174 198 228
172 197 228
171 196 228
170 195 228
169 195 228
168 195 228
167 194 228
167 194 228
166 193 228
165 193 228
165 193 228
165 193 228
164 192 228
164 192 228
163 192 228
163 192 228
163 192 228
163 192 228
163 192 228
162 192 228
162 191 228
162 191 228
162 191 228
162 191 228
162 191 228
162 191 228
162 191 228
162 191 228
162 191 228
162 191 228
162 191 228
162 191 228
162 191 228
162 191 228
162 191 228
162 191 228
162 191 228
162 191 228
162 191 228
162 192 228
162 192 228
163 192 228
163 192 228
163 192 228
163 192 228
163 192 228
163 192 228
163 192 228
163 192 228
164 192 228
164 192 228
164 192 228
164 192 228
164 193 228
164 193 228
165 193 228
165 193 228
165 193 228
165 193 228
165 193 228
166 193 228
166 193 228
166 193 228
166 193 228
166 194 228
167 194 228
167 194 228
167 194 228
167 194 228
167 194 228
168 194 228
168 194 228
168 194 228
168 195 228
168 195 228
169 195 228
169 195 228
169 195 228
169 195 228
169 195 228
170 195 228
170 195 228
170 196 228
170 196 228
171 196 228
171 196 228
171 196 228
171 196 228
172 196 228
172 196 228
172 197 228
172 197 228
172 197 228
173 197 228
173 197 228
173 197 228
173 197 228
174 197 228
174 198 228
174 198 228
174 198 228
175 198 228
175 198 228
175 198 228
175 198 228
176 198 228
176 199 228
176 199 228
176 199 228
177 199 228
177 199 228
177 199 228
177 199 228
178 200 228
178 200 228
178 200 228
179 200 228
179 200 228
179 200 228
179 200 228
180 201 228
180 201 228
179 200 228
179 200 228
179 200 228
179 200 228
178 200 228
178 200 228
178 200 228
178 199 228
177 199 228
177 199 228
177 199 228
177 199 228
176 199 228
176 199 228
176 199 228
176 198 228
175 198 228
175 198 228
175 198 228
175 198 228
174 198 228
174 198 228
174 198 228
174 197 228
173 197 228
173 197 228
173 197 228
173 197 228
172 197 228
172 197 228
172 197 228
172 196 228
172 196 228
171 196 228
171 196 228
171 196 228
171 196 228
170 196 228
170 196 228
170 196 228
170 195 228
170 195 228
169 195 228
169 195 228
169 195 228
169 195 228
169 195 228
168 195 228
168 195 228
168 194 228
168 194 228
168 194 228
167 194 228
167 194 228
167 194 228
167 194 228
166 194 228
166 194 228
166 193 228
166 193 228
166 193 228
166 193 228
165 193 228
165 193 228
165 193 228
165 193 228
165 193 228
165 193 228
164 193 228
164 192 228
164 192 228
164 192 228
164 192 228
164 192 228
163 192 228
163 192 228
163 192 228
163 192 228
163 192 228
163 192 228
163 192 228
163 192 228
162 192 228
162 192 228
162 192 228
162 191 228
162 191 228
162 191 228
162 191 228
162 191 228
162 191 228
162 191 228
162 191 228
162 191 228
162 191 228
162 191 228
162 191 228
162 191 228
162 191 228
162 192 228
162 192 228
163 192 228
163 192 228
163 192 228
163 192 228
163 192 228
164 192 228
164 192 228
164 193 228
165 193 228
165 193 228
165 193 228
166 193 228
167 194 228
167 194 228
168 194 228
169 195 228
170 195 228
171 196 228
172 197 228
174 197 228
175 198 228
178 200 228
185 205 232
204 224 250
210 229 255
210 229 255
210 229 255
210 229 255
210 229 255
210 229 255
209 229 255
209 229 255
209 229 255
209 229 255
209 229 255
209 229 255
209 229 255
209 229 255
209 229 255
209 229 255
209 229 255
209 229 255
209 229 255
209 229 255
209 229 255
209 229 255
209 229 255
209 229 255
209 229 255
209 229 255
209 229 255
209 229 255
209 229 255
209 228 255
209 228 255
208 228 255
208 228 255
208 228 255
208 228 255
208 228 255
208 228 255
208 228 255
208 228 255
208 228 255
208 228 255
208 228 255
208 228 255
208 228 255
197 218 248
129 153 203
61 97 165
61 98 172
62 98 170
62 98 170
62 98 172
62 98 170
62 98 172
62 98 165
63 99 167
62 99 168
62 98 172
61 98 172
62 99 171
61 97 166
62 98 167
62 98 168
62 98 163
62 99 170
62 98 165
61 98 166
62 99 171
62 98 165
62 98 165
62 98 162
63 99 173
63 99 169
62 98 167
62 98 168
61 98 166
62 98 170
62 99 171
62 98 166
62 98 168
62 98 169
62 98 167
61 97 165
62 98 168
62 99 172
62 99 168
62 99 169
62 98 167
62 99 170
62 98 167
62 99 170
61 97 163
62 99 169
62 99 171
62 99 172
63 99 171
62 99 173
62 98 173
61 97 164
62 99 176
61 97 170
62 99 175
62 98 174
128 153 204
204 225 253
208 228 255
208 228 255
208 228 255
208 228 255
208 228 255
208 228 255
208 228 255
208 228 255
208 228 255
208 228 255
208 228 255
208 228 255
208 228 255
209 228 255
209 228 255
209 229 255
209 229 255
209 229 255
209 229 255
209 229 255
209 229 255
209 229 255
209 229 255
209 229 255
209 229 255
209 229 255
209 229 255
209 229 255
209 229 255
209 229 255
209 229 255
209 229 255
209 229 255
209 229 255
209 229 255
209 229 255
209 229 255
209 229 255
210 229 255
210 229 255
210 229 255
210 229 255
210 229 255
210 229 255
205 224 250
183 203 230
178 200 228
175 198 228
174 197 228
172 197 228
171 196 228
170 195 228
169 195 228
168 194 228
167 194 228
167 194 228
166 193 228
166 193 228
165 193 228
165 193 228
164 193 228
164 192 228
164 192 228
163 192 228
163 192 228
163 192 228
163 192 228
163 192 228
162 192 228
162 192 228
162 191 228
162 191 228
162 191 228
162 191 228
162 191 228
162 191 228
162 191 228
162 191 228
162 191 228
162 191 228
162 191 228
162 191 228
162 191 228
162 191 228
162 192 228
162 192 228
162 192 228
163 192 228
163 192 228
163 192 228
163 192 228
163 192 228
163 192 228
163 192 228
163 192 228
164 192 228
164 192 228
164 192 228
164 192 228
164 192 228
164 193 228
165 193 228
165 193 228
165 193 228
165 193 228
165 193 228
165 193 228
166 193 228
166 193 228
166 193 228
166 193 228
166 194 228
166 194 228
167 194 228
167 194 228
167 194 228
167 194 228
167 194 228
168 194 228
168 194 228
168 195 228
168 195 228
169 195 228
169 195 228
169 195 228
169 195 228
169 195 228
170 195 228
170 195 228
170 196 228
170 196 228
170 196 228
171 196 228
171 196 228
171 196 228
171 196 228
172 196 228
172 196 228
172 197 228
172 197 228
173 197 228
173 197 228
173 197 228
173 197 228
173 197 228
174 197 228
174 198 228
174 198 228
174 198 228
175 198 228
175 198 228
175 198 228
175 198 228
176 198 228
176 199 228
176 199 228
176 199 228
177 199 228
177 199 228
177 199 228
177 199 228
178 200 228
178 200 228
178 200 228
178 200 228
179 200 228
179 200 228
179 200 228
179 200 228
180 201 228
180 201 228
180 201 228
179 200 228
179 200 228
179 200 228
179 200 228
178 200 228
178 200 228
178 200 228
177 199 228
177 199 228
177 199 228
177 199 228
177 199 228
176 199 228
176 199 228
176 199 228
176 198 228
175 198 228
175 198 228
175 198 228
175 198 228
174 198 228
174 198 228
174 198 228
174 197 228
174 197 228
173 197 228
173 197 228
173 197 228
173 197 228
172 197 228
172 197 228
172 197 228
172 196 228
172 196 228
171 196 228
171 196 228
171 196 228
171 196 228
170 196 228
170 196 228
170 195 228
170 195 228
170 195 228
169 195 228
169 195 228
169 195 228
169 195 228
169 195 228
168 195 228
168 195 228
168 194 228
168 194 228
167 194 228
167 194 228
167 194 228
167 194 228
167 194 228
167 194 228
166 194 228
166 194 228
166 193 228
166 193 228
166 193 228
165 193 228
165 193 228
165 193 228
165 193 228
165 193 228
165 193 228
164 193 228
164 193 228
164 192 228
164 192 228
164 192 228
164 192 228
164 192 228
163 192 228
163 192 228
163 192 228
163 192 228
163 192 228
163 192 228
163 192 228
163 192 228
163 192 228
162 192 228
162 192 228
162 192 228
162 192 228
162 192 228
162 192 228
162 191 228
162 191 228
162 191 228
162 191 228
162 192 228
162 192 228
162 192 228
162 192 228
163 192 228
163 192 228
163 192 228
163 192 228
163 192 228
163 192 228
164 192 228
164 192 228
164 192 228
164 193 228
165 193 228
165 193 228
166 193 228
166 193 228
167 194 228
167 194 228
168 194 228
169 195 228
170 195 228
171 196 228
172 197 228
173 197 228
175 198 228
177 199 228
181 201 228
197 217 243
210 229 255
210 229 255
210 229 255
210 229 255
210 229 255
210 229 255
210 229 255
210 229 255
210 229 255
210 229 255
210 229 255
209 229 255
209 229 255
209 229 255
209 229 255
209 229 255
209 229 255
209 229 255
209 229 255
209 229 255
209 229 255
209 229 255
209 229 255
209 229 255
209 229 255
209 229 255
209 229 255
209 229 255
209 229 255
209 229 255
209 229 255
209 229 255
209 229 255
209 229 255
209 229 255
209 229 255
209 228 255
209 228 255
209 228 255
208 228 255
208 228 255
208 228 255
184 205 239
83 114 182
62 98 172
61 98 170
62 98 173
62 98 166
62 98 170
62 98 172
62 99 174
61 97 166
62 98 165
62 98 172
62 98 175
62 98 168
61 98 170
62 98 169
62 99 168
62 98 166
62 98 164
62 98 170
62 99 173
62 98 162
62 98 164
61 98 164
62 98 167
61 97 165
61 98 159
62 98 167
62 98 162
61 97 164
63 99 169
61 98 163
62 98 164
62 98 170
62 98 169
62 99 169
62 98 166
63 99 174
63 99 168
62 98 168
62 98 164
62 98 166
62 98 169
63 99 173
61 97 166
61 97 160
62 98 164
63 99 170
63 99 171
62 99 170
61 98 170
62 98 168
62 98 164
62 98 169
62 98 170
62 99 166
62 98 168
62 99 174
62 99 175
62 99 175
81 113 182
180 201 235
208 228 255
208 228 255
208 228 255
208 228 255
209 228 255
209 228 255
209 229 255
209 229 255
209 229 255
209 229 255
209 229 255
209 229 255
209 229 255
209 229 255
209 229 255
209 229 255
209 229 255
209 229 255
209 229 255
209 229 255
209 229 255
209 229 255
209 229 255
209 229 255
209 229 255
209 229 255
209 229 255
209 229 255
209 229 255
209 229 255
209 229 255
210 229 255
210 229 255
210 229 255
210 229 255
210 229 255
210 229 255
210 229 255
210 229 255
210 229 255
210 229 255
210 229 255
200 219 245
181 201 229
177 199 228
175 198 228
173 197 228
172 196 228
171 196 228
170 195 228
169 195 228
168 194 228
167 194 228
167 194 228
166 193 228
166 193 228
165 193 228
165 193 228
164 193 228
164 192 228
164 192 228
164 192 228
163 192 228
163 192 228
163 192 228
163 192 228
163 192 228
163 192 228
162 192 228
162 192 228
162 192 228
162 192 228
162 191 228
162 191 228
162 191 228
162 191 228
162 191 228
162 192 228
162 192 228
162 192 228
162 192 228
163 192 228
163 192 228
163 192 228
163 192 228
163 192 228
163 192 228
163 192 228
163 192 228
163 192 228
163 192 228
164 192 228
164 192 228
164 192 228
164 192 228
164 192 228
164 193 228
164 193 228
165 193 228
165 193 228
165 193 228
165 193 228
165 193 228
165 193 228
166 193 228
166 193 228
166 193 228
166 194 228
166 194 228
167 194 228
167 194 228
167 194 228
167 194 228
167 194 228
168 194 228
168 194 228
168 194 228
168 195 228
168 195 228
169 195 228
169 195 228
169 195 228
169 195 228
169 195 228
170 195 228
170 195 228
170 195 228
170 196 228
170 196 228
171 196 228
171 196 228
171 196 228
171 196 228
172 196 228
172 196 228
172 196 228
172 197 228
172 197 228
173 197 228
173 197 228
173 197 228
173 197 228
174 197 228
174 197 228
174 198 228
174 198 228
174 198 228
175 198 228
175 198 228
175 198 228
175 198 228
176 198 228
176 199 228
176 199 228
176 199 228
177 199 228
177 199 228
177 199 228
177 199 228
178 199 228
178 200 228
178 200 228
178 200 228
178 200 228
179 200 228
179 200 228
179 200 228
180 201 228
180 201 228
180 201 228
180 201 228
179 201 228
179 200 228
179 200 228
179 200 228
178 200 228
178 200 228
178 200 228
178 200 228
177 199 228
177 199 228
177 199 228
177 199 228
177 199 228
176 199 228
176 199 228
176 199 228
176 198 228
175 198 228
175 198 228
175 198 228
175 198 228
175 198 228
174 198 228
174 198 228
174 198 228
174 197 228
173 197 228
173 197 228
173 197 228
173 197 228
173 197 228
172 197 228
172 197 228
172 196 228
172 196 228
171 196 228
171 196 228
171 196 228
171 196 228
171 196 228
170 196 228
170 196 228
170 195 228
170 195 228
170 195 228
169 195 228
169 195 228
169 195 228
169 195 228
169 195 228
168 195 228
168 195 228
168 194 228
168 194 228
168 194 228
167 194 228
167 194 228
167 194 228
167 194 228
167 194 228
166 194 228
166 194 228
166 193 228
166 193 228
166 193 228
166 193 228
165 193 228
165 193 228
165 193 228
165 193 228
165 193 228
165 193 228
164 193 228
164 193 228
164 192 228
164 192 228
164 192 228
164 192 228
164 192 228
163 192 228
163 192 228
163 192 228
163 192 228
163 192 228
163 192 228
163 192 228
163 192 228
163 192 228
163 192 228
163 192 228
163 192 228
163 192 228
163 192 228
163 192 228
163 192 228
163 192 228
163 192 228
163 192 228
163 192 228
163 192 228
163 192 228
163 192 228
163 192 228
163 192 228
163 192 228
164 192 228
164 192 228
164 192 228
164 193 228
165 193 228
165 193 228
165 193 228
166 193 228
166 194 228
167 194 228
167 194 228
168 195 228
169 195 228
170 195 228
171 196 228
172 196 228
173 197 228
175 198 228
177 199 228
180 201 228
193 212 238
209 228 254
210 229 255
210 229 255
210 229 255
210 229 255
210 229 255
210 229 255
210 229 255
210 229 255
210 229 255
210 229 255
210 229 255
210 229 255
210 229 255
210 229 255
210 229 255
210 229 255
209 229 255
209 229 255
209 229 255
209 229 255
209 229 255
209 229 255
209 229 255
209 229 255
209 229 255
209 229 255
209 229 255
209 229 255
209 229 255
209 229 255
209 229 255
209 229 255
209 229 255
209 229 255
209 229 255
209 229 255
209 229 255
209 229 255
209 229 255
156 178 220
61 98 174
62 99 172
62 98 163
62 98 168
61 98 169
62 98 167
61 98 169
61 97 165
62 98 170
61 98 169
61 98 167
62 98 168
62 98 166
63 99 171
62 98 167
62 98 170
62 98 168
61 98 165
61 97 163
61 97 163
62 98 169
62 98 164
62 98 160
61 98 168
62 98 169
62 98 167
62 98 161
63 99 170
62 98 163
62 98 164
63 99 167
62 98 164
62 98 168
61 97 158
62 98 165
62 99 169
63 99 174
62 98 169
61 98 168
62 98 161
61 97 161
62 98 168
62 99 168
62 99 168
62 98 163
62 98 170
62 99 168
62 98 166
61 98 165
62 98 165
62 99 169
62 98 169
62 98 170
62 98 165
61 98 173
62 99 175
62 98 166
62 99 172
62 99 172
62 98 172
61 98 172
62 99 177
139 162 210
207 227 254
209 229 255
209 229 255
209 229 255
209 229 255
209 229 255
209 229 255
209 229 255
209 229 255
209 229 255
209 229 255
209 229 255
209 229 255
209 229 255
209 229 255
209 229 255
209 229 255
209 229 255
209 229 255
209 229 255
209 229 255
209 229 255
209 229 255
210 229 255
210 229 255
210 229 255
210 229 255
210 229 255
210 229 255
210 229 255
210 229 255
210 229 255
210 229 255
210 229 255
210 229 255
210 229 255
210 229 255
210 229 255
210 229 255
209 229 255
197 216 242
180 201 228
177 199 228
175 198 228
173 197 228
172 196 228
171 196 228
170 195 228
169 195 228
168 195 228
167 194 228
167 194 228
166 194 228
166 193 228
165 193 228
165 193 228
165 193 228
164 193 228
164 192 228
164 192 228
164 192 228
163 192 228
163 192 228
163 192 228
163 192 228
163 192 228
163 192 228
163 192 228
163 192 228
163 192 228
163 192 228
163 192 228
163 192 228
163 192 228
163 192 228
163 192 228
163 192 228
163 192 228
163 192 228
163 192 228
163 192 228
163 192 228
163 192 228
163 192 228
163 192 228
163 192 228
163 192 228
164 192 228
164 192 228
164 192 228
164 192 228
164 192 228
164 193 228
164 193 228
165 193 228
165 193 228
165 193 228
165 193 228
165 193 228
165 193 228
166 193 228
166 193 228
166 193 228
166 193 228
166 194 228
166 194 228
167 194 228
167 194 228
167 194 228
167 194 228
167 194 228
168 194 228
168 194 228
168 194 228
168 195 228
168 195 228
169 195 228
169 195 228
169 195 228
169 195 228
169 195 228
170 195 228
170 195 228
170 195 228
170 196 228
170 196 228
171 196 228
171 196 228
171 196 228
171 196 228
171 196 228
172 196 228
172 196 228
172 197 228
172 197 228
173 197 228
173 197 228
173 197 228
173 197 228
173 197 228
174 197 228
174 198 228
174 198 228
174 198 228
174 198 228
175 198 228
175 198 228
175 198 228
175 198 228
176 198 228
176 199 228
176 199 228
176 199 228
177 199 228
177 199 228
177 199 228
177 199 228
177 199 228
178 200 228
178 200 228
178 200 228
178 200 228
179 200 228
179 200 228
179 200 228
179 201 228
180 201 228
180 201 228
180 201 228
180 201 228
180 201 228
179 200 228
179 200 228
179 200 228
179 200 228
178 200 228
178 200 228
178 200 228
178 200 228
177 199 228
177 199 228
177 199 228
177 199 228
177 199 228
176 199 228
176 199 228
176 199 228
176 198 228
175 198 228
175 198 228
175 198 228
175 198 228
175 198 228
174 198 228
174 198 228
174 198 228
174 197 228
174 197 228
173 197 228
173 197 228
173 197 228
173 197 228
172 197 228
172 197 228
172 197 228
172 196 228
172 196 228
171 196 228
171 196 228
171 196 228
171 196 228
171 196 228
170 196 228
170 196 228
170 196 228
170 195 228
170 195 228
169 195 228
169 195 228
169 195 228
169 195 228
169 195 228
168 195 228
168 195 228
168 194 228
168 194 228
168 194 228
167 194 228
167 194 228
167 194 228
167 194 228
167 194 228
167 194 228
166 194 228
166 194 228
166 193 228
166 193 228
166 193 228
166 193 228
165 193 228
165 193 228
165 193 228
165 193 228
165 193 228
165 193 228
164 193 228
164 193 228
164 192 228
164 192 228
164 192 228
164 192 228
164 192 228
164 192 228
164 192 228
163 192 228
163 192 228
163 192 228
163 192 228
163 192 228
163 192 228
163 192 228
163 192 228
163 192 228
163 192 228
163 192 228
163 192 228
163 192 228
163 192 228
163 192 228
163 192 228
163 192 228
163 192 228
163 192 228
163 192 228
164 192 228
164 192 228
164 192 228
164 192 228
164 193 228
165 193 228
165 193 228
165 193 228
166 193 228
166 193 228
167 194 228
167 194 228
168 194 228
168 195 228
169 195 228
170 195 228
171 196 228
172 196 228
173 197 228
175 198 228
177 199 228
179 200 228
187 207 233
207 226 252
210 229 255
210 229 255
210 229 255
210 229 255
210 229 255
210 229 255
210 229 255
210 229 255
210 229 255
210 229 255
210 229 255
210 229 255
210 229 255
210 229 255
210 229 255
210 229 255
210 229 255
210 229 255
210 229 255
210 229 255
210 229 255
210 229 255
209 229 255
209 229 255
209 229 255
209 229 255
209 229 255
209 229 255
209 229 255
209 229 255
209 229 255
209 229 255
209 229 255
209 229 255
209 229 255
209 229 255
200 220 246
125 149 199
62 98 170
61 98 170
62 98 170
61 97 168
62 98 172
62 98 171
62 98 170
62 98 172
62 98 166
62 98 168
62 98 165
62 98 163
62 98 169
62 98 165
62 98 165
61 97 160
62 98 166
62 98 167
61 98 167
62 98 166
62 98 164
62 98 164
62 99 169
62 98 165
61 98 164
62 98 161
62 98 165
62 98 169
63 99 167
62 98 162
62 98 164
63 99 173
62 98 159
61 97 163
63 99 165
62 98 164
62 98 168
61 96 154
62 99 168
62 99 170
62 99 168
62 98 168
63 99 169
62 99 171
62 98 162
62 98 167
62 98 165
62 98 164
61 98 167
61 98 165
62 98 167
61 98 167
62 98 166
62 98 168
62 98 161
63 99 171
61 97 167
61 98 169
62 98 165
61 98 170
61 98 167
61 97 172
61 98 172
61 98 174
132 155 204
200 220 249
209 229 255
209 229 255
209 229 255
209 229 255
209 229 255
209 229 255
209 229 255
209 229 255
209 229 255
209 229 255
209 229 255
209 229 255
209 229 255
209 229 255
210 229 255
210 229 255
210 229 255
210 229 255
210 229 255
210 229 255
210 229 255
210 229 255
210 229 255
210 229 255
210 229 255
210 229 255
210 229 255
210 229 255
210 229 255
210 229 255
210 229 255
210 229 255
210 229 255
210 229 255
210 229 255
210 229 255
209 228 253
189 208 234
179 200 228
177 199 228
175 198 228
173 197 228
172 196 228
171 196 228
170 195 228
169 195 228
168 195 228
168 194 228
167 194 228
167 194 228
166 193 228
166 193 228
165 193 228
165 193 228
165 193 228
164 193 228
164 192 228
164 192 228
164 192 228
164 192 228
163 192 228
163 192 228
163 192 228
163 192 228
163 192 228
163 192 228
163 192 228
163 192 228
163 192 228
163 192 228
163 192 228
163 192 228
163 192 228
163 192 228
163 192 228
163 192 228
163 192 228
163 192 228
163 192 228
163 192 228
164 192 228
164 192 228
164 192 228
164 192 228
164 192 228
164 192 228
164 193 228
164 193 228
165 193 228
165 193 228
165 193 228
165 193 228
165 193 228
165 193 228
165 193 228
166 193 228
166 193 228
166 193 228
166 193 228
166 194 228
166 194 228
167 194 228
167 194 228
167 194 228
167 194 228
167 194 228
167 194 228
168 194 228
168 194 228
168 194 228
168 195 228
168 195 228
169 195 228
169 195 228
169 195 228
169 195 228
169 195 228
170 195 228
170 195 228
170 195 228
170 196 228
170 196 228
171 196 228
171 196 228
171 196 228
171 196 228
171 196 228
172 196 228
172 196 228
172 197 228
172 197 228
172 197 228
173 197 228
173 197 228
173 197 228
173 197 228
174 197 228
174 197 228
174 198 228
174 198 228
174 198 228
175 198 228
175 198 228
175 198 228
175 198 228
175 198 228
176 199 228
176 199 228
176 199 228
176 199 228
177 199 228
177 199 228
177 199 228
177 199 228
178 199 228
178 200 228
178 200 228
178 200 228
178 200 228
179 200 228
179 200 228
179 200 228
179 200 228
180 201 228
180 201 228
180 201 228
180 201 228
180 201 228
180 201 228
180 201 228
179 200 228
179 200 228
179 200 228
179 200 228
178 200 228
178 200 228
178 200 228
178 200 228
178 200 228
177 199 228
177 199 228
177 199 228
177 199 228
176 199 228
176 199 228
176 199 228
176 199 228
176 198 228
175 198 228
175 198 228
175 198 228
175 198 228
175 198 228
174 198 228
174 198 228
174 198 228
174 197 228
173 197 228
173 197 228
173 197 228
173 197 228
173 197 228
172 197 228
172 197 228
172 197 228
172 196 228
172 196 228
171 196 228
171 196 228
171 196 228
171 196 228
171 196 228
170 196 228
170 196 228
170 196 228
170 195 228
170 195 228
170 195 228
169 195 228
169 195 228
169 195 228
169 195 228
169 195 228
168 195 228
168 195 228
168 194 228
168 194 228
168 194 228
167 194 228
167 194 228
167 194 228
167 194 228
167 194 228
167 194 228
166 194 228
166 194 228
166 193 228
166 193 228
166 193 228
166 193 228
165 193 228
165 193 228
165 193 228
165 193 228
165 193 228
165 193 228
165 193 228
165 193 228
164 193 228
164 193 228
164 192 228
164 192 228
164 192 228
164 192 228
164 192 228
164 192 228
164 192 228
164 192 228
163 192 228
163 192 228
163 192 228
163 192 228
163 192 228
163 192 228
163 192 228
163 192 228
163 192 228
163 192 228
163 192 228
163 192 228
164 192 228
164 192 228
164 192 228
164 192 228
164 192 228
164 193 228
164 193 228
165 193 228
165 193 228
165 193 228
166 193 228
166 193 228
166 194 228
167 194 228
167 194 228
168 194 228
169 195 228
169 195 228
170 196 228
171 196 228
172 197 228
173 197 228
175 198 228
176 199 228
179 200 228
185 205 231
207 226 252
211 230 255
211 230 255
210 230 255
210 230 255
210 229 255
210 229 255
210 229 255
210 229 255
210 229 255
210 229 255
210 229 255
210 229 255
210 229 255
210 229 255
210 229 255
210 229 255
210 229 255
210 229 255
210 229 255
210 229 255
210 229 255
210 229 255
210 229 255
210 229 255
210 229 255
210 229 255
210 229 255
210 229 255
210 229 255
209 229 255
209 229 255
209 229 255
209 229 255
209 229 255
199 218 248
109 135 193
61 98 171
61 97 165
62 98 173
62 98 166
62 98 168
63 99 174
62 98 167
63 99 172
62 98 167
62 97 161
62 99 167
62 98 168
62 98 163
62 98 166
62 98 166
60 96 158
61 97 161
62 99 171
62 98 164
62 98 162
62 98 164
63 99 169
62 98 166
62 98 162
61 97 159
62 98 171
62 98 168
62 98 161
61 97 162
62 98 162
62 98 166
63 99 164
61 98 165
62 98 168
61 98 160
62 98 158
63 99 167
62 98 161
63 99 167
61 98 168
62 98 166
62 98 166
61 97 156
62 99 164
62 98 166
62 98 170
62 98 161
62 99 170
61 97 161
63 100 171
63 99 169
62 98 167
61 98 166
62 98 167
62 98 166
62 98 159
62 98 167
61 98 166
62 98 169
61 97 163
61 97 167
62 98 170
63 99 171
61 98 172
61 98 169
62 98 172
93 122 189
196 216 246
209 229 255
209 229 255
209 229 255
209 229 255
210 229 255
210 229 255
210 229 255
210 229 255
210 229 255
210 229 255
210 229 255
210 229 255
210 229 255
210 229 255
210 229 255
210 229 255
210 229 255
210 229 255
210 229 255
210 229 255
210 229 255
210 229 255
210 229 255
210 229 255
210 229 255
210 229 255
210 229 255
210 229 255
210 229 255
210 229 255
210 230 255
210 230 255
211 230 255
211 230 255
207 226 252
187 206 232
179 200 228
177 199 228
175 198 228
173 197 228
172 197 228
171 196 228
170 196 228
169 195 228
169 195 228
168 194 228
167 194 228
167 194 228
166 194 228
166 193 228
166 193 228
165 193 228
165 193 228
165 193 228
164 193 228
164 193 228
164 192 228
164 192 228
164 192 228
164 192 228
164 192 228
163 192 228
163 192 228
163 192 228
163 192 228
163 192 228
163 192 228
163 192 228
163 192 228
163 192 228
163 192 228
163 192 228
163 192 228
164 192 228
164 192 228
164 192 228
164 192 228
164 192 228
164 192 228
164 192 228
164 192 228
164 193 228
164 193 228
165 193 228
165 193 228
165 193 228
165 193 228
165 193 228
165 193 228
165 193 228
165 193 228
166 193 228
166 193 228
166 193 228
166 193 228
166 194 228
166 194 228
167 194 228
167 194 228
167 194 228
167 194 228
167 194 228
167 194 228
168 194 228
168 194 228
168 194 228
168 195 228
168 195 228
169 195 228
169 195 228
169 195 228
169 195 228
169 195 228
170 195 228
170 195 228
170 195 228
170 196 228
170 196 228
170 196 228
171 196 228
171 196 228
171 196 228
171 196 228
171 196 228
172 196 228
172 196 228
172 197 228
172 197 228
172 197 228
173 197 228
173 197 228
173 197 228
173 197 228
174 197 228
174 197 228
174 198 228
174 198 228
174 198 228
175 198 228
175 198 228
175 198 228
175 198 228
175 198 228
176 198 228
176 199 228
176 199 228
176 199 228
176 199 228
177 199 228
177 199 228
177 199 228
177 199 228
178 199 228
178 200 228
178 200 228
178 200 228
178 200 228
179 200 228
179 200 228
179 200 228
179 200 228
180 201 228
180 201 228
180 201 228
180 201 228
181 201 228
180 201 228
180 201 228
180 201 228
180 201 228
179 200 228
179 200 228
179 200 228
179 200 228
179 200 228
178 200 228
178 200 228
178 200 228
178 200 228
177 199 228
177 199 228
177 199 228
177 199 228
177 199 228
176 199 228
176 199 228
176 199 228
176 199 228
176 198 228
175 198 228
175 198 228
175 198 228
175 198 228
175 198 228
174 198 228
174 198 228
174 198 228
174 197 228
174 197 228
173 197 228
173 197 228
173 197 228
173 197 228
173 197 228
172 197 228
172 197 228
172 197 228
172 196 228
172 196 228
171 196 228
171 196 228
171 196 228
171 196 228
171 196 228
170 196 228
170 196 228
170 195 228
170 195 228
170 195 228
169 195 228
169 195 228
169 195 228
169 195 228
169 195 228
169 195 228
168 195 228
168 195 228
168 194 228
168 194 228
168 194 228
167 194 228
167 194 228
167 194 228
167 194 228
167 194 228
167 194 228
166 194 228
166 194 228
166 194 228
166 193 228
166 193 228
166 193 228
166 193 228
165 193 228
165 193 228
165 193 228
165 193 228
165 193 228
165 193 228
165 193 228
165 193 228
164 193 228
164 193 228
164 193 228
164 192 228
164 192 228
164 192 228
164 192 228
164 192 228
164 192 228
164 192 228
164 192 228
164 192 228
164 192 228
164 192 228
164 192 228
164 192 228
164 192 228
164 192 228
164 192 228
164 192 228
164 192 228
164 193 228
164 193 228
164 193 228
165 193 228
165 193 228
165 193 228
165 193 228
166 193 228
166 193 228
166 194 228
167 194 228
167 194 228
168 194 228
168 195 228
169 195 228
170 195 228
170 196 228
171 196 228
172 197 228
173 197 228
175 198 228
177 199 228
179 200 228
184 204 230
204 223 248
211 230 255
211 230 255
211 230 255
211 230 255
211 230 255
211 230 255
211 230 255
210 230 255
210 230 255
210 230 255
210 229 255
210 229 255
210 229 255
210 229 255
210 229 255
210 229 255
210 229 255
210 229 255
210 229 255
210 229 255
210 229 255
210 229 255
210 229 255
210 229 255
210 229 255
210 229 255
210 229 255
210 229 255
210 229 255
210 229 255
210 229 255
210 229 255
196 215 245
86 116 180
62 98 174
61 97 168
61 97 168
61 97 166
62 98 166
62 98 166
62 98 165
61 97 161
61 97 164
62 98 166
63 99 171
61 98 165
61 97 161
62 98 172
62 98 164
62 98 168
61 97 164
62 99 168
62 98 168
62 98 165
62 98 162
62 98 164
62 99 172
61 97 156
62 98 163
62 98 161
62 99 169
63 99 168
62 98 164
63 99 170
62 98 166
63 99 167
63 99 169
62 98 161
62 98 161
62 98 159
63 99 166
62 98 163
61 98 160
62 98 167
62 98 163
62 98 168
62 98 162
63 100 170
62 99 172
62 98 168
62 98 158
61 97 161
62 98 166
63 99 171
63 99 169
62 98 166
61 97 158
61 97 163
62 99 174
61 97 164
62 98 161
62 98 165
62 99 169
61 97 162
62 97 162
61 98 170
61 97 165
62 98 171
61 96 161
60 96 159
60 97 168
62 98 172
91 120 181
196 216 246
210 229 255
210 229 255
210 229 255
210 229 255
210 229 255
210 229 255
210 229 255
210 229 255
210 229 255
210 229 255
210 229 255
210 229 255
210 229 255
210 229 255
210 229 255
210 229 255
210 229 255
210 229 255
210 229 255
210 229 255
210 229 255
210 229 255
210 230 255
210 230 255
211 230 255
211 230 255
211 230 255
211 230 255
211 230 255
211 230 255
211 230 255
211 230 255
206 225 251
186 206 232
179 200 228
177 199 228
175 198 228
174 197 228
172 197 228
171 196 228
170 196 228
170 195 228
169 195 228
168 195 228
168 194 228
167 194 228
167 194 228
166 194 228
166 193 228
166 193 228
165 193 228
165 193 228
165 193 228
165 193 228
164 193 228
164 193 228
164 193 228
164 192 228
164 192 228
164 192 228
164 192 228
164 192 228
164 192 228
164 192 228
164 192 228
164 192 228
164 192 228
164 192 228
164 192 228
164 192 228
164 192 228
164 192 228
164 192 228
164 192 228
164 192 228
164 193 228
164 193 228
164 193 228
165 193 228
165 193 228
165 193 228
165 193 228
165 193 228
165 193 228
165 193 228
165 193 228
166 193 228
166 193 228
166 193 228
166 193 228
166 193 228
166 194 228
166 194 228
167 194 228
167 194 228
167 194 228
167 194 228
167 194 228
167 194 228
168 194 228
168 194 228
168 194 228
168 195 228
168 195 228
169 195 228
169 195 228
169 195 228
169 195 228
169 195 228
169 195 228
170 195 228
170 195 228
170 196 228
170 196 228
170 196 228
171 196 228
171 196 228
171 196 228
171 196 228
171 196 228
172 196 228
172 196 228
172 197 228
172 197 228
172 197 228
173 197 228
173 197 228
173 197 228
173 197 228
173 197 228
174 197 228
174 197 228
174 198 228
174 198 228
174 198 228
175 198 228
175 198 228
175 198 228
175 198 228
175 198 228
176 198 228
176 199 228
176 199 228
176 199 228
176 199 228
177 199 228
177 199 228
177 199 228
177 199 228
177 199 228
178 200 228
178 200 228
178 200 228
178 200 228
179 200 228
179 200 228
179 200 228
179 200 228
179 200 228
180 201 228
180 201 228
180 201 228
180 201 228
181 201 228
181 201 228
181 201 228
180 201 228
180 201 228
180 201 228
180 201 228
179 201 228
179 200 228
179 200 228
179 200 228
179 200 228
178 200 228
178 200 228
178 200 228
178 200 228
178 200 228
177 199 228
177 199 228
177 199 228
177 199 228
177 199 228
176 199 228
176 199 228
176 199 228
176 199 228
176 198 228
175 198 228
175 198 228
175 198 228
175 198 228
175 198 228
174 198 228
174 198 228
174 198 228
174 197 228
174 197 228
173 197 228
173 197 228
173 197 228
173 197 228
173 197 228
172 197 228
172 197 228
172 197 228
172 196 228
172 196 228
172 196 228
171 196 228
171 196 228
171 196 228
171 196 228
171 196 228
170 196 228
170 196 228
170 195 228
170 195 228
170 195 228
169 195 228
169 195 228
169 195 228
169 195 228
169 195 228
169 195 228
168 195 228
168 195 228
168 194 228
168 194 228
168 194 228
168 194 228
167 194 228
167 194 228
167 194 228
167 194 228
167 194 228
167 194 228
166 194 228
166 194 228
166 194 228
166 193 228
166 193 228
166 193 228
166 193 228
166 193 228
165 193 228
165 193 228
165 193 228
165 193 228
165 193 228
165 193 228
165 193 228
165 193 228
165 193 228
165 193 228
164 193 228
164 193 228
164 193 228
164 193 228
164 193 228
164 193 228
164 193 228
164 193 228
164 193 228
164 193 228
164 193 228
164 193 228
164 193 228
164 193 228
165 193 228
165 193 228
165 193 228
165 193 228
165 193 228
165 193 228
166 193 228
166 193 228
166 193 228
166 194 228
167 194 228
167 194 228
168 194 228
168 195 228
169 195 228
169 195 228
170 195 228
171 196 228
172 196 228
173 197 228
174 197 228
175 198 228
177 199 228
179 200 228
183 203 229
205 224 249
211 230 255
211 230 255
211 230 255
211 230 255
211 230 255
211 230 255
211 230 255
211 230 255
211 230 255
211 230 255
211 230 255
211 230 255
211 230 255
211 230 255
210 230 255
210 230 255
210 230 255
210 229 255
210 229 255
210 229 255
210 229 255
210 229 255
210 229 255
210 229 255
210 229 255
210 229 255
210 229 255
210 229 255
210 229 255
210 229 255
193 212 241
85 114 179
62 98 173
61 97 168
62 98 169
62 98 167
61 97 166
61 97 165
62 98 171
61 98 168
61 97 162
62 99 173
62 98 170
62 98 166
62 98 165
62 98 162
62 99 167
62 98 165
63 99 164
61 97 162
62 98 168
61 98 167
61 98 162
62 98 166
63 99 172
63 99 167
62 97 156
62 98 167
62 98 162
61 96 154
62 98 159
63 99 168
62 98 164
62 97 156
62 97 156
62 98 166
62 98 166
61 97 158
62 98 163
62 98 164
62 98 163
61 97 163
62 98 158
62 98 165
62 98 159
62 98 160
62 98 164
63 99 164
61 98 163
62 98 168
62 98 169
61 97 155
61 97 154
61 98 162
62 98 166
62 98 164
61 96 153
62 98 166
62 98 168
62 98 165
62 98 165
62 98 167
61 97 162
62 98 160
61 98 167
62 98 169
61 97 167
61 97 166
61 97 167
62 98 169
60 96 170
61 97 170
90 119 183
191 211 242
210 229 255
210 229 255
210 229 255
210 229 255
210 229 255
210 229 255
210 229 255
210 229 255
210 229 255
210 229 255
210 229 255
210 229 255
210 229 255
210 230 255
210 230 255
210 230 255
211 230 255
211 230 255
211 230 255
211 230 255
211 230 255
211 230 255
211 230 255
211 230 255
211 230 255
211 230 255
211 230 255
211 230 255
211 230 255
211 230 255
205 224 249
184 203 230
179 200 228
177 199 228
175 198 228
174 198 228
173 197 228
172 196 228
171 196 228
170 195 228
169 195 228
169 195 228
168 195 228
168 194 228
167 194 228
167 194 228
166 194 228
166 193 228
166 193 228
166 193 228
165 193 228
165 193 228
165 193 228
165 193 228
165 193 228
165 193 228
164 193 228
164 193 228
164 193 228
164 193 228
164 193 228
164 193 228
164 193 228
164 193 228
164 193 228
164 193 228
164 193 228
164 193 228
164 193 228
164 193 228
165 193 228
165 193 228
165 193 228
165 193 228
165 193 228
165 193 228
165 193 228
165 193 228
165 193 228
165 193 228
166 193 228
166 193 228
166 193 228
166 193 228
166 193 228
166 194 228
166 194 228
166 194 228
167 194 228
167 194 228
167 194 228
167 194 228
167 194 228
167 194 228
168 194 228
168 194 228
168 194 228
168 194 228
168 195 228
168 195 228
169 195 228
169 195 228
169 195 228
169 195 228
169 195 228
169 195 228
170 195 228
170 195 228
170 195 228
170 196 228
170 196 228
171 196 228
171 196 228
171 196 228
171 196 228
171 196 228
171 196 228
172 196 228
172 196 228
172 197 228
172 197 228
172 197 228
173 197 228
173 197 228
173 197 228
173 197 228
173 197 228
174 197 228
174 197 228
174 198 228
174 198 228
174 198 228
175 198 228
175 198 228
175 198 228
175 198 228
175 198 228
176 198 228
176 199 228
176 199 228
176 199 228
176 199 228
177 199 228
177 199 228
177 199 228
177 199 228
177 199 228
178 200 228
178 200 228
178 200 228
178 200 228
178 200 228
179 200 228
179 200 228
179 200 228
179 200 228
180 201 228
180 201 228
180 201 228
180 201 228
180 201 228
181 201 228
181 201 228
181 201 228
181 201 228
181 201 228
180 201 228
180 201 228
180 201 228
180 201 228
180 201 228
179 200 228
179 200 228
179 200 228
179 200 228
179 200 228
178 200 228
178 200 228
178 200 228
178 200 228
178 200 228
177 199 228
177 199 228
177 199 228
177 199 228
177 199 228
176 199 228
176 199 228
176 199 228
176 199 228
176 198 228
175 198 228
175 198 228
175 198 228
175 198 228
175 198 228
174 198 228
174 198 228
174 198 228
174 198 228
174 197 228
174 197 228
173 197 228
173 197 228
173 197 228
173 197 228
173 197 228
172 197 228
172 197 228
172 197 228
172 196 228
172 196 228
172 196 228
171 196 228
171 196 228
171 196 228
171 196 228
171 196 228
170 196 228
170 196 228
170 196 228
170 195 228
170 195 228
170 195 228
169 195 228
169 195 228
169 195 228
169 195 228
169 195 228
169 195 228
168 195 228
168 195 228
168 194 228
168 194 228
168 194 228
168 194 228
167 194 228
167 194 228
167 194 228
167 194 228
167 194 228
167 194 228
167 194 228
166 194 228
166 194 228
166 193 228
166 193 228
166 193 228
166 193 228
166 193 228
166 193 228
165 193 228
165 193 228
165 193 228
165 193 228
165 193 228
165 193 228
165 193 228
165 193 228
165 193 228
165 193 228
165 193 228
165 193 228
165 193 228
165 193 228
165 193 228
165 193 228
165 193 228
165 193 228
165 193 228
165 193 228
165 193 228
165 193 228
165 193 228
166 193 228
166 193 228
166 193 228
166 193 228
166 194 228
167 194 228
167 194 228
167 194 228
168 194 228
168 194 228
169 195 228
169 195 228
170 195 228
170 196 228
171 196 228
172 197 228
173 197 228
174 198 228
175 198 228
177 199 228
179 200 228
183 203 229
206 224 250
211 230 255
211 230 255
211 230 255
211 230 255
211 230 255
211 230 255
211 230 255
211 230 255
211 230 255
211 230 255
211 230 255
211 230 255
211 230 255
211 230 255
211 230 255
211 230 255
211 230 255
211 230 255
211 230 255
211 230 255
211 230 255
211 230 255
210 230 255
210 230 255
210 230 255
210 229 255
210 229 255
210 229 255
201 221 249
81 112 176
61 97 167
61 97 169
61 97 167
62 98 165
62 98 168
61 97 165
61 97 163
62 98 164
62 98 164
62 98 163
61 97 160
63 99 167
61 98 168
61 97 159
62 97 161
62 98 164
62 98 159
61 97 158
62 98 161
63 99 167
61 97 165
62 98 159
61 97 156
61 97 160
63 99 164
62 98 159
61 97 160
62 98 166
61 97 155
61 97 160
62 98 159
62 98 161
62 98 163
61 97 158
62 98 162
62 98 164
61 97 154
62 98 162
63 99 172
63 99 163
61 97 153
61 97 158
62 98 160
62 99 164
62 98 158
61 97 153
61 98 162
62 97 163
63 99 163
62 98 169
62 99 170
62 99 167
62 98 164
61 97 160
61 97 159
61 97 162
62 98 163
62 98 163
62 98 163
61 97 159
61 97 159
61 97 160
62 98 168
62 98 168
61 97 162
62 98 170
62 98 169
62 99 170
62 98 168
62 98 168
61 97 171
62 98 172
90 119 180
195 215 245
210 229 255
210 229 255
210 229 255
210 230 255
210 230 255
210 230 255
211 230 255
211 230 255
211 230 255
211 230 255
211 230 255
211 230 255
211 230 255
211 230 255
211 230 255
211 230 255
211 230 255
211 230 255
211 230 255
211 230 255
211 230 255
211 230 255
211 230 255
211 230 255
211 230 255
211 230 255
211 230 255
211 230 255
204 222 247
184 204 230
179 200 228
177 199 228
176 198 228
174 198 228
173 197 228
172 197 228
171 196 228
170 196 228
170 195 228
169 195 228
169 195 228
168 194 228
168 194 228
167 194 228
167 194 228
167 194 228
166 194 228
166 193 228
166 193 228
166 193 228
165 193 228
165 193 228
165 193 228
165 193 228
165 193 228
165 193 228
165 193 228
165 193 228
165 193 228
165 193 228
165 193 228
165 193 228
165 193 228
165 193 228
165 193 228
165 193 228
165 193 228
165 193 228
165 193 228
165 193 228
165 193 228
165 193 228
165 193 228
165 193 228
166 193 228
166 193 228
166 193 228
166 193 228
166 193 228
166 193 228
166 194 228
166 194 228
167 194 228
167 194 228
167 194 228
167 194 228
167 194 228
167 194 228
167 194 228
168 194 228
168 194 228
168 194 228
168 194 228
168 195 228
168 195 228
169 195 228
169 195 228
169 195 228
169 195 228
169 195 228
169 195 228
170 195 228
170 195 228
170 195 228
170 196 228
170 196 228
170 196 228
171 196 228
171 196 228
171 196 228
171 196 228
171 196 228
171 196 228
172 196 228
172 196 228
172 197 228
172 197 228
172 197 228
173 197 228
173 197 228
173 197 228
173 197 228
173 197 228
174 197 228
174 197 228
174 198 228
174 198 228
174 198 228
174 198 228
175 198 228
175 198 228
175 198 228
175 198 228
175 198 228
176 198 228
176 199 228
176 199 228
176 199 228
176 199 228
177 199 228
177 199 228
177 199 228
177 199 228
177 199 228
178 200 228
178 200 228
178 200 228
178 200 228
178 200 228
179 200 228
179 200 228
179 200 228
179 200 228
179 200 228
180 201 228
180 201 228
180 201 228
180 201 228
180 201 228
181 201 228
181 201 228
181 201 228
181 202 228
181 201 228
181 201 228
181 201 228
181 201 228
180 201 228
180 201 228
180 201 228
180 201 228
180 201 228
179 200 228
179 200 228
179 200 228
179 200 228
179 200 228
178 200 228
178 200 228
178 200 228
178 200 228
178 200 228
177 199 228
177 199 228
177 199 228
177 199 228
177 199 228
176 199 228
176 199 228
176 199 228
176 199 228
176 199 228
176 198 228
175 198 228
175 198 228
175 198 228
175 198 228
175 198 228
174 198 228
174 198 228
174 198 228
174 198 228
174 197 228
174 197 228
173 197 228
173 197 228
173 197 228
173 197 228
173 197 228
172 197 228
172 197 228
172 197 228
172 196 228
172 196 228
172 196 228
171 196 228
171 196 228
171 196 228
171 196 228
171 196 228
170 196 228
170 196 228
170 196 228
170 195 228
170 195 228
170 195 228
169 195 228
169 195 228
169 195 228
169 195 228
169 195 228
169 195 228
168 195 228
168 195 228
168 195 228
168 194 228
168 194 228
168 194 228
168 194 228
167 194 228
167 194 228
167 194 228
167 194 228
167 194 228
167 194 228
167 194 228
167 194 228
166 194 228
166 194 228
166 194 228
166 193 228
166 193 228
166 193 228
166 193 228
166 193 228
166 193 228
166 193 228
166 193 228
165 193 228
165 193 228
165 193 228
165 193 228
165 193 228
165 193 228
165 193 228
165 193 228
165 193 228
165 193 228
165 193 228
166 193 228
166 193 228
166 193 228
166 193 228
166 193 228
166 193 228
166 194 228
166 194 228
167 194 228
167 194 228
167 194 228
167 194 228
168 194 228
168 195 228
169 195 228
169 195 228
170 195 228
170 196 228
171 196 228
172 196 228
172 197 228
173 197 228
175 198 228
176 199 228
178 199 228
180 201 228
184 204 230
205 224 249
211 230 255
211 230 255
211 230 255
211 230 255
211 230 255
211 230 255
211 230 255
211 230 255
211 230 255
211 230 255
211 230 255
211 230 255
211 230 255
211 230 255
211 230 255
211 230 255
211 230 255
211 230 255
211 230 255
211 230 255
211 230 255
211 230 255
211 230 255
211 230 255
211 230 255
211 230 255
196 215 244
99 126 186
60 96 165
60 96 163
61 97 171
61 97 169
61 97 166
61 98 166
61 97 167
62 98 165
62 98 168
61 97 162
62 98 164
62 98 168
61 97 156
62 98 165
61 97 159
61 97 159
62 98 167
62 98 158
62 98 161
63 99 164
61 98 162
61 97 166
61 97 163
62 98 166
63 99 169
61 97 157
61 97 154
62 98 165
62 98 157
60 96 158
61 97 161
60 96 157
60 95 145
61 97 162
61 98 159
63 99 166
62 97 158
61 97 156
62 98 163
62 97 161
62 98 167
61 97 161
62 99 168
62 98 168
62 98 163
61 97 153
61 97 158
62 98 160
63 99 164
62 98 162
61 97 158
63 99 168
63 99 172
63 99 167
62 97 159
62 98 163
61 97 162
62 98 160
62 98 166
61 96 156
62 98 171
62 98 161
62 98 163
61 97 161
61 97 166
62 99 167
61 97 164
61 97 164
61 97 155
61 97 165
61 97 163
62 98 172
62 98 170
61 97 173
90 119 181
203 222 250
211 230 255
211 230 255
211 230 255
211 230 255
211 230 255
211 230 255
211 230 255
211 230 255
211 230 255
211 230 255
211 230 255
211 230 255
211 230 255
211 230 255
211 230 255
211 230 255
211 230 255
211 230 255
211 230 255
211 230 255
211 230 255
211 230 255
211 230 255
211 230 255
211 230 255
211 230 255
206 225 250
184 203 229
180 201 228
178 200 228
176 199 228
175 198 228
173 197 228
173 197 228
172 196 228
171 196 228
170 196 228
170 195 228
169 195 228
169 195 228
168 195 228
168 194 228
167 194 228
167 194 228
167 194 228
167 194 228
166 194 228
166 194 228
166 193 228
166 193 228
166 193 228
166 193 228
166 193 228
166 193 228
165 193 228
165 193 228
165 193 228
165 193 228
165 193 228
165 193 228
165 193 228
165 193 228
165 193 228
165 193 228
165 193 228
166 193 228
166 193 228
166 193 228
166 193 228
166 193 228
166 193 228
166 193 228
166 193 228
166 194 228
166 194 228
166 194 228
167 194 228
167 194 228
167 194 228
167 194 228
167 194 228
167 194 228
167 194 228
167 194 228
168 194 228
168 194 228
168 194 228
168 194 228
168 195 228
168 195 228
169 195 228
169 195 228
169 195 228
169 195 228
169 195 228
169 195 228
170 195 228
170 195 228
170 195 228
170 195 228
170 196 228
170 196 228
170 196 228
171 196 228
171 196 228
171 196 228
171 196 228
171 196 228
172 196 228
172 196 228
172 196 228
172 197 228
172 197 228
172 197 228
173 197 228
173 197 228
173 197 228
173 197 228
173 197 228
174 197 228
174 197 228
174 198 228
174 198 228
174 198 228
174 198 228
175 198 228
175 198 228
175 198 228
175 198 228
175 198 228
176 198 228
176 199 228
176 199 228
176 199 228
176 199 228
177 199 228
177 199 228
177 199 228
177 199 228
177 199 228
177 199 228
178 200 228
178 200 228
178 200 228
178 200 228
178 200 228
179 200 228
179 200 228
179 200 228
179 200 228
179 200 228
180 201 228
180 201 228
180 201 228
180 201 228
180 201 228
181 201 228
181 201 228
181 201 228
181 201 228
181 202 228
182 202 228
182 202 228
181 201 228
181 201 228
181 201 228
181 201 228
181 201 228
180 201 228
180 201 228
180 201 228
180 201 228
180 201 228
179 200 228
179 200 228
179 200 228
179 200 228
179 200 228
178 200 228
178 200 228
178 200 228
178 200 228
178 200 228
178 199 228
177 199 228
177 199 228
177 199 228
177 199 228
177 199 228
176 199 228
176 199 228
176 199 228
176 199 228
176 199 228
175 198 228
175 198 228
175 198 228
175 198 228
175 198 228
175 198 228
174 198 228
174 198 228
174 198 228
174 198 228
174 197 228
174 197 228
173 197 228
173 197 228
173 197 228
173 197 228
173 197 228
172 197 228
172 197 228
172 197 228
172 197 228
172 196 228
172 196 228
171 196 228
171 196 228
171 196 228
171 196 228
171 196 228
171 196 228
170 196 228
170 196 228
170 196 228
170 195 228
170 195 228
170 195 228
169 195 228
169 195 228
169 195 228
169 195 228
169 195 228
169 195 228
169 195 228
168 195 228
168 195 228
168 195 228
168 194 228
168 194 228
168 194 228
168 194 228
167 194 228
167 194 228
167 194 228
167 194 228
167 194 228
167 194 228
167 194 228
167 194 228
167 194 228
167 194 228
166 194 228
166 194 228
166 194 228
166 194 228
166 193 228
166 193 228
166 193 228
166 193 228
166 193 228
166 193 228
166 193 228
166 193 228
166 193 228
166 193 228
166 193 228
166 193 228
166 194 228
166 194 228
166 194 228
166 194 228
167 194 228
167 194 228
167 194 228
167 194 228
167 194 228
167 194 228
168 194 228
168 194 228
168 195 228
169 195 228
169 195 228
170 195 228
170 196 228
171 196 228
171 196 228
172 197 228
173 197 228
174 198 228
175 198 228
176 199 228
178 200 228
180 201 228
186 205 231
207 226 251
212 230 255
212 230 255
212 230 255
212 230 255
212 230 255
212 230 255
211 230 255
211 230 255
211 230 255
211 230 255
211 230 255
211 230 255
211 230 255
211 230 255
211 230 255
211 230 255
211 230 255
211 230 255
211 230 255
211 230 255
211 230 255
211 230 255
211 230 255
211 230 255
204 223 251
83 113 177
60 96 166
61 97 170
61 97 169
62 97 163
61 96 161
62 97 164
62 98 166
61 96 162
62 98 169
62 97 167
62 98 164
62 97 160
62 98 165
61 97 160
61 97 156
62 98 158
62 98 166
62 98 161
62 97 163
62 98 166
61 97 156
62 99 164
62 99 169
62 98 165
61 97 155
62 98 163
62 98 161
61 97 156
62 98 162
61 97 162
61 97 157
61 97 157
62 98 156
62 98 163
62 98 154
61 97 157
61 97 163
62 98 160
62 98 164
62 98 160
62 98 164
62 97 161
62 98 162
61 97 156
61 97 158
62 97 157
62 98 159
61 97 162
62 98 163
62 98 160
62 97 154
62 98 165
62 98 156
62 98 162
62 98 163
61 97 161
61 98 166
62 98 163
61 98 168
61 97 157
62 98 164
62 98 171
62 98 164
62 98 165
61 97 166
62 97 163
61 97 162
62 98 162
61 97 164
61 97 161
62 98 167
61 97 168
60 96 159
60 96 160
61 97 170
61 97 171
118 142 193
206 225 252
211 230 255
211 230 255
211 230 255
211 230 255
211 230 255
211 230 255
211 230 255
211 230 255
211 230 255
211 230 255
211 230 255
211 230 255
211 230 255
211 230 255
211 230 255
211 230 255
211 230 255
211 230 255
212 230 255
212 230 255
212 230 255
212 230 255
212 230 255
212 230 255
207 226 251
185 204 230
180 201 228
178 200 228
176 199 228
175 198 228
174 198 228
173 197 228
172 197 228
171 196 228
171 196 228
170 196 228
170 195 228
169 195 228
169 195 228
168 195 228
168 194 228
168 194 228
167 194 228
167 194 228
167 194 228
167 194 228
167 194 228
167 194 228
166 194 228
166 194 228
166 194 228
166 193 228
166 193 228
166 193 228
166 193 228
166 193 228
166 193 228
166 193 228
166 193 228
166 193 228
166 193 228
166 193 228
166 193 228
166 194 228
166 194 228
166 194 228
166 194 228
166 194 228
167 194 228
167 194 228
167 194 228
167 194 228
167 194 228
167 194 228
167 194 228
167 194 228
167 194 228
167 194 228
168 194 228
168 194 228
168 194 228
168 194 228
168 195 228
168 195 228
168 195 228
169 195 228
169 195 228
169 195 228
169 195 228
169 195 228
169 195 228
170 195 228
170 195 228
170 195 228
170 195 228
170 196 228
170 196 228
170 196 228
171 196 228
171 196 228
171 196 228
171 196 228
171 196 228
171 196 228
172 196 228
172 196 228
172 197 228
172 197 228
172 197 228
173 197 228
173 197 228
173 197 228
173 197 228
173 197 228
173 197 228
174 197 228
174 197 228
174 198 228
174 198 228
174 198 228
174 198 228
175 198 228
175 198 228
175 198 228
175 198 228
175 198 228
176 198 228
176 198 228
176 199 228
176 199 228
176 199 228
176 199 228
177 199 228
177 199 228
177 199 228
177 199 228
177 199 228
178 199 228
178 200 228
178 200 228
178 200 228
178 200 228
178 200 228
179 200 228
179 200 228
179 200 228
179 200 228
179 200 228
180 201 228
180 201 228
180 201 228
180 201 228
180 201 228
181 201 228
181 201 228
181 201 228
181 201 228
181 201 228
182 202 228
182 202 228
182 202 228
182 202 228
182 202 228
181 202 228
181 201 228
181 201 228
181 201 228
181 201 228
181 201 228
180 201 228
180 201 228
180 201 228
180 201 228
180 201 228
179 200 228
179 200 228
179 200 228
179 200 228
179 200 228
179 200 228
178 200 228
178 200 228
178 200 228
178 200 228
178 200 228
177 199 228
177 199 228
177 199 228
177 199 228
177 199 228
177 199 228
176 199 228
176 199 228
176 199 228
176 199 228
176 198 228
175 198 228
175 198 228
175 198 228
175 198 228
175 198 228
175 198 228
174 198 228
174 198 228
174 198 228
174 198 228
174 197 228
174 197 228
173 197 228
173 197 228
173 197 228
173 197 228
173 197 228
173 197 228
172 197 228
172 197 228
172 197 228
172 197 228
172 196 228
172 196 228
171 196 228
171 196 228
171 196 228
171 196 228
171 196 228
171 196 228
170 196 228
170 196 228
170 196 228
170 196 228
170 195 228
170 195 228
170 195 228
169 195 228
169 195 228
169 195 228
169 195 228
169 195 228
169 195 228
169 195 228
168 195 228
168 195 228
168 195 228
168 194 228
168 194 228
168 194 228
168 194 228
168 194 228
167 194 228
167 194 228
167 194 228
167 194 228
167 194 228
167 194 228
167 194 228
167 194 228
167 194 228
167 194 228
167 194 228
167 194 228
167 194 228
167 194 228
167 194 228
167 194 228
167 194 228
167 194 228
167 194 228
167 194 228
167 194 228
167 194 228
167 194 228
167 194 228
167 194 228
167 194 228
167 194 228
167 194 228
168 194 228
168 194 228
168 195 228
168 195 228
169 195 228
169 195 228
169 195 228
170 195 228
170 196 228
171 196 228
171 196 228
172 197 228
173 197 228
174 197 228
174 198 228
176 198 228
177 199 228
179 200 228
181 201 228
187 206 232
209 228 253
212 230 255
212 230 255
212 230 255
212 230 255
212 230 255
212 230 255
212 230 255
212 230 255
212 230 255
212 230 255
212 230 255
212 230 255
212 230 255
212 230 255
211 230 255
211 230 255
211 230 255
211 230 255
211 230 255
211 230 255
211 230 255
211 230 255
210 229 255
106 131 189
61 96 165
61 97 168
61 97 167
61 97 166
61 97 169
61 97 170
62 97 165
61 97 161
61 97 167
60 96 163
61 96 156
62 97 161
61 97 156
61 96 161
61 97 161
62 98 158
61 97 157
61 97 163
62 98 165
62 98 164
61 97 160
62 98 165
62 98 165
61 97 162
62 97 158
62 98 160
61 97 163
61 97 162
62 98 165
63 99 166
62 98 159
63 99 167
61 97 158
61 96 157
62 98 167
62 98 154
61 97 153
61 97 158
62 97 157
62 98 158
61 97 152
61 97 160
61 97 160
61 97 161
62 98 161
62 97 158
62 98 162
61 97 160
62 97 161
62 98 159
61 97 150
61 97 155
62 97 161
62 98 161
61 98 163
62 98 165
62 98 163
63 99 168
62 98 165
62 98 163
62 99 167
61 97 161
62 98 164
61 98 165
61 97 166
62 98 167
61 97 158
63 99 167
62 98 165
61 97 166
61 97 165
62 98 165
61 97 160
60 95 156
61 97 169
60 96 168
61 97 166
60 96 168
113 138 193
210 229 255
211 230 255
211 230 255
211 230 255
211 230 255
211 230 255
211 230 255
211 230 255
211 230 255
212 230 255
212 230 255
212 230 255
212 230 255
212 230 255
212 230 255
212 230 255
212 230 255
212 230 255
212 230 255
212 230 255
212 230 255
212 230 255
212 230 255
210 228 253
187 205 231
181 201 228
179 200 228
177 199 228
176 198 228
175 198 228
174 197 228
173 197 228
172 197 228
171 196 228
171 196 228
170 196 228
170 195 228
169 195 228
169 195 228
169 195 228
168 195 228
168 195 228
168 194 228
168 194 228
167 194 228
167 194 228
167 194 228
167 194 228
167 194 228
167 194 228
167 194 228
167 194 228
167 194 228
167 194 228
167 194 228
167 194 228
167 194 228
167 194 228
167 194 228
167 194 228
167 194 228
167 194 228
167 194 228
167 194 228
167 194 228
167 194 228
167 194 228
167 194 228
167 194 228
167 194 228
167 194 228
168 194 228
168 194 228
168 194 228
168 194 228
168 194 228
168 194 228
168 195 228
168 195 228
168 195 228
169 195 228
169 195 228
169 195 228
169 195 228
169 195 228
169 195 228
169 195 228
170 195 228
170 195 228
170 195 228
170 196 228
170 196 228
170 196 228
170 196 228
171 196 228
171 196 228
171 196 228
171 196 228
171 196 228
171 196 228
172 196 228
172 196 228
172 197 228
172 197 228
172 197 228
172 197 228
173 197 228
173 197 228
173 197 228
173 197 228
173 197 228
173 197 228
174 197 228
174 197 228
174 198 228
174 198 228
174 198 228
174 198 228
175 198 228
175 198 228
175 198 228
175 198 228
175 198 228
176 198 228
176 198 228
176 199 228
176 199 228
176 199 228
176 199 228
177 199 228
177 199 228
177 199 228
177 199 228
177 199 228
177 199 228
178 200 228
178 200 228
178 200 228
178 200 228
178 200 228
179 200 228
179 200 228
179 200 228
179 200 228
179 200 228
179 200 228
180 201 228
180 201 228
180 201 228
180 201 228
180 201 228
181 201 228
181 201 228
181 201 228
181 201 228
181 201 228
181 202 228
182 202 228
182 202 228
182 202 228
182 202 228
182 202 228
182 202 228
182 202 228
182 202 228
181 202 228
181 201 228
181 201 228
181 201 228
181 201 228
181 201 228
180 201 228
180 201 228
180 201 228
180 201 228
180 201 228
180 201 228
179 200 228
179 200 228
179 200 228
179 200 228
179 200 228
178 200 228
178 200 228
178 200 228
178 200 228
178 200 228
178 200 228
177 199 228
177 199 228
177 199 228
177 199 228
177 199 228
177 199 228
176 199 228
176 199 228
176 199 228
176 199 228
176 199 228
176 198 228
175 198 228
175 198 228
175 198 228
175 198 228
175 198 228
175 198 228
174 198 228
174 198 228
174 198 228
174 198 228
174 197 228
174 197 228
173 197 228
173 197 228
173 197 228
173 197 228
173 197 228
173 197 228
172 197 228
172 197 228
172 197 228
172 197 228
172 196 228
172 196 228
171 196 228
171 196 228
171 196 228
171 196 228
171 196 228
171 196 228
171 196 228
170 196 228
170 196 228
170 196 228
170 195 228
170 195 228
170 195 228
170 195 228
169 195 228
169 195 228
169 195 228
169 195 228
169 195 228
169 195 228
169 195 228
169 195 228
168 195 228
168 195 228
168 195 228
168 195 228
168 194 228
168 194 228
168 194 228
168 194 228
168 194 228
168 194 228
168 194 228
167 194 228
167 194 228
167 194 228
167 194 228
167 194 228
167 194 228
167 194 228
167 194 228
167 194 228
167 194 228
167 194 228
167 194 228
167 194 228
167 194 228
168 194 228
168 194 228
168 194 228
168 194 228
168 194 228
168 195 228
168 195 228
169 195 228
169 195 228
169 195 228
169 195 228
170 195 228
170 196 228
170 196 228
171 196 228
171 196 228
172 197 228
173 197 228
173 197 228
174 198 228
175 198 228
176 199 228
178 200 228
179 200 228
182 202 228
188 207 232
210 229 253
212 230 255
212 230 255
212 230 255
212 230 255
212 230 255
212 230 255
212 230 255
212 230 255
212 230 255
212 230 255
212 230 255
212 230 255
212 230 255
212 230 255
212 230 255
212 230 255
212 230 255
212 230 255
212 230 255
212 230 255
212 230 255
131 153 201
61 96 159
61 97 167
60 96 163
60 96 165
60 96 162
62 98 164
61 97 160
61 97 161
61 97 162
61 96 155
61 97 162
61 97 165
61 97 161
61 97 159
61 97 159
62 98 163
61 97 161
61 97 158
62 98 162
61 97 161
62 98 163
62 97 155
62 98 162
61 97 155
60 95 151
61 97 159
62 98 162
62 98 163
62 97 160
61 98 167
62 98 161
62 97 154
63 99 168
62 98 155
61 96 151
62 98 160
62 98 160
61 96 154
61 97 152
62 97 155
61 97 154
62 98 161
62 98 161
63 98 162
62 98 157
62 97 157
61 97 154
61 97 156
61 97 162
62 98 158
62 98 163
61 97 157
62 98 160
62 97 154
62 97 161
61 98 162
62 98 159
62 98 162
62 98 164
62 97 157
62 98 161
62 97 159
61 97 161
61 97 163
61 97 160
61 97 158
62 98 162
60 96 161
62 98 169
62 98 162
61 97 160
62 98 167
62 97 164
61 97 164
62 98 164
61 97 160
61 97 168
61 96 162
60 96 165
59 95 159
157 178 218
212 230 255
212 230 255
212 230 255
212 230 255
212 230 255
212 230 255
212 230 255
212 230 255
212 230 255
212 230 255
212 230 255
212 230 255
212 230 255
212 230 255
212 230 255
212 230 255
212 230 255
212 230 255
212 230 255
212 230 255
212 230 255
211 229 254
189 208 232
182 202 228
179 200 228
178 200 228
176 199 228
175 198 228
174 198 228
173 197 228
173 197 228
172 197 228
171 196 228
171 196 228
170 196 228
170 196 228
170 195 228
169 195 228
169 195 228
169 195 228
169 195 228
168 195 228
168 195 228
168 194 228
168 194 228
168 194 228
168 194 228
168 194 228
167 194 228
167 194 228
167 194 228
167 194 228
167 194 228
167 194 228
167 194 228
167 194 228
167 194 228
167 194 228
167 194 228
167 194 228
167 194 228
167 194 228
168 194 228
168 194 228
168 194 228
168 194 228
168 194 228
168 194 228
168 194 228
168 195 228
168 195 228
168 195 228
168 195 228
169 195 228
169 195 228
169 195 228
169 195 228
169 195 228
169 195 228
169 195 228
169 195 228
170 195 228
170 195 228
170 195 228
170 195 228
170 196 228
170 196 228
170 196 228
171 196 228
171 196 228
171 196 228
171 196 228
171 196 228
171 196 228
171 196 228
172 196 228
172 196 228
172 197 228
172 197 228
172 197 228
172 197 228
173 197 228
173 197 228
173 197 228
173 197 228
173 197 228
173 197 228
174 197 228
174 197 228
174 198 228
174 198 228
174 198 228
174 198 228
175 198 228
175 198 228
175 198 228
175 198 228
175 198 228
175 198 228
176 198 228
176 199 228
176 199 228
176 199 228
176 199 228
176 199 228
177 199 228
177 199 228
177 199 228
177 199 228
177 199 228
177 199 228
178 200 228
178 200 228
178 200 228
178 200 228
178 200 228
178 200 228
179 200 228
179 200 228
179 200 228
179 200 228
179 200 228
180 201 228
180 201 228
180 201 228
180 201 228
180 201 228
180 201 228
181 201 228
181 201 228
181 201 228
181 201 228
181 201 228
181 202 228
182 202 228
182 202 228
182 202 228
182 202 228
182 202 228
183 202 228
183 202 228
182 202 228
182 202 228
182 202 228
182 202 228
182 202 228
182 202 228
181 202 228
181 201 228
181 201 228
181 201 228
181 201 228
181 201 228
180 201 228
180 201 228
180 201 228
180 201 228
180 201 228
179 201 228
179 200 228
179 200 228
179 200 228
179 200 228
179 200 228
178 200 228
178 200 228
178 200 228
178 200 228
178 200 228
178 200 228
177 199 228
177 199 228
177 199 228
177 199 228
177 199 228
177 199 228
177 199 228
176 199 228
176 199 228
176 199 228
176 199 228
176 198 228
176 198 228
175 198 228
175 198 228
175 198 228
175 198 228
175 198 228
175 198 228
174 198 228
174 198 228
174 198 228
174 198 228
174 197 228
174 197 228
173 197 228
173 197 228
173 197 228
173 197 228
173 197 228
173 197 228
173 197 228
172 197 228
172 197 228
172 197 228
172 196 228
172 196 228
172 196 228
171 196 228
171 196 228
171 196 228
171 196 228
171 196 228
171 196 228
171 196 228
170 196 228
170 196 228
170 196 228
170 196 228
170 195 228
170 195 228
170 195 228
170 195 228
169 195 228
169 195 228
169 195 228
169 195 228
169 195 228
169 195 228
169 195 228
169 195 228
169 195 228
169 195 228
169 195 228
168 195 228
168 195 228
168 195 228
168 195 228
168 195 228
168 194 228
168 194 228
168 194 228
168 194 228
168 194 228
168 194 228
168 194 228
168 194 228
168 194 228
168 194 228
168 195 228
168 195 228
168 195 228
168 195 228
168 195 228
169 195 228
169 195 228
169 195 228
169 195 228
169 195 228
169 195 228
170 195 228
170 196 228
170 196 228
171 196 228
171 196 228
172 196 228
172 197 228
173 197 228
173 197 228
174 198 228
175 198 228
176 199 228
177 199 228
178 200 228
180 201 228
182 202 228
193 212 236
212 230 255
212 231 255
212 231 255
212 231 255
212 231 255
212 231 255
212 231 255
212 231 255
212 230 255
212 230 255
212 230 255
212 230 255
212 230 255
212 230 255
212 230 255
212 230 255
212 230 255
212 230 255
212 230 255
212 230 255
181 201 233
63 97 164
61 96 165
61 97 163
60 95 160
61 98 168
60 96 160
61 97 160
62 98 165
61 97 161
61 97 160
61 96 157
61 97 160
62 98 163
62 98 158
62 98 161
61 97 159
62 98 168
61 97 161
61 97 160
62 98 166
63 99 168
62 98 164
62 98 160
61 96 155
62 98 159
61 97 160
62 98 159
61 97 158
63 99 165
62 98 162
62 98 159
61 97 156
62 98 158
62 98 161
62 98 158
62 99 166
62 98 160
61 97 153
62 98 161
62 97 158
62 98 160
61 97 155
61 97 159
63 99 162
62 98 156
62 97 155
62 98 162
62 98 162
62 98 158
62 97 159
62 98 156
63 99 165
61 97 157
62 98 159
62 98 161
61 97 155
62 98 164
62 98 162
61 97 156
61 97 161
61 97 157
62 97 154
62 99 167
62 98 162
62 97 163
61 97 161
61 97 163
61 96 159
62 98 159
60 96 159
61 97 158
61 97 157
62 97 159
62 97 162
62 98 165
60 95 157
61 97 164
62 98 169
61 97 168
60 96 167
59 94 162
60 96 169
181 201 233
212 230 255
212 230 255
212 230 255
212 230 255
212 230 255
212 230 255
212 230 255
212 230 255
212 230 255
212 230 255
212 230 255
212 230 255
212 231 255
212 231 255
212 231 255
212 231 255
212 231 255
212 231 255
212 231 255
212 230 255
194 212 236
182 202 228
180 201 228
178 200 228
177 199 228
176 199 228
175 198 228
174 198 228
173 197 228
173 197 228
172 197 228
172 196 228
171 196 228
171 196 228
170 196 228
170 196 228
170 195 228
170 195 228
169 195 228
169 195 228
169 195 228
169 195 228
169 195 228
168 195 228
168 195 228
168 195 228
168 195 228
168 195 228
168 194 228
168 194 228
168 194 228
168 194 228
168 194 228
168 194 228
168 194 228
168 194 228
168 194 228
168 195 228
168 195 228
168 195 228
168 195 228
168 195 228
168 195 228
168 195 228
169 195 228
169 195 228
169 195 228
169 195 228
169 195 228
169 195 228
169 195 228
169 195 228
169 195 228
169 195 228
170 195 228
170 195 228
170 195 228
170 195 228
170 196 228
170 196 228
170 196 228
170 196 228
171 196 228
171 196 228
171 196 228
171 196 228
171 196 228
171 196 228
171 196 228
172 196 228
172 196 228
172 196 228
172 197 228
172 197 228
172 197 228
172 197 228
173 197 228
173 197 228
173 197 228
173 197 228
173 197 228
173 197 228
174 197 228
174 197 228
174 198 228
174 198 228
174 198 228
174 198 228
175 198 228
175 198 228
175 198 228
175 198 228
175 198 228
175 198 228
176 198 228
176 198 228
176 199 228
176 199 228
176 199 228
176 199 228
176 199 228
177 199 228
177 199 228
177 199 228
177 199 228
177 199 228
178 199 228
178 200 228
178 200 228
178 200 228
178 200 228
178 200 228
178 200 228
179 200 228
179 200 228
179 200 228
179 200 228
179 200 228
179 201 228
180 201 228
180 201 228
180 201 228
180 201 228
180 201 228
181 201 228
181 201 228
181 201 228
181 201 228
181 201 228
181 202 228
182 202 228
182 202 228
182 202 228
182 202 228
182 202 228
182 202 228
183 202 228
183 202 228
183 202 228
183 202 228
183 202 228
183 202 228
182 202 228
182 202 228
182 202 228
182 202 228
182 202 228
182 202 228
181 202 228
181 201 228
181 201 228
181 201 228
181 201 228
181 201 228
181 201 228
180 201 228
180 201 228
180 201 228
180 201 228
180 201 228
180 201 228
179 200 228
179 200 228
179 200 228
179 200 228
179 200 228
179 200 228
178 200 228
178 200 228
178 200 228
178 200 228
178 200 228
178 200 228
177 199 228
177 199 228
177 199 228
177 199 228
177 199 228
177 199 228
176 199 228
176 199 228
176 199 228
176 199 228
176 199 228
176 199 228
176 198 228
175 198 228
175 198 228
175 198 228
175 198 228
175 198 228
175 198 228
174 198 228
174 198 228
174 198 228
174 198 228
174 198 228
174 197 228
174 197 228
173 197 228
173 197 228
173 197 228
173 197 228
173 197 228
173 197 228
172 197 228
172 197 228
172 197 228
172 197 228
172 196 228
172 196 228
172 196 228
172 196 228
171 196 228
171 196 228
171 196 228
171 196 228
171 196 228
171 196 228
171 196 228
171 196 228
170 196 228
170 196 228
170 196 228
170 196 228
170 195 228
170 195 228
170 195 228
170 195 228
170 195 228
169 195 228
169 195 228
169 195 228
169 195 228
169 195 228
169 195 228
169 195 228
169 195 228
169 195 228
169 195 228
169 195 228
169 195 228
169 195 228
169 195 228
169 195 228
169 195 228
169 195 228
169 195 228
169 195 228
169 195 228
169 195 228
169 195 228
169 195 228
169 195 228
169 195 228
169 195 228
170 195 228
170 195 228
170 195 228
170 196 228
171 196 228
171 196 228
171 196 228
171 196 228
172 197 228
172 197 228
173 197 228
173 197 228
174 198 228
175 198 228
176 198 228
177 199 228
178 200 228
179 200 228
181 201 228
184 203 228
197 215 239
213 231 255
213 231 255
213 231 255
213 231 255
213 231 255
213 231 255
213 231 255
212 231 255
212 231 255
212 231 255
212 231 255
212 231 255
212 231 255
212 231 255
212 231 255
212 231 255
212 231 255
212 231 255
205 224 249
75 106 167
60 95 163
60 95 166
61 96 162
61 96 161
60 95 157
61 96 160
61 97 164
61 97 162
62 98 165
62 98 164
61 98 166
62 98 160
62 97 164
61 97 159
61 97 158
62 98 163
61 97 155
63 98 165
61 97 159
62 97 159
61 97 153
62 98 161
62 97 156
62 97 161
61 97 160
61 98 164
62 98 164
63 99 161
62 98 157
62 98 163
62 98 165
63 99 162
62 97 155
61 97 151
61 97 156
62 98 159
61 97 159
62 98 159
62 98 164
62 97 158
62 98 158
61 97 158
62 98 159
62 98 155
61 96 154
61 97 153
62 98 160
61 97 152
61 97 153
62 98 162
63 99 169
62 97 155
61 97 160
62 98 156
62 97 156
62 98 161
62 98 156
61 97 155
62 98 160
61 97 159
61 97 152
62 98 161
61 97 162
62 98 165
61 96 151
62 98 161
61 97 156
62 97 157
62 98 158
62 97 162
60 96 153
61 97 157
61 97 163
62 98 167
60 96 156
61 96 159
61 97 163
59 95 159
61 96 159
61 97 165
60 96 163
61 97 167
75 105 169
202 221 249
212 230 255
212 231 255
212 231 255
212 231 255
212 231 255
212 231 255
212 231 255
212 231 255
212 231 255
212 231 255
212 231 255
213 231 255
213 231 255
213 231 255
213 231 255
213 231 255
213 231 255
213 231 255
200 218 243
183 203 228
181 201 228
179 200 228
178 200 228
177 199 228
176 198 228
175 198 228
174 198 228
173 197 228
173 197 228
172 197 228
172 196 228
172 196 228
171 196 228
171 196 228
171 196 228
170 196 228
170 195 228
170 195 228
170 195 228
169 195 228
169 195 228
169 195 228
169 195 228
169 195 228
169 195 228
169 195 228
169 195 228
169 195 228
169 195 228
169 195 228
169 195 228
169 195 228
169 195 228
169 195 228
169 195 228
169 195 228
169 195 228
169 195 228
169 195 228
169 195 228
169 195 228
169 195 228
169 195 228
169 195 228
169 195 228
169 195 228
170 195 228
170 195 228
170 195 228
170 195 228
170 195 228
170 196 228
170 196 228
170 196 228
170 196 228
171 196 228
171 196 228
171 196 228
171 196 228
171 196 228
171 196 228
171 196 228
172 196 228
172 196 228
172 196 228
172 196 228
172 197 228
172 197 228
172 197 228
172 197 228
173 197 228
173 197 228
173 197 228
173 197 228
173 197 228
173 197 228
174 197 228
174 197 228
174 197 228
174 198 228
174 198 228
174 198 228
174 198 228
175 198 228
175 198 228
175 198 228
175 198 228
175 198 228
175 198 228
176 198 228
176 198 228
176 199 228
176 199 228
176 199 228
176 199 228
176 199 228
177 199 228
177 199 228
177 199 228
177 199 228
177 199 228
177 199 228
178 200 228
178 200 228
178 200 228
178 200 228
178 200 228
178 200 228
179 200 228
179 200 228
179 200 228
179 200 228
179 200 228
179 200 228
180 201 228
180 201 228
180 201 228
180 201 228
180 201 228
180 201 228
180 201 228
181 201 228
181 201 228
181 201 228
181 201 228
181 202 228
181 202 228
182 202 228
182 202 228
182 202 228
182 202 228
182 202 228
182 202 228
183 202 228
183 202 228
183 202 228
183 202 228
184 203 228
183 203 228
183 203 228
183 202 228
183 202 228
183 202 228
183 202 228
182 202 228
182 202 228
182 202 228
182 202 228
182 202 228
182 202 228
181 202 228
181 202 228
181 201 228
181 201 228
181 201 228
181 201 228
181 201 228
180 201 228
180 201 228
180 201 228
180 201 228
180 201 228
180 201 228
179 200 228
179 200 228
179 200 228
179 200 228
179 200 228
179 200 228
179 200 228
178 200 228
178 200 228
178 200 228
178 200 228
178 200 228
178 199 228
177 199 228
177 199 228
177 199 228
177 199 228
177 199 228
177 199 228
177 199 228
176 199 228
176 199 228
176 199 228
176 199 228
176 199 228
176 198 228
175 198 228
175 198 228
175 198 228
175 198 228
175 198 228
175 198 228
175 198 228
174 198 228
174 198 228
174 198 228
174 198 228
174 198 228
174 197 228
174 197 228
173 197 228
173 197 228
173 197 228
173 197 228
173 197 228
173 197 228
173 197 228
172 197 228
172 197 228
172 197 228
172 197 228
172 196 228
172 196 228
172 196 228
172 196 228
171 196 228
171 196 228
171 196 228
171 196 228
171 196 228
171 196 228
171 196 228
171 196 228
171 196 228
170 196 228
170 196 228
170 196 228
170 196 228
170 196 228
170 195 228
170 195 228
170 195 228
170 195 228
170 195 228
170 195 228
170 195 228
170 195 228
170 195 228
169 195 228
170 195 228
169 195 228
169 195 228
170 195 228
170 195 228
170 195 228
170 195 228
170 195 228
170 195 228
170 195 228
170 195 228
170 195 228
170 196 228
170 196 228
170 196 228
171 196 228
171 196 228
171 196 228
171 196 228
172 196 228
172 196 228
172 197 228
173 197 228
173 197 228
174 197 228
174 198 228
175 198 228
176 198 228
176 199 228
177 199 228
179 200 228
180 201 228
182 202 228
185 203 228
204 222 246
213 231 255
213 231 255
213 231 255
213 231 255
213 231 255
213 231 255
213 231 255
213 231 255
213 231 255
213 231 255
213 231 255
213 231 255
213 231 255
213 231 255
213 231 255
213 231 255
212 231 255
121 144 192
59 94 163
60 95 161
60 96 159
60 95 158
61 97 163
61 96 159
60 95 156
61 96 158
60 96 156
62 97 160
61 97 164
61 97 156
61 97 154
62 97 162
61 97 161
61 97 159
61 97 157
61 97 157
61 96 158
61 97 156
59 95 144
62 98 162
62 97 159
62 97 156
62 98 161
61 97 156
61 97 155
61 97 160
62 98 157
61 97 158
61 97 153
61 96 152
62 97 151
61 97 155
61 96 153
62 97 160
62 98 159
62 98 159
61 97 154
62 98 157
62 98 156
61 96 146
62 98 159
62 98 159
62 98 157
63 99 164
61 97 164
62 98 160
62 98 161
61 97 149
61 97 157
61 97 158
61 97 154
62 98 164
62 97 152
61 97 154
62 99 165
60 95 156
62 97 157
63 99 168
62 98 160
62 98 163
62 98 156
62 97 156
60 95 152
61 96 157
61 97 158
61 97 162
62 97 163
61 97 163
61 97 155
62 98 160
61 96 158
61 97 159
61 97 162
61 97 164
60 96 150
60 96 160
61 96 166
60 96 162
60 96 159
61 97 168
61 96 160
59 95 161
131 154 199
213 231 255
213 231 255
213 231 255
213 231 255
213 231 255
213 231 255
213 231 255
213 231 255
213 231 255
213 231 255
213 231 255
213 231 255
213 231 255
213 231 255
213 231 255
213 231 255
213 231 255
206 224 248
185 204 229
182 202 228
180 201 228
179 200 228
177 199 228
176 199 228
176 198 228
175 198 228
174 198 228
174 197 228
173 197 228
173 197 228
172 197 228
172 196 228
172 196 228
171 196 228
171 196 228
171 196 228
171 196 228
170 196 228
170 196 228
170 196 228
170 195 228
170 195 228
170 195 228
170 195 228
170 195 228
170 195 228
170 195 228
170 195 228
170 195 228
169 195 228
169 195 228
170 195 228
170 195 228
170 195 228
170 195 228
170 195 228
170 195 228
170 195 228
170 195 228
170 195 228
170 195 228
170 195 228
170 196 228
170 196 228
170 196 228
170 196 228
170 196 228
171 196 228
171 196 228
171 196 228
171 196 228
171 196 228
171 196 228
171 196 228
171 196 228
171 196 228
171 196 228
172 196 228
172 196 228
172 196 228
172 197 228
172 197 228
172 197 228
172 197 228
173 197 228
173 197 228
173 197 228
173 197 228
173 197 228
173 197 228
173 197 228
174 197 228
174 197 228
174 197 228
174 198 228
174 198 228
174 198 228
174 198 228
175 198 228
175 198 228
175 198 228
175 198 228
175 198 228
175 198 228
175 198 228
176 198 228
176 199 228
176 199 228
176 199 228
176 199 228
176 199 228
177 199 228
177 199 228
177 199 228
177 199 228
177 199 228
177 199 228
177 199 228
178 200 228
178 200 228
178 200 228
178 200 228
178 200 228
178 200 228
178 200 228
179 200 228
179 200 228
179 200 228
179 200 228
179 200 228
179 200 228
180 201 228
180 201 228
180 201 228
180 201 228
180 201 228
180 201 228
181 201 228
181 201 228
181 201 228
181 201 228
181 201 228
181 202 228
181 202 228
182 202 228
182 202 228
182 202 228
182 202 228
182 202 228
182 202 228
183 202 228
183 202 228
183 202 228
183 202 228
183 203 228
183 203 228
184 203 228
184 203 228
184 203 228
184 203 228
183 203 228
183 203 228
183 203 228
183 202 228
183 202 228
183 202 228
183 202 228
182 202 228
182 202 228
182 202 228
182 202 228
182 202 228
182 202 228
181 202 228
181 202 228
181 201 228
181 201 228
181 201 228
181 201 228
181 201 228
180 201 228
180 201 228
180 201 228
180 201 228
180 201 228
180 201 228
180 201 228
179 200 228
179 200 228
179 200 228
179 200 228
179 200 228
179 200 228
178 200 228
178 200 228
178 200 228
178 200 228
178 200 228
178 200 228
178 199 228
177 199 228
177 199 228
177 199 228
177 199 228
177 199 228
177 199 228
177 199 228
176 199 228
176 199 228
176 199 228
176 199 228
176 199 228
176 198 228
176 198 228
175 198 228
175 198 228
175 198 228
175 198 228
175 198 228
175 198 228
175 198 228
174 198 228
174 198 228
174 198 228
174 198 228
174 198 228
174 197 228
174 197 228
173 197 228
173 197 228
173 197 228
173 197 228
173 197 228
173 197 228
173 197 228
173 197 228
172 197 228
172 197 228
172 197 228
172 197 228
172 197 228
172 196 228
172 196 228
172 196 228
172 196 228
171 196 228
171 196 228
171 196 228
171 196 228
171 196 228
171 196 228
171 196 228
171 196 228
171 196 228
171 196 228
171 196 228
171 196 228
171 196 228
170 196 228
170 196 228
170 196 228
170 196 228
170 196 228
170 196 228
170 196 228
170 196 228
170 196 228
170 196 228
170 196 228
170 196 228
170 196 228
171 196 228
171 196 228
171 196 228
171 196 228
171 196 228
171 196 228
171 196 228
171 196 228
172 196 228
172 196 228
172 197 228
172 197 228
173 197 228
173 197 228
173 197 228
174 198 228
174 198 228
175 198 228
176 198 228
176 199 228
177 199 228
178 200 228
180 201 228
181 201 228
183 202 228
187 205 229
210 228 252
213 231 255
213 231 255
213 231 255
213 231 255
213 231 255
213 231 255
213 231 255
213 231 255
213 231 255
213 231 255
213 231 255
213 231 255
213 231 255
213 231 255
213 231 255
175 195 229
59 94 159
61 97 168
58 93 155
61 96 163
61 96 164
60 96 156
61 96 156
61 97 166
60 96 160
62 97 162
61 96 158
60 96 156
62 98 167
62 98 163
61 97 158
61 97 154
60 96 156
61 97 152
62 97 158
62 98 160
61 96 155
61 97 159
61 97 150
60 96 153
61 96 150
61 97 156
61 97 157
61 96 157
61 96 155
61 97 158
61 96 147
62 98 159
61 97 152
62 98 162
62 98 158
62 98 163
61 96 148
61 97 159
62 97 159
62 98 157
62 98 161
62 98 163
62 98 160
61 98 159
62 97 154
61 97 155
62 97 154
62 98 158
62 97 155
61 97 158
61 97 156
61 96 149
62 98 158
62 98 157
60 96 151
61 97 160
61 96 149
62 97 156
61 97 150
61 97 153
61 97 154
62 97 160
61 97 154
62 98 160
61 96 147
62 98 163
62 98 156
63 98 163
61 97 156
62 97 159
61 96 160
61 96 154
62 97 159
62 98 164
60 96 155
61 97 157
60 96 159
60 96 160
60 96 156
60 96 153
60 95 155
61 97 168
61 96 165
59 95 157
59 94 160
60 95 163
174 193 226
213 231 255
213 231 255
213 231 255
213 231 255
213 231 255
213 231 255
213 231 255
213 231 255
213 231 255
213 231 255
213 231 255
213 231 255
213 231 255
213 231 255
213 231 255
211 229 253
188 206 230
183 202 228
181 201 228
179 200 228
178 200 228
177 199 228
176 199 228
176 198 228
175 198 228
174 198 228
174 198 228
173 197 228
173 197 228
173 197 228
172 197 228
172 197 228
172 196 228
172 196 228
171 196 228
171 196 228
171 196 228
171 196 228
171 196 228
171 196 228
171 196 228
171 196 228
170 196 228
170 196 228
170 196 228
170 196 228
170 196 228
170 196 228
170 196 228
170 196 228
170 196 228
170 196 228
170 196 228
170 196 228
170 196 228
170 196 228
171 196 228
171 196 228
171 196 228
171 196 228
171 196 228
171 196 228
171 196 228
171 196 228
171 196 228
171 196 228
171 196 228
171 196 228
172 196 228
172 196 228
172 196 228
172 196 228
172 197 228
172 197 228
172 197 228
172 197 228
172 197 228
173 197 228
173 197 228
173 197 228
173 197 228
173 197 228
173 197 228
173 197 228
174 197 228
174 197 228
174 197 228
174 198 228
174 198 228
174 198 228
174 198 228
174 198 228
175 198 228
175 198 228
175 198 228
175 198 228
175 198 228
175 198 228
175 198 228
176 198 228
176 198 228
176 199 228
176 199 228
176 199 228
176 199 228
176 199 228
177 199 228
177 199 228
177 199 228
177 199 228
177 199 228
177 199 228
177 199 228
178 200 228
178 200 228
178 200 228
178 200 228
178 200 228
178 200 228
179 200 228
179 200 228
179 200 228
179 200 228
179 200 228
179 200 228
179 200 228
180 201 228
180 201 228
180 201 228
180 201 228
180 201 228
180 201 228
180 201 228
181 201 228
181 201 228
181 201 228
181 201 228
181 201 228
181 202 228
181 202 228
182 202 228
182 202 228
182 202 228
182 202 228
182 202 228
182 202 228
183 202 228
183 202 228
183 202 228
183 202 228
183 203 228
183 203 228
183 203 228
184 203 228
184 203 228
184 203 228
184 203 228
184 203 228
184 203 228
184 203 228
184 203 228
184 203 228
183 203 228
183 203 228
183 203 228
183 202 228
183 202 228
183 202 228
183 202 228
182 202 228
182 202 228
182 202 228
182 202 228
182 202 228
182 202 228
182 202 228
181 202 228
181 201 228
181 201 228
181 201 228
181 201 228
181 201 228
181 201 228
180 201 228
180 201 228
180 201 228
180 201 228
180 201 228
180 201 228
180 201 228
179 200 228
179 200 228
179 200 228
179 200 228
179 200 228
179 200 228
179 200 228
178 200 228
178 200 228
178 200 228
178 200 228
178 200 228
178 200 228
178 199 228
177 199 228
177 199 228
177 199 228
177 199 228
177 199 228
177 199 228
177 199 228
176 199 228
176 199 228
176 199 228
176 199 228
176 199 228
176 199 228
176 198 228
175 198 228
175 198 228
175 198 228
175 198 228
175 198 228
175 198 228
175 198 228
175 198 228
174 198 228
174 198 228
174 198 228
174 198 228
174 198 228
174 197 228
174 197 228
173 197 228
173 197 228
173 197 228
173 197 228
173 197 228
173 197 228
173 197 228
173 197 228
173 197 228
172 197 228
172 197 228
172 197 228
172 197 228
172 197 228
172 197 228
172 196 228
172 196 228
172 196 228
172 196 228
172 196 228
172 196 228
171 196 228
171 196 228
171 196 228
171 196 228
171 196 228
171 196 228
171 196 228
171 196 228
171 196 228
171 196 228
171 196 228
171 196 228
171 196 228
171 196 228
171 196 228
171 196 228
171 196 228
171 196 228
171 196 228
172 196 228
172 196 228
172 196 228
172 196 228
172 197 228
172 197 228
172 197 228
173 197 228
173 197 228
173 197 228
174 197 228
174 198 228
174 198 228
175 198 228
175 198 228
176 199 228
177 199 228
177 199 228
178 200 228
179 200 228
180 201 228
182 202 228
184 203 228
195 213 237
213 231 255
213 231 255
213 231 255
213 231 255
213 231 255
213 231 255
213 231 255
213 231 255
213 231 255
213 231 255
213 231 255
213 231 255
213 231 255
213 231 255
207 225 251
83 112 172
60 96 164
59 94 154
61 96 159
61 97 165
60 96 161
61 96 163
59 95 154
61 97 160
61 96 158
60 96 159
61 96 157
61 97 159
60 95 156
62 97 162
63 98 162
61 96 151
62 97 157
61 96 153
61 96 158
63 99 163
62 98 162
61 97 156
61 97 156
61 96 156
62 98 160
61 97 151
60 96 154
62 98 152
62 98 159
62 97 159
62 97 154
62 97 152
62 98 157
61 97 156
61 96 151
60 96 151
61 96 154
61 97 157
61 97 151
61 97 152
62 98 155
60 96 149
62 98 159
61 97 150
63 99 164
61 96 153
60 96 148
61 97 153
61 97 153
61 97 154
61 96 145
61 97 151
62 98 160
62 98 159
61 97 157
61 96 154
60 95 147
61 97 157
62 98 156
62 98 161
60 96 153
62 97 157
62 97 157
61 96 150
62 98 161
60 96 148
61 97 156
61 97 158
61 97 159
61 97 155
62 98 168
60 95 151
61 97 155
61 97 160
60 95 152
61 96 159
61 96 157
60 96 157
60 95 158
60 96 160
60 95 155
60 96 160
60 95 160
61 96 161
59 94 155
59 94 160
76 106 165
207 225 251
213 231 255
213 231 255
213 231 255
213 231 255
213 231 255
213 231 255
213 231 255
213 231 255
213 231 255
213 231 255
213 231 255
213 231 255
213 231 255
213 231 255
193 210 234
184 203 228
182 202 228
180 201 228
179 200 228
178 200 228
177 199 228
177 199 228
176 199 228
175 198 228
175 198 228
174 198 228
174 198 228
174 197 228
173 197 228
173 197 228
173 197 228
172 197 228
172 197 228
172 197 228
172 196 228
172 196 228
172 196 228
172 196 228
171 196 228
171 196 228
171 196 228
171 196 228
171 196 228
171 196 228
171 196 228
171 196 228
171 196 228
171 196 228
171 196 228
171 196 228
171 196 228
171 196 228
171 196 228
171 196 228
171 196 228
171 196 228
171 196 228
172 196 228
172 196 228
172 196 228
172 196 228
172 196 228
172 196 228
172 197 228
172 197 228
172 197 228
172 197 228
172 197 228
172 197 228
173 197 228
173 197 228
173 197 228
173 197 228
173 197 228
173 197 228
173 197 228
173 197 228
173 197 228
174 197 228
174 197 228
174 198 228
174 198 228
174 198 228
174 198 228
174 198 228
175 198 228
175 198 228
175 198 228
175 198 228
175 198 228
175 198 228
175 198 228
175 198 228
176 198 228
176 199 228
176 199 228
176 199 228
176 199 228
176 199 228
176 199 228
177 199 228
177 199 228
177 199 228
177 199 228
177 199 228
177 199 228
177 199 228
178 200 228
178 200 228
178 200 228
178 200 228
178 200 228
178 200 228
178 200 228
179 200 228
179 200 228
179 200 228
179 200 228
179 200 228
179 200 228
179 200 228
180 201 228
180 201 228
180 201 228
180 201 228
180 201 228
180 201 228
180 201 228
181 201 228
181 201 228
181 201 228
181 201 228
181 201 228
181 201 228
181 202 228
182 202 228
182 202 228
182 202 228
182 202 228
182 202 228
182 202 228
182 202 228
183 202 228
183 202 228
183 202 228
183 202 228
183 203 228
183 203 228
183 203 228
184 203 228
184 203 228
184 203 228
184 203 228
184 203 228
184 203 228
185 203 228
185 203 228
185 203 228
184 203 228
184 203 228
184 203 228
184 203 228
184 203 228
184 203 228
184 203 228
183 203 228
183 203 228
183 202 228
183 202 228
183 202 228
183 202 228
183 202 228
182 202 228
182 202 228
182 202 228
182 202 228
182 202 228
182 202 228
182 202 228
181 202 228
181 201 228
181 201 228
181 201 228
181 201 228
181 201 228
181 201 228
180 201 228
180 201 228
180 201 228
180 201 228
180 201 228
180 201 228
180 201 228
179 201 228
179 200 228
179 200 228
179 200 228
179 200 228
179 200 228
179 200 228
179 200 228
178 200 228
178 200 228
178 200 228
178 200 228
178 200 228
178 200 228
178 199 228
177 199 228
177 199 228
177 199 228
177 199 228
177 199 228
177 199 228
177 199 228
176 199 228
176 199 228
176 199 228
176 199 228
176 199 228
176 199 228
176 198 228
176 198 228
175 198 228
175 198 228
175 198 228
175 198 228
175 198 228
175 198 228
175 198 228
175 198 228
174 198 228
174 198 228
174 198 228
174 198 228
174 198 228
174 198 228
174 197 228
174 197 228
174 197 228
173 197 228
173 197 228
173 197 228
173 197 228
173 197 228
173 197 228
173 197 228
173 197 228
173 197 228
173 197 228
173 197 228
172 197 228
172 197 228
172 197 228
172 197 228
172 197 228
172 197 228
172 197 228
172 197 228
172 197 228
172 197 228
172 197 228
172 197 228
172 197 228
172 197 228
172 197 228
172 196 228
172 197 228
172 197 228
172 197 228
172 197 228
172 197 228
172 197 228
172 197 228
172 197 228
173 197 228
173 197 228
173 197 228
173 197 228
173 197 228
174 197 228
174 198 228
174 198 228
174 198 228
175 198 228
175 198 228
176 198 228
176 199 228
177 199 228
177 199 228
178 200 228
179 200 228
180 201 228
181 202 228
183 202 228
185 204 228
202 220 243
214 231 255
214 231 255
214 231 255
214 231 255
214 231 255
214 231 255
214 231 255
214 231 255
214 231 255
214 231 255
213 231 255
213 231 255
213 231 255
151 172 213
59 94 160
60 95 160
60 95 159
59 94 158
60 96 156
60 96 165
61 97 162
61 96 153
60 96 150
61 97 162
61 96 159
61 96 155
60 96 154
61 97 160
61 97 156
61 96 157
61 97 160
61 97 157
61 96 150
61 97 152
62 98 157
62 98 163
60 96 151
61 96 146
61 97 153
61 96 154
61 97 154
62 97 155
62 98 158
61 97 153
62 97 155
61 97 155
61 96 151
61 97 154
62 97 156
62 98 159
60 95 151
61 97 154
61 97 159
60 96 145
62 97 151
61 97 152
62 97 158
62 97 157
62 98 158
61 97 159
62 97 151
61 96 149
61 97 151
62 97 154
61 97 153
62 97 158
62 98 163
62 98 159
61 97 147
61 96 152
62 97 157
61 97 155
61 97 155
61 97 154
62 97 161
61 97 156
62 98 164
62 97 156
61 96 151
61 97 156
61 96 156
61 97 160
61 97 161
60 96 151
61 96 152
61 97 160
60 95 145
60 95 159
61 96 153
61 96 156
61 96 160
60 96 153
62 97 155
61 96 157
60 95 155
62 97 157
60 95 159
61 96 157
60 95 164
61 97 168
58 94 158
59 94 160
152 173 211
213 231 255
213 231 255
213 231 255
214 231 255
214 231 255
214 231 255
214 231 255
214 231 255
214 231 255
214 231 255
214 231 255
214 231 255
214 231 255
203 220 244
186 204 228
183 202 228
181 202 228
180 201 228
179 200 228
178 200 228
177 199 228
177 199 228
176 199 228
176 199 228
175 198 228
175 198 228
174 198 228
174 198 228
174 197 228
174 197 228
173 197 228
173 197 228
173 197 228
173 197 228
173 197 228
173 197 228
172 197 228
172 197 228
172 197 228
172 197 228
172 197 228
172 197 228
172 197 228
172 197 228
172 197 228
172 196 228
172 197 228
172 197 228
172 197 228
172 197 228
172 197 228
172 197 228
172 197 228
172 197 228
172 197 228
172 197 228
172 197 228
172 197 228
172 197 228
173 197 228
173 197 228
173 197 228
173 197 228
173 197 228
173 197 228
173 197 228
173 197 228
173 197 228
173 197 228
173 197 228
174 197 228
174 197 228
174 197 228
174 198 228
174 198 228
174 198 228
174 198 228
174 198 228
174 198 228
175 198 228
175 198 228
175 198 228
175 198 228
175 198 228
175 198 228
175 198 228
175 198 228
176 198 228
176 199 228
176 199 228
176 199 228
176 199 228
176 199 228
176 199 228
176 199 228
177 199 228
177 199 228
177 199 228
177 199 228
177 199 228
177 199 228
177 199 228
178 199 228
178 200 228
178 200 228
178 200 228
178 200 228
178 200 228
178 200 228
179 200 228
179 200 228
179 200 228
179 200 228
179 200 228
179 200 228
179 200 228
180 201 228
180 201 228
180 201 228
180 201 228
180 201 228
180 201 228
180 201 228
180 201 228
181 201 228
181 201 228
181 201 228
181 201 228
181 201 228
181 201 228
181 202 228
182 202 228
182 202 228
182 202 228
182 202 228
182 202 228
182 202 228
182 202 228
183 202 228
183 202 228
183 202 228
183 202 228
183 202 228
183 203 228
183 203 228
184 203 228
184 203 228
184 203 228
184 203 228
184 203 228
184 203 228
184 203 228
185 203 228
185 203 228
185 203 228
185 204 228
185 204 228
185 203 228
185 203 228
185 203 228
185 203 228
184 203 228
184 203 228
184 203 228
184 203 228
184 203 228
184 203 228
184 203 228
183 203 228
183 203 228
183 203 228
183 202 228
183 202 228
183 202 228
183 202 228
183 202 228
182 202 228
182 202 228
182 202 228
182 202 228
182 202 228
182 202 228
182 202 228
181 202 228
181 202 228
181 201 228
181 201 228
181 201 228
181 201 228
181 201 228
181 201 228
180 201 228
180 201 228
180 201 228
180 201 228
180 201 228
180 201 228
180 201 228
180 201 228
179 200 228
179 200 228
179 200 228
179 200 228
179 200 228
179 200 228
179 200 228
178 200 228
178 200 228
178 200 228
178 200 228
178 200 228
178 200 228
178 200 228
178 200 228
177 199 228
177 199 228
177 199 228
177 199 228
177 199 228
177 199 228
177 199 228
177 199 228
176 199 228
176 199 228
176 199 228
176 199 228
176 199 228
176 199 228
176 198 228
176 198 228
175 198 228
175 198 228
175 198 228
175 198 228
175 198 228
175 198 228
175 198 228
175 198 228
175 198 228
174 198 228
174 198 228
174 198 228
174 198 228
174 198 228
174 198 228
174 198 228
174 197 228
174 197 228
174 197 228
173 197 228
173 197 228
173 197 228
173 197 228
173 197 228
173 197 228
173 197 228
173 197 228
173 197 228
173 197 228
173 197 228
173 197 228
173 197 228
173 197 228
173 197 228
173 197 228
173 197 228
173 197 228
173 197 228
173 197 228
173 197 228
173 197 228
173 197 228
173 197 228
173 197 228
173 197 228
173 197 228
174 197 228
174 197 228
174 198 228
174 198 228
174 198 228
174 198 228
175 198 228
175 198 228
175 198 228
176 199 228
176 199 228
177 199 228
177 199 228
178 200 228
178 200 228
179 200 228
180 201 228
181 201 228
182 202 228
184 203 228
188 206 230
212 229 253
214 231 255
214 231 255
214 231 255
214 231 255
214 231 255
214 231 255
214 231 255
214 231 255
214 231 255
214 231 255
214 231 255
206 223 249
68 99 162
57 92 160
62 97 169
58 93 154
60 95 154
60 96 159
61 96 158
61 96 152
59 94 148
60 95 157
60 96 155
61 96 150
62 97 157
60 96 146
60 95 155
62 97 157
62 98 163
61 96 151
60 96 151
61 96 151
61 96 150
61 97 155
62 98 156
61 96 151
62 98 157
62 98 158
60 96 149
61 97 155
61 96 147
62 97 153
61 97 158
61 96 145
62 97 152
60 96 149
62 98 160
62 97 153
62 97 151
61 96 147
61 96 147
62 97 158
62 98 160
62 97 158
61 96 153
60 96 144
61 97 151
62 98 159
60 96 149
61 97 155
62 97 158
62 97 149
62 98 151
61 96 150
62 98 162
63 99 158
61 96 147
62 98 159
62 98 161
61 97 151
62 98 160
61 97 153
61 96 152
61 97 159
61 97 155
61 97 157
61 96 154
61 97 151
61 97 159
61 97 155
61 97 155
62 97 154
62 98 158
60 96 153
61 97 157
61 97 155
60 95 150
61 96 156
61 97 166
61 97 157
61 97 155
61 96 157
59 94 147
61 96 156
59 95 156
60 95 155
61 96 156
60 96 161
60 95 161
60 95 163
60 96 163
68 100 167
207 224 250
214 231 255
214 231 255
214 231 255
214 231 255
214 231 255
214 231 255
214 231 255
214 231 255
214 231 255
214 231 255
214 231 255
211 229 253
189 206 230
184 203 228
182 202 228
181 201 228
180 201 228
179 200 228
178 200 228
178 200 228
177 199 228
177 199 228
176 199 228
176 198 228
175 198 228
175 198 228
175 198 228
174 198 228
174 198 228
174 198 228
174 198 228
174 197 228
174 197 228
173 197 228
173 197 228
173 197 228
173 197 228
173 197 228
173 197 228
173 197 228
173 197 228
173 197 228
173 197 228
173 197 228
173 197 228
173 197 228
173 197 228
173 197 228
173 197 228
173 197 228
173 197 228
173 197 228
173 197 228
173 197 228
173 197 228
173 197 228
173 197 228
173 197 228
173 197 228
173 197 228
174 197 228
174 197 228
174 197 228
174 198 228
174 198 228
174 198 228
174 198 228
174 198 228
174 198 228
174 198 228
175 198 228
175 198 228
175 198 228
175 198 228
175 198 228
175 198 228
175 198 228
175 198 228
175 198 228
176 198 228
176 198 228
176 199 228
176 199 228
176 199 228
176 199 228
176 199 228
176 199 228
176 199 228
177 199 228
177 199 228
177 199 228
177 199 228
177 199 228
177 199 228
177 199 228
178 199 228
178 200 228
178 200 228
178 200 228
178 200 228
178 200 228
178 200 228
178 200 228
179 200 228
179 200 228
179 200 228
179 200 228
179 200 228
179 200 228
179 200 228
179 201 228
180 201 228
180 201 228
180 201 228
180 201 228
180 201 228
180 201 228
180 201 228
181 201 228
181 201 228
181 201 228
181 201 228
181 201 228
181 201 228
181 202 228
181 202 228
182 202 228
182 202 228
182 202 228
182 202 228
182 202 228
182 202 228
182 202 228
183 202 228
183 202 228
183 202 228
183 202 228
183 202 228
183 203 228
183 203 228
183 203 228
184 203 228
184 203 228
184 203 228
184 203 228
184 203 228
184 203 228
184 203 228
185 203 228
185 203 228
185 203 228
185 203 228
185 204 228
185 204 228
186 204 228
186 204 228
185 204 228
185 204 228
185 204 228
185 204 228
185 203 228
185 203 228
185 203 228
185 203 228
184 203 228
184 203 228
184 203 228
184 203 228
184 203 228
184 203 228
184 203 228
183 203 228
183 203 228
183 203 228
183 202 228
183 202 228
183 202 228
183 202 228
183 202 228
182 202 228
182 202 228
182 202 228
182 202 228
182 202 228
182 202 228
182 202 228
182 202 228
181 202 228
181 202 228
181 201 228
181 201 228
181 201 228
181 201 228
181 201 228
181 201 228
180 201 228
180 201 228
180 201 228
180 201 228
180 201 228
180 201 228
180 201 228
180 201 228
179 200 228
179 200 228
179 200 228
179 200 228
179 200 228
179 200 228
179 200 228
179 200 228
178 200 228
178 200 228
178 200 228
178 200 228
178 200 228
178 200 228
178 200 228
178 199 228
177 199 228
177 199 228
177 199 228
177 199 228
177 199 228
177 199 228
177 199 228
177 199 228
176 199 228
176 199 228
176 199 228
176 199 228
176 199 228
176 199 228
176 199 228
176 199 228
176 198 228
176 198 228
175 198 228
175 198 228
175 198 228
175 198 228
175 198 228
175 198 228
175 198 228
175 198 228
175 198 228
175 198 228
175 198 228
174 198 228
174 198 228
174 198 228
174 198 228
174 198 228
174 198 228
174 198 228
174 198 228
174 198 228
174 198 228
174 197 228
174 197 228
174 197 228
174 197 228
174 197 228
174 197 228
174 197 228
174 197 228
174 197 228
174 197 228
174 197 228
174 197 228
174 198 228
174 198 228
174 198 228
174 198 228
174 198 228
174 198 228
174 198 228
175 198 228
175 198 228
175 198 228
175 198 228
175 198 228
176 198 228
176 199 228
176 199 228
177 199 228
177 199 228
178 199 228
178 200 228
179 200 228
179 200 228
180 201 228
181 201 228
182 202 228
184 203 228
186 204 228
196 214 237
214 232 255
214 232 255
214 232 255
214 232 255
214 232 255
214 232 255
214 232 255
214 232 255
214 232 255
214 232 255
214 232 255
135 156 196
59 94 155
59 94 162
59 94 158
59 94 154
60 95 156
59 94 150
60 95 152
60 95 151
61 96 158
62 97 164
60 95 147
61 96 154
61 96 150
62 97 153
61 96 152
61 96 147
60 96 156
61 96 157
61 97 156
62 97 162
61 97 156
61 96 147
61 97 160
61 97 159
61 97 156
61 96 155
61 96 145
61 97 160
61 97 160
61 97 155
61 96 153
61 97 152
61 97 150
61 97 152
61 97 149
62 98 161
61 96 149
61 97 154
61 97 149
62 98 156
61 97 153
61 97 157
61 97 152
62 97 158
61 97 153
62 98 158
60 96 145
60 96 139
61 96 145
61 97 151
62 98 155
62 97 153
61 97 152
62 97 155
62 98 155
62 98 160
61 96 151
61 97 155
62 98 158
61 97 151
61 96 146
61 96 151
60 95 148
61 96 150
61 96 155
61 97 159
62 98 158
61 97 158
62 98 163
60 95 149
61 97 151
61 97 160
62 98 158
61 97 151
60 96 147
61 96 145
61 96 149
61 97 156
61 96 160
60 95 152
61 96 156
60 95 146
60 95 151
60 95 152
62 97 159
58 93 146
59 95 151
60 95 161
60 96 163
60 95 165
141 162 207
214 232 255
214 232 255
214 232 255
214 232 255
214 232 255
214 232 255
214 232 255
214 232 255
214 232 255
214 232 255
214 232 255
196 213 237
186 204 228
184 203 228
182 202 228
181 201 228
180 201 228
179 200 228
179 200 228
178 200 228
178 199 228
177 199 228
177 199 228
176 199 228
176 199 228
176 198 228
175 198 228
175 198 228
175 198 228
175 198 228
175 198 228
174 198 228
174 198 228
174 198 228
174 198 228
174 198 228
174 198 228
174 198 228
174 197 228
174 197 228
174 197 228
174 197 228
174 197 228
174 197 228
174 197 228
174 197 228
174 197 228
174 197 228
174 197 228
174 197 228
174 198 228
174 198 228
174 198 228
174 198 228
174 198 228
174 198 228
174 198 228
174 198 228
174 198 228
174 198 228
175 198 228
175 198 228
175 198 228
175 198 228
175 198 228
175 198 228
175 198 228
175 198 228
175 198 228
175 198 228
175 198 228
175 198 228
176 198 228
176 199 228
176 199 228
176 199 228
176 199 228
176 199 228
176 199 228
176 199 228
177 199 228
177 199 228
177 199 228
177 199 228
177 199 228
177 199 228
177 199 228
177 199 228
177 199 228
178 199 228
178 200 228
178 200 228
178 200 228
178 200 228
178 200 228
178 200 228
178 200 228
179 200 228
179 200 228
179 200 228
179 200 228
179 200 228
179 200 228
179 200 228
179 201 228
180 201 228
180 201 228
180 201 228
180 201 228
180 201 228
180 201 228
180 201 228
180 201 228
181 201 228
181 201 228
181 201 228
181 201 228
181 201 228
181 201 228
181 202 228
181 202 228
182 202 228
182 202 228
182 202 228
182 202 228
182 202 228
182 202 228
182 202 228
182 202 228
183 202 228
183 202 228
183 202 228
183 202 228
183 202 228
183 203 228
183 203 228
183 203 228
184 203 228
184 203 228
184 203 228
184 203 228
184 203 228
184 203 228
184 203 228
184 203 228
185 203 228
185 203 228
185 203 228
185 204 228
185 204 228
185 204 228
185 204 228
186 204 228
186 204 228
186 204 228
186 204 228
186 204 228
186 204 228
186 204 228
186 204 228
185 204 228
185 204 228
185 204 228
185 204 228
185 203 228
185 203 228
185 203 228
185 203 228
184 203 228
184 203 228
184 203 228
184 203 228
184 203 228
184 203 228
184 203 228
184 203 228
183 203 228
183 203 228
183 203 228
183 202 228
183 202 228
183 202 228
183 202 228
183 202 228
182 202 228
182 202 228
182 202 228
182 202 228
182 202 228
182 202 228
182 202 228
182 202 228
182 202 228
181 202 228
181 201 228
181 201 228
181 201 228
181 201 228
181 201 228
181 201 228
181 201 228
180 201 228
180 201 228
180 201 228
180 201 228
180 201 228
180 201 228
180 201 228
180 201 228
179 200 228
179 200 228
179 200 228
179 200 228
179 200 228
179 200 228
179 200 228
179 200 228
178 200 228
178 200 228
178 200 228
178 200 228
178 200 228
178 200 228
178 200 228
178 200 228
178 200 228
177 199 228
177 199 228
177 199 228
177 199 228
177 199 228
177 199 228
177 199 228
177 199 228
177 199 228
177 199 228
176 199 228
176 199 228
176 199 228
176 199 228
176 199 228
176 199 228
176 199 228
176 199 228
176 198 228
176 198 228
176 198 228
175 198 228
175 198 228
175 198 228
175 198 228
175 198 228
175 198 228
175 198 228
175 198 228
175 198 228
175 198 228
175 198 228
175 198 228
175 198 228
175 198 228
175 198 228
175 198 228
175 198 228
175 198 228
175 198 228
175 198 228
175 198 228
175 198 228
175 198 228
175 198 228
175 198 228
175 198 228
175 198 228
175 198 228
175 198 228
175 198 228
175 198 228
176 198 228
176 198 228
176 199 228
176 199 228
176 199 228
177 199 228
177 199 228
177 199 228
178 200 228
178 200 228
178 200 228
179 200 228
180 201 228
180 201 228
181 201 228
182 202 228
183 203 228
185 203 228
187 205 228
211 228 252
215 232 255
215 232 255
215 232 255
214 232 255
214 232 255
214 232 255
214 232 255
214 232 255
214 232 255
198 216 243
62 95 163
57 91 154
58 93 158
60 95 163
60 95 152
61 96 161
60 95 153
59 95 156
61 96 155
60 95 156
62 97 160
60 95 151
60 96 154
61 96 156
61 96 150
60 96 154
61 96 154
62 97 160
61 96 151
61 96 147
62 98 159
60 95 142
61 97 154
61 97 153
60 95 144
61 96 153
61 97 153
63 98 157
61 97 151
62 97 156
60 94 144
62 98 159
62 98 159
62 97 154
61 96 148
62 97 155
60 96 152
62 98 159
61 97 153
61 96 150
61 96 148
61 96 143
61 96 148
61 97 153
61 97 158
62 97 158
62 98 150
61 97 155
63 99 158
61 97 149
62 98 154
61 96 146
61 96 150
60 96 149
63 99 165
62 98 162
61 97 158
61 97 155
61 97 152
61 97 151
62 98 154
63 98 158
61 97 150
61 96 155
61 96 152
62 98 160
61 97 155
60 96 148
61 96 147
62 97 157
61 96 151
60 95 141
61 97 164
62 97 154
61 96 154
60 95 154
60 95 148
61 97 160
61 97 158
60 95 144
61 96 156
61 96 162
60 95 156
61 97 161
59 94 149
60 96 162
61 96 160
58 93 153
59 94 159
57 92 154
58 93 156
55 89 155
196 213 242
214 232 255
214 232 255
214 232 255
214 232 255
214 232 255
214 232 255
215 232 255
215 232 255
215 232 255
208 225 248
187 205 228
185 203 228
183 203 228
182 202 228
181 201 228
180 201 228
180 201 228
179 200 228
178 200 228
178 200 228
178 200 228
177 199 228
177 199 228
177 199 228
176 199 228
176 199 228
176 199 228
176 198 228
176 198 228
175 198 228
175 198 228
175 198 228
175 198 228
175 198 228
175 198 228
175 198 228
175 198 228
175 198 228
175 198 228
175 198 228
175 198 228
175 198 228
175 198 228
175 198 228
175 198 228
175 198 228
175 198 228
175 198 228
175 198 228
175 198 228
175 198 228
175 198 228
175 198 228
175 198 228
175 198 228
175 198 228
175 198 228
175 198 228
175 198 228
175 198 228
176 198 228
176 198 228
176 198 228
176 199 228
176 199 228
176 199 228
176 199 228
176 199 228
176 199 228
176 199 228
176 199 228
176 199 228
177 199 228
177 199 228
177 199 228
177 199 228
177 199 228
177 199 228
177 199 228
177 199 228
177 199 228
178 199 228
178 200 228
178 200 228
178 200 228
178 200 228
178 200 228
178 200 228
178 200 228
178 200 228
179 200 228
179 200 228
179 200 228
179 200 228
179 200 228
179 200 228
179 200 228
179 201 228
180 201 228
180 201 228
180 201 228
180 201 228
180 201 228
180 201 228
180 201 228
180 201 228
181 201 228
181 201 228
181 201 228
181 201 228
181 201 228
181 201 228
181 201 228
181 202 228
182 202 228
182 202 228
182 202 228
182 202 228
182 202 228
182 202 228
182 202 228
182 202 228
182 202 228
183 202 228
183 202 228
183 202 228
183 202 228
183 202 228
183 203 228
183 203 228
183 203 228
184 203 228
184 203 228
184 203 228
184 203 228
184 203 228
184 203 228
184 203 228
184 203 228
185 203 228
185 203 228
185 203 228
185 203 228
185 204 228
185 204 228
185 204 228
185 204 228
186 204 228
186 204 228
186 204 228
186 204 228
186 204 228
186 204 228
187 204 228
187 204 228
186 204 228
186 204 228
186 204 228
186 204 228
186 204 228
186 204 228
186 204 228
186 204 228
185 204 228
185 204 228
185 204 228
185 204 228
185 204 228
185 203 228
185 203 228
185 203 228
185 203 228
184 203 228
184 203 228
184 203 228
184 203 228
184 203 228
184 203 228
184 203 228
184 203 228
183 203 228
183 203 228
183 203 228
183 202 228
183 202 228
183 202 228
183 202 228
183 202 228
183 202 228
182 202 228
182 202 228
182 202 228
182 202 228
182 202 228
182 202 228
182 202 228
182 202 228
181 202 228
181 202 228
181 201 228
181 201 228
181 201 228
181 201 228
181 201 228
181 201 228
181 201 228
180 201 228
180 201 228
180 201 228
180 201 228
180 201 228
180 201 228
180 201 228
180 201 228
180 201 228
179 200 228
179 200 228
179 200 228
179 200 228
179 200 228
179 200 228
179 200 228
179 200 228
179 200 228
178 200 228
178 200 228
178 200 228
178 200 228
178 200 228
178 200 228
178 200 228
178 200 228
178 200 228
178 199 228
177 199 228
177 199 228
177 199 228
177 199 228
177 199 228
177 199 228
177 199 228
177 199 228
177 199 228
177 199 228
177 199 228
176 199 228
176 199 228
176 199 228
176 199 228
176 199 228
176 199 228
176 199 228
176 199 228
176 199 228
176 199 228
176 199 228
176 198 228
176 198 228
176 198 228
176 198 228
176 198 228
176 198 228
176 198 228
176 198 228
176 198 228
176 198 228
176 198 228
176 198 228
176 198 228
176 198 228
176 198 228
176 199 228
176 199 228
176 199 228
176 199 228
176 199 228
176 199 228
176 199 228
176 199 228
177 199 228
177 199 228
177 199 228
177 199 228
178 199 228
178 200 228
178 200 228
179 200 228
179 200 228
179 200 228
180 201 228
181 201 228
181 202 228
182 202 228
183 203 228
184 203 228
186 204 228
194 211 234
215 232 255
215 232 255
215 232 255
215 232 255
215 232 255
215 232 255
215 232 255
215 232 255
215 232 255
156 175 211
59 94 162
59 94 158
61 96 160
59 94 157
59 94 154
58 93 150
59 94 153
60 96 156
60 95 149
61 97 157
60 95 153
61 97 156
60 95 149
61 96 155
61 96 150
62 97 158
61 96 149
60 95 146
62 97 156
61 96 148
61 96 149
62 98 159
61 97 153
60 95 144
61 96 152
61 96 150
61 97 152
61 95 147
60 96 148
61 97 152
61 96 150
62 97 156
61 96 153
61 97 152
62 97 153
61 97 152
62 98 159
60 96 153
61 97 154
61 96 145
61 96 146
61 96 152
61 96 145
61 96 144
61 96 150
61 96 149
61 96 149
60 95 140
62 97 154
61 97 150
61 96 145
61 96 149
61 97 150
62 97 153
61 97 148
60 96 153
62 97 154
61 96 152
62 97 157
60 95 142
61 97 158
62 97 154
61 97 154
60 95 149
62 98 157
61 96 148
60 95 147
61 96 152
61 96 150
60 95 146
62 97 155
60 96 148
61 97 154
62 97 159
60 95 145
61 96 151
60 95 145
60 96 148
60 95 154
60 96 148
60 95 149
61 96 156
61 96 148
60 95 154
60 96 153
60 95 157
59 95 152
60 95 159
60 95 155
57 92 147
59 93 157
58 92 162
138 158 200
215 232 255
215 232 255
215 232 255
215 232 255
215 232 255
215 232 255
215 232 255
215 232 255
215 232 255
193 210 233
186 204 228
184 203 228
183 203 228
182 202 228
181 202 228
181 201 228
180 201 228
179 201 228
179 200 228
179 200 228
178 200 228
178 200 228
178 199 228
177 199 228
177 199 228
177 199 228
177 199 228
176 199 228
176 199 228
176 199 228
176 199 228
176 199 228
176 199 228
176 199 228
176 199 228
176 198 228
176 198 228
176 198 228
176 198 228
176 198 228
175 198 228
176 198 228
176 198 228
176 198 228
176 198 228
176 198 228
176 198 228
176 198 228
176 198 228
176 199 228
176 199 228
176 199 228
176 199 228
176 199 228
176 199 228
176 199 228
176 199 228
176 199 228
176 199 228
176 199 228
176 199 228
176 199 228
177 199 228
177 199 228
177 199 228
177 199 228
177 199 228
177 199 228
177 199 228
177 199 228
177 199 228
177 199 228
177 199 228
178 199 228
178 200 228
178 200 228
178 200 228
178 200 228
178 200 228
178 200 228
178 200 228
178 200 228
179 200 228
179 200 228
179 200 228
179 200 228
179 200 228
179 200 228
179 200 228
179 200 228
179 201 228
180 201 228
180 201 228
180 201 228
180 201 228
180 201 228
180 201 228
180 201 228
180 201 228
180 201 228
181 201 228
181 201 228
181 201 228
181 201 228
181 201 228
181 201 228
181 202 228
181 202 228
182 202 228
182 202 228
182 202 228
182 202 228
182 202 228
182 202 228
182 202 228
182 202 228
182 202 228
183 202 228
183 202 228
183 202 228
183 202 228
183 202 228
183 202 228
183 203 228
183 203 228
183 203 228
184 203 228
184 203 228
184 203 228
184 203 228
184 203 228
184 203 228
184 203 228
184 203 228
185 203 228
185 203 228
185 203 228
185 203 228
185 203 228
185 204 228
185 204 228
185 204 228
185 204 228
186 204 228
186 204 228
186 204 228
186 204 228
186 204 228
186 204 228
186 204 228
186 204 228
187 204 228
187 204 228
187 205 228
187 205 228
187 205 228
187 204 228
187 204 228
187 204 228
186 204 228
186 204 228
186 204 228
186 204 228
186 204 228
186 204 228
186 204 228
186 204 228
186 204 228
185 204 228
185 204 228
185 204 228
185 204 228
185 204 228
185 203 228
185 203 228
185 203 228
185 203 228
184 203 228
184 203 228
184 203 228
184 203 228
184 203 228
184 203 228
184 203 228
184 203 228
184 203 228
183 203 228
183 203 228
183 203 228
183 202 228
183 202 228
183 202 228
183 202 228
183 202 228
183 202 228
182 202 228
182 202 228
182 202 228
182 202 228
182 202 228
182 202 228
182 202 228
182 202 228
182 202 228
181 202 228
181 202 228
181 201 228
181 201 228
181 201 228
181 201 228
181 201 228
181 201 228
181 201 228
180 201 228
180 201 228
180 201 228
180 201 228
180 201 228
180 201 228
180 201 228
180 201 228
180 201 228
180 201 228
179 200 228
179 200 228
179 200 228
179 200 228
179 200 228
179 200 228
179 200 228
179 200 228
179 200 228
179 200 228
178 200 228
178 200 228
178 200 228
178 200 228
178 200 228
178 200 228
178 200 228
178 200 228
178 200 228
178 200 228
178 199 228
177 199 228
177 199 228
177 199 228
177 199 228
177 199 228
177 199 228
177 199 228
177 199 228
177 199 228
177 199 228
177 199 228
177 199 228
177 199 228
177 199 228
177 199 228
177 199 228
177 199 228
177 199 228
176 199 228
176 199 228
176 199 228
176 199 228
176 199 228
176 199 228
176 199 228
177 199 228
177 199 228
177 199 228
177 199 228
177 199 228
177 199 228
177 199 228
177 199 228
177 199 228
177 199 228
177 199 228
158 180 214
131 154 196
93 118 173
87 113 171
78 106 166
93 118 173
116 139 185
132 154 194
164 185 217
180 201 228
181 201 228
182 202 228
182 202 228
183 203 228
184 203 228
186 204 228
188 205 228
207 224 247
215 232 255
215 232 255
215 232 255
215 232 255
215 232 255
215 232 255
215 232 255
208 225 249
64 96 158
58 93 159
58 93 152
60 95 162
58 92 147
60 95 159
60 95 154
60 95 159
61 96 157
62 97 162
60 95 151
60 95 155
61 96 153
60 95 149
61 97 154
61 96 154
61 96 156
60 96 147
59 94 148
62 97 159
60 95 146
61 97 155
62 98 160
62 98 154
61 97 154
61 97 156
61 97 145
62 97 151
61 96 150
60 95 139
62 98 160
62 97 156
62 97 159
61 97 150
61 96 146
62 97 153
61 97 149
62 97 153
60 96 142
61 97 155
61 96 147
61 96 147
62 98 161
62 98 158
60 95 139
60 95 143
61 96 150
62 97 151
61 96 152
61 97 152
61 96 154
62 98 155
60 96 152
61 96 147
62 97 154
62 98 159
61 96 144
61 97 150
61 97 150
61 97 154
61 96 150
61 97 154
61 96 149
61 96 154
60 95 144
61 97 152
61 97 157
61 96 146
61 97 153
62 97 155
61 96 151
61 96 155
60 95 151
61 96 147
61 96 150
62 97 156
60 96 150
61 96 146
62 97 152
59 94 146
60 95 154
61 96 151
59 94 147
60 95 146
61 96 150
60 95 151
60 95 151
60 94 158
58 93 140
59 94 153
58 93 153
59 94 157
58 92 154
80 108 169
205 222 248
215 232 255
215 232 255
215 232 255
215 232 255
215 232 255
215 232 255
215 232 255
208 225 248
188 205 228
186 204 228
184 203 228
183 203 228
182 202 228
182 202 228
181 201 228
180 201 228
166 187 219
131 154 195
107 130 180
85 111 170
74 102 164
73 101 163
94 119 173
126 149 193
153 176 212
177 199 228
177 199 228
177 199 228
177 199 228
177 199 228
177 199 228
177 199 228
177 199 228
177 199 228
177 199 228
177 199 228
177 199 228
176 199 228
176 199 228
177 199 228
176 199 228
176 199 228
176 199 228
177 199 228
177 199 228
177 199 228
177 199 228
177 199 228
177 199 228
177 199 228
177 199 228
177 199 228
177 199 228
177 199 228
177 199 228
177 199 228
177 199 228
177 199 228
177 199 228
177 199 228
178 199 228
178 199 228
178 200 228
178 200 228
178 200 228
178 200 228
178 200 228
178 200 228
178 200 228
178 200 228
178 200 228
178 200 228
179 200 228
179 200 228
179 200 228
179 200 228
179 200 228
179 200 228
179 200 228
179 200 228
179 200 228
179 200 228
180 201 228
180 201 228
180 201 228
180 201 228
180 201 228
180 201 228
180 201 228
180 201 228
180 201 228
180 201 228
181 201 228
181 201 228
181 201 228
181 201 228
181 201 228
181 201 228
181 201 228
181 202 228
181 202 228
182 202 228
182 202 228
182 202 228
182 202 228
182 202 228
182 202 228
182 202 228
182 202 228
182 202 228
183 202 228
183 202 228
183 202 228
183 202 228
183 202 228
183 202 228
183 203 228
183 203 228
183 203 228
184 203 228
184 203 228
184 203 228
184 203 228
184 203 228
184 203 228
184 203 228
184 203 228
184 203 228
185 203 228
185 203 228
185 203 228
185 203 228
185 203 228
185 204 228
185 204 228
185 204 228
185 204 228
186 204 228
186 204 228
186 204 228
186 204 228
186 204 228
186 204 228
186 204 228
186 204 228
186 204 228
187 204 228
187 204 228
187 204 228
187 205 228
187 205 228
187 205 228
188 205 228
187 205 228
187 205 228
187 205 228
187 205 228
187 205 228
187 205 228
187 205 228
187 204 228
187 204 228
187 204 228
186 204 228
186 204 228
186 204 228
186 204 228
186 204 228
186 204 228
186 204 228
186 204 228
186 204 228
185 204 228
185 204 228
185 204 228
185 204 228
185 204 228
185 203 228
185 203 228
185 203 228
185 203 228
185 203 228
184 203 228
184 203 228
184 203 228
184 203 228
184 203 228
184 203 228
184 203 228
184 203 228
184 203 228
183 203 228
183 203 228
183 203 228
183 203 228
183 202 228
183 202 228
183 202 228
183 202 228
183 202 228
183 202 228
182 202 228
182 202 228
182 202 228
182 202 228
182 202 228
182 202 228
182 202 228
182 202 228
182 202 228
181 202 228
181 202 228
181 202 228
181 201 228
181 201 228
181 201 228
181 201 228
181 201 228
181 201 228
181 201 228
180 201 228
180 201 228
180 201 228
180 201 228
180 201 228
180 201 228
180 201 228
180 201 228
180 201 228
180 201 228
180 201 228
179 200 228
179 200 228
179 200 228
179 200 228
179 200 228
179 200 228
179 200 228
179 200 228
179 200 228
179 200 228
179 200 228
179 200 228
178 200 228
178 200 228
178 200 228
178 200 228
178 200 228
178 200 228
178 200 228
178 200 228
178 200 228
178 200 228
178 200 228
178 200 228
178 200 228
178 200 228
178 199 228
178 199 228
178 199 228
177 199 228
177 199 228
177 199 228
177 199 228
177 199 228
177 199 228
177 199 228
177 199 228
177 199 228
178 199 228
178 199 228
178 200 228
178 200 228
178 200 228
178 200 228
178 200 228
178 200 228
147 169 206
93 119 174
54 87 156
55 87 154
54 87 156
54 87 152
54 86 156
53 85 152
54 86 155
53 85 154
53 85 154
99 122 173
157 177 211
182 202 228
183 202 228
183 203 228
184 203 228
186 204 228
187 205 228
194 210 233
215 232 255
215 232 255
215 232 255
215 232 255
215 232 255
215 232 255
215 232 255
168 186 217
57 91 154
60 95 161
57 91 149
59 93 154
58 92 150
59 95 155
58 93 147
58 93 147
60 95 153
61 97 161
61 97 159
61 97 152
60 96 155
61 97 160
60 95 142
61 96 155
61 96 149
61 97 155
61 96 152
61 97 153
60 96 150
61 97 151
61 96 156
62 98 159
62 97 157
61 96 147
61 96 149
61 97 151
60 96 143
62 97 155
60 95 146
60 95 148
61 96 152
61 96 143
62 97 155
61 96 147
62 97 151
62 97 155
61 96 148
63 98 159
61 97 151
61 96 149
62 97 152
60 95 143
61 97 153
61 97 149
60 95 141
61 96 144
61 96 146
61 96 151
60 95 140
61 96 150
60 95 145
61 97 151
61 97 149
61 96 151
62 98 152
61 97 152
60 95 143
60 95 144
61 97 151
61 96 145
60 96 148
61 97 149
61 96 144
61 95 138
60 95 143
62 98 161
61 96 148
62 98 161
61 96 147
61 97 154
61 97 155
59 94 146
61 97 158
60 95 151
60 96 147
61 97 162
62 97 153
61 96 151
60 96 153
60 95 148
61 97 154
60 96 151
60 95 152
58 93 149
61 96 153
60 94 148
58 93 147
60 95 154
59 94 156
58 93 155
59 93 157
57 91 154
169 188 221
215 232 255
215 232 255
215 232 255
215 232 255
215 232 255
215 232 255
215 232 255
194 211 233
187 205 228
186 204 228
184 203 228
183 203 228
183 202 228
182 202 228
152 172 206
98 122 174
53 85 154
54 86 154
54 86 156
53 85 151
54 86 154
54 86 155
53 85 153
54 87 154
55 88 155
82 109 167
149 171 208
177 199 228
178 200 228
178 200 228
178 200 228
178 200 228
178 200 228
178 199 228
178 199 228
177 199 228
178 199 228
177 199 228
177 199 228
177 199 228
177 199 228
177 199 228
178 199 228
177 199 228
177 199 228
178 199 228
178 199 228
178 199 228
178 200 228
178 200 228
178 200 228
178 200 228
178 200 228
178 200 228
178 200 228
178 200 228
178 200 228
178 200 228
178 200 228
178 200 228
178 200 228
178 200 228
179 200 228
179 200 228
179 200 228
179 200 228
179 200 228
179 200 228
179 200 228
179 200 228
179 200 228
179 200 228
179 200 228
180 201 228
180 201 228
180 201 228
180 201 228
180 201 228
180 201 228
180 201 228
180 201 228
180 201 228
180 201 228
180 201 228
181 201 228
181 201 228
181 201 228
181 201 228
181 201 228
181 201 228
181 201 228
181 201 228
181 202 228
182 202 228
182 202 228
182 202 228
182 202 228
182 202 228
182 202 228
182 202 228
182 202 228
182 202 228
182 202 228
183 202 228
183 202 228
183 202 228
183 202 228
183 202 228
183 202 228
183 203 228
183 203 228
183 203 228
184 203 228
184 203 228
184 203 228
184 203 228
184 203 228
184 203 228
184 203 228
184 203 228
184 203 228
184 203 228
185 203 228
185 203 228
185 203 228
185 203 228
185 203 228
185 204 228
185 204 228
185 204 228
185 204 228
185 204 228
186 204 228
186 204 228
186 204 228
186 204 228
186 204 228
186 204 228
186 204 228
186 204 228
186 204 228
187 204 228
187 204 228
187 204 228
187 205 228
187 205 228
187 205 228
187 205 228
187 205 228
187 205 228
187 205 228
188 205 228
188 205 228
188 205 228
188 205 228
188 205 228
188 205 228
188 205 228
187 205 228
187 205 228
187 205 228
187 205 228
187 205 228
187 205 228
187 205 228
187 204 228
187 204 228
187 204 228
186 204 228
186 204 228
186 204 228
186 204 228
186 204 228
186 204 228
186 204 228
186 204 228
186 204 228
186 204 228
185 204 228
185 204 228
185 204 228
185 204 228
185 204 228
185 204 228
185 203 228
185 203 228
185 203 228
185 203 228
185 203 228
184 203 228
184 203 228
184 203 228
184 203 228
184 203 228
184 203 228
184 203 228
184 203 228
184 203 228
183 203 228
183 203 228
183 203 228
183 203 228
183 202 228
183 202 228
183 202 228
183 202 228
183 202 228
183 202 228
183 202 228
182 202 228
182 202 228
182 202 228
182 202 228
182 202 228
182 202 228
182 202 228
182 202 228
182 202 228
182 202 228
181 202 228
181 202 228
181 201 228
181 201 228
181 201 228
181 201 228
181 201 228
181 201 228
181 201 228
181 201 228
181 201 228
180 201 228
180 201 228
180 201 228
180 201 228
180 201 228
180 201 228
180 201 228
180 201 228
180 201 228
180 201 228
180 201 228
180 201 228
179 200 228
179 200 228
179 200 228
179 200 228
179 200 228
179 200 228
179 200 228
179 200 228
179 200 228
179 200 228
179 200 228
179 200 228
179 200 228
179 200 228
179 200 228
179 200 228
178 200 228
178 200 228
178 200 228
178 200 228
178 200 228
178 200 228
178 200 228
178 200 228
178 200 228
178 200 228
178 200 228
178 200 228
179 200 228
179 200 228
179 200 228
179 200 228
179 200 228
170 192 222
100 124 174
56 88 155
55 88 155
55 87 154
54 86 151
53 85 146
53 85 152
53 85 149
53 84 150
52 84 150
52 83 151
52 84 154
53 84 153
52 83 150
115 136 180
178 198 225
184 203 228
185 203 228
186 204 228
187 205 228
189 206 228
208 224 247
216 232 255
216 232 255
216 232 255
216 232 255
216 232 255
216 232 255
89 115 167
58 93 151
58 93 153
59 94 156
59 93 153
60 95 154
59 94 154
60 96 155
61 96 155
59 94 147
59 94 148
60 96 153
60 95 152
61 96 152
60 96 152
60 96 150
60 96 152
61 97 149
60 95 143
61 96 149
61 97 155
62 97 159
61 96 153
61 97 154
60 95 145
61 96 146
61 96 138
61 96 149
61 97 152
60 95 151
60 95 145
61 96 150
62 98 157
60 95 143
60 95 146
61 96 154
62 97 150
61 97 154
61 96 144
62 97 150
59 94 146
60 95 137
62 97 150
61 97 150
61 97 148
61 96 147
62 98 157
60 94 138
62 97 150
62 97 150
61 97 147
62 98 154
62 97 149
61 96 151
62 97 157
60 95 142
61 96 143
61 96 142
60 96 146
61 97 146
62 97 154
62 98 160
61 96 149
60 96 141
61 96 151
61 96 148
62 97 155
60 95 149
61 96 150
60 96 150
60 95 148
61 97 149
61 96 145
61 96 146
60 96 151
60 95 151
61 96 151
61 96 152
58 92 138
60 96 152
62 97 157
61 96 149
60 95 148
61 96 158
61 96 153
60 94 143
61 96 155
59 94 142
61 96 158
58 93 149
59 93 144
57 91 148
58 92 153
59 93 158
57 91 150
86 111 161
214 230 254
216 232 255
216 232 255
216 232 255
216 232 255
216 232 255
209 226 248
189 206 228
187 205 228
186 204 228
185 203 228
184 203 228
165 184 215
112 134 181
53 85 152
52 83 151
53 84 151
52 84 151
51 82 148
52 83 147
53 85 150
53 85 148
52 84 149
54 85 148
55 87 158
54 87 154
54 87 151
98 123 176
172 194 223
179 200 228
179 200 228
179 200 228
179 200 228
179 200 228
179 200 228
178 200 228
178 200 228
178 200 228
178 200 228
178 200 228
178 200 228
178 200 228
178 200 228
179 200 228
178 200 228
179 200 228
179 200 228
179 200 228
179 200 228
179 200 228
179 200 228
179 200 228
179 200 228
179 200 228
179 200 228
179 200 228
179 200 228
179 200 228
179 200 228
179 200 228
179 200 228
179 201 228
179 201 228
180 201 228
180 201 228
180 201 228
180 201 228
180 201 228
180 201 228
180 201 228
180 201 228
180 201 228
180 201 228
180 201 228
181 201 228
181 201 228
181 201 228
181 201 228
181 201 228
181 201 228
181 201 228
181 201 228
181 201 228
181 202 228
181 202 228
182 202 228
182 202 228
182 202 228
182 202 228
182 202 228
182 202 228
182 202 228
182 202 228
182 202 228
182 202 228
182 202 228
183 202 228
183 202 228
183 202 228
183 202 228
183 202 228
183 202 228
183 203 228
183 203 228
183 203 228
183 203 228
184 203 228
184 203 228
184 203 228
184 203 228
184 203 228
184 203 228
184 203 228
184 203 228
184 203 228
185 203 228
185 203 228
185 203 228
185 203 228
185 203 228
185 203 228
185 204 228
185 204 228
185 204 228
185 204 228
186 204 228
186 204 228
186 204 228
186 204 228
186 204 228
186 204 228
186 204 228
186 204 228
186 204 228
186 204 228
186 204 228
187 204 228
187 204 228
187 204 228
187 205 228
187 205 228
187 205 228
187 205 228
187 205 228
187 205 228
187 205 228
188 205 228
188 205 228
188 205 228
188 205 228
188 205 228
188 205 228
189 205 228
188 205 228
188 205 228
188 205 228
188 205 228
188 205 228
188 205 228
188 205 228
188 205 228
188 205 228
188 205 228
188 205 228
187 205 228
187 205 228
187 205 228
187 205 228
187 205 228
187 205 228
187 205 228
187 204 228
187 204 228
187 204 228
187 204 228
186 204 228
186 204 228
186 204 228
186 204 228
186 204 228
186 204 228
186 204 228
186 204 228
186 204 228
186 204 228
186 204 228
185 204 228
185 204 228
185 204 228
185 204 228
185 204 228
185 203 228
185 203 228
185 203 228
185 203 228
185 203 228
184 203 228
184 203 228
184 203 228
184 203 228
184 203 228
184 203 228
184 203 228
184 203 228
184 203 228
184 203 228
184 203 228
183 203 228
183 203 228
183 203 228
183 203 228
183 202 228
183 202 228
183 202 228
183 202 228
183 202 228
183 202 228
182 202 228
182 202 228
182 202 228
182 202 228
182 202 228
182 202 228
182 202 228
182 202 228
182 202 228
182 202 228
182 202 228
182 202 228
181 202 228
181 202 228
181 201 228
181 201 228
181 201 228
181 201 228
181 201 228
181 201 228
181 201 228
181 201 228
181 201 228
181 201 228
181 201 228
180 201 228
180 201 228
180 201 228
180 201 228
180 201 228
180 201 228
180 201 228
180 201 228
180 201 228
180 201 228
180 201 228
180 201 228
180 201 228
180 201 228
180 201 228
180 201 228
180 201 228
179 201 228
179 201 228
179 201 228
179 201 228
179 200 228
179 200 228
179 200 228
179 200 228
179 200 228
179 200 228
179 200 228
179 200 228
179 201 228
180 201 228
180 201 228
170 192 222
86 112 167
55 87 150
55 87 152
54 86 150
55 87 153
53 85 148
53 84 148
53 85 148
52 84 148
52 83 145
51 82 144
52 83 148
50 81 147
52 84 150
51 82 149
52 83 150
66 94 155
163 182 211
185 203 228
186 204 228
187 204 228
188 205 228
196 212 234
216 233 255
216 233 255
216 233 255
216 233 255
216 233 255
191 208 237
57 91 156
57 91 154
59 93 157
58 92 152
60 95 156
59 94 145
60 95 152
60 95 150
59 94 148
59 94 150
61 96 160
60 95 151
60 95 150
61 96 152
60 95 149
61 96 150
61 96 152
61 96 152
61 96 151
60 95 146
59 93 142
61 96 150
61 96 148
61 96 149
60 95 145
60 96 147
59 94 135
61 97 154
61 96 146
62 97 152
62 98 157
61 97 152
61 97 149
60 96 145
61 96 144
61 97 148
62 98 155
61 97 154
60 95 144
62 97 158
60 95 145
62 98 161
61 97 147
61 96 148
61 96 148
61 97 149
61 96 148
60 96 145
62 97 153
61 96 143
61 97 147
62 98 155
61 96 144
63 98 158
60 95 141
61 96 150
62 97 152
62 97 155
62 97 151
60 95 147
62 97 152
61 96 151
61 96 146
61 97 151
59 93 135
61 96 149
60 95 142
61 96 151
60 95 139
61 96 149
61 95 149
60 95 143
61 96 146
61 96 148
61 96 152
61 96 147
61 96 152
60 95 143
61 97 157
61 96 156
61 96 153
59 94 148
60 95 151
59 95 143
60 96 154
60 95 147
61 95 150
60 96 155
58 93 143
60 95 156
59 93 150
58 93 145
57 91 155
58 93 152
58 93 156
55 88 148
183 201 229
216 233 255
216 233 255
216 233 255
216 233 255
216 233 255
196 213 235
188 205 228
187 205 228
186 204 228
185 203 228
160 179 210
64 91 151
51 82 151
52 83 149
52 83 148
52 84 152
51 82 150
52 83 150
51 81 147
53 85 153
53 84 151
52 84 149
53 86 149
54 86 152
55 88 153
54 86 149
55 88 154
82 109 164
169 190 221
180 201 228
180 201 228
180 201 228
180 201 228
179 201 228
179 200 228
179 200 228
179 200 228
179 200 228
179 200 228
179 200 228
179 200 228
179 201 228
179 201 228
180 201 228
180 201 228
180 201 228
180 201 228
180 201 228
180 201 228
180 201 228
180 201 228
180 201 228
180 201 228
180 201 228
180 201 228
180 201 228
180 201 228
180 201 228
180 201 228
180 201 228
180 201 228
181 201 228
181 201 228
181 201 228
181 201 228
181 201 228
181 201 228
181 201 228
181 201 228
181 201 228
181 201 228
181 201 228
181 202 228
181 202 228
181 202 228
182 202 228
182 202 228
182 202 228
182 202 228
182 202 228
182 202 228
182 202 228
182 202 228
182 202 228
182 202 228
182 202 228
183 202 228
183 202 228
183 202 228
183 202 228
183 202 228
183 202 228
183 202 228
183 203 228
183 203 228
183 203 228
184 203 228
184 203 228
184 203 228
184 203 228
184 203 228
184 203 228
184 203 228
184 203 228
184 203 228
184 203 228
184 203 228
185 203 228
185 203 228
185 203 228
185 203 228
185 203 228
185 203 228
185 204 228
185 204 228
185 204 228
185 204 228
185 204 228
186 204 228
186 204 228
186 204 228
186 204 228
186 204 228
186 204 228
186 204 228
186 204 228
186 204 228
186 204 228
187 204 228
187 204 228
187 204 228
187 204 228
187 205 228
187 205 228
187 205 228
187 205 228
187 205 228
187 205 228
187 205 228
188 205 228
188 205 228
188 205 228
188 205 228
188 205 228
188 205 228
188 205 228
188 205 228
188 205 228
188 205 228
188 205 228
189 205 228
189 206 228
189 206 228
189 206 228
189 206 228
189 206 228
189 205 228
189 205 228
188 205 228
188 205 228
188 205 228
188 205 228
188 205 228
188 205 228
188 205 228
188 205 228
188 205 228
188 205 228
188 205 228
187 205 228
187 205 228
187 205 228
187 205 228
187 205 228
187 205 228
187 205 228
187 205 228
187 204 228
187 204 228
187 204 228
187 204 228
186 204 228
186 204 228
186 204 228
186 204 228
186 204 228
186 204 228
186 204 228
186 204 228
186 204 228
186 204 228
186 204 228
185 204 228
185 204 228
185 204 228
185 204 228
185 204 228
185 204 228
185 203 228
185 203 228
185 203 228
185 203 228
185 203 228
184 203 228
184 203 228
184 203 228
184 203 228
184 203 228
184 203 228
184 203 228
184 203 228
184 203 228
184 203 228
184 203 228
184 203 228
183 203 228
183 203 228
183 203 228
183 203 228
183 202 228
183 202 228
183 202 228
183 202 228
183 202 228
183 202 228
183 202 228
183 202 228
182 202 228
182 202 228
182 202 228
182 202 228
182 202 228
182 202 228
182 202 228
182 202 228
182 202 228
182 202 228
182 202 228
182 202 228
182 202 228
181 202 228
181 202 228
181 201 228
181 201 228
181 201 228
181 201 228
181 201 228
181 201 228
181 201 228
181 201 228
181 201 228
181 201 228
181 201 228
181 201 228
181 201 228
181 201 228
181 201 228
181 201 228
180 201 228
180 201 228
180 201 228
180 201 228
180 201 228
180 201 228
180 201 228
180 201 228
180 201 228
180 201 228
180 201 228
180 201 228
181 201 228
181 201 228
170 190 220
75 103 161
55 87 151
54 87 148
55 87 150
54 86 149
53 85 146
52 83 144
52 83 146
53 85 150
53 84 146
52 83 147
51 82 146
50 80 142
49 79 143
49 79 143
50 80 148
49 79 140
47 77 140
56 84 149
162 180 209
186 204 228
187 205 228
188 205 228
190 206 228
212 228 251
216 233 255
216 233 255
216 233 255
216 233 255
146 165 205
55 89 142
59 94 158
57 92 148
58 92 146
58 93 145
57 90 135
60 95 152
60 95 148
61 96 155
60 95 148
61 96 152
60 95 145
61 96 154
60 95 142
60 95 145
59 93 139
61 96 148
60 95 145
61 96 147
62 97 153
60 95 150
61 96 153
61 96 150
60 96 149
61 97 152
59 94 134
61 96 156
62 97 145
60 96 149
60 95 142
60 95 143
61 97 155
62 98 155
60 95 141
60 95 148
62 97 150
61 97 153
61 96 151
61 96 146
61 96 151
61 97 149
60 95 138
62 97 156
61 96 147
61 97 152
60 95 141
62 98 155
61 96 151
61 96 147
61 96 150
61 96 153
60 95 150
61 96 150
62 98 154
61 97 151
61 96 145
61 95 141
59 94 139
60 95 142
60 95 146
62 98 158
61 96 144
61 97 156
60 95 138
60 95 144
61 96 146
62 98 159
62 97 153
61 96 150
61 96 145
60 95 143
61 97 151
60 95 146
61 96 151
60 95 139
60 95 141
60 96 143
60 96 149
60 95 146
61 96 152
61 95 141
60 95 150
61 96 152
59 94 145
61 96 154
60 95 151
59 93 153
59 93 145
58 93 147
59 93 140
59 94 149
58 93 147
58 91 146
58 92 143
58 92 151
56 90 148
134 153 194
216 233 255
216 233 255
216 233 255
216 233 255
212 228 251
190 206 228
188 205 228
187 205 228
186 204 228
165 183 214
67 94 156
50 81 147
49 79 144
50 80 145
49 80 144
50 81 147
53 84 149
51 81 145
51 81 143
52 83 148
52 83 145
52 83 144
53 85 148
54 86 149
54 86 148
55 87 148
54 87 150
55 88 155
77 104 161
167 188 219
181 201 228
181 201 228
180 201 228
180 201 228
180 201 228
180 201 228
180 201 228
180 201 228
180 201 228
180 201 228
180 201 228
180 201 228
180 201 228
180 201 228
181 201 228
181 201 228
181 201 228
181 201 228
181 201 228
181 201 228
181 201 228
181 201 228
181 201 228
181 201 228
181 201 228
181 201 228
181 201 228
181 201 228
181 201 228
181 201 228
181 202 228
181 202 228
182 202 228
182 202 228
182 202 228
182 202 228
182 202 228
182 202 228
182 202 228
182 202 228
182 202 228
182 202 228
182 202 228
182 202 228
182 202 228
183 202 228
183 202 228
183 202 228
183 202 228
183 202 228
183 202 228
183 202 228
183 202 228
183 203 228
183 203 228
183 203 228
183 203 228
184 203 228
184 203 228
184 203 228
184 203 228
184 203 228
184 203 228
184 203 228
184 203 228
184 203 228
184 203 228
184 203 228
184 203 228
185 203 228
185 203 228
185 203 228
185 203 228
185 203 228
185 204 228
185 204 228
185 204 228
185 204 228
185 204 228
185 204 228
186 204 228
186 204 228
186 204 228
186 204 228
186 204 228
186 204 228
186 204 228
186 204 228
186 204 228
186 204 228
186 204 228
186 204 228
187 204 228
187 204 228
187 204 228
187 205 228
187 205 228
187 205 228
187 205 228
187 205 228
187 205 228
187 205 228
187 205 228
188 205 228
188 205 228
188 205 228
188 205 228
188 205 228
188 205 228
188 205 228
188 205 228
188 205 228
188 205 228
188 205 228
189 205 228
189 206 228
189 206 228
189 206 228
189 206 228
189 206 228
189 206 228
190 206 228
190 206 228
189 206 228
189 206 228
189 206 228
189 206 228
189 206 228
189 206 228
189 206 228
189 206 228
189 206 228
189 206 228
189 205 228
189 205 228
188 205 228
188 205 228
188 205 228
188 205 228
188 205 228
188 205 228
188 205 228
188 205 228
188 205 228
188 205 228
188 205 228
188 205 228
187 205 228
187 205 228
187 205 228
187 205 228
187 205 228
187 205 228
187 205 228
187 205 228
187 204 228
187 204 228
187 204 228
186 204 228
186 204 228
186 204 228
186 204 228
186 204 228
186 204 228
186 204 228
186 204 228
186 204 228
186 204 228
186 204 228
186 204 228
186 204 228
185 204 228
185 204 228
185 204 228
185 204 228
185 204 228
185 204 228
185 204 228
185 203 228
185 203 228
185 203 228
185 203 228
185 203 228
185 203 228
184 203 228
184 203 228
184 203 228
184 203 228
184 203 228
184 203 228
184 203 228
184 203 228
184 203 228
184 203 228
184 203 228
183 203 228
183 203 228
183 203 228
183 203 228
183 202 228
183 202 228
183 202 228
183 202 228
183 202 228
183 202 228
183 202 228
183 202 228
183 202 228
183 202 228
182 202 228
182 202 228
182 202 228
182 202 228
182 202 228
182 202 228
182 202 228
182 202 228
182 202 228
182 202 228
182 202 228
182 202 228
182 202 228
182 202 228
182 202 228
182 202 228
182 202 228
182 202 228
182 202 228
182 202 228
181 202 228
181 202 228
182 202 228
181 202 228
181 202 228
181 202 228
181 202 228
181 202 228
181 202 228
181 202 228
181 202 228
181 202 228
177 197 226
85 111 165
54 86 145
54 86 145
54 87 154
54 86 144
54 86 148
53 85 145
53 85 147
53 84 147
51 82 146
51 81 142
51 81 141
51 81 144
48 78 142
49 80 144
49 80 145
48 78 143
50 80 146
47 77 143
47 76 138
58 86 148
164 182 211
187 205 228
188 205 228
190 206 228
202 218 240
217 233 255
217 233 255
217 233 255
215 232 255
86 110 163
56 89 145
57 91 141
57 92 143
60 94 145
57 92 148
59 93 149
59 93 143
60 95 146
59 94 147
60 95 153
60 95 152
60 95 144
61 96 152
59 94 140
60 94 143
61 96 147
61 96 145
61 96 146
59 93 133
60 94 145
61 96 144
62 97 154
61 96 152
60 95 145
62 97 155
61 96 144
59 94 144
62 97 146
61 97 146
60 94 136
61 96 146
61 96 147
60 96 146
60 95 145
60 96 154
61 96 141
61 97 150
61 97 147
60 94 135
61 96 147
61 96 149
61 96 147
61 96 147
61 96 144
61 96 147
62 97 151
61 97 148
62 97 150
61 96 147
60 95 145
63 98 156
61 96 142
60 95 147
60 95 141
61 96 146
62 97 155
61 97 156
60 95 148
60 95 139
60 95 144
62 97 149
61 96 144
62 97 153
61 97 153
61 96 148
61 96 149
60 95 144
61 96 149
61 96 147
61 96 147
61 96 150
61 96 142
60 96 145
61 96 151
59 94 146
61 96 152
61 97 151
61 96 144
60 95 143
60 95 144
61 96 150
60 94 141
61 95 149
60 96 151
60 95 157
60 95 155
60 94 148
61 97 153
59 93 150
59 93 143
59 94 148
59 94 147
57 91 142
58 92 149
57 91 151
56 89 145
90 114 164
212 229 253
217 233 255
217 233 255
217 233 255
203 219 241
190 206 228
188 205 228
187 205 228
171 189 216
58 85 145
48 78 142
48 78 143
48 78 143
48 77 138
50 80 143
50 80 142
50 80 140
50 80 141
52 83 150
52 82 143
50 81 138
51 83 140
53 84 147
53 85 149
53 85 147
54 85 149
54 86 150
55 87 147
55 87 148
76 103 157
177 198 226
181 202 228
181 202 228
181 202 228
181 202 228
181 202 228
181 202 228
181 202 228
181 202 228
181 202 228
181 202 228
181 202 228
181 202 228
181 202 228
182 202 228
182 202 228
182 202 228
182 202 228
182 202 228
182 202 228
182 202 228
182 202 228
182 202 228
182 202 228
182 202 228
182 202 228
182 202 228
182 202 228
182 202 228
182 202 228
182 202 228
182 202 228
183 202 228
183 202 228
183 202 228
183 202 228
183 202 228
183 202 228
183 202 228
183 202 228
183 202 228
183 202 228
183 203 228
183 203 228
183 203 228
183 203 228
184 203 228
184 203 228
184 203 228
184 203 228
184 203 228
184 203 228
184 203 228
184 203 228
184 203 228
184 203 228
184 203 228
184 203 228
184 203 228
185 203 228
185 203 228
185 203 228
185 203 228
185 203 228
185 203 228
185 204 228
185 204 228
185 204 228
185 204 228
185 204 228
186 204 228
186 204 228
186 204 228
186 204 228
186 204 228
186 204 228
186 204 228
186 204 228
186 204 228
186 204 228
186 204 228
186 204 228
186 204 228
187 204 228
187 204 228
187 204 228
187 204 228
187 205 228
187 205 228
187 205 228
187 205 228
187 205 228
187 205 228
187 205 228
187 205 228
188 205 228
188 205 228
188 205 228
188 205 228
188 205 228
188 205 228
188 205 228
188 205 228
188 205 228
188 205 228
188 205 228
188 205 228
189 205 228
189 205 228
189 206 228
189 206 228
189 206 228
189 206 228
189 206 228
189 206 228
189 206 228
189 206 228
189 206 228
189 206 228
190 206 228
190 206 228
190 206 228
190 206 228
190 206 228
190 206 228
190 206 228
190 206 228
190 206 228
190 206 228
189 206 228
189 206 228
189 206 228
189 206 228
189 206 228
189 206 228
189 206 228
189 206 228
189 206 228
189 206 228
189 206 228
189 205 228
189 205 228
188 205 228
188 205 228
188 205 228
188 205 228
188 205 228
188 205 228
188 205 228
188 205 228
188 205 228
188 205 228
188 205 228
188 205 228
188 205 228
188 205 228
187 205 228
187 205 228
187 205 228
187 205 228
187 205 228
187 205 228
187 205 228
187 205 228
187 205 228
187 204 228
187 204 228
187 204 228
186 204 228
186 204 228
186 204 228
186 204 228
186 204 228
186 204 228
186 204 228
186 204 228
186 204 228
186 204 228
186 204 228
186 204 228
186 204 228
185 204 228
185 204 228
185 204 228
185 204 228
185 204 228
185 204 228
185 204 228
185 203 228
185 203 228
185 203 228
185 203 228
185 203 228
185 203 228
184 203 228
184 203 228
184 203 228
184 203 228
184 203 228
184 203 228
184 203 228
184 203 228
184 203 228
184 203 228
184 203 228
184 203 228
184 203 228
184 203 228
183 203 228
183 203 228
183 203 228
183 203 228
183 203 228
183 203 228
183 203 228
183 202 228
183 202 228
183 202 228
183 202 228
183 202 228
183 202 228
183 202 228
183 202 228
183 202 228
183 202 228
183 202 228
183 202 228
183 202 228
183 202 228
183 202 228
183 202 228
183 202 228
182 202 228
182 202 228
182 202 228
182 202 228
182 202 228
182 202 228
182 202 228
182 202 228
183 202 228
104 128 175
55 87 149
54 86 145
55 87 148
54 87 149
53 85 146
53 84 143
54 85 151
53 85 142
52 82 144
52 82 139
49 79 141
51 82 146
51 81 144
49 79 136
49 79 137
49 79 137
48 77 140
46 75 135
48 76 140
46 75 138
48 77 141
80 102 153
177 194 221
188 205 228
190 206 228
193 208 230
217 233 255
217 233 255
217 233 255
186 203 230
56 89 149
56 90 154
58 92 156
59 94 153
58 93 148
57 91 141
60 94 149
60 95 153
60 95 154
60 95 151
59 93 143
61 96 157
60 95 139
58 93 131
60 96 152
59 93 139
60 95 147
59 94 139
61 95 148
60 96 151
61 96 148
60 95 150
59 94 147
61 97 157
61 97 151
62 97 149
61 96 149
60 95 137
61 96 152
60 96 145
61 96 145
61 96 150
61 96 146
62 97 155
61 96 147
61 96 145
60 94 134
61 97 149
61 96 146
62 97 147
61 96 150
61 96 147
60 95 137
60 95 141
62 97 152
61 96 142
61 97 154
61 96 144
61 96 151
59 94 137
61 96 140
61 97 156
59 94 137
60 95 142
61 96 142
61 96 152
61 96 153
61 96 143
61 96 144
61 96 152
61 97 149
61 96 143
61 96 150
60 95 147
59 93 137
60 96 145
60 96 147
60 95 140
60 95 147
61 96 147
61 96 145
60 95 140
60 95 137
58 92 127
60 95 143
60 94 139
60 95 141
60 95 140
60 95 147
62 97 155
60 95 146
60 95 147
60 95 149
60 95 143
60 95 146
61 95 154
60 94 140
60 95 149
60 96 155
59 94 152
59 93 147
59 93 149
59 94 153
58 92 141
58 93 147
57 91 147
57 91 145
54 86 144
181 198 227
217 233 255
217 233 255
216 233 255
194 210 231
190 206 228
188 205 228
177 194 220
69 94 152
48 78 140
47 76 136
47 76 139
48 77 140
48 78 140
48 78 139
48 78 141
51 82 144
49 79 138
50 81 138
52 83 143
51 82 144
51 82 139
51 82 142
53 84 141
54 85 142
54 86 147
55 87 152
54 87 147
54 86 147
54 86 140
117 139 180
182 202 228
183 202 228
183 202 228
182 202 228
182 202 228
183 202 228
182 202 228
182 202 228
182 202 228
182 202 228
183 202 228
183 202 228
183 202 228
183 202 228
183 202 228
183 202 228
183 202 228
183 202 228
183 202 228
183 202 228
183 202 228
183 202 228
183 202 228
183 202 228
183 202 228
183 202 228
183 203 228
183 203 228
183 203 228
183 203 228
183 203 228
183 203 228
184 203 228
184 203 228
184 203 228
184 203 228
184 203 228
184 203 228
184 203 228
184 203 228
184 203 228
184 203 228
184 203 228
184 203 228
184 203 228
184 203 228
185 203 228
185 203 228
185 203 228
185 203 228
185 203 228
185 203 228
185 203 228
185 204 228
185 204 228
185 204 228
185 204 228
185 204 228
185 204 228
185 204 228
186 204 228
186 204 228
186 204 228
186 204 228
186 204 228
186 204 228
186 204 228
186 204 228
186 204 228
186 204 228
186 204 228
186 204 228
186 204 228
187 204 228
187 204 228
187 204 228
187 204 228
187 205 228
187 205 228
187 205 228
187 205 228
187 205 228
187 205 228
187 205 228
187 205 228
187 205 228
188 205 228
188 205 228
188 205 228
188 205 228
188 205 228
188 205 228
188 205 228
188 205 228
188 205 228
188 205 228
188 205 228
188 205 228
189 205 228
189 205 228
189 206 228
189 206 228
189 206 228
189 206 228
189 206 228
189 206 228
189 206 228
189 206 228
189 206 228
189 206 228
189 206 228
190 206 228
190 206 228
190 206 228
190 206 228
190 206 228
190 206 228
190 206 228
190 206 228
190 206 228
191 207 228
191 207 228
190 207 228
190 206 228
190 206 228
190 206 228
190 206 228
190 206 228
190 206 228
190 206 228
190 206 228
190 206 228
190 206 228
190 206 228
190 206 228
190 206 228
189 206 228
189 206 228
189 206 228
189 206 228
189 206 228
189 206 228
189 206 228
189 206 228
189 206 228
189 206 228
189 206 228
189 206 228
189 206 228
189 205 228
188 205 228
188 205 228
188 205 228
188 205 228
188 205 228
188 205 228
188 205 228
188 205 228
188 205 228
188 205 228
188 205 228
188 205 228
188 205 228
188 205 228
187 205 228
187 205 228
187 205 228
187 205 228
187 205 228
187 205 228
187 205 228
187 205 228
187 205 228
187 204 228
187 204 228
187 204 228
187 204 228
187 204 228
186 204 228
186 204 228
186 204 228
186 204 228
186 204 228
186 204 228
186 204 228
186 204 228
186 204 228
186 204 228
186 204 228
186 204 228
186 204 228
186 204 228
185 204 228
185 204 228
185 204 228
185 204 228
185 204 228
185 204 228
185 204 228
185 204 228
185 203 228
185 203 228
185 203 228
185 203 228
185 203 228
185 203 228
185 203 228
184 203 228
184 203 228
184 203 228
184 203 228
184 203 228
184 203 228
184 203 228
184 203 228
184 203 228
184 203 228
184 203 228
184 203 228
184 203 228
184 203 228
184 203 228
184 203 228
184 203 228
184 203 228
184 203 228
184 203 228
184 203 228
184 203 228
184 203 228
184 203 228
183 203 228
183 203 228
184 203 228
184 203 228
183 203 228
184 203 228
183 203 228
183 203 228
152 172 204
54 86 143
55 87 148
54 86 146
55 87 152
53 84 137
54 85 143
53 85 143
52 83 140
52 82 141
51 82 140
51 82 136
52 83 141
50 80 141
49 79 140
49 78 136
47 76 136
48 78 140
46 75 135
48 78 138
44 72 131
46 74 137
45 74 136
47 75 140
91 112 162
189 206 228
190 206 228
191 207 228
213 229 251
217 233 255
217 233 255
160 178 208
56 89 150
60 94 159
57 91 134
58 92 151
60 94 151
58 92 135
58 93 148
59 94 149
58 92 137
58 93 142
60 95 150
60 96 148
60 95 143
61 96 150
60 95 142
59 94 142
61 96 150
60 96 148
59 94 131
59 93 136
60 95 145
61 96 148
61 96 149
60 95 142
60 95 140
61 97 153
61 96 145
61 96 152
61 96 146
62 97 147
61 96 142
62 98 158
59 94 131
60 94 147
59 94 139
59 94 144
61 96 143
60 96 149
62 97 150
62 98 160
61 97 155
61 96 136
61 96 142
60 94 141
62 97 147
62 97 153
59 94 130
61 96 150
61 96 144
62 97 154
61 96 151
61 96 152
62 97 144
61 96 144
62 97 150
61 96 136
61 96 143
60 95 145
61 96 149
61 96 151
60 95 139
61 96 148
60 95 139
61 96 153
61 96 149
62 97 150
61 96 136
62 97 153
60 95 141
61 96 146
61 97 145
61 96 148
60 95 141
59 94 139
60 94 138
61 96 147
61 95 140
60 95 147
61 96 145
60 94 139
60 94 138
60 95 147
60 95 149
60 94 143
59 93 142
60 95 150
60 95 150
61 96 152
59 94 143
60 95 145
57 91 140
59 94 150
59 93 146
59 93 152
56 90 143
57 91 133
56 89 149
55 88 146
143 161 193
217 233 255
217 233 255
211 226 248
191 207 228
190 206 228
189 206 228
112 131 172
47 76 140
44 72 133
47 77 139
46 74 135
46 74 131
47 76 137
47 76 132
47 77 136
48 76 136
50 81 143
52 83 142
51 82 144
50 81 137
52 83 140
52 83 145
52 83 142
51 82 137
53 84 138
55 86 148
54 86 148
54 86 144
55 86 147
55 88 148
153 172 205
184 203 228
183 203 228
183 203 228
183 203 228
183 203 228
184 203 228
183 203 228
184 203 228
184 203 228
184 203 228
184 203 228
184 203 228
184 203 228
184 203 228
184 203 228
184 203 228
184 203 228
184 203 228
184 203 228
184 203 228
184 203 228
184 203 228
184 203 228
184 203 228
184 203 228
184 203 228
184 203 228
184 203 228
184 203 228
184 203 228
184 203 228
185 203 228
185 203 228
185 203 228
185 203 228
185 203 228
185 203 228
185 203 228
185 203 228
185 204 228
185 204 228
185 204 228
185 204 228
185 204 228
185 204 228
185 204 228
185 204 228
186 204 228
186 204 228
186 204 228
186 204 228
186 204 228
186 204 228
186 204 228
186 204 228
186 204 228
186 204 228
186 204 228
186 204 228
186 204 228
186 204 228
187 204 228
187 204 228
187 204 228
187 204 228
187 205 228
187 205 228
187 205 228
187 205 228
187 205 228
187 205 228
187 205 228
187 205 228
187 205 228
187 205 228
188 205 228
188 205 228
188 205 228
188 205 228
188 205 228
188 205 228
188 205 228
188 205 228
188 205 228
188 205 228
188 205 228
188 205 228
188 205 228
188 205 228
189 205 228
189 205 228
189 206 228
189 206 228
189 206 228
189 206 228
189 206 228
189 206 228
189 206 228
189 206 228
189 206 228
189 206 228
189 206 228
190 206 228
190 206 228
190 206 228
190 206 228
190 206 228
190 206 228
190 206 228
190 206 228
190 206 228
190 206 228
190 206 228
190 206 228
190 206 228
190 206 228
190 207 228
191 207 228
191 207 228
191 207 228
191 207 228
191 207 228
191 207 228
191 207 228
191 207 228
191 207 228
191 207 228
191 207 228
191 207 228
190 207 228
190 206 228
190 206 228
190 206 228
190 206 228
190 206 228
190 206 228
190 206 228
190 206 228
190 206 228
190 206 228
190 206 228
190 206 228
190 206 228
190 206 228
190 206 228
189 206 228
189 206 228
189 206 228
189 206 228
189 206 228
189 206 228
189 206 228
189 206 228
189 206 228
189 206 228
189 206 228
189 206 228
189 206 228
189 205 228
189 205 228
188 205 228
188 205 228
188 205 228
188 205 228
188 205 228
188 205 228
188 205 228
188 205 228
188 205 228
188 205 228
188 205 228
188 205 228
188 205 228
188 205 228
187 205 228
187 205 228
187 205 228
187 205 228
187 205 228
187 205 228
187 205 228
187 205 228
187 205 228
187 205 228
187 205 228
187 204 228
187 204 228
187 204 228
187 204 228
187 204 228
186 204 228
186 204 228
186 204 228
186 204 228
186 204 228
186 204 228
186 204 228
186 204 228
186 204 228
186 204 228
186 204 228
186 204 228
186 204 228
186 204 228
186 204 228
186 204 228
186 204 228
185 204 228
185 204 228
185 204 228
185 204 228
185 204 228
185 204 228
185 204 228
185 204 228
185 204 228
185 203 228
185 203 228
185 203 228
185 203 228
185 203 228
185 203 228
185 203 228
185 203 228
185 203 228
185 203 228
185 203 228
185 203 228
185 203 228
185 203 228
185 203 228
185 203 228
185 203 228
185 203 228
184 203 228
185 203 228
185 203 228
183 202 227
88 113 162
55 87 145
54 86 143
54 86 145
53 85 136
53 85 138
52 83 140
53 84 135
53 84 138
53 84 140
52 83 140
51 82 136
50 80 135
51 81 139
48 77 132
47 77 134
46 75 130
48 77 135
45 73 133
43 69 128
46 75 135
46 74 133
44 72 135
45 73 133
46 75 137
156 173 201
190 206 228
191 207 228
205 221 242
217 233 255
217 233 255
110 131 171
55 89 140
56 89 148
57 91 142
58 92 141
57 91 146
59 93 151
59 93 144
58 92 138
60 96 152
61 96 155
58 92 142
60 95 153
59 94 142
60 94 149
60 95 144
61 96 147
61 97 159
60 95 137
61 96 147
61 95 147
60 95 142
61 97 156
59 94 136
61 96 144
61 97 155
60 95 145
61 97 150
60 95 138
60 95 139
61 96 145
61 96 147
60 96 143
61 96 155
60 96 144
59 94 130
60 95 137
60 95 147
60 95 143
62 97 148
62 97 152
61 96 145
61 96 149
60 94 139
60 95 135
61 96 150
62 97 151
60 95 141
60 96 140
60 95 142
61 96 151
61 96 147
60 95 134
61 96 145
61 97 147
59 94 137
61 96 140
61 97 147
60 95 149
61 96 142
60 96 146
61 96 143
61 97 148
61 95 143
61 96 139
60 95 145
60 95 146
60 95 138
60 95 136
61 96 142
60 95 138
61 96 147
61 96 147
60 95 143
60 95 143
61 96 146
59 94 139
60 95 143
60 95 147
61 96 148
59 94 139
59 93 134
60 96 149
61 96 152
60 95 146
60 95 150
61 96 149
59 94 143
58 92 139
59 93 147
60 95 153
58 93 144
58 92 149
58 93 145
59 93 144
58 91 142
59 94 153
58 92 149
56 89 148
120 140 177
217 233 255
217 233 255
204 219 240
191 207 228
190 206 228
154 171 200
45 72 133
44 71 133
44 72 132
44 72 133
45 74 133
45 73 135
46 75 132
45 73 132
48 77 137
48 78 135
50 80 135
50 80 135
52 83 141
52 83 140
52 83 138
51 82 137
52 83 141
52 83 140
53 84 139
54 86 143
53 84 138
54 86 143
54 86 145
54 87 146
83 108 161
184 202 227
185 203 228
185 203 228
184 203 228
185 203 228
185 203 228
185 203 228
185 203 228
185 203 228
185 203 228
185 203 228
185 203 228
185 203 228
185 203 228
185 203 228
185 203 228
185 203 228
185 203 228
185 203 228
185 203 228
185 203 228
185 203 228
185 204 228
185 204 228
185 204 228
185 204 228
185 204 228
185 204 228
185 204 228
185 204 228
185 204 228
186 204 228
186 204 228
186 204 228
186 204 228
186 204 228
186 204 228
186 204 228
186 204 228
186 204 228
186 204 228
186 204 228
186 204 228
186 204 228
186 204 228
186 204 228
186 204 228
186 204 228
187 204 228
187 204 228
187 204 228
187 204 228
187 204 228
187 205 228
187 205 228
187 205 228
187 205 228
187 205 228
187 205 228
187 205 228
187 205 228
187 205 228
187 205 228
188 205 228
188 205 228
188 205 228
188 205 228
188 205 228
188 205 228
188 205 228
188 205 228
188 205 228
188 205 228
188 205 228
188 205 228
188 205 228
188 205 228
188 205 228
188 205 228
189 205 228
189 205 228
189 206 228
189 206 228
189 206 228
189 206 228
189 206 228
189 206 228
189 206 228
189 206 228
189 206 228
189 206 228
189 206 228
189 206 228
189 206 228
190 206 228
190 206 228
190 206 228
190 206 228
190 206 228
190 206 228
190 206 228
190 206 228
190 206 228
190 206 228
190 206 228
190 206 228
190 206 228
190 206 228
191 207 228
191 207 228
191 207 228
191 207 228
191 207 228
191 207 228
191 207 228
191 207 228
191 207 228
191 207 228
191 207 228
192 207 228
192 207 228
192 207 228
191 207 228
191 207 228
191 207 228
191 207 228
191 207 228
191 207 228
191 207 228
191 207 228
191 207 228
191 207 228
191 207 228
191 207 228
191 207 228
191 207 228
191 207 228
191 207 228
191 207 228
190 207 228
190 206 228
190 206 228
190 206 228
190 206 228
190 206 228
190 206 228
190 206 228
190 206 228
190 206 228
190 206 228
190 206 228
190 206 228
190 206 228
190 206 228
190 206 228
190 206 228
189 206 228
189 206 228
189 206 228
189 206 228
189 206 228
189 206 228
189 206 228
189 206 228
189 206 228
189 206 228
189 206 228
189 206 228
189 206 228
189 205 228
189 205 228
188 205 228
188 205 228
188 205 228
188 205 228
188 205 228
188 205 228
188 205 228
188 205 228
188 205 228
188 205 228
188 205 228
188 205 228
188 205 228
188 205 228
188 205 228
188 205 228
188 205 228
187 205 228
187 205 228
187 205 228
187 205 228
187 205 228
187 205 228
187 205 228
187 205 228
187 205 228
187 205 228
187 205 228
187 205 228
187 204 228
187 204 228
187 204 228
187 204 228
187 204 228
187 204 228
186 204 228
186 204 228
186 204 228
186 204 228
186 204 228
186 204 228
186 204 228
186 204 228
186 204 228
186 204 228
186 204 228
186 204 228
186 204 228
186 204 228
186 204 228
186 204 228
186 204 228
186 204 228
186 204 228
186 204 228
186 204 228
186 204 228
186 204 228
186 204 228
186 204 228
186 204 228
186 204 228
186 204 228
186 204 228
186 204 228
186 204 228
137 156 187
55 87 139
55 87 144
53 85 140
54 85 139
53 85 141
53 84 137
53 83 137
51 82 131
53 84 141
51 81 135
51 81 135
49 79 129
50 81 134
51 82 142
50 80 139
46 75 128
46 74 133
46 75 133
48 77 132
44 72 131
42 68 122
45 73 127
42 68 125
43 70 132
41 67 127
60 83 134
187 203 225
191 207 228
196 211 232
218 234 255
216 231 254
54 83 140
55 88 145
57 91 152
58 92 146
59 93 145
58 92 145
57 91 136
60 95 147
59 93 140
58 92 134
60 94 145
59 94 147
61 96 156
58 92 146
60 95 147
61 96 150
60 95 141
60 95 146
60 94 148
61 97 150
60 96 143
61 95 147
60 95 158
61 96 152
60 95 141
60 95 140
60 95 140
59 93 137
59 94 135
61 95 142
62 97 153
60 95 145
59 94 137
60 95 146
60 94 139
61 96 144
61 95 146
60 95 147
59 93 140
60 95 144
60 96 145
61 96 145
60 95 142
61 96 149
58 93 141
60 95 142
62 97 151
61 96 149
61 96 147
59 94 126
61 96 153
60 95 141
62 97 145
61 96 149
60 95 142
60 95 144
61 95 141
61 95 141
59 94 136
61 96 147
62 97 150
61 97 149
62 97 149
61 96 147
60 96 142
60 95 142
61 96 147
61 96 144
61 96 145
59 94 140
62 97 149
62 97 155
60 95 146
60 95 139
60 95 138
61 96 152
60 95 136
61 96 153
61 97 151
61 96 148
59 93 138
58 93 132
59 93 140
59 94 138
61 96 147
60 95 143
58 93 142
60 94 143
60 95 146
60 95 150
59 93 143
59 93 147
59 93 149
57 91 142
58 93 142
57 91 140
57 91 151
57 90 147
55 88 140
58 89 139
214 229 252
218 234 255
196 212 232
191 207 228
188 204 227
70 93 147
40 66 123
44 71 134
44 72 132
42 69 126
45 73 133
45 73 128
46 74 130
46 74 127
48 77 135
47 76 131
50 80 139
51 81 139
50 80 136
50 80 135
52 83 136
51 81 133
52 83 130
53 84 139
53 84 144
52 84 135
53 85 140
53 85 139
54 86 141
54 85 137
54 86 136
153 172 205
186 204 228
186 204 228
186 204 228
186 204 228
186 204 228
186 204 228
186 204 228
186 204 228
186 204 228
186 204 228
186 204 228
186 204 228
186 204 228
186 204 228
186 204 228
186 204 228
186 204 228
186 204 228
186 204 228
186 204 228
186 204 228
186 204 228
186 204 228
186 204 228
186 204 228
186 204 228
186 204 228
186 204 228
186 204 228
186 204 228
187 204 228
187 204 228
187 204 228
187 204 228
187 204 228
187 204 228
187 204 228
187 205 228
187 205 228
187 205 228
187 205 228
187 205 228
187 205 228
187 205 228
187 205 228
187 205 228
187 205 228
187 205 228
188 205 228
188 205 228
188 205 228
188 205 228
188 205 228
188 205 228
188 205 228
188 205 228
188 205 228
188 205 228
188 205 228
188 205 228
188 205 228
188 205 228
188 205 228
188 205 228
188 205 228
189 205 228
189 205 228
189 205 228
189 206 228
189 206 228
189 206 228
189 206 228
189 206 228
189 206 228
189 206 228
189 206 228
189 206 228
189 206 228
189 206 228
189 206 228
189 206 228
189 206 228
190 206 228
190 206 228
190 206 228
190 206 228
190 206 228
190 206 228
190 206 228
190 206 228
190 206 228
190 206 228
190 206 228
190 206 228
190 206 228
190 206 228
190 206 228
190 207 228
191 207 228
191 207 228
191 207 228
191 207 228
191 207 228
191 207 228
191 207 228
191 207 228
191 207 228
191 207 228
191 207 228
191 207 228
191 207 228
191 207 228
191 207 228
191 207 228
191 207 228
192 207 228
192 207 228
192 207 228
192 207 228
192 207 228
192 207 228
192 207 228
192 207 228
192 207 228
192 207 228
192 207 228
192 207 228
192 207 228
192 207 228
192 207 228
192 207 228
191 207 228
191 207 228
191 207 228
191 207 228
191 207 228
191 207 228
191 207 228
191 207 228
191 207 228
191 207 228
191 207 228
191 207 228
191 207 228
191 207 228
191 207 228
191 207 228
191 207 228
191 207 228
191 207 228
190 206 228
190 206 228
190 206 228
190 206 228
190 206 228
190 206 228
190 206 228
190 206 228
190 206 228
190 206 228
190 206 228
190 206 228
190 206 228
190 206 228
190 206 228
190 206 228
190 206 228
190 206 228
189 206 228
189 206 228
189 206 228
189 206 228
189 206 228
189 206 228
189 206 228
189 206 228
189 206 228
189 206 228
189 206 228
189 206 228
189 206 228
189 206 228
189 206 228
189 205 228
189 205 228
188 205 228
188 205 228
188 205 228
188 205 228
188 205 228
188 205 228
188 205 228
188 205 228
188 205 228
188 205 228
188 205 228
188 205 228
188 205 228
188 205 228
188 205 228
188 205 228
188 205 228
188 205 228
188 205 228
188 205 228
187 205 228
187 205 228
187 205 228
187 205 228
187 205 228
187 205 228
187 205 228
187 205 228
187 205 228
187 205 228
187 205 228
187 205 228
187 205 228
187 205 228
187 205 228
187 204 228
187 205 228
187 205 228
187 204 228
187 204 228
187 204 228
187 204 228
187 204 228
187 204 228
187 204 228
187 204 228
187 204 228
187 204 228
187 204 228
187 204 228
187 204 228
83 108 154
53 85 130
53 84 134
54 85 140
54 85 140
53 84 130
53 85 140
51 82 131
52 83 132
51 82 133
50 80 131
50 80 133
51 82 137
50 80 131
48 76 132
50 80 135
49 79 135
48 77 130
46 75 125
44 71 126
45 73 130
43 69 121
38 63 116
41 67 123
44 72 126
40 66 125
43 71 132
145 161 189
192 207 228
193 208 228
215 231 252
195 211 235
55 87 146
57 90 147
54 87 138
56 90 145
58 92 140
58 92 146
58 92 141
59 93 145
59 94 146
60 94 150
60 95 144
58 92 140
60 95 145
59 93 138
60 95 142
60 95 142
59 93 137
59 94 137
60 94 146
60 95 140
60 94 138
61 96 142
60 94 142
61 95 147
61 96 144
61 96 152
60 95 137
60 95 145
59 94 137
60 95 143
60 95 144
60 95 143
61 96 145
61 96 154
61 96 142
61 96 143
61 96 142
61 96 141
60 96 148
59 94 141
61 96 148
60 95 139
60 96 141
61 95 135
61 96 143
59 94 133
61 96 149
61 96 141
60 95 141
60 95 140
61 96 142
60 95 141
61 96 143
61 96 141
60 94 134
60 95 141
60 95 145
61 96 152
61 95 140
60 95 142
60 95 144
59 93 126
60 95 142
60 96 142
60 96 142
61 96 147
61 96 144
61 96 150
61 96 145
61 96 144
61 96 147
60 95 141
61 96 147
60 95 141
60 95 145
60 94 134
60 95 142
59 94 139
61 96 151
61 96 147
59 94 133
60 95 140
59 94 142
60 95 150
59 94 137
59 93 137
59 94 142
59 94 146
60 94 143
59 94 141
60 95 147
60 94 143
56 90 139
58 92 141
59 93 142
57 91 139
57 90 140
57 91 144
54 86 135
54 86 145
191 207 230
216 232 254
193 208 228
192 207 228
147 163 192
42 68 125
41 67 126
41 67 126
39 64 122
42 68 125
44 72 130
44 72 130
46 75 128
47 76 135
46 74 125
48 77 129
49 78 134
49 79 137
48 77 130
50 80 136
50 80 131
49 78 129
52 82 136
52 82 133
53 84 135
53 84 140
53 85 137
53 84 138
54 86 139
55 87 146
55 87 144
85 110 158
187 204 228
187 204 228
187 204 228
187 204 228
187 204 228
187 204 228
187 204 228
187 204 228
187 204 228
187 204 228
187 204 228
187 204 228
187 204 228
187 204 228
187 205 228
187 205 228
187 205 228
187 205 228
187 205 228
187 205 228
187 205 228
187 205 228
187 205 228
187 205 228
187 205 228
187 205 228
187 205 228
187 205 228
187 205 228
187 205 228
187 205 228
188 205 228
188 205 228
188 205 228
188 205 228
188 205 228
188 205 228
188 205 228
188 205 228
188 205 228
188 205 228
188 205 228
188 205 228
188 205 228
188 205 228
188 205 228
188 205 228
188 205 228
188 205 228
188 205 228
188 205 228
189 205 228
189 205 228
189 205 228
189 206 228
189 206 228
189 206 228
189 206 228
189 206 228
189 206 228
189 206 228
189 206 228
189 206 228
189 206 228
189 206 228
189 206 228
189 206 228
189 206 228
189 206 228
190 206 228
190 206 228
190 206 228
190 206 228
190 206 228
190 206 228
190 206 228
190 206 228
190 206 228
190 206 228
190 206 228
190 206 228
190 206 228
190 206 228
190 206 228
190 206 228
190 206 228
190 207 228
191 207 228
191 207 228
191 207 228
191 207 228
191 207 228
191 207 228
191 207 228
191 207 228
191 207 228
191 207 228
191 207 228
191 207 228
191 207 228
191 207 228
191 207 228
191 207 228
191 207 228
191 207 228
192 207 228
192 207 228
192 207 228
192 207 228
192 207 228
192 207 228
192 207 228
192 207 228
192 207 228
192 207 228
192 207 228
192 207 228
192 207 228
193 208 228
193 208 228
193 208 228
193 208 228
193 208 228
192 208 228
192 208 228
192 208 228
192 208 228
192 208 228
192 207 228
192 207 228
192 207 228
192 207 228
192 207 228
192 207 228
192 207 228
192 207 228
192 207 228
192 207 228
192 207 228
192 207 228
192 207 228
192 207 228
192 207 228
192 207 228
191 207 228
191 207 228
191 207 228
191 207 228
191 207 228
191 207 228
191 207 228
191 207 228
191 207 228
191 207 228
191 207 228
191 207 228
191 207 228
191 207 228
191 207 228
191 207 228
191 207 228
191 207 228
191 207 228
190 207 228
190 206 228
190 206 228
190 206 228
190 206 228
190 206 228
190 206 228
190 206 228
190 206 228
190 206 228
190 206 228
190 206 228
190 206 228
190 206 228
190 206 228
190 206 228
190 206 228
190 206 228
190 206 228
190 206 228
189 206 228
189 206 228
189 206 228
189 206 228
189 206 228
189 206 228
189 206 228
189 206 228
189 206 228
189 206 228
189 206 228
189 206 228
189 206 228
189 206 228
189 206 228
189 206 228
189 206 228
189 206 228
189 205 228
189 205 228
189 205 228
188 205 228
188 205 228
188 205 228
188 205 228
188 205 228
188 205 228
188 205 228
188 205 228
188 205 228
188 205 228
188 205 228
188 205 228
188 205 228
188 205 228
188 205 228
188 205 228
188 205 228
188 205 228
188 205 228
188 205 228
188 205 228
188 205 228
188 205 228
188 205 228
188 205 228
188 205 228
188 205 228
188 205 228
188 205 228
188 205 228
188 205 228
170 187 214
55 87 136
53 84 128
55 87 146
54 85 137
54 85 140
54 84 139
52 83 136
51 82 135
51 81 133
51 82 133
52 83 138
51 81 135
48 77 124
49 79 136
49 78 131
47 76 127
46 74 129
47 75 125
45 73 132
46 74 131
44 72 126
42 68 115
42 69 125
41 66 119
39 64 121
38 62 119
39 64 121
64 85 134
192 207 228
193 208 228
208 223 244
171 187 214
50 81 133
55 88 139
57 91 143
57 91 147
58 93 144
57 91 141
58 92 148
58 91 138
60 94 148
58 92 136
59 94 140
59 93 146
60 95 147
59 94 139
58 92 135
59 93 140
61 96 148
61 96 146
60 94 135
60 94 139
61 95 150
60 95 144
60 94 140
61 96 146
58 92 127
60 95 141
60 94 140
61 96 139
60 94 141
60 95 145
59 94 137
60 94 135
60 95 138
61 96 145
61 96 152
62 97 154
60 95 133
60 95 142
60 95 148
59 94 134
60 95 137
60 94 148
61 97 151
60 95 143
60 95 140
61 96 143
61 97 148
60 95 145
61 96 156
60 95 140
59 94 135
60 95 139
61 96 147
59 94 136
61 96 145
59 94 134
62 97 154
61 96 144
60 95 137
60 94 141
60 95 136
61 96 139
60 95 140
61 96 142
60 94 137
61 96 148
60 95 143
61 96 141
61 96 146
61 96 140
61 96 144
60 95 139
61 96 143
60 95 140
60 95 138
60 95 141
59 94 135
59 94 140
61 96 152
61 96 145
60 95 149
60 94 143
59 94 134
58 92 135
60 95 141
60 95 142
59 93 135
59 94 145
59 92 138
58 93 134
59 94 137
60 94 147
59 93 145
58 92 139
58 92 146
59 93 150
55 87 132
56 88 138
55 88 145
54 86 139
172 189 218
211 226 247
193 208 228
190 206 227
69 89 138
37 60 116
40 65 124
40 65 119
37 61 118
43 69 122
42 68 120
43 70 125
43 69 116
46 73 122
45 73 123
47 75 121
49 78 131
49 78 121
51 81 136
52 82 137
50 81 133
51 81 135
51 81 130
51 82 130
53 84 132
52 82 135
54 86 142
53 84 138
53 84 128
53 84 136
55 87 138
55 87 148
167 185 214
188 205 228
188 205 228
188 205 228
188 205 228
188 205 228
188 205 228
188 205 228
188 205 228
188 205 228
188 205 228
188 205 228
188 205 228
188 205 228
188 205 228
188 205 228
188 205 228
188 205 228
188 205 228
188 205 228
188 205 228
188 205 228
188 205 228
188 205 228
188 205 228
188 205 228
188 205 228
188 205 228
188 205 228
188 205 228
188 205 228
189 205 228
189 205 228
189 205 228
189 206 228
189 206 228
189 206 228
189 206 228
189 206 228
189 206 228
189 206 228
189 206 228
189 206 228
189 206 228
189 206 228
189 206 228
189 206 228
189 206 228
189 206 228
189 206 228
189 206 228
189 206 228
189 206 228
190 206 228
190 206 228
190 206 228
190 206 228
190 206 228
190 206 228
190 206 228
190 206 228
190 206 228
190 206 228
190 206 228
190 206 228
190 206 228
190 206 228
190 206 228
190 206 228
190 206 228
190 206 228
190 206 228
190 207 228
191 207 228
191 207 228
191 207 228
191 207 228
191 207 228
191 207 228
191 207 228
191 207 228
191 207 228
191 207 228
191 207 228
191 207 228
191 207 228
191 207 228
191 207 228
191 207 228
191 207 228
191 207 228
191 207 228
191 207 228
192 207 228
192 207 228
192 207 228
192 207 228
192 207 228
192 207 228
192 207 228
192 207 228
192 207 228
192 207 228
192 207 228
192 207 228
192 207 228
192 207 228
192 208 228
192 208 228
192 208 228
192 208 228
192 208 228
192 208 228
193 208 228
193 208 228
193 208 228
193 208 228
193 208 228
193 208 228
193 208 228
193 208 228
193 208 228
193 208 228
193 208 228
193 208 228
193 208 228
193 208 228
193 208 228
193 208 228
193 208 228
193 208 228
193 208 228
193 208 228
193 208 228
193 208 228
192 208 228
192 208 228
192 208 228
192 208 228
192 208 228
192 208 228
192 207 228
192 207 228
192 207 228
192 207 228
192 207 228
192 207 228
192 207 228
192 207 228
192 207 228
192 207 228
192 207 228
192 207 228
192 207 228
192 207 228
192 207 228
192 207 228
192 207 228
192 207 228
191 207 228
191 207 228
191 207 228
191 207 228
191 207 228
191 207 228
191 207 228
191 207 228
191 207 228
191 207 228
191 207 228
191 207 228
191 207 228
191 207 228
191 207 228
191 207 228
191 207 228
191 207 228
191 207 228
191 207 228
191 207 228
190 207 228
190 207 228
190 206 228
190 206 228
190 206 228
190 206 228
190 206 228
190 206 228
190 206 228
190 206 228
190 206 228
190 206 228
190 206 228
190 206 228
190 206 228
190 206 228
190 206 228
190 206 228
190 206 228
190 206 228
190 206 228
190 206 228
190 206 228
190 206 228
190 206 228
189 206 228
189 206 228
189 206 228
189 206 228
189 206 228
189 206 228
189 206 228
189 206 228
189 206 228
189 206 228
189 206 228
189 206 228
189 206 228
189 206 228
189 206 228
189 206 228
189 206 228
189 206 228
189 206 228
189 206 228
189 206 228
189 206 228
189 206 228
189 206 228
189 206 228
189 206 228
189 206 228
189 206 228
189 206 228
189 206 228
121 141 173
55 86 136
54 86 134
53 84 132
52 83 128
54 85 134
53 84 134
52 83 136
52 82 137
52 83 134
51 81 134
50 80 133
50 80 124
49 78 126
49 78 131
50 80 136
47 75 125
47 75 127
45 73 124
44 71 121
46 73 124
40 66 117
43 70 118
39 65 117
39 64 117
37 61 111
38 63 118
37 61 111
35 58 111
155 170 196
193 208 228
206 220 241
152 168 197
53 85 132
56 88 137
58 92 142
58 92 144
57 90 135
57 91 140
58 92 141
59 93 141
59 93 140
59 93 136
59 94 148
58 92 124
58 92 141
60 95 145
60 95 145
59 94 139
60 95 141
60 95 141
60 95 146
61 96 149
59 94 139
61 96 145
60 94 141
60 94 141
59 94 139
61 96 142
60 95 142
61 96 145
60 94 136
59 94 132
62 97 155
61 96 142
59 94 130
60 95 142
61 96 145
59 93 134
61 96 143
60 95 142
61 96 142
60 96 142
61 96 147
60 95 143
59 94 136
61 96 148
61 96 140
62 98 150
60 94 141
61 96 145
60 95 144
60 95 141
61 96 143
61 96 145
61 96 142
61 96 151
61 97 143
60 95 142
61 97 147
59 93 128
61 96 144
61 96 144
60 94 132
61 95 145
58 93 130
60 94 137
60 95 147
62 97 148
62 97 148
61 96 145
60 96 141
61 96 145
60 95 143
61 96 146
60 95 146
60 95 139
61 97 152
59 93 135
60 94 139
60 95 139
60 94 144
60 96 142
60 95 150
60 95 145
60 95 137
60 94 140
59 94 142
60 95 148
58 91 133
59 94 147
61 96 151
60 94 150
59 94 149
60 94 147
58 93 145
59 93 140
58 92 138
57 91 144
56 90 142
55 88 134
56 89 140
52 83 131
138 155 188
204 219 240
193 208 228
166 182 208
39 65 122
40 65 122
36 60 117
36 60 114
40 65 118
42 67 120
42 68 124
43 69 123
44 71 122
45 72 124
46 75 124
46 73 121
47 75 111
49 78 129
48 76 127
51 81 137
48 78 123
51 80 130
51 81 133
50 80 133
51 82 132
53 84 138
53 84 129
53 84 133
54 85 138
54 85 136
53 85 129
54 86 141
127 146 182
189 206 228
189 206 228
189 206 228
189 206 228
189 206 228
189 206 228
189 206 228
189 206 228
189 206 228
189 206 228
189 206 228
189 206 228
189 206 228
189 206 228
189 206 228
189 206 228
189 206 228
189 206 228
189 206 228
189 206 228
189 206 228
189 206 228
189 206 228
189 206 228
189 206 228
189 206 228
189 206 228
189 206 228
190 206 228
189 206 228
189 206 228
190 206 228
190 206 228
190 206 228
190 206 228
190 206 228
190 206 228
190 206 228
190 206 228
190 206 228
190 206 228
190 206 228
190 206 228
190 206 228
190 206 228
190 206 228
190 206 228
190 206 228
190 206 228
190 206 228
190 206 228
190 206 228
190 206 228
190 207 228
190 207 228
191 207 228
191 207 228
191 207 228
191 207 228
191 207 228
191 207 228
191 207 228
191 207 228
191 207 228
191 207 228
191 207 228
191 207 228
191 207 228
191 207 228
191 207 228
191 207 228
191 207 228
191 207 228
191 207 228
191 207 228
191 207 228
191 207 228
192 207 228
192 207 228
192 207 228
192 207 228
192 207 228
192 207 228
192 207 228
192 207 228
192 207 228
192 207 228
192 207 228
192 207 228
192 207 228
192 207 228
192 207 228
192 207 228
192 207 228
192 208 228
192 208 228
192 208 228
192 208 228
192 208 228
193 208 228
193 208 228
193 208 228
193 208 228
193 208 228
193 208 228
193 208 228
193 208 228
193 208 228
193 208 228
193 208 228
193 208 228
193 208 228
193 208 228
193 208 228
193 208 228
193 208 228
193 208 228
194 208 228
194 208 228
194 208 228
194 208 228
194 208 228
194 208 228
194 208 228
193 208 228
193 208 228
193 208 228
193 208 228
193 208 228
193 208 228
193 208 228
193 208 228
193 208 228
193 208 228
193 208 228
193 208 228
193 208 228
193 208 228
193 208 228
193 208 228
193 208 228
193 208 228
193 208 228
193 208 228
193 208 228
193 208 228
193 208 228
193 208 228
193 208 228
193 208 228
192 208 228
192 208 228
192 208 228
192 208 228
192 208 228
192 208 228
192 207 228
192 207 228
192 207 228
192 207 228
192 207 228
192 207 228
192 207 228
192 207 228
192 207 228
192 207 228
192 207 228
192 207 228
192 207 228
192 207 228
192 207 228
192 207 228
192 207 228
192 207 228
192 207 228
192 207 228
192 207 228
191 207 228
191 207 228
191 207 228
191 207 228
191 207 228
191 207 228
191 207 228
191 207 228
191 207 228
191 207 228
191 207 228
191 207 228
191 207 228
191 207 228
191 207 228
191 207 228
191 207 228
191 207 228
191 207 228
191 207 228
191 207 228
191 207 228
191 207 228
191 207 228
190 207 228
190 207 228
190 206 228
190 206 228
190 206 228
190 206 228
190 206 228
190 206 228
190 206 228
190 206 228
190 206 228
190 206 228
190 206 228
190 206 228
190 206 228
190 206 228
190 206 228
190 206 228
190 206 228
190 206 228
190 206 228
190 206 228
190 206 228
190 206 228
190 206 228
190 206 228
190 206 228
190 206 228
190 206 228
190 206 228
190 206 228
190 206 228
190 206 228
83 107 147
55 87 135
53 85 133
53 84 130
53 85 136
53 84 133
52 83 134
52 83 129
52 82 127
50 81 128
51 81 129
50 79 127
49 78 129
47 76 120
50 80 135
48 77 126
47 75 123
46 74 119
44 72 122
44 71 122
42 69 121
43 69 120
42 68 121
42 68 120
40 66 119
37 61 111
34 57 109
36 60 114
34 57 108
125 140 167
194 208 228
199 213 233
120 139 177
55 88 139
55 88 132
56 89 133
58 92 140
58 92 143
58 92 143
56 89 125
58 92 144
60 95 144
57 90 134
58 92 136
58 92 142
59 93 137
59 93 134
59 94 138
59 94 137
60 94 136
61 96 150
60 95 144
59 92 134
60 95 141
59 94 138
60 95 143
61 95 144
59 94 136
60 95 142
60 94 137
61 96 143
61 96 145
60 95 144
61 96 142
60 94 135
61 96 142
61 97 146
60 94 134
61 96 145
60 95 137
60 95 133
60 95 139
61 96 144
60 95 142
60 95 139
60 96 144
60 95 140
61 96 141
61 96 146
59 94 131
62 97 153
60 95 142
61 96 143
62 97 151
61 96 143
62 97 145
61 96 145
60 95 140
60 95 137
61 96 147
60 95 135
61 96 145
58 92 125
61 95 140
61 96 146
61 96 144
60 95 139
60 95 141
61 95 140
60 95 138
60 95 147
61 95 138
61 96 146
60 95 144
60 94 138
62 97 154
60 94 144
59 94 133
59 93 133
59 94 125
60 94 138
60 94 142
60 95 138
60 95 142
60 95 144
60 94 145
60 94 135
59 93 144
60 94 137
58 92 135
59 93 140
60 94 140
58 92 138
58 93 132
60 94 142
60 94 149
58 92 144
57 90 134
58 92 147
57 91 146
56 89 139
53 85 136
56 89 142
116 135 172
201 216 236
194 208 228
123 137 169
35 58 113
33 55 106
35 59 114
37 60 109
39 65 116
40 66 113
40 65 116
44 71 122
43 70 123
43 70 117
45 73 124
46 74 121
47 75 127
47 76 124
48 78 117
49 78 128
51 81 130
50 79 127
51 82 132
50 80 124
53 84 137
53 84 136
53 84 134
52 82 125
53 84 138
53 85 128
53 84 135
54 86 136
88 111 151
190 206 228
190 206 228
190 206 228
190 206 228
190 206 228
190 206 228
190 206 228
190 206 228
190 206 228
190 206 228
190 206 228
190 206 228
190 206 228
190 206 228
190 206 228
190 206 228
190 206 228
190 206 228
190 206 228
190 206 228
190 206 228
190 206 228
190 206 228
190 206 228
190 206 228
190 206 228
190 206 228
190 206 228
190 206 228
190 206 228
191 207 228
190 207 228
191 207 228
191 207 228
191 207 228
191 207 228
191 207 228
191 207 228
191 207 228
191 207 228
191 207 228
191 207 228
191 207 228
191 207 228
191 207 228
191 207 228
191 207 228
191 207 228
191 207 228
191 207 228
191 207 228
191 207 228
191 207 228
191 207 228
191 207 228
191 207 228
191 207 228
191 207 228
192 207 228
192 207 228
192 207 228
192 207 228
192 207 228
192 207 228
192 207 228
192 207 228
192 207 228
192 207 228
192 207 228
192 207 228
192 207 228
192 207 228
192 207 228
192 207 228
192 207 228
192 207 228
192 207 228
192 208 228
192 208 228
192 208 228
192 208 228
192 208 228
192 208 228
192 208 228
193 208 228
193 208 228
193 208 228
193 208 228
193 208 228
193 208 228
193 208 228
193 208 228
193 208 228
193 208 228
193 208 228
193 208 228
193 208 228
193 208 228
193 208 228
193 208 228
193 208 228
193 208 228
193 208 228
193 208 228
193 208 228
193 208 228
193 208 228
193 208 228
193 208 228
194 208 228
194 208 228
194 208 228
194 208 228
194 208 228
194 208 228
194 208 228
194 208 228
194 209 228
194 209 228
194 209 228
194 209 228
194 209 228
194 209 228
194 209 228
194 209 228
194 208 228
194 208 228
194 208 228
194 208 228
194 208 228
194 208 228
194 208 228
194 208 228
194 208 228
194 208 228
194 208 228
194 208 228
194 208 228
194 208 228
194 208 228
194 208 228
194 208 228
193 208 228
193 208 228
193 208 228
193 208 228
193 208 228
193 208 228
193 208 228
193 208 228
193 208 228
193 208 228
193 208 228
193 208 228
193 208 228
193 208 228
193 208 228
193 208 228
193 208 228
193 208 228
193 208 228
193 208 228
193 208 228
193 208 228
193 208 228
193 208 228
193 208 228
193 208 228
193 208 228
193 208 228
193 208 228
192 208 228
192 208 228
192 208 228
192 208 228
192 208 228
192 208 228
192 208 228
192 207 228
192 207 228
192 207 228
192 207 228
192 207 228
192 207 228
192 207 228
192 207 228
192 207 228
192 207 228
192 207 228
192 207 228
192 207 228
192 207 228
192 207 228
192 207 228
192 207 228
192 207 228
192 207 228
192 207 228
192 207 228
192 207 228
192 207 228
192 207 228
191 207 228
191 207 228
191 207 228
191 207 228
191 207 228
191 207 228
191 207 228
191 207 228
191 207 228
191 207 228
191 207 228
191 207 228
191 207 228
191 207 228
191 207 228
191 207 228
191 207 228
191 207 228
191 207 228
191 207 228
191 207 228
191 207 228
191 207 228
191 207 228
191 207 228
191 207 228
191 207 228
191 207 228
191 207 228
191 207 228
191 207 228
175 191 214
54 85 123
54 86 137
54 86 136
54 85 137
54 86 137
52 82 129
53 83 127
51 82 129
50 80 122
51 80 133
51 81 130
48 77 124
51 81 128
51 82 128
48 76 119
49 78 127
47 75 118
46 74 126
45 73 123
46 73 122
46 73 123
42 69 122
43 70 125
37 61 111
35 58 106
31 52 103
32 53 98
30 51 96
35 58 109
69 88 131
189 204 224
196 210 230
85 108 153
52 83 123
56 89 139
56 89 133
57 90 138
58 92 138
57 90 141
60 94 144
59 93 141
58 92 139
59 93 144
57 91 136
59 93 137
59 93 140
60 94 143
59 94 146
59 94 145
59 93 146
59 93 139
59 94 133
61 96 147
61 96 140
59 94 139
59 94 138
60 95 133
60 94 139
59 94 131
60 95 142
61 96 145
60 95 138
61 96 145
61 96 138
61 97 148
61 96 145
61 96 149
60 96 147
60 95 145
61 96 146
61 96 145
60 96 144
59 93 134
61 96 142
61 96 141
60 94 138
60 95 143
59 94 136
61 96 147
60 95 134
60 95 139
60 96 148
61 96 144
61 96 142
61 96 151
62 97 151
60 95 143
61 96 140
60 95 139
60 94 135
60 95 134
59 93 136
61 96 144
59 94 138
61 96 139
60 95 134
60 94 137
60 94 141
60 96 144
60 95 135
60 95 140
60 95 139
60 95 138
60 95 149
61 96 149
60 95 149
59 93 139
59 93 133
61 96 145
60 95 138
60 94 140
59 93 137
62 97 149
61 96 145
60 94 140
59 92 143
60 94 141
60 95 148
59 93 138
60 94 139
59 94 145
59 93 135
60 94 141
59 94 144
59 94 143
59 93 145
58 92 137
57 90 134
56 89 141
55 88 139
56 90 135
54 86 133
54 86 133
81 104 148
197 211 230
193 207 227
65 83 127
34 56 108
33 54 100
29 49 97
36 60 110
39 64 111
38 62 112
41 67 112
41 67 112
45 72 125
47 75 125
43 70 113
47 76 124
49 78 122
49 78 128
49 78 122
48 77 120
49 78 128
49 79 120
51 81 131
51 80 126
52 82 131
52 82 127
53 84 133
52 82 131
53 85 136
52 83 125
54 85 138
53 85 125
55 87 144
177 193 218
191 207 228
191 207 228
191 207 228
191 207 228
191 207 228
191 207 228
191 207 228
191 207 228
191 207 228
191 207 228
191 207 228
191 207 228
191 207 228
191 207 228
191 207 228
191 207 228
191 207 228
191 207 228
191 207 228
191 207 228
191 207 228
191 207 228
191 207 228
191 207 228
191 207 228
191 207 228
191 207 228
191 207 228
191 207 228
191 207 228
191 207 228
191 207 228
192 207 228
192 207 228
192 207 228
192 207 228
192 207 228
192 207 228
192 207 228
192 207 228
192 207 228
192 207 228
192 207 228
192 207 228
192 207 228
192 207 228
192 207 228
192 207 228
192 207 228
192 207 228
192 207 228
192 207 228
192 207 228
192 207 228
192 207 228
192 208 228
192 208 228
192 208 228
192 208 228
192 208 228
192 208 228
193 208 228
193 208 228
193 208 228
193 208 228
193 208 228
193 208 228
193 208 228
193 208 228
193 208 228
193 208 228
193 208 228
193 208 228
193 208 228
193 208 228
193 208 228
193 208 228
193 208 228
193 208 228
193 208 228
193 208 228
193 208 228
193 208 228
193 208 228
193 208 228
193 208 228
193 208 228
193 208 228
193 208 228
193 208 228
193 208 228
194 208 228
194 208 228
194 208 228
194 208 228
194 208 228
194 208 228
194 208 228
194 208 228
194 208 228
194 208 228
194 208 228
194 208 228
194 208 228
194 208 228
194 208 228
194 208 228
194 208 228
194 209 228
194 209 228
194 209 228
194 209 228
194 209 228
194 209 228
194 209 228
194 209 228
195 209 228
195 209 228
195 209 228
195 209 228
195 209 228
195 209 228
195 209 228
195 209 228
195 209 228
195 209 228
195 209 228
195 209 228
195 209 228
194 209 228
194 209 228
194 209 228
194 209 228
194 209 228
194 209 228
194 209 228
194 209 228
194 209 228
194 209 228
194 209 228
194 209 228
194 209 228
194 209 228
194 209 228
194 209 228
194 208 228
194 208 228
194 208 228
194 208 228
194 208 228
194 208 228
194 208 228
194 208 228
194 208 228
194 208 228
194 208 228
194 208 228
194 208 228
194 208 228
194 208 228
194 208 228
194 208 228
194 208 228
194 208 228
193 208 228
193 208 228
193 208 228
193 208 228
193 208 228
193 208 228
193 208 228
193 208 228
193 208 228
193 208 228
193 208 228
193 208 228
193 208 228
193 208 228
193 208 228
193 208 228
193 208 228
193 208 228
193 208 228
193 208 228
193 208 228
193 208 228
193 208 228
193 208 228
193 208 228
193 208 228
193 208 228
193 208 228
193 208 228
193 208 228
193 208 228
193 208 228
193 208 228
193 208 228
193 208 228
192 208 228
193 208 228
192 208 228
192 208 228
192 208 228
192 208 228
192 208 228
192 208 228
192 208 228
192 208 228
192 207 228
192 208 228
192 207 228
192 207 228
192 207 228
192 207 228
192 207 228
192 207 228
192 207 228
192 207 228
192 207 228
192 207 228
192 207 228
192 207 228
192 207 228
192 207 228
192 207 228
192 207 228
192 207 228
192 207 228
192 207 228
192 207 228
188 204 225
140 158 186
54 86 137
54 85 135
54 85 133
54 85 133
53 84 124
53 85 133
53 83 129
52 82 129
52 83 128
51 81 135
52 82 130
50 80 127
49 78 117
48 76 115
49 78 125
48 77 125
51 81 136
47 75 120
46 74 119
43 69 118
46 73 120
41 67 114
40 65 112
36 59 104
35 58 108
35 58 107
35 57 103
29 48 94
26 44 87
31 51 98
174 188 211
190 204 223
49 78 119
53 85 130
55 88 127
55 87 138
55 88 132
58 91 138
58 92 138
58 92 137
58 92 139
59 93 135
59 93 141
58 93 140
60 94 142
58 92 135
60 94 141
60 94 140
58 93 139
59 94 140
61 95 141
60 95 146
59 94 142
60 95 143
58 92 132
60 95 142
60 95 140
59 94 131
60 94 134
60 95 141
59 94 136
59 94 134
59 93 133
59 94 140
61 96 142
61 96 142
61 96 144
61 96 141
61 96 146
59 94 134
61 96 147
61 96 143
60 95 135
61 96 130
61 96 152
62 97 151
61 96 141
58 92 134
60 95 135
60 95 140
59 94 133
62 97 151
61 96 144
61 96 143
60 95 137
59 94 126
60 95 137
59 94 139
60 94 133
61 96 143
61 95 144
60 95 142
61 96 144
61 96 142
60 95 141
58 93 131
59 94 137
60 95 141
60 95 134
61 96 151
59 93 133
60 95 143
60 95 134
59 93 135
61 96 147
61 95 144
61 96 146
60 95 137
59 93 133
60 96 141
61 95 141
61 96 144
59 93 132
59 93 135
59 93 132
60 95 140
59 93 140
60 95 147
59 93 141
60 95 144
59 94 141
59 93 138
58 93 136
59 94 148
57 91 132
59 93 137
58 91 133
57 90 132
57 90 128
57 90 131
55 88 135
55 87 128
54 85 127
53 85 140
192 206 226
170 184 206
34 57 99
28 47 91
32 53 96
33 56 107
36 59 104
41 66 115
37 61 105
43 69 122
41 67 106
43 69 119
42 68 113
43 69 113
47 75 122
46 73 118
48 77 122
51 80 132
50 79 121
50 79 124
49 78 126
50 79 123
49 78 117
51 81 117
53 83 125
51 82 127
52 82 125
51 82 124
54 85 128
54 85 137
53 85 129
55 87 136
138 157 186
189 205 226
192 207 228
192 207 228
192 207 228
192 207 228
192 207 228
192 207 228
192 207 228
192 207 228
192 207 228
192 207 228
192 207 228
192 207 228
192 207 228
192 207 228
192 207 228
192 207 228
192 207 228
192 207 228
192 207 228
192 207 228
192 208 228
192 208 228
192 208 228
192 208 228
192 208 228
192 208 228
192 208 228
192 208 228
192 208 228
192 208 228
193 208 228
193 208 228
193 208 228
193 208 228
193 208 228
193 208 228
193 208 228
193 208 228
193 208 228
193 208 228
193 208 228
193 208 228
193 208 228
193 208 228
193 208 228
193 208 228
193 208 228
193 208 228
193 208 228
193 208 228
193 208 228
193 208 228
193 208 228
193 208 228
193 208 228
193 208 228
193 208 228
193 208 228
193 208 228
193 208 228
193 208 228
193 208 228
193 208 228
193 208 228
193 208 228
194 208 228
194 208 228
194 208 228
194 208 228
194 208 228
194 208 228
194 208 228
194 208 228
194 208 228
194 208 228
194 208 228
194 208 228
194 208 228
194 208 228
194 208 228
194 208 228
194 208 228
194 208 228
194 208 228
194 208 228
194 208 228
194 208 228
194 209 228
194 209 228
194 209 228
194 209 228
194 209 228
194 209 228
194 209 228
194 209 228
194 209 228
194 209 228
194 209 228
194 209 228
194 209 228
194 209 228
195 209 228
194 209 228
195 209 228
195 209 228
195 209 228
195 209 228
195 209 228
195 209 228
195 209 228
195 209 228
195 209 228
195 209 228
195 209 228
195 209 228
195 209 228
195 209 228
195 209 228
195 209 228
195 209 228
195 209 228
195 209 228
195 209 228
195 209 228
195 209 228
195 209 228
195 209 228
195 209 228
195 209 228
195 209 228
195 209 228
195 209 228
195 209 228
195 209 228
195 209 228
195 209 228
195 209 228
195 209 228
195 209 228
195 209 228
195 209 228
195 209 228
195 209 228
195 209 228
195 209 228
195 209 228
195 209 228
195 209 228
195 209 228
195 209 228
195 209 228
195 209 228
195 209 228
194 209 228
194 209 228
194 209 228
194 209 228
194 209 228
194 209 228
194 209 228
194 209 228
194 209 228
194 209 228
194 209 228
194 209 228
194 209 228
194 209 228
194 209 228
194 209 228
194 209 228
194 209 228
194 209 228
194 209 228
194 209 228
194 208 228
194 208 228
194 208 228
194 208 228
194 208 228
194 208 228
194 208 228
194 208 228
194 208 228
194 208 228
194 208 228
194 208 228
194 208 228
194 208 228
194 208 228
194 208 228
194 208 228
194 208 228
194 208 228
194 208 228
194 208 228
194 208 228
194 208 228
194 208 228
193 208 228
193 208 228
193 208 228
193 208 228
193 208 228
193 208 228
193 208 228
193 208 228
193 208 228
193 208 228
193 208 228
193 208 228
193 208 228
193 208 228
193 208 228
193 208 228
193 208 228
193 208 228
193 208 228
193 208 228
193 208 228
193 208 228
193 208 228
193 208 228
193 208 228
193 208 228
193 208 228
193 208 228
193 208 228
193 208 228
193 208 228
193 208 228
173 189 211
124 144 167
54 85 128
54 85 129
53 84 127
53 83 128
51 81 124
52 83 133
51 81 122
52 83 125
52 82 120
51 81 130
49 79 121
51 81 131
49 78 125
48 77 118
49 78 126
49 77 125
47 75 115
46 74 118
45 72 115
47 74 119
43 69 112
40 65 106
36 60 103
38 62 111
39 64 114
36 59 104
34 57 103
28 46 83
34 56 103
30 50 95
161 174 195
186 200 220
51 83 130
54 86 136
54 86 128
53 85 125
56 90 134
58 91 142
57 90 138
58 91 132
58 91 134
59 93 134
59 94 144
58 92 137
59 93 138
59 94 147
59 93 127
60 94 143
58 93 130
58 92 127
60 95 143
59 94 140
59 93 132
60 95 140
60 94 137
60 94 134
60 94 131
60 95 140
60 95 148
60 95 137
60 95 142
60 94 136
60 95 136
60 95 140
60 94 135
59 93 134
59 94 131
60 95 136
61 96 143
60 95 134
59 94 139
59 93 126
60 95 141
61 96 145
60 95 137
57 91 122
60 95 135
60 95 140
61 96 141
61 96 144
60 95 133
59 94 131
61 95 141
60 95 136
61 96 143
59 93 132
59 93 124
60 94 137
60 95 141
60 95 141
61 96 144
60 95 140
59 94 136
59 94 133
59 93 127
60 95 143
59 94 134
61 96 147
59 93 131
58 93 127
60 95 141
60 95 143
60 95 140
61 96 141
60 95 137
61 95 145
60 95 148
60 95 144
60 95 141
59 93 133
60 95 140
59 94 133
61 96 140
59 94 136
60 95 139
58 92 139
58 91 127
59 93 132
58 91 134
59 93 135
59 93 135
58 92 132
57 91 131
60 94 144
57 91 139
57 91 124
57 91 138
57 90 124
56 90 131
57 91 142
54 86 123
54 86 128
52 84 126
50 79 119
184 198 218
154 168 192
31 51 96
31 51 101
29 49 88
34 57 107
36 59 99
34 56 101
40 65 111
40 65 108
42 68 112
42 68 108
44 71 114
44 71 116
48 76 129
47 75 122
46 73 121
48 77 120
47 75 114
49 78 121
51 81 129
50 79 121
50 80 128
49 79 116
52 82 123
51 81 121
52 82 128
53 84 127
53 84 134
53 84 125
53 84 126
55 87 137
131 151 182
175 191 212
193 208 228
193 208 228
193 208 228
193 208 228
193 208 228
193 208 228
193 208 228
193 208 228
193 208 228
193 208 228
193 208 228
193 208 228
193 208 228
193 208 228
193 208 228
193 208 228
193 208 228
193 208 228
193 208 228
193 208 228
193 208 228
193 208 228
193 208 228
193 208 228
193 208 228
193 208 228
193 208 228
193 208 228
193 208 228
193 208 228
193 208 228
193 208 228
193 208 228
194 208 228
194 208 228
194 208 228
194 208 228
194 208 228
194 208 228
194 208 228
194 208 228
194 208 228
194 208 228
194 208 228
194 208 228
194 208 228
194 208 228
194 208 228
194 208 228
194 208 228
194 208 228
194 208 228
194 208 228
194 208 228
194 208 228
194 209 228
194 208 228
194 209 228
194 209 228
194 209 228
194 209 228
194 209 228
194 209 228
194 209 228
194 209 228
194 209 228
194 209 228
194 209 228
194 209 228
194 209 228
194 209 228
194 209 228
194 209 228
194 209 228
194 209 228
194 209 228
194 209 228
195 209 228
195 209 228
195 209 228
195 209 228
195 209 228
195 209 228
195 209 228
195 209 228
195 209 228
195 209 228
195 209 228
195 209 228
195 209 228
195 209 228
195 209 228
195 209 228
195 209 228
195 209 228
195 209 228
195 209 228
195 209 228
195 209 228
195 209 228
195 209 228
195 209 228
195 209 228
195 209 228
195 209 228
195 209 228
195 209 228
195 209 228
195 209 228
195 209 228
195 209 228
195 209 228
195 209 228
195 209 228
195 209 228
196 210 228
196 210 228
196 210 228
196 210 228
196 210 228
196 210 228
196 209 228
196 209 228
196 209 228
196 209 228
196 209 228
196 209 228
196 209 228
196 209 228
196 209 228
196 209 228
196 209 228
196 209 228
196 209 228
196 209 228
196 209 228
196 209 228
196 209 228
196 209 228
195 209 228
195 209 228
195 209 228
195 209 228
195 209 228
195 209 228
195 209 228
195 209 228
195 209 228
195 209 228
195 209 228
195 209 228
195 209 228
195 209 228
195 209 228
195 209 228
195 209 228
195 209 228
195 209 228
195 209 228
195 209 228
195 209 228
195 209 228
195 209 228
195 209 228
195 209 228
195 209 228
195 209 228
195 209 228
195 209 228
195 209 228
195 209 228
195 209 228
195 209 228
195 209 228
195 209 228
195 209 228
195 209 228
195 209 228
195 209 228
195 209 228
195 209 228
195 209 228
195 209 228
195 209 228
195 209 228
195 209 228
195 209 228
195 209 228
195 209 228
195 209 228
195 209 228
195 209 228
195 209 228
195 209 228
194 209 228
194 209 228
194 209 228
194 209 228
194 209 228
194 209 228
194 209 228
194 209 228
194 209 228
194 209 228
194 209 228
194 209 228
194 209 228
194 209 228
194 209 228
194 209 228
194 209 228
194 209 228
194 209 228
194 209 228
194 209 228
194 209 228
194 209 228
194 209 228
194 209 228
194 209 228
194 209 228
194 209 228
194 209 228
194 209 228
194 209 228
194 209 228
194 209 228
194 209 228
194 209 228
191 205 225
166 182 204
107 128 160
54 85 129
54 86 135
53 84 130
53 84 123
52 82 122
52 83 126
52 82 128
52 81 128
50 80 118
51 81 123
50 79 122
50 79 123
48 76 120
47 75 108
48 76 124
47 75 115
47 76 123
45 72 116
43 69 106
43 68 102
40 65 109
39 63 106
40 64 108
37 59 105
37 60 100
33 55 97
34 55 98
29 48 86
33 54 102
28 47 88
137 150 171
177 191 211
51 82 123
54 86 127
55 88 134
57 90 136
55 87 127
56 89 137
57 91 130
59 93 143
57 90 130
58 92 137
60 94 140
58 91 136
60 95 142
59 93 137
59 93 130
59 93 135
59 94 136
60 94 143
60 94 138
60 94 143
59 94 138
61 96 147
59 93 133
60 95 145
59 94 140
60 95 136
60 95 143
59 93 142
60 95 140
59 94 131
58 92 127
60 95 136
60 94 131
60 95 143
60 94 134
59 93 136
60 95 136
60 95 143
60 94 134
61 97 145
61 96 147
60 95 146
62 97 143
60 95 137
60 95 135
60 95 135
60 95 142
61 96 137
61 95 142
61 95 146
61 96 140
60 95 142
60 95 142
61 96 139
60 95 133
61 96 140
59 93 130
60 95 142
59 94 140
60 94 139
59 94 136
60 95 140
59 94 130
60 94 136
60 95 138
61 95 144
60 94 134
59 93 140
60 95 139
61 96 142
61 96 141
61 95 142
62 97 146
60 95 139
59 94 133
59 93 135
59 94 131
60 95 143
61 96 147
61 96 147
59 94 136
60 95 139
61 96 146
59 93 134
60 95 135
59 93 135
58 92 133
57 90 128
57 91 129
58 92 136
59 93 144
58 92 132
59 94 140
58 91 128
56 89 127
56 90 132
56 88 127
57 90 136
56 89 129
55 87 122
53 85 131
50 81 124
176 190 212
132 145 165
27 45 81
25 42 80
31 52 99
32 52 89
35 57 101
39 63 109
38 62 102
38 63 97
39 63 100
44 70 112
42 68 113
45 72 117
45 73 111
45 73 115
48 76 119
47 75 113
48 77 117
48 77 118
50 80 116
48 76 119
51 81 124
49 78 117
51 82 121
51 82 125
51 82 114
53 83 127
53 84 130
54 85 134
52 83 126
53 85 124
113 133 163
167 183 204
188 202 222
194 209 228
194 209 228
194 209 228
194 209 228
194 209 228
194 209 228
194 209 228
194 209 228
194 209 228
194 209 228
194 209 228
194 209 228
194 209 228
194 209 228
194 209 228
194 209 228
194 209 228
194 209 228
194 209 228
194 209 228
194 209 228
194 209 228
194 209 228
194 209 228
194 209 228
194 209 228
194 209 228
194 209 228
194 209 228
194 209 228
194 209 228
194 209 228
194 209 228
195 209 228
195 209 228
195 209 228
195 209 228
195 209 228
195 209 228
195 209 228
195 209 228
195 209 228
195 209 228
195 209 228
195 209 228
195 209 228
195 209 228
195 209 228
195 209 228
195 209 228
195 209 228
195 209 228
195 209 228
195 209 228
195 209 228
195 209 228
195 209 228
195 209 228
195 209 228
195 209 228
195 209 228
195 209 228
195 209 228
195 209 228
195 209 228
195 209 228
195 209 228
195 209 228
195 209 228
195 209 228
195 209 228
195 209 228
195 209 228
195 209 228
195 209 228
195 209 228
195 209 228
195 209 228
195 209 228
195 209 228
195 209 228
195 209 228
195 209 228
195 209 228
195 209 228
195 209 228
195 209 228
195 209 228
195 209 228
195 209 228
195 209 228
196 209 228
196 209 228
196 209 228
196 209 228
196 209 228
196 209 228
196 209 228
196 209 228
196 209 228
196 209 228
196 209 228
196 209 228
196 209 228
196 209 228
196 209 228
196 209 228
196 209 228
196 209 228
196 210 228
196 210 228
196 210 228
196 210 228
196 210 228
196 210 228
196 210 228
196 210 228
196 210 228
196 210 228
196 210 228
196 210 228
196 210 228
196 210 228
196 210 228
196 210 228
196 210 228
196 210 228
196 210 228
196 210 228
196 210 228
196 210 228
196 210 228
196 210 228
196 210 228
196 210 228
196 210 228
196 210 228
196 210 228
196 210 228
196 210 228
196 210 228
196 210 228
196 210 228
196 210 228
196 210 228
196 210 228
196 210 228
196 210 228
196 210 228
196 210 228
196 210 228
196 210 228
196 210 228
196 210 228
196 210 228
196 210 228
196 210 228
196 210 228
196 210 228
196 210 228
196 210 228
196 210 228
196 210 228
196 209 228
196 209 228
196 209 228
196 209 228
196 209 228
196 209 228
196 210 228
196 209 228
196 209 228
196 209 228
196 209 228
196 209 228
196 209 228
196 209 228
196 209 228
196 209 228
196 209 228
196 209 228
196 209 228
196 209 228
196 209 228
196 209 228
196 209 228
195 209 228
196 209 228
196 209 228
196 209 228
195 209 228
195 209 228
195 209 228
196 209 228
195 209 228
195 209 228
195 209 228
195 209 228
195 209 228
195 209 228
195 209 228
195 209 228
195 209 228
195 209 228
195 209 228
195 209 228
195 209 228
195 209 228
195 209 228
195 209 228
195 209 228
195 209 228
195 209 228
195 209 228
195 209 228
195 209 228
195 209 228
195 209 228
195 209 228
195 209 228
195 209 228
195 209 228
195 209 228
195 209 228
195 209 228
195 209 228
195 209 228
195 209 228
182 196 215
168 184 204
93 115 151
54 85 128
54 85 130
52 83 124
53 84 124
50 80 112
53 84 132
50 80 119
50 79 114
51 82 126
50 79 111
50 79 118
48 77 119
47 75 111
48 76 111
48 77 121
46 74 112
47 75 118
44 71 113
44 70 108
42 68 100
42 68 108
41 67 109
43 70 117
36 60 100
39 64 109
34 55 97
29 49 86
28 48 89
27 45 85
24 40 80
117 130 153
182 195 216
50 80 126
56 88 137
53 85 118
55 88 128
55 87 136
57 90 139
56 89 129
57 90 129
59 93 140
60 94 142
58 93 136
59 94 140
58 91 134
57 91 128
59 94 135
60 94 145
59 94 139
59 93 132
61 95 142
58 92 134
59 93 139
59 93 139
59 94 140
59 93 138
60 95 142
59 94 132
61 95 139
59 93 136
59 93 131
60 94 133
59 93 133
61 96 145
60 95 143
59 93 129
60 94 136
61 95 137
58 93 135
60 95 144
58 92 123
62 97 154
59 93 125
60 95 138
60 94 137
60 94 137
58 92 120
61 95 141
60 94 135
58 92 123
60 95 139
60 95 140
60 94 135
61 96 141
60 94 131
60 95 131
60 94 131
60 94 137
60 95 142
61 96 143
61 96 147
60 94 126
60 95 133
60 95 143
60 95 138
59 94 129
60 94 137
59 94 136
60 95 136
60 95 141
59 93 131
60 95 142
60 94 131
59 94 130
60 95 136
60 94 147
60 94 134
60 94 145
60 95 148
59 93 132
60 95 138
59 94 142
59 93 132
59 94 137
59 93 134
60 95 136
59 94 136
59 93 136
58 93 134
57 90 126
58 92 129
58 92 137
59 94 139
59 93 139
59 93 139
58 92 135
58 92 135
56 89 125
56 89 132
57 91 136
56 89 136
54 86 133
53 85 119
52 83 129
171 185 206
115 126 149
25 42 82
27 45 83
32 53 101
31 51 92
32 52 89
37 60 99
39 63 104
38 62 96
42 67 107
43 69 109
41 66 99
44 71 109
43 70 116
45 73 118
46 74 107
45 72 113
46 74 108
48 76 117
51 81 126
50 80 116
50 80 125
51 80 120
51 80 121
52 82 123
52 82 127
52 82 131
51 81 116
53 85 131
51 82 115
54 85 126
96 117 148
168 184 204
184 198 217
195 209 228
195 209 228
195 209 228
195 209 228
195 209 228
195 209 228
195 209 228
195 209 228
195 209 228
195 209 228
195 209 228
195 209 228
195 209 228
195 209 228
195 209 228
195 209 228
195 209 228
195 209 228
195 209 228
195 209 228
195 209 228
195 209 228
195 209 228
195 209 228
195 209 228
195 209 228
195 209 228
195 209 228
195 209 228
195 209 228
195 209 228
195 209 228
195 209 228
195 209 228
195 209 228
195 209 228
195 209 228
195 209 228
195 209 228
196 209 228
196 209 228
196 209 228
196 209 228
196 209 228
196 209 228
196 209 228
196 209 228
196 209 228
196 209 228
196 209 228
196 209 228
196 209 228
196 209 228
196 209 228
196 209 228
196 209 228
196 209 228
196 209 228
196 209 228
196 209 228
196 209 228
196 209 228
196 209 228
196 209 228
196 209 228
196 210 228
196 209 228
196 210 228
196 210 228
196 210 228
196 210 228
196 210 228
196 210 228
196 210 228
196 210 228
196 210 228
196 210 228
196 210 228
196 210 228
196 210 228
196 210 228
196 210 228
196 210 228
196 210 228
196 210 228
196 210 228
196 210 228
196 210 228
196 210 228
196 210 228
196 210 228
196 210 228
196 210 228
196 210 228
196 210 228
196 210 228
196 210 228
196 210 228
196 210 228
196 210 228
196 210 228
196 210 228
196 210 228
196 210 228
196 210 228
196 210 228
196 210 228
196 210 228
196 210 228
196 210 228
196 210 228
196 210 228
196 210 228
196 210 228
197 210 228
197 210 228
197 210 228
197 210 228
197 210 228
197 210 228
197 210 228
197 210 228
197 210 228
197 210 228
197 210 228
197 210 228
197 210 228
197 210 228
197 210 228
197 210 228
197 210 228
197 210 228
197 210 228
197 210 228
197 210 228
197 210 228
197 210 228
197 210 228
197 210 228
197 210 228
197 210 228
197 210 228
197 210 228
197 210 228
197 210 228
197 210 228
197 210 228
197 210 228
197 210 228
197 210 228
197 210 228
197 210 228
197 210 228
197 210 228
197 210 228
197 210 228
197 210 228
197 210 228
197 210 228
197 210 228
197 210 228
197 210 228
197 210 228
197 210 228
197 210 228
197 210 228
197 210 228
197 210 228
197 210 228
197 210 228
197 210 228
197 210 228
197 210 228
197 210 228
197 210 228
197 210 228
197 210 228
197 210 228
196 210 228
196 210 228
196 210 228
196 210 228
196 210 228
197 210 228
196 210 228
196 210 228
196 210 228
196 210 228
196 210 228
196 210 228
196 210 228
196 210 228
196 210 228
196 210 228
196 210 228
196 210 228
196 210 228
196 210 228
196 210 228
196 210 228
196 210 228
196 210 228
196 210 228
196 210 228
196 210 228
196 210 228
196 210 228
196 210 228
196 210 228
196 210 228
196 210 228
196 210 228
196 210 228
196 210 228
196 210 228
196 210 228
196 210 228
196 210 228
196 210 228
196 210 228
196 210 228
196 210 228
196 210 228
196 210 228
196 210 228
196 210 228
196 210 228
196 210 228
179 192 211
171 185 204
86 109 149
51 82 112
52 82 116
52 83 124
52 82 123
51 81 120
51 81 113
50 80 110
51 80 118
50 78 114
51 80 123
49 77 116
48 76 121
48 77 113
50 79 124
45 71 108
46 73 106
45 72 113
46 73 114
42 68 106
42 67 111
39 63 94
40 65 103
35 58 96
38 61 96
35 57 85
34 56 85
32 52 88
28 47 80
23 40 67
27 45 82
97 109 131
152 166 186
50 81 126
53 84 122
55 88 134
57 90 132
55 87 122
56 90 133
58 92 132
58 92 138
60 94 146
59 92 135
59 92 136
58 91 132
58 92 134
58 91 129
59 93 131
59 93 143
58 93 128
58 92 140
59 93 133
58 92 133
59 93 134
59 93 128
59 93 142
60 94 132
60 95 147
60 95 142
60 94 141
60 95 137
58 92 127
60 95 142
60 94 137
60 95 136
61 96 149
61 96 143
60 94 141
61 97 147
61 96 147
59 94 131
61 96 145
60 95 139
60 94 134
60 95 126
60 95 139
60 94 136
60 95 136
60 94 136
60 95 139
59 93 129
60 95 134
59 94 130
60 94 141
60 95 135
61 96 141
60 95 136
60 95 134
60 95 132
61 96 143
59 93 129
61 96 145
60 94 136
61 95 145
60 94 131
60 94 137
59 94 132
59 93 127
59 93 134
59 93 121
59 93 131
59 92 130
58 93 132
61 96 140
59 93 126
60 94 132
60 95 134
60 95 137
59 94 131
59 93 134
59 94 135
60 94 133
59 93 135
59 93 137
59 94 142
61 96 150
59 94 132
59 93 136
60 95 141
59 93 137
58 92 126
59 93 145
58 92 133
59 93 130
57 90 130
58 92 133
58 92 138
58 91 133
58 91 135
58 91 139
55 87 127
56 88 125
54 85 131
55 87 125
48 78 121
166 180 199
104 117 141
23 40 72
30 49 79
31 50 85
27 45 82
32 52 92
35 57 96
34 56 92
36 58 88
41 67 107
39 63 96
44 71 114
42 68 96
43 70 110
46 74 115
45 72 106
47 75 121
48 75 114
49 78 114
49 77 108
49 79 122
51 81 121
51 80 112
50 79 112
51 81 116
54 84 129
51 80 108
52 82 122
52 82 123
52 82 118
54 85 126
91 113 150
171 185 204
180 193 211
196 210 228
196 210 228
196 210 228
196 210 228
196 210 228
196 210 228
196 210 228
196 210 228
196 210 228
196 210 228
196 210 228
196 210 228
196 210 228
196 210 228
196 210 228
196 210 228
196 210 228
196 210 228
196 210 228
196 210 228
196 210 228
196 210 228
196 210 228
196 210 228
196 210 228
196 210 228
196 210 228
196 210 228
196 210 228
196 210 228
196 210 228
196 210 228
196 210 228
196 210 228
196 210 228
196 210 228
196 210 228
196 210 228
196 210 228
196 210 228
196 210 228
196 210 228
196 210 228
196 210 228
196 210 228
196 210 228
196 210 228
196 210 228
196 210 228
196 210 228
196 210 228
197 210 228
197 210 228
197 210 228
197 210 228
197 210 228
197 210 228
197 210 228
197 210 228
197 210 228
197 210 228
197 210 228
197 210 228
197 210 228
197 210 228
197 210 228
197 210 228
197 210 228
197 210 228
197 210 228
197 210 228
197 210 228
197 210 228
197 210 228
197 210 228
197 210 228
197 210 228
197 210 228
197 210 228
197 210 228
197 210 228
197 210 228
197 210 228
197 210 228
197 210 228
197 210 228
197 210 228
197 210 228
197 210 228
197 210 228
197 210 228
197 210 228
197 210 228
197 210 228
197 210 228
197 210 228
197 210 228
197 210 228
197 210 228
197 210 228
197 210 228
197 210 228
197 210 228
197 210 228
197 210 228
197 210 228
197 210 228
197 210 228
197 210 228
197 210 228
197 210 228
197 210 228
197 210 228
197 210 228
198 210 228
198 210 228
198 210 228
198 210 228
198 210 228
198 210 228
198 210 228
198 210 228
198 210 228
197 210 228
198 210 228
198 210 228
197 210 228
197 210 228
198 210 228
197 210 228
197 210 228
197 210 228
198 210 228
197 210 228
198 210 228
197 210 228
197 210 228
197 210 228
197 210 228
197 210 228
197 210 228
197 210 228
197 210 228
197 210 228
197 210 228
197 210 228
197 210 228
197 210 228
197 210 228
197 210 228
197 210 228
197 210 228
197 210 228
197 210 228
197 210 228
197 210 228
197 210 228
197 210 228
197 210 228
197 210 228
197 210 228
197 210 228
197 210 228
197 210 228
197 210 228
197 210 228
197 210 228
197 210 228
197 210 228
197 210 228
197 210 228
197 210 228
197 210 228
197 210 228
197 210 228
197 210 228
197 210 228
197 210 228
197 210 228
197 210 228
197 210 228
197 210 228
197 210 228
197 210 228
197 210 228
197 210 228
197 210 228
197 210 228
197 210 228
197 210 228
197 210 228
197 210 228
197 210 228
197 210 228
197 210 228
197 210 228
197 210 228
197 210 228
197 210 228
197 210 228
197 210 228
197 210 228
197 210 228
197 210 228
197 210 228
197 210 228
197 210 228
197 210 228
197 210 228
197 210 228
197 210 228
197 210 228
197 210 228
197 210 228
197 210 228
197 210 228
197 210 228
197 210 228
197 210 228
197 210 228
197 210 228
197 210 228
197 210 228
197 210 228
197 210 228
197 210 228
197 210 228
197 210 228
179 191 208
175 187 204
90 112 144
54 85 128
52 83 117
51 81 111
53 83 122
51 81 114
51 80 116
51 80 111
50 79 113
51 80 117
48 76 109
48 77 111
49 77 115
46 74 105
48 77 113
47 74 113
46 73 114
42 67 96
45 71 113
42 68 111
45 73 111
43 68 104
42 68 104
38 61 94
36 58 93
35 57 84
29 49 81
29 48 79
26 44 75
25 42 76
22 37 70
66 79 108
158 172 193
50 80 118
54 85 121
54 86 129
56 89 128
56 89 129
56 89 127
57 90 132
57 91 132
57 91 127
60 94 135
57 91 130
59 93 130
58 92 130
58 92 137
59 93 127
57 91 123
59 94 134
58 91 121
58 92 123
57 90 127
60 94 136
59 93 134
58 92 130
59 94 138
58 91 130
59 93 131
58 92 126
59 93 134
60 94 137
59 93 136
59 93 133
60 95 133
60 95 143
60 94 142
61 96 146
61 96 146
60 95 137
59 94 136
59 94 135
59 93 134
60 94 137
60 94 137
59 94 137
61 96 143
59 93 129
59 94 134
60 95 126
59 94 125
61 96 143
60 94 130
61 96 141
61 96 141
62 97 141
61 95 144
59 93 139
60 94 133
60 95 135
60 94 133
59 93 137
59 93 129
61 96 139
60 94 136
61 96 148
60 95 136
59 93 131
60 95 143
61 95 140
60 94 134
61 96 146
59 93 135
58 92 124
59 94 135
58 92 131
60 95 135
59 94 132
60 94 139
60 95 137
59 93 128
59 94 127
59 93 133
59 93 133
60 94 139
60 94 139
59 93 135
58 92 135
59 93 130
59 94 141
59 93 139
57 91 131
58 92 136
58 92 131
58 92 130
57 91 126
58 91 135
57 90 129
56 89 120
57 90 133
55 87 130
56 89 135
54 87 122
53 85 125
53 84 137
171 185 206
83 95 116
26 43 65
24 40 70
31 52 81
27 45 77
30 50 82
31 52 88
37 59 92
40 65 105
39 63 97
38 62 101
42 67 100
46 74 111
46 74 115
47 75 118
45 71 105
47 74 113
48 77 107
47 76 108
48 76 105
48 77 105
48 77 112
51 81 121
51 80 122
51 82 119
49 79 102
52 82 113
51 81 117
52 83 120
53 84 124
53 83 126
84 106 132
175 187 204
180 192 209
197 210 228
197 210 228
197 210 228
197 210 228
197 210 228
197 210 228
197 210 228
197 210 228
197 210 228
197 210 228
197 210 228
197 210 228
197 210 228
197 210 228
197 210 228
197 210 228
197 210 228
197 210 228
197 210 228
197 210 228
197 210 228
197 210 228
197 210 228
197 210 228
197 210 228
197 210 228
197 210 228
197 210 228
197 210 228
197 210 228
197 210 228
197 210 228
197 210 228
197 210 228
197 210 228
197 210 228
197 210 228
197 210 228
197 210 228
197 210 228
197 210 228
197 210 228
197 210 228
197 210 228
197 210 228
197 210 228
197 210 228
197 210 228
197 210 228
197 210 228
197 210 228
197 210 228
197 210 228
197 210 228
197 210 228
197 210 228
197 210 228
197 210 228
197 210 228
197 210 228
197 210 228
197 210 228
197 210 228
197 210 228
197 210 228
197 210 228
197 210 228
197 210 228
197 210 228
197 210 228
197 210 228
197 210 228
197 210 228
197 210 228
197 210 228
197 210 228
197 210 228
197 210 228
197 210 228
197 210 228
197 210 228
197 210 228
197 210 228
197 210 228
197 210 228
197 210 228
197 210 228
197 210 228
197 210 228
197 210 228
197 210 228
197 210 228
197 210 228
198 210 228
197 210 228
197 210 228
198 210 228
197 210 228
198 210 228
197 210 228
198 210 228
198 210 228
197 210 228
197 210 228
198 210 228
198 210 228
197 210 228
198 210 228
198 210 228
197 210 228
198 210 228
198 210 228
198 210 228
198 210 228
198 211 228
198 211 228
198 211 228
198 211 228
198 211 228
198 211 228
198 211 228
198 211 228
198 211 228
198 211 228
198 211 228
198 211 228
198 211 228
198 211 228
198 211 228
198 211 228
198 211 228
198 211 228
198 211 228
198 211 228
198 211 228
198 211 228
198 211 228
198 211 228
198 211 228
198 211 228
198 211 228
198 211 228
198 211 228
198 211 228
198 211 228
198 211 228
198 211 228
198 211 228
198 211 228
198 211 228
198 211 228
198 211 228
198 211 228
198 211 228
198 211 228
198 211 228
198 211 228
198 211 228
198 211 228
198 211 228
198 211 228
198 211 228
198 211 228
198 211 228
198 211 228
198 211 228
198 211 228
198 211 228
198 211 228
198 211 228
198 211 228
198 211 228
198 211 228
198 211 228
198 211 228
198 211 228
198 211 228
198 211 228
198 211 228
198 211 228
198 211 228
198 211 228
198 211 228
198 211 228
198 211 228
198 211 228
198 211 228
198 211 228
198 211 228
198 211 228
198 211 228
198 211 228
198 211 228
198 211 228
198 211 228
198 211 228
198 211 228
198 211 228
198 211 228
198 211 228
198 211 228
198 211 228
198 211 228
198 211 228
198 211 228
198 211 228
198 211 228
198 211 228
198 211 228
198 211 228
198 211 228
198 211 228
198 211 228
198 211 228
198 211 228
198 211 228
198 211 228
198 211 228
198 211 228
198 211 228
198 211 228
198 211 228
198 211 228
198 211 228
198 211 228
198 211 228
198 211 228
198 211 228
181 192 208
172 184 185
83 105 123
54 85 123
52 82 116
52 82 118
53 84 124
51 81 111
50 80 115
50 80 119
50 80 116
51 81 120
49 77 114
49 78 115
49 78 119
48 77 111
48 76 112
46 74 116
44 71 102
45 72 103
44 70 105
43 69 98
43 69 105
41 65 98
37 60 91
38 62 97
37 60 96
34 56 81
29 48 67
32 52 76
25 43 72
27 44 75
21 35 61
98 109 129
170 183 204
51 82 123
51 81 122
54 86 120
52 83 104
55 88 129
57 90 134
57 90 125
59 93 138
59 93 137
56 89 130
60 94 145
58 92 125
60 94 137
57 91 134
60 94 136
58 92 134
58 92 130
58 92 130
60 95 141
59 94 136
59 93 137
59 94 134
58 92 130
60 94 138
59 94 134
59 94 139
59 93 137
59 94 128
60 95 141
60 94 137
60 95 137
60 95 137
61 96 141
59 93 132
58 92 124
61 96 142
60 94 130
59 94 129
58 93 122
61 95 134
58 93 133
59 94 133
58 92 131
59 94 131
59 94 131
60 95 136
59 93 134
60 95 136
59 94 135
60 94 129
60 94 134
60 95 136
60 95 134
61 95 138
60 95 136
59 94 135
59 93 129
58 92 126
60 95 136
60 94 134
59 94 134
60 95 137
61 96 140
59 94 133
61 96 142
60 95 139
59 94 137
60 94 142
59 93 130
60 95 140
59 93 137
60 95 141
58 92 126
60 95 141
61 96 139
59 94 132
59 93 133
60 95 141
59 94 135
59 94 134
59 93 125
60 94 138
58 92 127
58 92 132
59 94 140
60 94 138
58 92 135
59 93 133
58 92 128
58 92 137
59 93 137
58 92 131
57 90 128
57 90 130
56 89 132
57 91 130
57 90 138
57 90 138
57 90 131
56 90 133
52 84 123
48 77 119
157 171 191
76 87 115
21 36 65
19 34 61
28 47 74
29 48 75
32 53 87
29 48 72
36 59 83
35 58 88
36 59 88
41 66 102
41 67 99
41 65 90
42 68 105
43 70 101
46 74 109
45 72 97
45 73 102
49 78 118
48 77 115
48 77 106
49 77 111
49 78 113
49 78 111
51 81 120
51 81 121
52 83 121
53 83 122
54 84 121
52 83 111
53 84 122
88 109 127
171 183 180
180 191 207
198 211 228
198 211 228
198 211 228
198 211 228
198 211 228
198 211 228
198 211 228
198 211 228
198 211 228
198 211 228
198 211 228
198 211 228
198 211 228
198 211 228
198 211 228
198 211 228
198 211 228
198 211 228
198 211 228
198 211 228
198 211 228
198 211 228
198 211 228
198 211 228
198 211 228
198 211 228
198 211 228
198 211 228
198 211 228
198 211 228
198 211 228
198 211 228
198 211 228
198 211 228
198 211 228
198 211 228
198 211 228
198 211 228
198 211 228
198 211 228
198 211 228
198 211 228
198 211 228
198 211 228
198 211 228
198 211 228
198 211 228
198 211 228
198 211 228
198 211 228
198 211 228
198 211 228
198 211 228
198 211 228
198 211 228
198 211 228
198 211 228
198 211 228
198 211 228
198 211 228
198 211 228
198 211 228
198 211 228
198 211 228
198 211 228
198 211 228
198 211 228
198 211 228
198 211 228
198 211 228
198 211 228
198 211 228
198 211 228
198 211 228
198 211 228
198 211 228
198 211 228
198 211 228
198 211 228
198 211 228
198 211 228
198 211 228
198 211 228
198 211 228
198 211 228
198 211 228
198 211 228
198 211 228
198 211 228
198 211 228
198 211 228
198 211 228
198 211 228
198 211 228
198 211 228
198 211 228
198 211 228
198 211 228
198 211 228
198 211 228
198 211 228
198 211 228
198 211 228
198 211 228
198 211 228
198 211 228
198 211 228
198 211 228
198 211 228
198 211 228
198 211 228
198 211 228
198 211 228
198 211 228
199 211 228
199 211 228
199 211 228
199 211 228
199 211 228
199 211 228
199 211 228
199 211 228
199 211 228
199 211 228
199 211 228
199 211 228
199 211 228
199 211 228
199 211 228
199 211 228
199 211 228
199 211 228
199 211 228
199 211 228
199 211 228
199 211 228
199 211 228
199 211 228
199 211 228
199 211 228
199 211 228
199 211 228
199 211 228
199 211 228
199 211 228
199 211 228
199 211 228
199 211 228
199 211 228
199 211 228
199 211 228
199 211 228
199 211 228
199 211 228
199 211 228
199 211 228
199 211 228
199 211 228
199 211 228
199 211 228
199 211 228
199 211 228
199 211 228
199 211 228
199 211 228
199 211 228
199 211 228
199 211 228
199 211 228
199 211 228
199 211 228
199 211 228
199 211 228
199 211 228
199 211 228
199 211 228
199 211 228
199 211 228
199 211 228
199 211 228
199 211 228
199 211 228
199 211 228
199 211 228
199 211 228
199 211 228
199 211 228
199 211 228
199 211 228
199 211 228
199 211 228
199 211 228
199 211 228
199 211 228
199 211 228
199 211 228
199 211 228
199 211 228
199 211 228
199 211 228
199 211 228
199 211 228
199 211 228
199 211 228
199 211 228
199 211 228
199 211 228
199 211 228
199 211 228
199 211 228
199 211 228
199 211 228
199 211 228
199 211 228
199 211 228
199 211 228
199 211 228
199 211 228
199 211 228
199 211 228
199 211 228
199 211 228
199 211 228
199 211 228
199 211 228
199 212 228
199 211 228
199 211 228
165 179 148
139 158 0
70 96 98
52 82 116
53 84 122
51 81 110
52 83 118
52 82 122
52 82 122
50 79 111
49 78 107
49 78 108
50 79 118
49 78 116
47 76 102
49 78 115
47 75 114
47 74 107
46 73 100
41 66 99
41 66 101
42 68 100
40 65 93
39 63 95
37 59 81
37 60 90
37 60 94
31 52 83
31 51 76
30 50 80
31 51 70
26 44 73
22 37 59
94 105 122
163 177 198
50 80 111
52 84 121
56 89 127
55 87 121
56 89 129
57 90 132
56 89 126
57 90 125
57 90 131
57 91 133
59 92 136
56 89 128
58 92 131
58 91 128
57 90 122
57 91 132
57 90 126
58 92 129
59 93 132
59 92 125
59 93 129
60 95 140
59 93 128
60 94 133
60 95 141
60 94 135
59 94 131
58 91 121
60 94 133
58 92 119
59 94 132
59 93 127
59 94 135
59 93 135
59 93 124
60 94 133
59 94 129
60 95 133
61 96 143
60 94 131
59 93 129
60 94 122
58 92 127
60 94 131
59 94 135
59 93 127
60 94 135
60 94 135
59 94 127
60 94 135
60 94 135
59 93 127
60 95 134
59 93 129
60 95 131
59 94 124
59 94 130
61 96 141
60 95 138
59 93 126
59 93 130
60 95 137
59 93 129
60 94 137
60 94 135
60 94 139
59 92 126
60 95 138
59 93 134
59 94 130
60 95 138
58 92 133
59 93 137
58 92 122
59 93 139
60 95 134
58 92 136
60 94 135
60 95 141
58 92 128
60 95 137
59 94 141
58 92 131
59 93 140
60 95 145
59 94 134
57 90 116
58 92 137
58 92 133
58 92 134
59 93 130
57 90 128
57 90 118
57 91 133
58 91 134
56 89 121
56 89 123
55 87 124
55 87 121
55 87 129
54 85 122
49 79 111
170 184 202
102 113 132
20 35 54
24 40 62
29 47 67
32 52 82
27 45 71
36 59 83
36 59 92
38 61 91
39 63 89
41 66 93
40 65 102
41 66 96
45 72 103
46 73 115
48 77 110
43 69 97
47 75 104
46 73 107
47 75 101
50 80 117
51 81 115
49 77 95
50 80 112
52 82 118
51 80 115
52 82 118
51 81 115
51 80 104
52 82 114
52 83 109
75 100 110
140 158 0
162 177 136
199 211 228
199 212 228
199 211 228
199 211 228
199 211 228
199 211 228
199 211 228
199 211 228
199 211 228
199 211 228
199 211 228
199 211 228
199 211 228
199 211 228
199 211 228
199 211 228
199 211 228
199 211 228
199 211 228
199 211 228
199 211 228
199 211 228
199 211 228
199 211 228
199 211 228
199 211 228
199 211 228
199 211 228
199 211 228
199 211 228
199 211 228
199 211 228
199 211 228
199 211 228
199 211 228
199 211 228
199 211 228
199 211 228
199 211 228
199 211 228
199 211 228
199 211 228
199 211 228
199 211 228
199 211 228
199 211 228
199 211 228
199 211 228
199 211 228
199 211 228
199 211 228
199 211 228
199 211 228
199 211 228
199 211 228
199 211 228
199 211 228
199 211 228
199 211 228
199 211 228
199 211 228
199 211 228
199 211 228
199 211 228
199 211 228
199 211 228
199 211 228
199 211 228
199 211 228
199 211 228
199 211 228
199 211 228
199 211 228
199 211 228
199 211 228
199 211 228
199 211 228
199 211 228
199 211 228
199 211 228
199 211 228
199 211 228
199 211 228
199 211 228
199 211 228
199 211 228
199 211 228
199 211 228
199 211 228
199 211 228
199 211 228
199 211 228
199 211 228
199 211 228
199 211 228
199 211 228
199 211 228
199 211 228
199 211 228
199 211 228
199 211 228
199 211 228
199 211 228
199 211 228
199 211 228
199 211 228
199 211 228
199 211 228
199 211 228
199 211 228
199 211 228
199 211 228
199 211 228
199 211 228
199 211 228
199 211 228
199 211 228
199 211 228
199 211 228
199 211 228
199 211 228
199 211 228
199 211 228
199 211 228
199 211 228
199 211 228
199 211 228
199 211 228
199 211 228
199 211 228
199 211 228
199 211 228
199 211 228
199 211 228
199 212 228
199 211 228
199 212 228
199 212 228
199 212 228
199 212 228
199 212 228
199 212 228
199 212 228
199 212 228
200 212 228
200 212 228
200 212 228
200 212 228
200 212 228
200 212 228
200 212 228
200 212 228
200 212 228
200 212 228
200 212 228
200 212 228
200 212 228
200 212 228
200 212 228
200 212 228
200 212 228
200 212 228
200 212 228
200 212 228
200 212 228
200 212 228
200 212 228
200 212 228
200 212 228
200 212 228
200 212 228
200 212 228
200 212 228
200 212 228
200 212 228
200 212 228
200 212 228
200 212 228
200 212 228
200 212 228
200 212 228
200 212 228
200 212 228
200 212 228
200 212 228
200 212 228
200 212 228
200 212 228
200 212 228
200 212 228
200 212 228
200 212 228
200 212 228
200 212 228
200 212 228
200 212 228
200 212 228
200 212 228
200 212 228
200 212 228
200 212 228
200 212 228
200 212 228
200 212 228
200 212 228
200 212 228
200 212 228
200 212 228
200 212 228
200 212 228
200 212 228
200 212 228
200 212 228
200 212 228
200 212 228
200 212 228
200 212 228
200 212 228
200 212 228
200 212 228
200 212 227
200 211 226
198 210 221
199 211 225
198 210 221
198 210 221
197 209 219
199 211 225
167 183 146
138 157 0
88 110 94
52 81 113
52 82 113
52 83 121
54 85 123
51 81 110
50 79 108
50 79 111
50 79 107
46 74 96
50 80 115
48 77 107
49 77 114
47 74 99
47 75 106
44 71 102
44 71 95
43 69 97
43 69 86
42 68 94
39 64 91
43 69 104
37 60 92
39 63 88
37 59 81
31 50 77
31 51 73
29 48 77
21 37 50
22 38 62
25 42 69
115 125 142
169 182 200
50 80 106
53 85 128
54 86 117
55 87 121
57 91 134
56 89 130
57 89 123
56 89 121
56 88 126
57 91 128
58 92 138
58 92 128
57 90 135
58 91 124
60 94 139
60 94 138
57 91 129
59 94 135
60 94 136
59 93 128
61 96 147
60 95 139
60 95 140
60 94 137
57 91 129
58 91 131
60 94 135
60 94 135
60 95 132
59 93 131
59 94 137
60 95 139
59 94 131
60 94 135
59 93 128
58 93 126
60 95 134
61 95 136
59 93 130
58 93 125
59 93 126
58 92 122
61 95 135
59 93 135
59 93 135
60 95 136
59 93 129
60 95 136
59 93 136
61 95 138
59 94 127
59 93 130
60 95 136
59 93 127
60 94 137
59 93 127
60 94 134
59 94 138
60 94 131
59 94 130
60 94 135
61 96 143
59 93 135
60 94 141
59 94 135
60 95 134
61 96 137
59 94 137
61 96 139
59 93 133
59 93 130
59 94 132
60 95 139
59 93 131
59 93 122
59 93 134
61 95 136
59 93 131
58 92 124
59 93 139
59 94 139
60 94 140
58 92 126
57 91 132
58 92 130
59 93 132
58 91 129
58 91 127
57 91 118
58 91 126
58 91 128
58 92 130
58 91 137
57 90 121
59 93 137
58 92 128
56 88 127
57 90 127
56 88 127
53 84 119
52 82 125
50 80 125
170 183 199
118 128 143
24 41 58
25 42 60
28 46 69
26 45 67
33 54 78
37 59 95
36 58 78
36 59 90
38 62 105
40 65 94
41 66 94
44 70 99
43 69 93
43 68 102
45 72 99
46 73 99
45 71 98
48 76 104
48 77 100
47 75 104
48 77 109
49 78 106
50 80 111
50 79 112
50 79 104
52 82 103
50 80 108
52 82 114
52 82 120
52 83 114
87 111 99
137 157 0
170 185 155
197 210 219
198 210 220
198 210 221
197 209 219
197 209 218
199 211 225
200 211 226
199 211 225
200 212 228
200 212 228
200 212 228
200 212 228
200 212 228
200 212 228
200 212 228
200 212 228
200 212 228
200 212 228
200 212 228
200 212 228
200 212 228
200 212 228
200 212 228
200 212 228
200 212 228
200 212 228
200 212 228
200 212 228
200 212 228
200 212 228
200 212 228
200 212 228
200 212 228
200 212 228
200 212 228
200 212 228
200 212 228
200 212 228
200 212 228
200 212 228
200 212 228
200 212 228
200 212 228
200 212 228
200 212 228
200 212 228
200 212 228
200 212 228
200 212 228
200 212 228
200 212 228
200 212 228
200 212 228
200 212 228
200 212 228
200 212 228
200 212 228
200 212 228
200 212 228
200 212 228
200 212 228
200 212 228
200 212 228
200 212 228
200 212 228
200 212 228
200 212 228
200 212 228
200 212 228
200 212 228
200 212 228
200 212 228
200 212 228
200 212 228
200 212 228
200 212 228
200 212 228
200 212 228
200 212 228
200 212 228
200 212 228
199 212 228
200 212 228
199 212 228
199 212 228
199 212 228
199 212 228
199 212 228
199 212 228
199 212 228
199 212 228
199 212 228
199 211 228
199 211 228
199 211 228
199 211 228
199 211 228
199 211 228
199 211 228
199 211 228
199 211 228
199 211 228
199 211 228
199 211 228
199 211 228
199 211 228
199 211 228
199 211 228
199 211 228
199 211 228
199 211 228
199 211 228
199 211 228
199 211 228
200 212 228
200 212 228
200 212 228
200 212 228
200 212 228
200 212 228
200 212 228
200 212 228
200 212 228
200 212 228
200 212 228
200 212 228
200 212 228
200 212 228
200 212 228
200 212 228
200 212 228
200 212 228
200 212 228
200 212 228
200 212 228
200 212 228
200 212 228
200 212 228
200 212 228
200 212 228
200 212 228
200 212 228
200 212 228
200 212 228
200 212 228
200 212 228
200 212 228
200 212 228
200 212 228
200 212 228
200 212 228
200 212 228
200 212 228
200 212 228
200 212 228
200 212 228
200 212 228
200 212 228
200 212 228
200 212 228
200 212 228
200 212 228
200 212 228
201 212 228
201 212 228
201 212 228
201 212 228
201 212 228
201 212 228
201 212 228
201 212 228
201 212 228
201 212 228
199 211 225
199 211 225
197 209 219
195 207 211
195 207 212
194 207 209
194 206 207
190 204 196
190 204 198
191 204 198
188 202 190
190 203 194
185 200 183
183 198 171
184 199 180
184 198 175
185 199 177
182 197 171
180 196 161
172 189 133
184 199 175
179 195 156
172 189 131
172 189 131
173 190 133
174 190 133
177 193 146
169 186 118
169 187 116
167 186 107
170 187 118
165 184 99
170 188 121
165 184 102
162 182 85
164 183 85
163 182 82
164 183 88
163 182 88
160 180 60
158 178 32
159 180 64
158 179 39
155 177 22
157 178 32
157 177 0
156 177 0
157 177 0
155 176 0
157 178 0
156 177 0
155 176 0
155 176 0
155 177 0
157 177 0
154 174 0
136 155 0
96 119 94
53 84 117
51 81 109
52 82 111
51 81 112
49 78 104
49 78 101
49 78 106
50 79 109
50 79 111
47 74 100
47 76 98
47 75 98
45 73 95
46 74 102
46 73 100
44 70 91
44 71 93
45 71 99
41 66 85
42 68 94
41 66 91
38 62 88
34 55 89
34 55 78
35 57 76
31 51 76
29 47 67
24 40 58
23 38 53
26 42 67
129 140 158
170 182 199
47 76 95
54 86 126
54 86 121
55 86 123
54 85 115
56 89 130
56 89 118
57 90 130
58 91 134
58 92 134
57 91 122
59 94 141
58 91 126
58 91 126
58 92 126
58 92 124
57 90 117
58 92 134
59 93 132
59 93 129
58 92 120
61 95 137
59 93 140
59 93 134
60 94 134
58 93 128
59 94 132
60 94 131
60 94 128
59 94 129
58 92 130
59 93 129
59 94 133
60 94 139
60 95 136
59 93 130
58 92 127
59 94 134
60 95 144
59 94 132
60 95 139
58 93 124
60 94 129
60 95 142
60 95 149
62 97 143
61 95 140
59 94 127
60 95 139
59 94 129
58 92 121
60 94 133
60 94 133
59 93 129
59 93 126
59 94 132
60 95 145
61 96 147
59 93 130
59 94 129
61 95 139
60 95 136
60 94 137
59 94 133
59 93 129
60 94 133
59 93 129
61 95 131
58 92 127
58 91 131
60 95 131
61 96 144
57 91 130
60 94 137
59 94 137
59 94 137
59 93 138
58 93 124
60 94 134
59 92 137
58 92 121
59 93 132
59 94 137
59 93 124
58 92 131
57 91 116
59 93 130
59 92 138
58 92 131
58 92 126
57 90 123
58 92 131
57 90 126
57 90 125
58 92 133
55 87 123
56 89 122
55 88 123
54 86 119
52 83 113
52 83 114
47 76 100
178 190 207
118 129 147
23 38 53
23 38 51
22 37 56
28 47 72
33 54 72
34 56 80
36 58 87
37 60 84
37 60 87
38 61 83
39 63 81
42 68 92
42 67 98
43 68 104
43 70 103
46 73 96
44 71 94
46 74 102
47 75 107
48 76 105
50 79 114
46 73 101
50 79 108
49 78 110
49 78 106
51 81 115
50 80 104
53 83 122
52 83 116
51 81 112
93 115 86
138 156 0
154 174 0
155 176 0
155 176 0
157 177 0
157 177 0
157 177 0
156 177 0
156 177 0
156 176 0
158 178 0
155 176 0
157 177 32
157 177 22
157 178 45
159 179 64
158 179 56
161 181 72
159 179 56
165 183 88
164 183 94
166 184 99
166 185 102
164 183 94
167 185 107
162 182 85
166 185 104
168 186 114
167 185 102
168 186 112
174 191 139
172 189 135
174 191 139
176 192 144
175 192 148
177 193 151
178 194 158
181 196 165
179 195 158
182 197 169
183 198 175
187 201 187
185 199 177
184 199 177
183 198 172
181 197 169
189 203 194
192 205 202
187 202 188
192 205 203
192 205 203
196 208 214
195 208 212
196 208 214
198 210 221
199 211 225
200 212 227
201 212 228
201 212 228
201 212 228
201 212 228
201 212 228
201 212 228
201 212 228
201 212 228
201 212 228
200 212 228
200 212 228
200 212 228
201 212 228
200 212 228
200 212 228
200 212 228
200 212 228
200 212 228
200 212 228
200 212 228
200 212 228
200 212 228
200 212 228
200 212 228
200 212 228
200 212 228
200 212 228
200 212 228
200 212 228
200 212 228
200 212 228
200 212 228
200 212 228
200 212 228
200 212 228
200 212 228
200 212 228
200 212 228
200 212 228
200 212 228
200 212 228
200 212 228
200 212 228
200 212 228
200 212 228
200 212 228
200 212 228
200 212 228
200 212 228
200 212 228
200 212 228
200 212 228
200 212 228
200 212 228
200 212 228
200 212 228
200 212 228
200 212 228
200 212 228
200 212 228
200 212 228
200 212 228
200 212 228
200 212 228
200 212 228
200 212 228
200 212 228
200 212 228
200 212 228
200 212 228
200 212 228
200 212 228
200 212 228
201 212 228
201 212 228
200 212 228
201 212 228
201 212 228
201 212 228
201 212 228
201 212 228
201 212 228
201 212 228
201 212 228
201 212 228
201 212 228
201 212 228
201 212 228
201 212 228
201 212 228
200 212 226
197 209 217
198 210 219
193 206 206
192 205 200
190 203 195
188 202 190
189 203 195
184 198 177
184 199 177
182 197 166
184 199 177
183 198 172
179 195 158
177 194 153
171 189 125
174 191 139
169 187 109
168 186 116
166 184 102
168 186 109
168 186 112
165 184 97
163 182 75
161 181 72
159 179 60
157 178 32
157 178 32
155 176 0
156 177 0
156 177 0
156 177 0
155 176 0
157 178 0
157 178 0
157 178 0
156 177 0
156 177 0
155 177 0
155 176 0
156 177 0
155 177 0
155 176 0
156 176 0
156 177 0
155 176 0
156 177 0
155 176 0
158 178 0
156 177 0
155 176 0
155 177 0
156 177 0
157 177 0
156 177 0
155 176 0
155 176 0
156 177 0
157 177 0
155 176 0
155 176 0
154 175 0
156 177 0
156 177 0
157 178 0
155 176 0
156 176 0
156 177 0
155 176 0
154 176 0
154 175 0
156 177 0
155 176 0
156 177 0
156 176 0
156 177 0
157 177 0
156 177 0
156 177 0
157 177 0
156 177 0
155 176 0
154 175 0
155 176 0
144 163 0
102 123 83
52 82 112
51 80 113
51 80 105
50 79 99
50 80 115
51 80 113
50 80 109
49 79 109
49 78 105
48 76 105
48 77 103
46 74 94
45 72 103
46 73 89
45 71 101
45 71 90
43 69 87
45 72 98
40 64 94
40 65 90
39 63 91
37 61 80
36 58 83
35 56 83
33 54 74
28 46 68
27 46 54
29 47 62
24 40 48
23 40 40
164 175 190
189 201 218
50 80 113
50 80 114
55 87 123
54 85 120
54 86 118
57 89 124
55 88 117
55 88 120
58 92 136
57 90 114
59 93 131
58 92 132
59 93 134
57 91 128
56 88 123
58 91 127
59 93 139
60 94 135
59 93 132
59 93 129
59 93 127
58 91 124
60 94 131
60 94 139
59 93 128
57 91 127
59 94 132
57 91 119
58 92 127
59 93 126
59 93 131
59 93 127
60 94 132
58 92 124
60 95 136
58 91 119
58 92 124
58 92 124
57 91 119
59 94 136
60 94 135
60 95 135
60 95 137
58 92 129
60 94 141
60 95 129
59 93 123
61 96 136
60 95 137
60 95 131
58 92 130
59 93 130
60 95 135
60 94 126
58 92 122
60 95 136
60 94 139
59 94 138
60 95 130
60 94 132
59 94 134
60 94 131
60 95 146
59 93 125
59 93 127
60 95 135
59 93 127
59 93 128
58 92 126
59 93 131
59 94 124
59 93 125
59 93 129
57 90 124
59 94 139
59 93 129
58 91 124
57 90 112
60 94 130
59 93 124
58 92 120
59 93 132
57 91 127
59 93 127
58 93 129
58 91 121
58 92 129
59 93 143
58 92 127
57 90 125
57 90 124
57 91 127
58 91 128
56 89 115
57 90 134
56 89 125
54 86 122
53 85 111
56 88 118
54 87 124
53 84 118
53 83 122
184 196 212
151 161 175
27 45 54
23 38 47
25 42 51
28 47 70
32 52 78
33 54 74
38 60 87
36 59 80
39 64 82
38 62 85
40 65 88
42 67 96
42 68 95
46 73 97
44 71 96
46 73 99
48 77 100
46 74 96
48 77 103
47 74 92
47 76 96
50 80 114
49 78 99
51 81 112
48 77 103
48 76 100
52 81 119
51 81 106
52 82 106
53 83 116
98 119 84
142 161 0
155 176 0
156 177 0
156 177 0
157 178 0
156 177 0
155 176 0
156 177 0
156 177 0
156 176 0
157 178 0
154 175 0
155 176 0
155 176 0
156 177 0
155 176 0
155 177 0
155 176 0
155 176 0
156 177 0
155 176 0
156 177 0
156 177 0
157 177 0
155 176 0
155 176 0
157 177 0
154 176 0
157 177 0
156 177 0
154 176 0
154 176 0
156 177 0
155 176 0
155 176 0
155 176 0
155 176 0
155 176 0
157 178 0
157 177 0
155 177 0
157 177 0
156 177 0
156 177 0
156 177 0
155 177 0
157 177 0
156 177 0
157 177 0
157 177 0
156 177 0
155 177 0
155 176 0
156 177 0
156 177 0
155 176 0
158 178 0
159 179 32
158 179 51
158 179 56
160 180 68
161 181 72
163 183 88
165 184 102
169 187 118
168 186 112
169 187 123
174 191 144
173 190 135
178 194 151
176 193 150
178 194 151
178 194 153
182 197 168
182 197 166
184 199 175
185 200 180
185 199 183
192 205 202
192 205 200
194 207 208
195 208 212
197 209 216
199 211 223
200 212 226
201 212 228
201 212 228
201 212 228
201 212 228
201 212 228
201 212 228
201 212 228
201 212 228
201 212 228
201 212 228
201 212 228
201 212 228
201 212 228
201 212 228
200 212 228
201 212 228
200 212 228
200 212 228
200 212 228
200 212 228
200 212 228
200 212 228
200 212 228
200 212 228
200 212 228
200 212 228
200 212 228
200 212 228
200 212 228
200 212 228
200 212 228
201 212 228
201 212 228
201 212 228
201 212 228
201 212 228
201 212 228
201 212 228
201 212 228
201 212 228
201 212 228
201 212 228
201 212 228
196 208 217
194 206 207
193 206 206
192 205 202
189 202 190
187 201 186
186 200 183
181 196 165
181 196 165
173 190 135
176 193 148
172 189 127
172 189 131
168 186 109
164 184 99
163 183 88
159 180 60
160 180 64
158 179 51
156 177 0
157 177 0
155 176 0
156 177 0
158 178 0
157 177 0
156 177 0
156 177 0
156 177 0
156 177 0
156 177 0
156 177 0
156 177 0
155 177 0
155 177 0
154 176 0
156 177 0
156 176 0
156 177 0
156 177 0
156 177 0
156 177 0
156 177 0
155 176 0
156 176 0
155 176 0
155 176 0
156 177 0
156 177 0
153 175 0
156 177 0
156 177 0
156 177 0
156 176 0
157 177 0
155 176 0
157 178 0
155 176 0
155 177 0
155 176 0
155 176 0
156 177 0
155 176 0
154 176 0
157 177 0
155 176 0
155 176 0
154 176 0
155 176 0
156 177 0
156 177 0
154 175 0
155 176 0
156 177 0
154 176 0
156 177 0
154 176 0
155 176 0
156 177 0
156 176 0
156 177 0
154 176 0
154 176 0
157 177 0
157 177 0
154 175 0
153 175 0
153 175 0
153 175 0
154 175 0
155 176 0
155 176 0
153 174 0
155 175 0
155 176 0
154 176 0
156 176 0
155 176 0
155 176 0
154 175 0
155 176 0
154 175 0
155 176 0
156 177 0
155 175 0
118 137 64
51 81 105
52 82 110
50 79 108
51 81 113
50 79 109
50 79 103
50 79 113
50 78 99
48 76 99
45 72 96
49 78 102
47 74 96
47 75 102
46 72 100
44 71 91
44 70 93
43 69 87
43 69 93
42 68 92
41 66 85
38 61 73
38 61 85
34 56 75
32 53 59
33 55 63
33 53 66
26 43 54
23 39 52
24 41 47
28 46 51
159 175 124
194 206 221
49 78 106
52 82 111
55 88 126
53 86 113
53 84 104
55 88 113
55 87 116
55 88 125
59 93 142
55 87 120
57 90 131
56 88 121
58 92 134
58 91 132
57 91 121
58 91 118
58 91 128
58 92 120
58 91 127
57 91 124
58 92 124
58 92 122
59 93 123
59 92 130
59 93 136
58 92 135
57 90 122
59 94 133
59 93 127
59 94 127
59 93 125
59 93 130
59 94 130
58 93 126
59 93 133
60 95 136
60 94 136
59 94 133
58 93 126
59 93 126
59 93 132
60 94 133
59 93 124
58 92 127
60 94 134
58 92 121
59 94 135
61 96 136
59 93 129
58 92 125
60 95 136
59 93 124
58 92 114
60 95 142
59 94 133
60 95 141
60 95 135
59 93 125
60 95 142
59 93 129
60 94 131
58 92 119
58 92 121
61 95 142
61 95 134
59 94 131
60 94 132
58 92 129
59 93 126
59 93 132
58 92 117
59 94 131
59 93 114
59 93 130
58 92 127
59 93 129
59 93 127
59 94 130
58 92 124
58 92 129
59 93 130
59 93 134
58 92 130
61 96 141
59 94 130
58 91 120
57 90 116
58 91 123
57 91 123
57 91 134
58 92 121
58 92 133
56 89 126
58 91 133
56 89 126
58 92 134
54 86 117
56 89 128
54 86 116
55 87 126
52 83 115
47 75 113
196 208 225
163 178 153
26 44 47
23 39 46
27 45 57
31 51 69
28 47 63
35 56 73
32 53 74
33 54 60
37 59 73
39 63 89
43 69 105
42 68 94
45 71 93
42 67 87
44 70 95
46 74 99
45 73 92
45 72 95
46 74 99
45 73 87
45 72 99
47 75 93
49 78 109
49 77 103
48 77 108
51 80 110
51 80 110
51 80 102
50 79 97
52 82 114
112 131 64
152 173 0
155 176 0
154 175 0
155 176 0
155 176 0
154 175 0
156 176 0
155 176 0
155 176 0
156 177 0
155 176 0
156 176 0
155 176 0
156 177 0
154 175 0
153 174 0
156 177 0
153 175 0
157 177 0
155 176 0
155 177 0
155 176 0
154 175 0
155 176 0
154 176 0
157 177 0
154 176 0
155 176 0
155 176 0
156 177 0
155 176 0
156 177 0
154 176 0
155 176 0
157 177 0
156 177 0
156 177 0
155 177 0
153 175 0
156 177 0
156 177 0
156 177 0
156 177 0
155 176 0
156 177 0
156 177 0
157 177 0
156 177 0
155 176 0
155 176 0
156 177 0
154 175 0
155 176 0
155 175 0
156 177 0
157 177 0
156 177 0
156 177 0
156 177 0
158 178 0
155 177 0
157 177 0
156 177 0
156 177 0
155 176 0
156 177 0
156 177 0
157 177 0
157 177 0
157 177 0
157 177 0
156 177 0
157 177 0
156 177 0
156 177 0
155 177 0
156 177 0
156 177 0
156 177 0
156 177 0
156 177 0
155 176 0
157 177 0
157 177 0
156 177 0
159 179 45
159 179 51
163 182 91
162 181 75
167 186 112
171 188 123
167 185 107
171 189 125
176 192 144
178 194 153
180 196 165
179 195 161
180 195 163
187 201 183
192 205 200
190 204 198
193 206 204
195 208 212
197 209 217
199 211 224
201 212 228
201 212 228
201 212 228
201 212 228
201 212 228
201 212 228
201 212 228
201 212 228
201 212 228
201 212 228
201 212 228
184 199 178
183 198 174
175 192 146
179 195 158
176 193 148
172 189 133
165 184 104
164 183 97
164 183 99
161 181 68
159 179 56
156 177 0
156 177 0
156 177 0
157 177 0
157 177 0
156 177 0
156 177 0
156 177 0
155 176 0
155 176 0
156 177 0
156 177 0
156 177 0
156 177 0
154 176 0
155 177 0
156 177 0
155 176 0
155 176 0
156 177 0
156 177 0
156 177 0
154 176 0
155 176 0
154 176 0
157 177 0
156 177 0
157 177 0
158 178 0
156 176 0
156 177 0
155 176 0
155 176 0
156 177 0
155 176 0
156 177 0
155 176 0
156 177 0
156 177 0
156 176 0
155 176 0
156 177 0
156 177 0
154 176 0
157 177 0
155 177 0
155 176 0
155 176 0
156 177 0
156 177 0
155 176 0
156 177 0
155 177 0
154 176 0
155 177 0
156 177 0
155 176 0
155 176 0
155 176 0
155 176 0
154 175 0
155 176 0
154 175 0
156 176 0
155 176 0
155 176 0
157 177 0
154 175 0
155 176 0
156 176 0
154 175 0
156 177 0
155 176 0
155 176 0
156 177 0
154 175 0
155 176 0
157 178 0
155 176 0
154 176 0
155 176 0
154 175 0
156 177 0
155 176 0
155 176 0
157 177 0
154 174 0
154 175 0
155 175 0
153 174 0
154 175 0
154 175 0
156 176 0
156 177 0
154 175 0
155 176 0
154 175 0
153 174 0
155 175 0
153 174 0
155 175 0
155 175 0
151 172 0
151 172 0
151 171 0
136 156 56
49 78 86
50 80 105
49 78 104
51 80 111
50 79 104
52 82 112
51 80 111
50 79 113
49 77 104
47 74 101
48 76 106
47 74 98
43 68 84
48 76 107
45 71 94
45 72 103
43 68 84
41 66 84
40 64 87
41 66 96
39 62 79
39 63 87
36 59 74
32 52 61
33 53 70
27 45 50
29 47 50
26 43 53
25 42 53
49 66 60
156 176 0
189 203 193
85 104 126
51 82 109
52 83 113
53 84 108
54 85 106
53 85 103
55 87 118
56 88 117
58 91 131
57 90 127
58 92 127
57 90 118
57 90 124
56 90 115
56 89 125
59 93 128
58 92 121
59 93 136
60 95 140
58 92 124
59 93 134
59 93 126
59 94 132
59 93 132
60 95 129
60 94 130
59 93 126
58 92 129
58 92 118
59 92 123
59 93 125
59 93 129
59 93 133
59 93 126
58 92 118
59 93 130
60 94 137
59 93 135
59 93 131
59 93 127
59 93 124
60 94 142
58 91 122
58 92 118
60 94 133
60 95 133
59 93 131
60 94 130
60 94 134
60 94 134
60 95 147
59 94 134
59 94 125
60 94 131
60 94 130
59 94 131
60 95 135
59 94 136
59 93 129
59 94 122
59 93 130
60 94 138
57 91 124
60 94 129
59 93 126
58 92 125
58 92 130
59 92 126
59 94 126
57 91 121
59 93 127
58 92 120
59 93 129
59 93 124
59 93 129
58 92 126
60 94 134
57 91 124
60 94 135
59 93 129
57 90 114
60 95 141
59 92 129
58 91 129
58 92 124
57 90 127
58 92 137
57 91 128
55 88 114
58 92 129
57 90 121
59 93 135
57 91 123
55 88 125
56 90 118
56 88 122
54 85 109
54 86 108
52 83 110
53 84 115
51 82 105
88 106 121
192 206 200
156 177 0
52 67 36
26 44 52
25 42 41
29 48 47
30 49 62
31 51 62
36 58 63
38 62 76
36 59 72
38 61 80
40 65 82
42 68 98
42 67 86
45 71 98
47 74 103
45 72 92
45 72 97
42 68 98
47 75 99
48 76 98
47 75 106
49 78 109
48 76 103
49 77 104
51 80 107
50 78 105
51 81 111
49 78 97
50 80 103
51 81 102
139 159 22
153 174 0
154 174 0
152 174 0
155 175 0
154 175 0
153 174 0
153 174 0
153 175 0
155 176 0
154 175 0
153 175 0
154 175 0
153 174 0
155 176 0
155 176 0
156 176 0
154 175 0
152 174 0
154 175 0
155 176 0
154 175 0
155 176 0
153 174 0
154 176 0
156 176 0
155 176 0
154 175 0
153 174 0
156 176 0
155 176 0
156 177 0
155 175 0
154 176 0
156 177 0
156 176 0
155 176 0
157 177 0
157 177 0
155 176 0
156 177 0
157 177 0
155 176 0
155 176 0
155 176 0
155 176 0
156 177 0
156 176 0
155 176 0
156 177 0
155 176 0
155 177 0
155 176 0
155 176 0
156 177 0
153 174 0
156 177 0
155 176 0
157 177 0
155 176 0
156 176 0
156 177 0
155 176 0
156 177 0
154 176 0
156 177 0
155 177 0
156 177 0
156 177 0
155 176 0
155 176 0
156 177 0
156 177 0
155 177 0
155 176 0
155 177 0
156 177 0
156 176 0
156 177 0
155 177 0
156 177 0
155 177 0
156 177 0
156 177 0
156 177 0
156 177 0
155 176 0
157 178 0
156 177 0
155 176 0
157 178 0
155 176 0
158 178 0
155 177 0
156 177 0
157 177 0
155 177 0
157 177 0
156 177 0
156 177 0
155 176 0
157 177 0
156 177 0
155 176 0
156 177 0
157 178 0
157 178 39
158 179 51
162 182 82
166 184 102
164 183 88
177 193 150
172 189 129
177 193 146
180 196 163
186 200 181
189 202 188
156 177 0
155 177 0
155 176 0
155 176 0
155 176 0
157 177 0
156 177 0
155 176 0
156 177 0
156 177 0
156 177 0
156 177 0
157 177 0
155 177 0
156 177 0
156 177 0
156 176 0
156 177 0
156 177 0
157 178 0
158 178 0
155 176 0
156 176 0
155 176 0
157 178 0
156 177 0
156 177 0
155 176 0
156 177 0
156 177 0
156 177 0
156 177 0
156 177 0
155 177 0
155 176 0
156 177 0
156 177 0
156 177 0
156 177 0
156 177 0
154 175 0
155 176 0
157 177 0
157 178 0
156 177 0
156 176 0
155 176 0
157 177 0
155 177 0
155 177 0
157 178 0
156 177 0
157 177 0
157 177 0
155 177 0
156 177 0
156 177 0
155 177 0
157 177 0
156 176 0
156 176 0
157 177 0
155 176 0
155 176 0
156 177 0
156 177 0
155 176 0
156 177 0
154 175 0
157 177 0
157 177 0
157 177 0
154 175 0
156 177 0
154 176 0
155 176 0
154 175 0
155 176 0
155 177 0
155 176 0
153 175 0
155 176 0
156 177 0
156 176 0
154 175 0
154 175 0
155 176 0
156 177 0
156 177 0
154 175 0
153 174 0
155 176 0
155 176 0
154 175 0
152 173 0
155 176 0
154 175 0
153 174 0
155 176 0
151 173 0
154 175 0
152 174 0
154 175 0
153 174 0
150 171 0
152 173 0
151 172 0
151 172 0
151 172 0
150 170 0
151 172 0
152 173 0
151 171 0
152 171 0
153 172 0
148 167 0
148 166 0
74 98 84
50 79 105
50 79 101
49 78 101
50 79 103
49 78 107
49 77 109
50 79 101
46 74 95
47 75 97
46 73 88
48 76 97
44 71 87
45 72 95
43 69 89
43 68 92
44 70 93
43 69 80
40 64 75
38 60 74
37 59 70
34 56 74
39 62 71
33 54 63
30 49 50
29 48 54
29 48 56
26 44 47
29 48 51
97 114 45
155 176 0
187 202 176
115 131 142
52 82 113
54 86 112
51 81 110
55 87 122
56 88 126
54 86 100
57 90 123
57 90 123
56 90 118
59 92 135
57 90 122
57 90 117
57 91 126
57 91 126
57 90 126
57 90 116
57 90 111
58 93 127
60 94 138
59 93 137
59 93 130
58 91 120
58 91 120
58 93 130
57 91 124
60 95 131
59 93 129
59 93 127
59 93 132
60 94 130
58 92 115
59 93 132
61 96 138
60 95 139
60 95 137
59 93 130
58 93 123
59 94 129
59 93 129
60 95 135
59 94 129
60 94 135
59 93 131
58 92 121
59 93 130
60 95 135
58 92 120
59 92 126
59 94 129
59 93 125
59 93 122
58 92 129
60 94 129
61 96 139
59 93 118
61 96 140
60 94 131
60 94 130
59 94 132
59 93 135
60 94 127
58 92 126
57 90 115
60 94 133
60 95 135
59 93 131
58 92 128
59 93 122
59 92 121
58 92 115
58 92 123
58 93 131
58 92 125
59 94 135
58 92 127
59 93 128
57 91 120
58 92 120
59 93 132
59 93 131
58 92 127
59 93 128
58 92 128
58 92 133
57 89 127
56 89 110
58 91 134
57 90 133
58 92 125
55 88 115
56 89 116
57 90 129
56 89 133
57 90 130
58 91 131
56 89 122
53 84 113
53 84 105
52 83 114
52 82 117
103 122 149
186 202 174
154 175 0
95 112 48
26 43 43
29 47 57
27 44 40
30 50 62
31 50 58
36 58 64
34 56 63
36 59 68
37 60 75
38 61 81
39 64 70
42 67 80
42 67 91
44 71 101
46 74 96
46 73 88
45 72 91
42 68 81
48 77 101
50 78 112
46 73 86
48 76 95
48 76 101
49 78 100
49 78 99
50 79 103
49 77 98
50 79 103
69 93 84
150 169 0
149 168 0
150 169 0
149 169 0
151 171 0
152 173 0
149 170 0
151 171 0
152 173 0
149 170 0
150 171 0
154 175 0
154 175 0
151 172 0
153 174 0
151 172 0
152 173 0
155 175 0
151 173 0
153 174 0
152 173 0
152 173 0
149 171 0
155 176 0
152 173 0
154 175 0
155 176 0
155 176 0
154 175 0
153 174 0
154 176 0
155 176 0
155 176 0
155 176 0
155 176 0
152 173 0
153 174 0
155 176 0
153 175 0
156 177 0
156 177 0
154 176 0
156 177 0
154 176 0
156 177 0
156 176 0
156 177 0
154 176 0
156 177 0
155 176 0
155 176 0
156 177 0
156 177 0
154 176 0
154 176 0
155 176 0
155 177 0
155 176 0
156 177 0
156 177 0
155 176 0
157 177 0
156 177 0
156 177 0
155 176 0
154 176 0
155 176 0
157 177 0
155 176 0
155 176 0
156 177 0
155 176 0
157 177 0
154 176 0
156 177 0
157 177 0
156 177 0
155 177 0
156 177 0
157 177 0
155 177 0
156 177 0
155 176 0
156 177 0
156 177 0
155 176 0
155 176 0
155 176 0
157 177 0
157 177 0
156 177 0
157 178 0
154 175 0
156 176 0
157 177 0
156 177 0
156 177 0
156 177 0
156 177 0
156 177 0
156 177 0
158 178 0
156 177 0
155 176 0
155 176 0
156 177 0
156 177 0
156 177 0
156 177 0
155 176 0
156 177 0
156 177 0
156 177 0
156 177 0
157 177 0
154 175 0
156 177 0
154 176 0
156 177 0
154 175 0
157 177 0
155 176 0
155 176 0
156 177 0
155 177 0
157 177 0
156 177 0
158 178 0
156 176 0
155 175 0
158 178 0
156 177 0
155 177 0
155 176 0
155 177 0
154 176 0
158 178 0
156 177 0
155 176 0
156 177 0
155 177 0
155 176 0
155 176 0
155 176 0
156 177 0
155 176 0
154 176 0
156 177 0
154 175 0
155 176 0
155 176 0
155 176 0
155 176 0
156 177 0
156 176 0
155 176 0
156 177 0
155 176 0
156 177 0
155 176 0
155 176 0
155 176 0
155 175 0
155 176 0
157 177 0
154 176 0
155 176 0
153 175 0
156 177 0
155 175 0
156 176 0
154 175 0
156 177 0
156 177 0
155 176 0
154 176 0
157 177 0
155 176 0
155 176 0
157 177 0
155 176 0
156 177 0
155 176 0
154 175 0
154 175 0
154 175 0
155 176 0
152 173 0
155 176 0
154 174 0
153 175 0
155 176 0
155 176 0
155 176 0
156 177 0
155 176 0
155 177 0
153 174 0
154 175 0
155 176 0
156 176 0
155 176 0
154 175 0
155 175 0
155 176 0
153 174 0
153 174 0
152 173 0
152 173 0
154 176 0
151 172 0
155 175 0
153 175 0
153 174 0
153 173 0
152 173 0
151 172 0
155 175 0
153 174 0
152 172 0
152 173 0
151 172 0
147 167 0
148 168 0
150 171 0
150 170 0
148 167 0
151 169 0
146 165 0
142 161 0
145 164 0
141 159 0
143 160 0
140 156 0
96 115 61
50 80 102
49 78 101
49 78 96
47 75 81
47 74 92
48 76 94
47 74 93
48 76 107
44 71 89
47 74 97
45 72 86
44 71 86
46 72 92
42 67 86
43 69 91
43 68 82
41 65 81
42 67 76
35 58 65
39 62 82
35 56 62
32 53 49
31 51 63
33 54 55
32 51 57
30 48 50
29 47 41
29 48 46
136 156 31
156 177 0
193 208 183
141 155 174
49 78 108
50 80 107
53 83 113
54 86 127
52 83 99
55 87 114
55 88 118
55 87 102
56 88 119
57 91 129
56 89 118
56 89 125
59 93 131
58 92 131
58 91 125
59 92 126
58 92 131
59 93 130
57 91 124
56 89 116
61 95 145
59 93 133
59 93 130
59 93 134
58 92 130
57 90 126
59 93 130
58 92 132
59 94 132
59 94 129
59 93 125
57 91 113
57 91 110
59 93 138
60 95 144
60 94 134
58 92 126
60 94 129
61 95 133
58 92 117
60 94 136
59 93 126
57 91 111
58 93 126
59 93 136
60 94 127
57 91 120
59 93 131
60 94 118
58 91 115
60 95 137
59 94 130
58 92 133
58 92 125
59 93 130
60 94 130
60 95 129
59 94 127
59 93 125
57 90 113
58 91 126
58 92 129
57 91 123
59 93 121
58 92 130
59 93 131
59 93 126
60 94 132
59 93 134
60 94 131
58 91 117
58 92 119
59 92 132
57 91 117
58 92 125
58 91 127
59 93 135
60 94 137
60 94 134
59 92 130
58 91 135
56 89 113
57 90 121
58 91 127
60 94 135
59 93 132
56 89 118
57 90 124
58 92 129
55 87 112
56 89 115
56 89 110
56 88 113
57 90 126
57 90 124
53 85 120
53 85 113
53 84 121
52 83 118
50 80 103
146 160 180
194 209 188
156 177 0
126 145 35
30 50 51
27 46 40
27 45 45
32 52 61
31 50 53
31 51 55
38 61 75
37 59 63
37 60 79
39 63 77
42 68 83
42 67 84
42 67 83
45 72 95
43 69 75
43 69 83
47 74 93
47 75 99
46 74 90
46 73 85
48 77 101
48 76 95
49 77 95
47 75 97
48 77 87
48 76 88
48 77 84
51 80 110
98 116 66
138 154 0
144 162 0
147 165 0
144 163 0
145 164 0
147 167 0
150 170 0
150 170 0
150 170 0
148 169 0
150 171 0
150 171 0
151 171 0
153 174 0
150 170 0
151 171 0
151 172 0
152 173 0
151 173 0
149 170 0
151 172 0
154 175 0
155 176 0
155 175 0
156 176 0
154 175 0
154 175 0
154 175 0
153 174 0
154 175 0
154 176 0
153 174 0
155 176 0
152 173 0
153 174 0
153 174 0
155 176 0
155 176 0
156 177 0
155 175 0
156 177 0
155 176 0
156 177 0
154 176 0
154 176 0
154 175 0
155 176 0
155 176 0
154 175 0
154 175 0
154 175 0
155 176 0
156 177 0
155 176 0
155 176 0
155 176 0
156 177 0
155 176 0
156 177 0
155 176 0
155 176 0
155 177 0
155 176 0
155 176 0
155 177 0
155 176 0
154 175 0
155 176 0
156 177 0
156 177 0
155 176 0
155 176 0
155 176 0
155 176 0
155 176 0
156 177 0
155 176 0
155 176 0
155 177 0
156 176 0
155 176 0
157 177 0
156 177 0
155 176 0
155 176 0
156 177 0
155 176 0
153 175 0
156 177 0
156 177 0
154 175 0
154 176 0
157 177 0
154 176 0
157 178 0
156 177 0
154 175 0
156 177 0
157 178 0
156 176 0
157 177 0
155 176 0
155 176 0
157 177 0
155 176 0
156 177 0
156 177 0
156 177 0
157 177 0
156 177 0
156 177 0
156 177 0
157 177 0
156 177 0
157 177 0
156 177 0
156 177 0
155 176 0
157 177 0
156 177 0
154 176 0
156 176 0
155 177 0
155 177 0
154 175 0
155 177 0
155 176 0
156 177 0
155 176 0
156 177 0
155 176 0
157 177 0
155 177 0
156 177 0
155 176 0
156 177 0
157 177 0
154 175 0
156 177 0
157 177 0
156 177 0
156 177 0
157 177 0
156 176 0
155 176 0
155 176 0
155 176 0
156 177 0
156 177 0
155 176 0
156 177 0
156 177 0
157 177 0
155 176 0
155 176 0
155 176 0
154 175 0
156 176 0
155 176 0
156 176 0
155 176 0
156 177 0
154 176 0
153 175 0
157 177 0
156 177 0
154 175 0
155 176 0
155 176 0
154 175 0
157 177 0
154 175 0
155 176 0
155 176 0
155 176 0
155 176 0
153 175 0
156 177 0
155 176 0
152 174 0
154 175 0
154 174 0
156 176 0
153 174 0
155 176 0
156 176 0
154 175 0
152 173 0
152 174 0
155 176 0
156 177 0
153 174 0
155 176 0
153 175 0
154 175 0
155 175 0
151 172 0
155 176 0
154 175 0
152 174 0
153 175 0
155 175 0
154 175 0
153 173 0
153 175 0
151 172 0
153 174 0
151 172 0
153 174 0
153 174 0
151 172 0
152 174 0
155 175 0
151 173 0
152 173 0
152 173 0
150 172 0
151 171 0
149 170 0
148 168 0
150 171 0
148 168 0
152 172 0
147 168 0
145 165 0
148 169 0
144 165 0
140 159 0
140 159 0
147 166 0
139 158 0
135 153 0
144 161 0
140 157 0
116 133 48
50 79 95
49 78 89
50 79 99
45 72 89
50 78 106
49 77 98
47 75 88
47 74 90
46 73 84
44 70 72
44 70 76
44 70 91
44 70 93
43 68 89
43 69 83
44 70 93
38 61 82
40 64 78
38 61 70
37 60 66
37 60 70
33 54 74
35 57 64
35 56 65
28 47 46
31 51 44
29 48 42
63 80 52
153 173 22
155 176 0
207 221 218
171 184 202
47 75 89
51 81 107
52 83 112
53 84 108
59 92 129
55 88 101
55 87 119
56 88 119
57 91 128
54 85 109
58 91 128
58 91 121
58 91 137
60 94 132
57 90 115
58 92 130
57 91 122
57 91 113
59 93 125
58 92 121
58 91 129
57 91 121
58 92 135
58 92 120
58 93 127
59 92 126
59 94 133
57 90 109
57 90 121
59 93 131
59 93 134
59 94 123
59 93 125
58 92 121
58 92 122
59 93 132
59 93 121
59 93 134
60 95 136
59 93 128
59 94 132
60 94 139
59 93 133
59 94 131
58 91 117
57 90 120
59 93 135
57 91 114
58 92 133
56 89 112
61 96 137
57 91 120
58 92 126
58 92 124
59 93 129
60 94 138
58 91 131
59 93 123
60 95 136
60 94 133
59 93 131
60 95 133
61 95 142
58 92 120
58 92 125
59 94 131
57 90 110
59 93 130
59 94 135
58 91 122
60 94 130
58 92 119
57 90 117
58 92 125
60 94 134
58 92 124
56 90 114
58 91 118
58 92 120
57 91 116
57 90 128
56 89 114
57 91 123
57 90 123
57 90 121
57 90 117
58 91 126
56 89 115
58 91 121
57 90 131
58 91 126
55 88 122
58 91 129
57 90 127
54 85 116
54 86 116
55 87 117
52 82 119
51 82 109
49 78 110
173 186 201
207 221 215
156 177 0
153 174 16
65 83 58
28 46 35
27 45 28
33 54 53
32 53 58
39 62 67
36 58 57
37 60 70
38 62 72
40 64 72
43 68 85
39 63 82
39 63 76
43 69 86
43 69 88
43 69 85
47 75 96
46 73 90
44 70 76
46 73 99
46 73 92
47 75 88
48 76 94
49 77 97
48 77 89
51 80 104
50 80 100
50 79 98
110 126 39
131 148 0
138 156 0
139 157 0
141 159 0
142 161 0
146 165 0
148 168 0
142 162 0
148 169 0
145 165 0
148 170 0
146 165 0
152 172 0
147 168 0
146 167 0
151 172 0
150 171 0
151 172 0
151 173 0
152 174 0
152 172 0
154 175 0
152 173 0
152 173 0
152 173 0
154 175 0
151 172 0
153 174 0
154 176 0
152 173 0
153 174 0
153 174 0
152 174 0
150 171 0
154 175 0
153 174 0
154 175 0
155 175 0
154 175 0
155 176 0
153 175 0
156 177 0
155 175 0
155 176 0
155 175 0
156 176 0
153 174 0
155 176 0
154 175 0
156 177 0
155 176 0
154 176 0
157 177 0
155 176 0
155 176 0
155 176 0
154 175 0
155 176 0
154 176 0
155 176 0
156 177 0
155 176 0
156 177 0
153 175 0
157 177 0
153 174 0
154 175 0
155 176 0
155 176 0
156 177 0
156 177 0
155 176 0
153 175 0
157 177 0
156 176 0
155 176 0
156 177 0
157 177 0
156 177 0
153 174 0
155 176 0
156 177 0
155 176 0
156 177 0
155 176 0
156 177 0
158 178 0
155 176 0
156 177 0
157 177 0
155 176 0
155 176 0
155 176 0
156 176 0
154 175 0
156 177 0
157 177 0
156 177 0
156 177 0
156 177 0
156 177 0
156 177 0
156 177 0
154 176 0
156 177 0
156 177 0
156 177 0
155 176 0
155 177 0
156 177 0
156 177 0
157 177 0
154 176 0
156 177 0
156 177 0
156 177 0
156 177 0
156 177 0
157 177 0
154 175 0
157 177 0
156 177 0
156 177 0
155 176 0
156 177 0
156 177 0
157 177 0
155 176 0
156 176 0
156 177 0
156 177 0
156 177 0
155 176 0
157 177 0
154 175 0
156 177 0
155 176 0
156 176 0
156 177 0
154 175 0
155 176 0
155 176 0
155 176 0
156 176 0
155 176 0
154 176 0
153 175 0
156 176 0
156 177 0
154 175 0
156 177 0
155 176 0
156 177 0
154 176 0
155 176 0
156 177 0
154 176 0
155 176 0
155 176 0
156 177 0
155 176 0
153 175 0
154 175 0
154 175 0
154 175 0
155 176 0
156 177 0
155 176 0
156 177 0
154 176 0
153 174 0
155 176 0
153 174 0
156 176 0
155 176 0
155 176 0
155 176 0
154 176 0
156 177 0
154 176 0
155 175 0
155 176 0
153 174 0
154 175 0
154 175 0
154 175 0
153 174 0
155 176 0
154 175 0
156 176 0
150 172 0
153 175 0
152 173 0
155 176 0
153 174 0
154 175 0
154 175 0
154 175 0
151 172 0
153 174 0
150 172 0
151 172 0
153 174 0
151 172 0
149 171 0
152 173 0
154 175 0
153 174 0
154 175 0
152 173 0
151 172 0
151 172 0
149 169 0
151 172 0
153 173 0
148 169 0
147 168 0
150 171 0
148 169 0
147 168 0
144 165 0
152 172 0
144 165 0
144 164 0
149 170 0
143 163 0
137 157 0
142 161 0
141 161 0
144 164 0
139 158 0
131 149 0
136 154 0
132 150 0
131 148 0
71 95 88
46 74 72
49 78 89
48 76 92
47 75 87
47 75 84
48 76 100
49 77 105
47 75 92
45 72 88
44 71 76
44 70 79
45 71 90
41 66 83
41 66 78
42 68 76
42 67 72
38 62 72
38 61 72
37 59 65
38 61 76
34 55 58
32 52 54
34 56 48
35 56 51
27 45 42
34 55 49
108 127 37
155 177 0
155 176 0
217 231 240
196 209 226
51 80 112
49 78 105
52 83 108
55 87 116
55 88 115
55 87 117
54 86 97
55 88 98
54 86 94
56 89 113
56 89 117
57 90 120
58 91 126
58 92 126
57 90 114
57 90 124
55 87 106
58 92 117
56 89 104
59 93 123
60 94 135
59 93 126
60 94 130
58 92 127
58 91 129
57 90 118
59 93 130
58 93 124
59 93 128
58 91 116
59 93 127
57 91 117
58 92 121
60 95 134
59 93 126
57 91 114
59 93 137
59 93 124
58 92 122
60 94 127
58 91 125
58 92 126
61 95 139
59 94 126
58 92 121
57 90 107
58 92 117
59 93 127
59 92 123
58 91 124
59 93 133
60 95 134
60 95 133
58 92 126
57 90 110
59 93 129
59 93 122
57 91 115
58 92 125
58 92 125
58 92 121
60 94 135
59 93 125
58 91 118
58 92 117
60 94 131
59 93 130
59 93 121
58 92 114
58 92 120
60 94 134
59 93 126
58 92 129
57 91 115
58 91 124
57 90 117
56 89 111
60 94 134
57 90 113
58 92 115
59 93 125
58 91 125
58 91 114
59 92 126
57 91 126
58 92 121
57 90 121
56 89 115
57 89 118
59 92 132
56 89 119
57 90 124
56 89 123
56 89 121
54 86 115
52 83 112
55 87 113
53 84 119
52 82 104
47 76 94
200 213 231
217 231 241
155 176 0
154 176 0
110 128 40
33 54 56
30 50 47
31 50 51
34 56 44
38 61 66
34 56 65
38 61 71
37 60 66
38 61 76
41 65 75
39 63 77
43 69 83
41 65 75
44 70 85
45 72 84
44 70 92
48 76 100
46 72 91
47 75 93
44 71 92
47 74 94
50 79 103
49 77 99
47 75 98
48 76 96
49 77 94
74 95 81
126 143 0
132 150 0
136 154 0
136 156 0
135 154 0
138 157 0
145 165 0
143 164 0
142 162 0
147 167 0
144 164 0
147 167 0
141 161 0
151 172 0
148 169 0
147 168 0
144 165 0
148 168 0
150 171 0
150 171 0
150 172 0
149 169 0
151 171 0
149 170 0
151 172 0
153 173 0
150 171 0
148 169 0
152 174 0
154 174 0
152 173 0
154 175 0
148 170 0
152 173 0
153 174 0
153 174 0
151 172 0
154 175 0
156 176 0
154 175 0
154 174 0
153 174 0
152 172 0
154 175 0
153 173 0
154 175 0
154 176 0
154 174 0
155 176 0
153 175 0
154 175 0
154 175 0
150 172 0
156 176 0
155 176 0
154 176 0
155 176 0
153 174 0
155 176 0
154 176 0
154 176 0
153 174 0
155 176 0
154 175 0
155 176 0
155 176 0
154 175 0
154 176 0
154 175 0
153 174 0
155 176 0
155 176 0
155 176 0
156 177 0
153 175 0
154 176 0
156 177 0
155 176 0
155 176 0
158 178 0
155 176 0
153 175 0
155 176 0
157 177 0
156 177 0
157 177 0
155 176 0
156 176 0
155 177 0
156 177 0
155 176 0
155 176 0
156 177 0
155 176 0
155 176 0
155 176 0
156 177 0
154 176 0
154 176 0
155 176 0
154 175 0
155 176 0
156 177 0
156 177 0
156 177 0
155 176 0
155 176 0
156 177 0
155 176 0
156 177 0
152 174 0
156 177 0
155 176 0
157 177 0
157 178 0
157 178 0
157 178 0
157 177 0
156 177 0
156 177 0
155 177 0
156 177 0
155 176 0
154 176 0
155 176 0
154 175 0
156 177 0
157 177 0
156 177 0
156 177 0
155 176 0
155 176 0
155 176 0
155 177 0
156 177 0
153 174 0
155 175 0
155 175 0
155 176 0
156 177 0
155 176 0
154 176 0
156 177 0
155 176 0
154 176 0
156 177 0
155 176 0
154 176 0
153 175 0
156 177 0
155 176 0
156 177 0
153 175 0
156 177 0
155 176 0
155 176 0
156 176 0
156 177 0
156 177 0
154 175 0
155 175 0
152 174 0
155 176 0
153 175 0
156 176 0
155 175 0
153 175 0
156 177 0
154 175 0
155 176 0
155 176 0
154 176 0
153 174 0
154 176 0
152 173 0
156 176 0
154 175 0
153 174 0
154 175 0
155 176 0
153 175 0
154 175 0
153 175 0
155 175 0
155 176 0
153 174 0
154 175 0
154 175 0
152 174 0
157 177 0
152 173 0
152 173 0
154 175 0
153 174 0
151 172 0
151 173 0
153 175 0
153 174 0
154 174 0
155 176 0
150 171 0
150 171 0
152 173 0
152 173 0
152 173 0
151 173 0
151 172 0
148 169 0
152 173 0
152 173 0
151 173 0
150 170 0
148 170 0
147 168 0
150 170 0
151 173 0
146 167 0
144 165 0
150 171 0
149 170 0
146 168 0
147 168 0
147 167 0
142 162 0
146 167 0
145 166 0
138 158 0
139 159 0
141 161 0
141 162 0
137 156 0
138 157 0
134 152 0
127 146 0
128 146 0
136 155 0
102 121 64
47 76 86
48 76 83
49 78 102
49 78 102
47 74 95
48 75 90
48 76 91
46 73 87
44 71 84
44 71 82
42 67 79
42 67 71
41 66 72
41 66 68
42 66 74
42 67 66
40 64 68
41 65 76
36 58 60
35 56 50
36 58 58
36 58 59
33 54 58
32 52 41
31 51 34
63 81 51
152 173 0
152 174 0
159 180 36
188 209 130
186 206 124
47 74 87
52 82 112
53 84 106
52 83 112
53 84 100
55 87 120
56 89 114
55 87 116
57 91 127
56 89 122
57 90 116
57 90 133
56 89 108
57 90 118
58 91 121
59 94 138
59 92 129
57 90 116
58 92 130
59 93 121
59 93 123
57 90 121
58 91 116
59 93 131
59 93 128
59 92 123
59 94 136
59 93 122
58 91 116
57 90 118
58 92 115
59 93 130
57 91 126
58 92 120
59 94 130
57 90 120
58 92 131
58 92 129
59 93 127
58 91 122
59 92 130
57 91 118
60 95 136
58 92 126
57 91 124
59 93 127
58 92 127
60 94 132
58 93 126
57 90 120
57 90 105
58 92 125
59 93 121
59 93 129
59 92 129
58 92 117
59 93 126
59 93 121
59 93 127
57 90 123
58 92 126
58 92 117
58 92 123
58 92 122
58 93 127
59 93 130
57 91 115
59 92 122
61 95 137
57 90 105
58 92 122
59 92 130
60 95 137
58 91 127
58 92 126
56 89 117
59 92 130
58 92 115
56 89 114
58 92 125
58 92 129
59 92 128
58 91 124
57 91 116
58 92 122
56 89 115
58 91 113
58 92 114
57 90 117
55 87 110
57 90 110
53 85 105
56 88 112
54 86 112
55 87 117
52 84 97
52 83 110
53 84 106
49 77 95
51 79 101
184 204 120
193 212 149
160 181 36
154 175 0
149 170 20
54 75 55
33 53 44
31 50 51
34 56 47
33 54 55
36 58 63
31 50 54
36 58 51
40 64 76
41 65 74
39 63 75
43 69 71
41 66 62
42 67 87
44 70 87
43 68 80
46 73 90
46 74 90
46 73 79
47 74 91
46 73 78
46 73 86
48 77 87
48 76 80
48 76 97
50 79 96
95 114 42
125 143 0
128 147 0
129 149 0
137 155 0
138 157 0
135 154 0
139 158 0
141 161 0
137 157 0
142 162 0
143 163 0
145 165 0
146 167 0
148 169 0
143 163 0
147 168 0
145 167 0
148 170 0
146 167 0
150 171 0
149 170 0
149 170 0
152 173 0
151 172 0
150 172 0
150 171 0
149 170 0
150 171 0
151 172 0
151 172 0
152 174 0
148 169 0
150 172 0
151 173 0
153 174 0
153 174 0
151 173 0
152 173 0
154 175 0
152 173 0
152 174 0
152 173 0
153 174 0
154 175 0
153 175 0
155 175 0
152 173 0
154 175 0
154 175 0
154 175 0
152 174 0
154 175 0
155 176 0
155 176 0
154 175 0
153 173 0
156 177 0
154 175 0
155 175 0
153 174 0
153 175 0
155 176 0
156 176 0
155 176 0
154 176 0
152 173 0
156 177 0
153 174 0
153 174 0
157 178 0
155 176 0
155 175 0
156 177 0
155 176 0
155 175 0
156 176 0
155 176 0
156 177 0
153 175 0
155 176 0
155 176 0
155 176 0
156 177 0
155 176 0
155 176 0
156 177 0
157 177 0
155 176 0
154 176 0
154 175 0
154 176 0
157 177 0
156 177 0
156 177 0
156 177 0
156 177 0
155 176 0
156 177 0
156 177 0
156 176 0
157 177 0
155 176 0
155 176 0
155 176 0
156 177 0
155 176 0
157 177 0
156 177 0
155 177 0
156 177 0
157 177 0
155 176 0
154 175 0
156 177 0
157 177 0
155 177 0
155 176 0
154 175 0
155 176 0
155 176 0
155 176 0
155 176 0
157 178 0
156 177 0
156 176 0
154 175 0
155 176 0
155 176 0
154 175 0
156 177 0
155 176 0
156 177 0
156 177 0
157 177 0
154 175 0
157 177 0
154 175 0
155 176 0
154 175 0
155 176 0
155 177 0
156 177 0
156 177 0
155 176 0
156 176 0
154 175 0
154 175 0
155 177 0
153 175 0
155 176 0
157 177 0
154 176 0
156 176 0
153 174 0
156 177 0
156 176 0
154 175 0
153 174 0
154 175 0
155 176 0
155 176 0
154 175 0
156 177 0
152 174 0
156 177 0
155 175 0
153 174 0
156 177 0
156 177 0
154 175 0
156 177 0
155 176 0
154 175 0
152 173 0
153 174 0
154 175 0
152 174 0
155 176 0
151 173 0
154 175 0
156 177 0
154 175 0
153 174 0
153 174 0
155 175 0
153 174 0
154 174 0
152 172 0
151 172 0
155 176 0
150 170 0
152 174 0
154 175 0
151 171 0
151 172 0
153 174 0
151 173 0
155 175 0
149 170 0
151 173 0
154 175 0
150 171 0
153 174 0
151 172 0
152 172 0
151 172 0
151 172 0
150 171 0
149 171 0
148 169 0
152 173 0
151 171 0
149 170 0
141 161 0
143 164 0
146 167 0
147 168 0
149 169 0
145 166 0
145 166 0
144 164 0
145 167 0
142 164 0
142 163 0
139 159 0
142 163 0
141 162 0
140 161 0
140 160 0
135 155 0
134 155 0
130 151 0
126 145 0
123 142 0
124 142 0
120 138 0
120 139 0
57 83 91
47 74 80
47 75 86
48 76 88
45 72 74
47 74 97
45 72 79
43 68 72
46 74 88
43 69 86
46 73 93
44 70 78
41 65 64
42 67 74
39 63 66
37 60 63
36 58 62
38 61 65
37 60 66
36 58 49
36 58 55
36 59 55
35 57 41
33 53 34
34 55 43
120 138 28
152 173 0
154 175 0
163 185 0
175 198 0
174 198 0
73 97 87
50 80 99
51 82 107
52 84 105
54 85 99
53 84 103
55 87 115
56 90 122
55 87 116
55 88 112
55 86 113
56 89 122
57 90 120
57 90 126
56 89 120
56 89 120
57 90 116
57 91 119
56 88 109
59 93 134
57 90 117
57 91 113
59 93 133
57 90 123
56 89 109
58 92 125
58 92 122
58 91 132
59 93 128
60 94 136
59 93 129
58 92 114
58 91 127
58 92 125
58 91 111
58 92 108
60 94 131
59 94 136
57 91 123
56 90 111
59 93 127
58 93 127
58 91 115
58 91 115
60 94 134
57 91 121
59 94 126
59 93 124
58 92 119
60 94 127
59 93 134
59 93 127
59 93 121
58 92 123
59 93 129
58 91 125
58 92 122
59 92 123
59 94 127
59 92 124
58 92 124
60 94 131
59 93 122
59 94 124
59 93 124
57 90 124
57 90 111
58 91 123
58 92 122
59 93 124
59 93 131
58 91 121
58 91 127
57 89 123
59 93 135
59 93 121
56 90 112
57 90 119
58 92 128
57 90 120
57 90 121
55 87 113
58 92 135
58 92 126
59 93 133
59 93 130
57 89 118
56 88 119
57 90 119
56 89 119
56 88 112
57 89 118
57 90 122
54 86 107
53 85 97
54 85 116
56 89 117
51 81 109
52 82 110
80 103 82
175 198 0
175 198 0
162 184 0
156 177 0
156 176 0
120 138 36
33 54 41
34 55 45
35 56 50
35 57 39
34 56 44
33 54 56
39 63 64
40 63 68
40 64 72
39 63 63
39 63 69
41 65 71
41 65 76
45 71 89
45 71 77
42 68 67
45 72 85
46 73 88
45 71 80
45 72 88
47 75 79
45 71 75
46 74 85
46 74 83
59 81 82
122 139 0
121 139 0
125 143 0
128 146 0
132 152 0
126 145 0
139 158 0
134 154 0
132 152 0
137 157 0
140 161 0
134 153 0
145 165 0
145 165 0
146 166 0
145 165 0
143 164 0
142 163 0
150 171 0
147 167 0
147 168 0
147 168 0
144 165 0
148 169 0
145 166 0
146 167 0
148 170 0
149 169 0
149 170 0
152 173 0
152 173 0
151 171 0
151 172 0
146 168 0
149 170 0
149 170 0
153 174 0
151 172 0
152 173 0
150 171 0
152 172 0
151 171 0
154 175 0
152 173 0
152 172 0
153 173 0
154 175 0
153 175 0
154 175 0
155 176 0
152 174 0
154 175 0
154 175 0
152 173 0
153 173 0
152 174 0
156 176 0
154 175 0
153 175 0
154 175 0
153 174 0
154 175 0
152 173 0
155 176 0
152 173 0
155 176 0
155 176 0
154 176 0
156 176 0
155 176 0
155 176 0
153 175 0
153 174 0
152 174 0
154 175 0
154 175 0
155 176 0
155 175 0
155 176 0
154 175 0
155 176 0
153 174 0
157 177 0
156 177 0
155 175 0
154 175 0
153 174 0
155 176 0
155 176 0
153 175 0
154 176 0
155 176 0
154 175 0
155 176 0
155 176 0
156 176 0
154 175 0
154 174 0
156 177 0
156 177 0
155 176 0
157 177 0
153 175 0
156 177 0
156 177 0
156 177 0
155 176 0
155 176 0
154 176 0
154 175 0
154 175 0
156 176 0
155 177 0
154 175 0
155 176 0
155 176 0
154 176 0
156 177 0
155 176 0
156 177 0
156 177 0
156 176 0
153 175 0
156 177 0
155 176 0
155 176 0
157 177 0
155 176 0
154 175 0
154 175 0
157 178 0
156 177 0
156 177 0
155 176 0
156 177 0
157 177 0
155 176 0
153 175 0
156 177 0
156 176 0
154 176 0
154 175 0
156 176 0
154 174 0
156 177 0
152 173 0
155 176 0
155 176 0
152 174 0
154 175 0
155 176 0
154 175 0
154 176 0
154 176 0
154 176 0
157 177 0
156 176 0
154 176 0
156 177 0
155 176 0
155 176 0
154 175 0
155 176 0
154 176 0
154 175 0
155 175 0
151 172 0
153 174 0
155 176 0
153 174 0
155 175 0
156 176 0
153 173 0
152 173 0
154 174 0
154 175 0
154 175 0
153 174 0
154 175 0
152 174 0
154 176 0
153 174 0
152 174 0
151 173 0
154 175 0
154 175 0
152 173 0
154 175 0
154 175 0
151 173 0
148 169 0
148 170 0
152 173 0
152 173 0
152 173 0
153 174 0
153 174 0
152 173 0
152 173 0
152 173 0
150 171 0
153 174 0
149 170 0
148 168 0
149 169 0
149 170 0
153 173 0
150 171 0
150 171 0
150 171 0
151 172 0
146 168 0
149 170 0
143 164 0
148 169 0
146 167 0
149 170 0
145 167 0
146 167 0
146 166 0
146 167 0
142 163 0
145 165 0
143 163 0
144 165 0
139 160 0
141 162 0
132 153 0
136 156 0
136 156 0
132 151 0
131 151 0
130 149 0
126 145 0
126 145 0
127 146 0
122 141 0
119 137 0
101 120 39
44 71 73
46 73 73
47 74 92
45 72 72
46 72 81
44 70 77
47 74 79
42 68 75
44 70 75
44 70 79
43 69 83
41 66 56
39 63 73
39 62 66
41 65 59
37 60 57
40 65 68
38 60 59
39 63 63
36 58 52
36 58 65
34 55 50
33 55 28
86 104 38
146 167 14
153 174 0
153 175 0
167 190 0
176 199 0
177 199 0
132 154 64
52 82 106
50 80 97
53 84 114
52 83 98
54 86 97
57 89 118
55 86 113
55 87 124
54 86 117
56 89 119
55 88 115
56 89 112
58 91 125
57 90 117
58 91 121
57 89 117
58 91 123
58 91 114
57 90 117
59 92 126
57 90 109
58 91 116
55 88 108
57 90 113
58 91 110
59 92 123
57 90 123
59 93 122
58 91 119
57 91 112
60 95 141
58 92 123
58 91 118
59 93 127
58 92 123
58 91 114
58 92 119
57 91 109
57 90 120
58 92 123
58 92 126
58 92 125
58 91 126
58 91 123
56 89 111
57 91 115
59 94 125
58 92 118
56 89 111
58 91 111
58 92 120
59 93 130
59 94 134
59 92 121
58 91 115
60 94 129
58 91 122
57 90 119
57 91 120
58 92 114
58 91 121
58 92 129
60 94 135
59 93 121
59 92 121
57 90 114
58 92 118
58 92 115
57 90 120
58 92 126
58 91 121
59 92 129
58 92 128
58 91 123
59 93 133
58 92 126
55 88 114
57 89 125
55 87 107
56 89 113
57 90 119
56 88 125
57 90 113
59 92 132
58 91 126
56 88 106
56 90 108
55 87 113
58 91 129
55 88 119
54 86 106
54 86 112
55 87 117
56 88 113
55 87 117
51 81 104
52 83 109
52 82 107
125 146 71
175 198 0
172 196 0
171 194 0
155 176 0
151 172 0
147 168 0
79 98 56
32 52 48
34 55 34
32 53 33
36 58 43
36 58 48
38 60 59
37 60 67
40 64 71
41 65 68
40 65 57
42 67 78
41 65 69
45 71 74
43 69 79
43 69 66
44 70 86
47 74 82
44 70 74
47 74 86
46 73 82
48 76 92
46 74 85
48 76 85
99 118 48
112 130 0
123 141 0
132 151 0
125 143 0
130 149 0
129 148 0
134 153 0
133 153 0
136 157 0
130 150 0
137 156 0
138 158 0
136 156 0
144 165 0
141 162 0
137 158 0
145 166 0
145 166 0
144 164 0
140 162 0
142 163 0
146 167 0
149 170 0
144 165 0
150 171 0
150 171 0
153 173 0
147 168 0
149 170 0
150 171 0
149 170 0
151 172 0
150 171 0
152 173 0
148 169 0
152 173 0
153 173 0
152 173 0
149 171 0
147 168 0
153 175 0
152 173 0
150 171 0
152 173 0
154 175 0
154 175 0
155 176 0
153 173 0
152 173 0
154 175 0
153 174 0
150 172 0
154 174 0
152 172 0
153 174 0
152 174 0
153 174 0
151 172 0
153 175 0
154 175 0
152 174 0
154 175 0
151 172 0
151 172 0
154 175 0
155 176 0
153 174 0
154 176 0
150 172 0
154 175 0
154 175 0
155 176 0
155 176 0
155 176 0
155 176 0
155 176 0
153 175 0
153 174 0
154 176 0
156 177 0
155 176 0
156 176 0
154 175 0
155 176 0
155 176 0
154 176 0
153 174 0
152 174 0
154 175 0
155 175 0
154 175 0
155 176 0
154 176 0
154 175 0
153 174 0
155 177 0
154 175 0
155 176 0
154 176 0
154 175 0
156 177 0
155 176 0
156 177 0
155 176 0
154 175 0
154 175 0
153 174 0
155 176 0
155 175 0
155 176 0
154 175 0
156 177 0
156 177 0
156 177 0
156 177 0
156 176 0
155 176 0
157 177 0
154 176 0
155 176 0
155 176 0
156 177 0
155 176 0
156 176 0
156 177 0
154 175 0
155 176 0
155 176 0
155 177 0
155 176 0
154 175 0
155 176 0
156 176 0
155 176 0
155 176 0
154 176 0
155 176 0
155 176 0
156 177 0
156 177 0
157 177 0
156 177 0
154 175 0
153 174 0
154 176 0
153 175 0
155 176 0
155 176 0
155 176 0
154 175 0
155 176 0
153 174 0
156 176 0
155 176 0
152 174 0
154 175 0
153 175 0
151 172 0
156 176 0
154 175 0
153 175 0
154 175 0
151 172 0
154 176 0
153 174 0
154 176 0
151 173 0
154 175 0
153 174 0
154 175 0
152 173 0
153 174 0
152 174 0
153 175 0
151 172 0
154 175 0
152 173 0
153 174 0
152 173 0
152 174 0
153 175 0
154 175 0
153 174 0
152 173 0
153 175 0
153 174 0
154 176 0
149 170 0
150 171 0
151 172 0
152 174 0
152 172 0
149 170 0
151 172 0
152 172 0
149 170 0
153 174 0
150 171 0
153 174 0
151 172 0
149 170 0
150 170 0
148 169 0
149 170 0
150 171 0
150 171 0
152 173 0
151 172 0
148 169 0
149 169 0
145 166 0
146 167 0
149 170 0
146 167 0
146 168 0
148 169 0
144 165 0
142 162 0
141 163 0
140 160 0
142 163 0
141 161 0
142 162 0
146 166 0
137 158 0
140 161 0
128 148 0
136 156 0
132 152 0
139 159 0
132 151 0
123 143 0
131 150 0
126 146 0
117 136 0
117 135 0
120 138 0
104 122 0
118 136 0
68 89 51
44 71 76
44 71 61
44 71 70
46 73 85
46 73 86
43 69 75
45 72 76
45 71 80
43 69 70
43 68 68
43 68 70
41 65 60
40 64 71
41 66 64
37 59 53
38 61 58
36 59 41
36 57 48
36 59 54
32 52 44
36 58 42
55 74 51
142 162 21
149 171 0
153 173 0
157 177 0
175 198 0
170 195 0
174 197 0
151 173 26
48 77 88
50 80 110
53 84 106
55 87 107
55 87 107
54 85 95
55 87 110
54 86 110
54 86 108
56 89 126
56 89 122
55 87 105
56 89 123
57 90 116
57 90 112
57 90 115
55 88 105
57 91 125
57 90 118
59 92 126
59 94 134
58 91 128
58 91 117
59 93 125
57 91 111
58 92 116
58 92 124
58 91 120
58 92 122
59 93 127
58 91 109
59 93 122
59 93 133
58 92 119
59 93 126
57 90 115
58 92 118
59 93 125
57 91 113
58 92 122
58 91 118
58 92 119
57 91 115
60 94 132
57 91 110
59 93 122
59 93 124
58 92 117
58 91 111
58 91 118
58 92 121
57 91 117
59 93 127
59 92 122
58 92 126
58 92 126
59 92 136
57 91 121
57 91 120
58 91 117
58 92 118
61 95 136
60 94 131
58 92 119
60 94 129
58 91 115
56 88 114
56 89 112
58 92 118
59 93 120
57 91 125
57 91 114
58 91 118
56 89 118
59 93 127
59 93 123
57 91 118
56 89 122
57 91 117
57 90 117
59 93 125
58 91 124
54 87 111
56 89 112
57 90 120
57 91 125
57 90 120
56 88 104
57 90 123
54 86 112
54 86 116
55 86 117
54 86 97
52 83 103
55 88 111
52 83 100
51 82 101
48 76 90
153 176 49
174 197 0
174 198 0
173 196 0
154 176 0
149 170 0
151 171 0
140 160 14
51 70 54
30 49 41
34 56 43
35 56 43
37 59 60
37 60 42
35 57 57
39 62 52
41 65 62
40 64 68
40 64 71
42 67 72
43 68 81
43 69 68
43 69 72
45 71 67
45 73 65
46 73 83
45 71 76
44 70 75
43 70 54
46 73 78
65 87 71
107 125 0
123 141 0
114 133 0
119 138 0
122 140 0
129 148 0
126 147 0
127 146 0
138 158 0
134 155 0
139 159 0
135 156 0
139 160 0
138 158 0
137 157 0
137 157 0
142 162 0
140 159 0
141 162 0
141 162 0
143 163 0
145 167 0
146 167 0
142 162 0
147 168 0
147 168 0
142 163 0
150 171 0
149 170 0
147 168 0
150 171 0
147 168 0
146 167 0
150 171 0
147 168 0
147 168 0
151 172 0
151 172 0
147 168 0
148 169 0
151 172 0
146 168 0
152 173 0
152 173 0
149 170 0
153 175 0
153 173 0
151 172 0
153 174 0
155 176 0
152 173 0
151 172 0
153 175 0
154 175 0
151 173 0
153 175 0
155 176 0
151 173 0
152 174 0
150 171 0
151 172 0
155 175 0
153 174 0
154 175 0
155 175 0
152 173 0
154 176 0
155 176 0
154 174 0
153 174 0
155 176 0
154 175 0
155 176 0
153 174 0
155 175 0
153 175 0
154 175 0
154 175 0
154 175 0
153 174 0
152 173 0
155 176 0
154 175 0
154 176 0
155 175 0
153 174 0
155 175 0
154 175 0
154 175 0
154 175 0
154 175 0
154 175 0
156 176 0
154 175 0
155 176 0
154 176 0
154 175 0
155 176 0
155 176 0
157 177 0
154 176 0
154 175 0
155 176 0
156 177 0
154 175 0
155 176 0
155 176 0
156 177 0
154 176 0
156 177 0
154 175 0
155 176 0
157 177 0
154 175 0
155 176 0
155 176 0
155 176 0
157 178 0
154 175 0
156 176 0
155 176 0
156 177 0
154 176 0
157 177 0
154 175 0
156 176 0
156 177 0
156 177 0
157 177 0
155 176 0
155 176 0
156 177 0
152 174 0
154 176 0
156 177 0
153 175 0
156 177 0
155 176 0
155 176 0
154 175 0
156 176 0
157 177 0
154 176 0
155 176 0
154 175 0
155 176 0
155 177 0
154 175 0
155 176 0
154 175 0
156 177 0
156 177 0
154 176 0
154 175 0
155 176 0
154 175 0
154 175 0
154 175 0
157 177 0
155 176 0
154 175 0
153 173 0
155 176 0
153 174 0
153 174 0
153 175 0
153 174 0
152 172 0
153 174 0
155 176 0
153 174 0
152 174 0
154 175 0
154 175 0
155 175 0
154 175 0
151 172 0
152 174 0
152 175 0
153 173 0
152 173 0
153 174 0
154 175 0
152 173 0
151 172 0
152 173 0
152 174 0
152 173 0
153 174 0
155 175 0
152 173 0
151 172 0
151 173 0
154 174 0
150 172 0
151 172 0
151 172 0
150 171 0
148 169 0
149 170 0
149 170 0
152 173 0
148 169 0
151 172 0
150 170 0
149 170 0
148 169 0
147 168 0
149 170 0
145 165 0
146 167 0
147 167 0
145 166 0
147 168 0
148 168 0
141 163 0
143 163 0
147 168 0
142 162 0
140 161 0
143 164 0
138 159 0
143 165 0
136 156 0
140 160 0
135 156 0
136 155 0
135 155 0
131 151 0
138 158 0
120 139 0
126 146 0
116 136 0
121 140 0
125 144 0
122 140 0
108 127 0
111 129 0
120 138 0
111 126 0
105 122 32
51 74 59
44 70 73
43 69 62
44 71 70
46 72 80
42 68 68
44 69 75
41 66 69
43 68 69
40 64 66
42 68 65
41 65 65
38 61 48
41 65 56
38 61 46
40 64 52
36 58 45
35 57 46
34 55 25
37 60 37
45 66 45
116 136 22
150 170 0
149 170 0
151 172 0
162 184 0
174 197 0
174 198 0
174 198 0
174 197 10
59 87 78
47 76 94
49 79 95
52 82 102
53 84 106
54 85 105
55 87 110
53 84 107
56 88 121
55 87 113
56 89 119
55 88 113
56 89 110
57 89 120
55 87 101
56 89 123
57 91 119
56 89 119
57 90 119
57 91 120
57 91 120
57 90 123
57 90 117
59 93 132
57 91 120
57 91 109
56 90 119
58 91 117
59 93 127
60 94 126
59 94 128
59 93 134
58 92 132
60 94 133
55 88 105
59 92 118
58 92 120
57 90 115
56 89 117
59 93 131
58 92 122
58 92 123
59 93 124
59 93 123
58 92 118
55 88 105
58 91 115
58 93 120
58 92 121
58 92 126
57 91 121
58 92 118
57 91 114
58 91 115
59 93 122
59 93 126
57 90 122
57 90 122
58 91 119
55 88 100
59 92 123
57 91 115
58 92 118
58 91 115
56 89 110
58 91 125
58 92 127
57 91 122
58 92 120
58 92 122
58 91 127
60 94 132
57 90 118
58 92 126
61 95 137
58 92 120
55 88 100
56 88 119
58 91 116
59 93 128
55 88 115
56 89 118
56 89 119
57 90 123
58 92 129
57 89 113
57 91 113
57 90 117
56 89 115
54 85 114
55 88 114
55 87 104
54 85 101
54 85 104
53 84 107
53 84 97
52 82 103
68 92 89
174 197 0
173 197 0
174 198 0
176 198 0
162 184 0
150 172 0
150 170 0
148 170 0
127 147 23
42 62 43
35 56 38
33 53 30
37 59 34
38 61 48
40 64 62
38 61 67
36 58 60
41 65 61
40 64 60
39 63 63
42 67 78
43 68 62
43 68 65
43 70 77
42 68 64
44 70 71
45 71 69
46 73 83
45 72 82
62 83 48
101 117 16
104 122 0
111 130 0
113 131 0
117 136 0
118 136 0
121 141 0
130 149 0
125 144 0
130 150 0
129 148 0
138 159 0
129 149 0
139 160 0
142 163 0
139 160 0
140 159 0
133 154 0
140 160 0
138 158 0
141 161 0
140 161 0
139 159 0
137 158 0
144 165 0
143 163 0
145 166 0
146 167 0
143 164 0
149 171 0
147 168 0
145 166 0
146 167 0
148 169 0
148 169 0
150 171 0
152 173 0
147 169 0
150 170 0
151 171 0
150 171 0
151 172 0
150 170 0
151 172 0
149 170 0
145 166 0
152 173 0
149 169 0
154 174 0
152 173 0
150 171 0
151 172 0
153 174 0
152 173 0
154 174 0
151 172 0
154 175 0
153 174 0
152 173 0
151 172 0
152 174 0
151 172 0
151 173 0
155 175 0
153 174 0
153 174 0
152 173 0
152 173 0
151 172 0
151 172 0
153 174 0
155 176 0
154 175 0
154 175 0
154 176 0
154 175 0
153 173 0
153 174 0
156 176 0
153 174 0
152 172 0
153 174 0
155 176 0
154 176 0
154 175 0
151 173 0
153 173 0
153 175 0
152 174 0
152 173 0
154 175 0
155 176 0
154 176 0
154 175 0
155 176 0
154 175 0
155 175 0
153 174 0
155 176 0
156 177 0
156 177 0
155 176 0
155 176 0
152 173 0
153 175 0
154 176 0
158 178 0
155 176 0
153 175 0
155 176 0
155 176 0
154 176 0
155 176 0
156 177 0
156 177 0
155 176 0
156 177 0
157 177 0
153 175 0
153 173 0
155 176 0
156 177 0
153 174 0
156 176 0
153 175 0
155 176 0
155 176 0
156 177 0
157 177 0
154 175 0
156 176 0
155 176 0
156 177 0
157 177 0
156 177 0
156 177 0
153 175 0
155 176 0
155 176 0
155 176 0
156 177 0
154 175 0
154 175 0
154 175 0
154 175 0
152 173 0
155 177 0
155 176 0
157 177 0
155 175 0
155 176 0
155 176 0
153 174 0
153 174 0
154 175 0
155 176 0
155 176 0
155 176 0
155 176 0
152 173 0
153 174 0
154 175 0
152 174 0
154 174 0
154 175 0
154 175 0
154 175 0
155 176 0
153 174 0
151 173 0
152 173 0
152 173 0
149 170 0
152 173 0
156 176 0
154 175 0
153 174 0
152 173 0
152 173 0
152 174 0
154 175 0
153 174 0
152 173 0
151 172 0
152 173 0
148 169 0
151 173 0
152 173 0
151 173 0
152 173 0
150 172 0
149 170 0
150 171 0
150 172 0
150 172 0
149 171 0
150 171 0
153 174 0
151 172 0
149 170 0
150 171 0
152 174 0
145 166 0
147 167 0
150 171 0
150 171 0
146 167 0
146 167 0
148 170 0
148 169 0
148 169 0
147 168 0
147 168 0
145 165 0
144 164 0
138 158 0
143 163 0
141 161 0
143 164 0
136 156 0
147 167 0
143 164 0
138 158 0
137 157 0
138 158 0
143 163 0
142 162 0
132 153 0
135 156 0
128 148 0
133 153 0
121 140 0
129 149 0
125 145 0
124 142 0
114 132 0
121 140 0
110 129 0
113 131 0
108 125 0
107 124 0
90 106 0
93 107 16
50 74 70
44 70 77
44 70 67
42 68 57
45 72 80
43 69 78
42 66 71
44 70 70
39 63 50
41 65 59
39 62 54
41 65 58
37 60 53
39 62 43
37 59 44
36 58 61
39 62 48
33 53 35
42 64 41
115 134 28
141 162 0
149 170 0
148 168 0
150 171 0
170 193 0
173 196 0
174 197 0
174 197 0
174 197 0
113 136 70
47 76 85
51 81 92
53 84 109
53 84 106
53 85 98
56 89 118
51 81 95
56 88 115
55 88 118
56 89 120
55 86 111
54 86 101
55 88 110
56 88 113
56 89 113
55 87 115
57 91 116
58 92 124
57 89 113
57 90 115
60 93 133
57 90 108
57 91 116
57 91 113
58 93 116
58 92 126
59 93 130
58 91 119
58 92 121
58 91 113
58 91 123
58 92 115
57 91 124
57 90 118
57 91 120
57 90 108
57 91 118
56 89 108
59 93 120
58 92 117
57 90 118
54 86 103
58 92 127
60 95 132
58 92 118
58 92 117
56 90 126
57 90 122
57 90 117
59 93 120
57 90 115
59 93 119
56 89 120
59 94 130
59 93 129
58 91 129
59 93 123
58 92 125
58 92 117
58 91 122
59 93 121
58 92 124
59 92 121
58 91 116
57 90 122
57 91 124
57 91 123
58 91 110
57 90 120
57 91 120
58 92 114
59 93 116
58 91 124
56 89 123
59 93 124
58 92 132
56 89 115
58 91 122
58 92 121
58 92 117
56 90 126
58 91 124
58 90 124
55 87 107
59 92 130
56 88 111
53 84 96
54 86 107
54 86 110
55 87 107
54 86 105
55 87 114
53 83 103
53 83 116
51 81 94
50 79 103
111 133 65
173 197 0
174 197 0
174 198 0
175 198 0
171 195 0
154 175 0
150 171 0
143 164 0
146 167 0
126 147 0
43 65 45
35 56 37
40 63 46
39 63 49
38 60 60
36 58 57
38 62 54
40 64 64
39 63 44
41 65 63
40 65 60
38 62 55
42 66 77
40 64 56
44 70 61
44 71 69
44 70 68
44 70 64
57 78 50
85 102 42
101 117 0
111 128 0
110 126 0
102 119 0
126 145 0
123 142 0
129 149 0
125 143 0
128 147 0
120 139 0
125 144 0
137 157 0
138 159 0
132 152 0
132 154 0
136 156 0
133 153 0
137 158 0
136 156 0
141 162 0
142 162 0
144 165 0
138 159 0
141 162 0
143 165 0
144 165 0
143 165 0
144 164 0
145 167 0
148 169 0
144 165 0
148 169 0
148 169 0
145 165 0
147 167 0
149 170 0
149 170 0
145 166 0
149 170 0
150 171 0
148 169 0
147 168 0
146 167 0
146 167 0
152 173 0
148 169 0
148 170 0
151 172 0
145 166 0
152 173 0
149 170 0
151 173 0
153 174 0
151 173 0
152 172 0
149 171 0
150 172 0
151 173 0
152 173 0
153 174 0
152 173 0
153 174 0
152 173 0
153 174 0
151 171 0
153 174 0
154 175 0
153 174 0
152 174 0
154 175 0
154 175 0
155 176 0
152 173 0
155 176 0
152 173 0
154 175 0
153 173 0
153 174 0
155 176 0
152 173 0
153 174 0
156 177 0
155 176 0
154 175 0
152 173 0
153 173 0
155 176 0
155 176 0
155 176 0
154 176 0
155 176 0
156 177 0
154 175 0
155 176 0
153 174 0
155 176 0
155 176 0
154 175 0
155 176 0
154 176 0
154 175 0
156 176 0
153 175 0
155 175 0
155 176 0
155 176 0
156 177 0
153 174 0
156 177 0
155 175 0
154 176 0
155 176 0
155 176 0
153 175 0
154 175 0
155 176 0
154 176 0
156 177 0
156 177 0
155 177 0
156 177 0
154 176 0
156 177 0
154 176 0
154 175 0
153 175 0
155 176 0
154 175 0
153 174 0
153 173 0
156 176 0
157 177 0
155 176 0
152 173 0
154 175 0
155 176 0
156 176 0
154 176 0
154 175 0
153 174 0
155 177 0
153 174 0
153 175 0
155 176 0
153 175 0
154 175 0
155 176 0
154 174 0
154 175 0
155 175 0
155 176 0
152 174 0
154 175 0
156 176 0
155 176 0
154 175 0
154 175 0
154 175 0
152 173 0
152 173 0
151 172 0
152 174 0
154 174 0
153 174 0
154 175 0
155 176 0
154 175 0
154 175 0
153 174 0
151 172 0
152 174 0
149 170 0
153 174 0
153 174 0
152 174 0
153 174 0
152 173 0
154 175 0
153 174 0
154 175 0
153 173 0
151 173 0
154 175 0
153 174 0
150 171 0
150 172 0
153 174 0
151 172 0
152 173 0
151 171 0
151 173 0
153 173 0
148 169 0
151 172 0
147 169 0
152 172 0
152 174 0
150 171 0
144 166 0
147 168 0
152 173 0
150 170 0
152 172 0
145 166 0
147 169 0
146 167 0
145 166 0
148 169 0
148 168 0
148 169 0
149 169 0
145 166 0
141 162 0
141 161 0
145 166 0
145 166 0
144 165 0
150 170 0
141 161 0
145 166 0
143 164 0
140 160 0
139 160 0
133 154 0
132 153 0
137 157 0
133 154 0
137 157 0
136 156 0
134 154 0
124 144 0
128 147 0
128 147 0
119 137 0
123 142 0
128 146 0
105 123 0
113 132 0
113 130 0
107 125 0
100 116 0
98 114 0
90 106 0
69 85 16
48 69 50
43 69 65
44 70 84
42 68 57
43 69 75
41 66 65
39 62 44
39 62 46
40 65 59
40 64 36
39 63 52
39 62 43
37 59 39
39 62 43
38 61 32
37 59 48
50 69 40
121 140 26
138 159 0
138 159 0
144 165 0
150 171 0
157 180 0
173 196 0
172 196 0
174 197 0
173 197 0
173 197 0
147 169 49
47 75 98
51 81 97
52 82 99
51 82 91
54 85 106
54 85 109
53 85 97
54 85 102
57 89 118
55 87 103
54 85 107
55 87 116
56 88 112
57 90 118
55 88 109
56 88 110
55 88 108
56 89 112
57 90 108
58 91 126
56 89 110
57 90 116
57 91 119
58 92 110
56 89 109
59 92 125
57 89 126
57 91 122
58 92 127
57 90 112
57 91 111
59 93 130
59 93 122
58 92 122
58 91 117
57 91 120
58 92 122
56 89 106
58 91 125
58 92 115
57 90 115
57 90 113
59 92 114
57 91 121
58 92 120
57 91 120
57 91 118
59 92 120
58 92 120
59 93 122
57 90 111
59 93 126
58 91 118
58 92 107
59 93 118
58 92 117
56 90 119
57 91 113
57 91 117
58 92 119
60 94 120
59 93 130
57 90 107
59 93 122
57 90 123
57 90 111
57 90 108
57 90 108
57 90 115
56 89 116
56 88 108
57 89 115
57 91 119
57 90 121
57 90 117
57 90 120
56 89 113
56 89 121
57 90 117
55 88 107
59 93 132
55 88 104
57 90 130
54 86 110
56 89 121
53 84 104
56 88 103
59 92 129
53 84 102
52 83 112
55 86 105
53 85 102
53 84 110
51 81 97
51 81 84
44 71 75
147 169 47
174 197 0
173 196 0
174 197 0
172 196 0
175 198 0
160 182 0
151 172 0
136 157 0
147 167 0
137 157 0
111 130 31
50 71 43
36 58 47
39 62 37
38 61 45
38 60 49
39 62 55
40 64 56
38 61 48
39 64 49
40 64 66
41 65 55
41 66 45
43 68 69
39 63 57
42 67 59
40 64 66
47 71 60
75 90 22
83 99 0
99 115 0
117 133 0
112 129 0
105 123 0
103 121 0
113 132 0
121 141 0
120 139 0
130 149 0
134 153 0
127 147 0
136 157 0
133 152 0
131 151 0
135 155 0
134 154 0
138 159 0
144 164 0
138 160 0
139 159 0
141 161 0
134 155 0
136 157 0
142 163 0
143 163 0
142 163 0
140 161 0
147 168 0
143 164 0
147 168 0
143 164 0
145 166 0
146 166 0
144 165 0
149 170 0
148 169 0
146 167 0
144 165 0
148 169 0
146 168 0
149 170 0
148 170 0
151 172 0
152 173 0
151 172 0
146 167 0
150 171 0
151 172 0
151 172 0
153 174 0
149 169 0
148 170 0
154 174 0
151 172 0
151 172 0
151 172 0
150 171 0
153 174 0
152 173 0
153 174 0
151 172 0
153 174 0
153 173 0
151 172 0
152 173 0
153 174 0
155 175 0
153 174 0
152 172 0
151 171 0
154 174 0
151 172 0
153 174 0
154 175 0
152 174 0
152 172 0
155 176 0
153 174 0
152 173 0
151 172 0
155 176 0
153 173 0
154 175 0
153 174 0
151 173 0
153 173 0
155 176 0
154 175 0
155 176 0
154 175 0
154 175 0
152 172 0
155 176 0
154 175 0
152 173 0
155 176 0
151 172 0
151 172 0
155 176 0
153 175 0
155 176 0
154 175 0
153 174 0
153 174 0
153 174 0
155 176 0
156 176 0
155 176 0
154 175 0
156 176 0
155 176 0
155 176 0
155 176 0
155 176 0
155 176 0
155 176 0
155 176 0
154 175 0
157 177 0
155 176 0
155 176 0
155 176 0
155 176 0
156 177 0
155 176 0
154 175 0
156 177 0
154 175 0
155 175 0
157 177 0
154 176 0
154 175 0
154 175 0
154 175 0
154 176 0
153 175 0
155 176 0
154 175 0
155 176 0
155 176 0
154 175 0
155 176 0
154 175 0
154 175 0
151 172 0
156 176 0
154 175 0
153 175 0
156 177 0
154 175 0
154 176 0
152 174 0
154 175 0
154 175 0
153 175 0
153 174 0
153 173 0
154 175 0
154 175 0
152 173 0
152 173 0
154 175 0
152 174 0
154 174 0
153 174 0
152 172 0
151 173 0
153 174 0
154 174 0
151 172 0
150 171 0
151 173 0
152 174 0
152 173 0
153 174 0
151 172 0
155 176 0
153 174 0
150 171 0
151 172 0
154 175 0
148 169 0
152 174 0
152 174 0
151 172 0
148 169 0
150 171 0
150 171 0
151 172 0
154 175 0
148 170 0
150 172 0
151 172 0
148 168 0
151 171 0
149 170 0
150 170 0
144 165 0
148 168 0
148 170 0
151 171 0
142 163 0
142 163 0
145 165 0
148 169 0
149 169 0
142 164 0
148 169 0
141 162 0
144 164 0
148 169 0
144 165 0
147 167 0
143 165 0
142 163 0
142 163 0
140 160 0
143 164 0
142 163 0
141 162 0
143 163 0
141 162 0
144 164 0
137 157 0
135 156 0
134 155 0
136 155 0
129 149 0
129 149 0
131 151 0
131 151 0
124 144 0
117 137 0
126 144 0
115 134 0
115 133 0
115 133 0
125 143 0
107 125 0
98 114 0
104 120 0
85 100 0
97 113 0
89 103 0
67 80 22
42 62 42
41 66 57
41 64 72
42 67 63
41 65 64
41 67 56
41 65 54
44 69 66
39 63 53
38 62 47
36 58 32
35 58 40
38 61 30
37 60 43
60 79 35
122 142 16
133 152 0
134 154 0
141 162 0
144 164 0
151 172 0
166 189 0
175 198 0
172 195 0
172 196 0
172 196 0
174 197 0
172 196 0
77 102 75
53 84 105
51 81 105
54 85 105
53 84 102
53 84 101
52 83 106
54 86 113
54 86 101
57 90 118
55 87 114
55 86 110
56 88 115
56 89 114
56 89 117
58 91 125
56 89 118
57 90 121
57 90 113
55 88 119
57 90 116
56 89 109
58 91 115
59 93 119
57 90 118
58 91 122
58 91 121
57 91 113
57 91 123
56 89 112
59 92 126
58 91 115
57 91 105
57 90 114
58 92 126
59 92 126
59 93 127
57 90 112
60 94 131
57 90 106
59 93 125
57 90 121
59 94 126
58 92 127
57 90 113
58 92 113
59 93 127
58 92 115
58 92 118
59 93 114
56 89 107
60 94 134
57 90 111
58 91 117
56 89 111
58 92 121
58 92 118
59 93 125
58 92 121
57 91 111
59 93 120
57 91 115
59 92 122
58 92 129
58 92 119
56 90 106
58 91 124
58 92 118
58 92 130
58 90 115
56 88 109
59 92 132
55 88 106
56 88 114
58 92 132
58 91 122
59 92 128
58 91 119
56 89 110
56 88 114
58 91 118
57 90 117
55 88 106
56 89 115
56 88 112
57 90 124
54 85 103
53 83 98
55 87 117
52 83 102
51 82 103
51 82 100
52 83 108
51 81 98
50 80 96
70 94 59
173 196 0
172 197 0
173 196 0
173 196 0
173 197 0
173 196 0
169 192 0
149 170 0
149 169 0
140 161 0
131 151 0
127 147 0
116 134 16
67 86 38
35 58 27
38 61 44
38 60 43
37 59 49
39 63 55
40 64 32
41 65 65
42 67 54
39 62 52
41 66 55
41 65 66
39 62 52
41 66 68
52 71 50
67 80 0
83 96 0
89 104 0
100 116 0
101 118 0
110 126 0
109 127 0
107 124 0
105 122 0
121 141 0
117 135 0
118 137 0
126 145 0
121 140 0
125 145 0
126 147 0
133 153 0
139 159 0
130 150 0
142 162 0
139 159 0
139 160 0
141 161 0
133 154 0
139 160 0
136 156 0
139 160 0
144 164 0
138 159 0
140 161 0
141 162 0
145 166 0
147 168 0
141 162 0
146 167 0
147 168 0
143 164 0
147 168 0
146 167 0
145 165 0
147 168 0
146 168 0
146 167 0
148 169 0
148 169 0
148 169 0
148 168 0
150 172 0
151 172 0
148 169 0
149 170 0
151 172 0
151 171 0
150 171 0
152 173 0
152 173 0
153 174 0
149 171 0
152 173 0
150 171 0
149 170 0
154 174 0
151 170 0
150 170 0
152 173 0
151 172 0
154 174 0
152 173 0
154 175 0
152 172 0
152 172 0
152 174 0
150 171 0
154 176 0
152 174 0
154 175 0
152 173 0
154 175 0
151 172 0
154 175 0
155 175 0
153 174 0
153 174 0
153 173 0
152 173 0
152 172 0
151 173 0
155 176 0
155 175 0
152 173 0
156 176 0
155 176 0
154 175 0
153 174 0
153 174 0
154 175 0
155 176 0
155 176 0
154 175 0
154 175 0
153 174 0
155 176 0
153 174 0
154 176 0
157 177 0
154 175 0
154 176 0
155 175 0
155 175 0
154 175 0
153 174 0
155 176 0
155 176 0
155 176 0
154 176 0
154 174 0
155 176 0
154 175 0
153 174 0
156 176 0
156 177 0
157 177 0
155 176 0
156 177 0
155 176 0
156 177 0
154 175 0
155 176 0
155 176 0
154 175 0
154 175 0
155 176 0
155 176 0
154 175 0
155 176 0
155 175 0
154 175 0
154 175 0
152 174 0
155 176 0
154 175 0
154 175 0
154 175 0
153 174 0
156 177 0
151 172 0
154 175 0
151 172 0
154 175 0
153 174 0
152 173 0
152 173 0
153 174 0
153 174 0
153 174 0
153 174 0
153 174 0
151 173 0
152 173 0
153 173 0
154 175 0
151 173 0
154 175 0
151 173 0
150 171 0
155 176 0
152 174 0
152 173 0
153 175 0
153 174 0
154 175 0
152 173 0
151 172 0
152 173 0
153 175 0
149 170 0
152 173 0
152 173 0
152 173 0
149 170 0
148 170 0
150 171 0
149 169 0
152 173 0
150 171 0
151 172 0
149 171 0
150 171 0
152 173 0
145 167 0
149 169 0
153 174 0
149 171 0
149 170 0
148 169 0
151 172 0
146 167 0
150 171 0
150 170 0
149 171 0
150 171 0
153 174 0
147 168 0
150 171 0
145 165 0
148 169 0
144 164 0
148 169 0
145 166 0
144 165 0
145 165 0
146 166 0
142 162 0
149 170 0
145 166 0
140 161 0
140 161 0
142 163 0
143 163 0
143 164 0
139 160 0
140 160 0
133 154 0
139 159 0
133 153 0
134 155 0
136 157 0
133 154 0
131 152 0
138 158 0
134 154 0
129 149 0
126 145 0
124 144 0
118 137 0
124 144 0
117 136 0
112 129 0
119 138 0
113 131 0
113 130 0
112 131 0
111 128 0
104 121 0
95 110 0
88 103 0
80 93 0
80 92 0
68 80 0
62 74 22
43 63 55
37 60 61
37 60 44
40 64 50
38 61 36
37 60 52
38 61 50
41 65 46
34 56 10
39 62 40
54 73 32
92 109 22
120 139 0
127 146 0
118 137 0
132 152 0
142 162 0
147 168 0
155 176 0
174 197 0
172 196 0
174 197 0
173 197 0
174 197 0
172 196 0
172 197 0
124 147 54
54 85 94
53 84 112
51 83 92
56 88 104
52 83 99
53 84 100
54 86 103
56 88 105
54 86 106
57 89 113
55 87 104
54 86 117
55 87 98
55 87 100
55 88 107
57 90 119
58 91 106
57 90 117
57 91 121
58 91 119
57 90 116
58 91 121
58 91 115
56 89 116
56 89 112
59 93 133
58 91 119
57 90 108
55 88 102
58 91 111
58 91 118
57 90 121
57 91 110
57 91 118
57 91 114
57 90 121
56 89 105
57 89 112
59 93 123
58 92 120
58 92 119
60 94 129
58 91 120
56 88 118
57 90 117
58 92 120
57 91 107
59 93 126
57 90 122
58 92 126
57 90 113
57 90 98
58 92 129
58 91 123
57 90 111
59 92 127
58 92 127
57 90 129
56 88 115
58 91 110
59 93 132
56 90 111
58 91 120
59 92 117
57 91 122
57 90 109
56 89 103
56 89 115
56 90 108
58 91 118
55 87 113
57 90 112
57 90 112
56 89 111
58 91 118
55 88 110
58 91 116
56 89 106
56 90 116
58 91 119
55 87 108
57 91 125
56 89 106
56 88 121
54 86 103
54 86 115
55 87 105
55 87 110
53 84 100
55 87 111
54 86 112
53 84 103
50 80 105
50 79 97
134 156 64
175 198 0
173 197 0
173 196 0
171 196 0
174 197 0
175 198 0
176 198 0
152 173 0
145 166 0
140 161 0
132 153 0
126 145 0
120 138 0
121 140 0
80 98 38
64 83 38
37 60 50
39 62 46
38 60 42
37 59 40
40 64 58
40 65 48
37 60 50
37 61 42
42 66 67
48 69 38
69 82 16
73 85 0
75 88 0
86 100 0
95 111 0
107 123 0
110 126 0
99 115 0
107 125 0
115 134 0
117 136 0
115 134 0
112 131 0
130 150 0
126 144 0
124 143 0
118 137 0
123 143 0
129 149 0
124 143 0
134 153 0
131 151 0
131 151 0
130 151 0
133 154 0
142 163 0
146 165 0
142 162 0
139 159 0
143 165 0
144 165 0
139 159 0
140 161 0
142 163 0
143 164 0
142 163 0
144 165 0
145 166 0
144 165 0
144 165 0
148 170 0
145 166 0
145 166 0
149 170 0
147 167 0
149 170 0
148 170 0
149 171 0
150 171 0
148 169 0
146 168 0
146 168 0
148 169 0
147 168 0
147 168 0
147 169 0
146 167 0
148 168 0
150 171 0
150 170 0
151 172 0
151 172 0
149 170 0
152 173 0
153 173 0
152 173 0
154 175 0
149 171 0
151 173 0
152 173 0
153 173 0
150 171 0
153 173 0
151 172 0
150 171 0
152 173 0
150 171 0
152 173 0
153 174 0
150 171 0
153 175 0
153 174 0
151 172 0
151 172 0
155 176 0
152 174 0
153 174 0
154 175 0
152 174 0
152 173 0
151 173 0
153 174 0
154 176 0
154 176 0
155 176 0
155 175 0
156 177 0
154 175 0
154 175 0
153 174 0
155 176 0
155 175 0
155 175 0
155 176 0
155 176 0
153 174 0
155 176 0
155 175 0
154 175 0
153 174 0
154 175 0
153 174 0
154 175 0
155 176 0
155 176 0
156 177 0
155 176 0
156 177 0
155 176 0
156 176 0
154 175 0
155 176 0
155 176 0
154 175 0
152 174 0
155 176 0
155 176 0
153 175 0
153 175 0
156 176 0
154 176 0
155 176 0
155 176 0
153 175 0
154 175 0
156 176 0
154 175 0
154 175 0
153 174 0
155 175 0
154 176 0
153 174 0
154 176 0
154 175 0
156 177 0
152 173 0
154 175 0
153 174 0
154 175 0
154 175 0
153 174 0
154 175 0
154 175 0
152 173 0
153 175 0
152 173 0
152 173 0
153 174 0
151 172 0
153 174 0
155 176 0
152 172 0
152 173 0
153 174 0
154 175 0
148 169 0
152 173 0
151 173 0
155 176 0
153 173 0
151 173 0
151 173 0
152 173 0
153 174 0
154 175 0
152 173 0
154 175 0
152 173 0
151 172 0
152 173 0
153 174 0
153 174 0
148 169 0
152 172 0
150 172 0
152 173 0
149 169 0
151 173 0
147 168 0
149 170 0
150 171 0
148 169 0
153 174 0
150 170 0
147 169 0
145 166 0
147 167 0
149 170 0
146 167 0
146 167 0
145 165 0
146 167 0
152 173 0
148 169 0
151 171 0
147 166 0
148 169 0
149 170 0
146 167 0
148 170 0
146 166 0
145 165 0
144 165 0
145 167 0
147 168 0
144 164 0
145 165 0
142 162 0
145 165 0
143 164 0
143 163 0
136 156 0
140 160 0
141 161 0
136 156 0
140 161 0
132 153 0
136 156 0
134 154 0
134 155 0
136 156 0
133 153 0
131 151 0
133 152 0
122 141 0
123 143 0
124 143 0
123 143 0
115 134 0
113 132 0
114 131 0
119 137 0
113 131 0
110 128 0
109 126 0
88 103 0
105 121 0
86 101 0
95 110 0
76 89 0
79 92 0
53 65 0
62 72 0
50 63 16
30 49 28
39 57 35
43 64 50
38 62 48
48 68 28
47 65 32
60 76 22
78 95 22
97 113 0
115 133 0
120 139 0
124 142 0
137 157 0
133 153 0
144 165 0
151 172 0
161 184 0
174 197 0
174 197 0
175 198 0
174 197 0
173 197 0
171 195 0
174 197 0
167 190 18
58 83 87
53 84 93
50 81 94
53 83 104
52 83 98
52 83 105
56 88 118
53 84 99
56 88 118
55 87 113
55 87 111
54 86 103
55 88 114
54 86 108
56 89 113
55 87 103
57 91 118
58 92 110
56 89 115
57 90 115
54 86 100
56 88 106
57 89 121
58 92 124
55 88 109
56 89 111
57 91 118
57 90 115
58 92 123
58 92 118
57 90 114
57 90 110
58 92 119
57 89 121
57 90 111
56 90 111
57 90 113
56 89 98
58 92 121
56 89 114
57 90 113
56 90 109
57 91 110
58 92 121
57 90 114
58 91 115
58 91 117
57 90 121
57 91 113
57 91 110
56 89 100
57 91 112
58 92 117
57 91 107
59 93 134
55 88 103
60 95 131
59 92 127
59 93 122
57 91 112
56 90 115
57 89 117
57 90 117
57 90 107
57 91 123
57 90 114
57 91 118
58 91 115
57 90 114
57 91 130
56 89 115
58 91 119
55 87 106
56 88 113
57 90 116
56 88 99
55 88 100
57 90 103
56 89 116
57 90 118
54 85 101
57 89 122
55 87 116
56 88 102
55 87 105
57 89 111
54 85 108
53 85 103
54 86 104
54 85 95
51 82 97
52 83 90
49 78 96
54 82 88
164 187 22
172 196 0
171 194 0
172 195 0
173 196 0
175 198 0
173 196 0
174 197 0
165 187 0
143 164 0
140 160 0
137 156 0
123 143 0
128 148 0
124 142 0
102 118 0
102 117 0
79 94 0
67 82 14
54 70 28
58 76 36
35 55 36
42 64 38
41 61 45
53 68 32
56 68 16
57 69 0
64 76 0
78 91 0
92 106 0
95 109 0
91 106 0
90 106 0
107 124 0
106 122 0
105 122 0
114 132 0
108 126 0
111 128 0
120 138 0
125 145 0
126 145 0
128 148 0
129 148 0
126 146 0
129 149 0
126 145 0
132 151 0
132 152 0
138 159 0
135 155 0
138 159 0
140 161 0
140 161 0
133 154 0
138 159 0
137 157 0
135 155 0
142 163 0
141 162 0
142 163 0
143 164 0
139 160 0
141 161 0
148 168 0
147 167 0
145 166 0
144 165 0
148 169 0
143 163 0
145 166 0
140 162 0
149 170 0
145 166 0
150 171 0
150 171 0
143 163 0
150 171 0
148 169 0
148 168 0
147 169 0
150 171 0
153 174 0
150 170 0
151 172 0
150 171 0
153 174 0
148 169 0
146 166 0
152 172 0
152 172 0
150 170 0
150 171 0
150 170 0
151 171 0
152 173 0
151 173 0
150 171 0
153 174 0
152 174 0
151 172 0
154 175 0
153 173 0
151 172 0
151 172 0
147 168 0
153 173 0
152 173 0
153 175 0
152 173 0
152 173 0
153 174 0
154 174 0
153 174 0
154 175 0
155 175 0
153 175 0
153 174 0
150 171 0
153 174 0
154 175 0
152 173 0
155 175 0
152 172 0
153 174 0
154 175 0
153 173 0
152 173 0
154 175 0
155 176 0
154 175 0
155 176 0
156 176 0
155 175 0
154 175 0
153 174 0
155 176 0
155 176 0
154 175 0
154 175 0
153 175 0
151 172 0
154 175 0
154 176 0
156 177 0
154 175 0
155 176 0
155 176 0
155 176 0
155 176 0
155 175 0
154 175 0
155 176 0
153 175 0
154 175 0
156 177 0
155 176 0
154 175 0
154 176 0
156 176 0
155 176 0
155 175 0
152 173 0
154 175 0
154 174 0
154 174 0
156 176 0
156 176 0
153 175 0
153 173 0
154 174 0
153 174 0
155 176 0
154 174 0
155 175 0
154 174 0
154 175 0
153 175 0
151 172 0
153 174 0
151 172 0
154 175 0
153 173 0
153 174 0
152 173 0
150 171 0
152 173 0
152 174 0
155 176 0
152 173 0
153 175 0
154 175 0
151 172 0
151 172 0
151 172 0
154 174 0
152 173 0
153 174 0
151 171 0
151 172 0
153 174 0
153 174 0
153 173 0
153 173 0
153 174 0
154 175 0
148 169 0
152 173 0
150 171 0
151 172 0
150 171 0
150 170 0
149 170 0
153 173 0
149 171 0
151 171 0
152 173 0
153 174 0
146 167 0
145 167 0
148 170 0
149 169 0
150 171 0
149 171 0
146 166 0
149 169 0
148 169 0
150 171 0
148 169 0
149 170 0
147 169 0
149 170 0
143 163 0
147 167 0
144 166 0
143 164 0
146 166 0
146 166 0
150 170 0
141 162 0
146 167 0
148 168 0
143 163 0
147 167 0
137 158 0
143 165 0
142 162 0
137 157 0
142 163 0
136 156 0
141 162 0
137 157 0
134 155 0
141 161 0
137 157 0
138 158 0
126 146 0
128 149 0
131 151 0
133 154 0
130 150 0
126 146 0
123 143 0
117 135 0
124 144 0
116 134 0
120 138 0
120 138 0
109 127 0
103 120 0
104 122 0
111 129 0
94 111 0
99 116 0
90 105 0
93 108 0
85 99 0
77 89 0
81 94 0
65 76 0
65 76 0
67 79 0
66 77 0
76 87 0
71 81 0
77 88 0
77 90 0
81 96 0
89 104 0
103 118 0
103 120 0
109 127 0
126 145 0
128 148 0
136 156 0
139 160 0
152 174 0
172 195 0
172 195 0
173 197 0
172 196 0
173 197 0
172 195 0
170 193 0
172 195 0
173 196 0
113 135 60
49 77 82
50 80 90
50 80 95
53 84 98
55 86 110
55 86 113
52 82 98
52 82 107
54 86 103
54 85 105
54 86 102
58 91 123
55 88 106
55 88 109
54 87 103
58 91 124
55 88 105
54 85 103
54 86 103
56 89 109
57 89 113
55 87 117
56 89 119
58 91 118
59 92 124
57 90 113
57 90 117
58 91 115
56 89 109
55 88 113
58 91 125
56 88 108
55 88 107
56 89 108
58 92 123
58 91 112
57 90 112
60 94 129
59 93 125
56 89 113
58 92 124
58 91 113
57 91 108
57 90 110
57 90 111
58 92 126
56 89 113
58 91 122
57 91 114
57 90 105
56 89 103
57 90 118
58 91 114
59 93 118
57 89 111
59 93 126
58 92 122
57 90 111
56 88 100
56 88 114
58 92 122
55 88 103
56 89 111
58 91 126
59 92 124
54 87 101
57 90 115
57 90 114
56 89 98
56 89 108
57 91 112
56 89 115
57 89 112
56 88 111
56 90 113
55 87 107
57 90 116
54 86 106
58 91 112
56 89 112
53 84 91
56 89 105
54 86 107
56 89 113
54 85 106
55 88 107
53 84 82
54 85 107
54 85 105
53 84 95
50 79 81
47 76 80
113 136 53
172 196 0
172 195 0
171 194 0
173 196 0
172 196 0
172 195 0
175 198 0
173 196 0
171 194 0
155 176 0
144 165 0
139 159 0
126 145 0
124 143 0
120 139 0
116 134 0
96 112 0
100 115 0
97 112 0
82 96 0
73 84 0
76 88 0
69 80 0
74 84 0
70 81 0
74 84 0
79 92 0
76 89 0
80 93 0
87 101 0
107 122 0
93 108 0
105 120 0
100 117 0
99 116 0
110 127 0
104 121 0
108 126 0
123 141 0
127 146 0
122 142 0
124 143 0
116 134 0
123 142 0
124 142 0
133 153 0
128 148 0
129 150 0
134 154 0
133 153 0
136 157 0
131 151 0
136 156 0
133 153 0
134 154 0
141 162 0
133 154 0
140 159 0
140 160 0
144 164 0
143 164 0
137 158 0
138 159 0
138 158 0
141 161 0
146 168 0
146 167 0
144 165 0
143 164 0
147 168 0
144 164 0
146 167 0
146 166 0
145 166 0
147 168 0
147 167 0
145 166 0
145 165 0
149 170 0
150 171 0
146 167 0
146 167 0
150 171 0
148 170 0
149 170 0
147 167 0
148 169 0
153 173 0
149 170 0
152 173 0
149 169 0
148 168 0
151 172 0
151 171 0
152 173 0
152 173 0
148 168 0
152 172 0
148 167 0
150 170 0
153 175 0
147 168 0
153 174 0
151 172 0
154 175 0
151 173 0
153 174 0
153 175 0
153 174 0
149 171 0
149 170 0
152 173 0
152 173 0
153 174 0
152 174 0
152 172 0
153 174 0
151 173 0
153 175 0
151 173 0
151 172 0
154 175 0
154 175 0
152 173 0
153 174 0
153 173 0
152 173 0
154 174 0
154 175 0
151 173 0
155 176 0
152 173 0
154 175 0
151 172 0
154 176 0
153 174 0
155 176 0
151 172 0
154 175 0
154 175 0
151 173 0
154 175 0
154 175 0
155 176 0
155 175 0
153 174 0
152 174 0
155 176 0
155 176 0
154 175 0
153 175 0
154 175 0
155 176 0
153 174 0
154 175 0
154 175 0
156 176 0
154 175 0
153 174 0
153 174 0
152 173 0
154 175 0
152 173 0
154 174 0
155 176 0
155 175 0
153 174 0
152 173 0
152 173 0
154 175 0
154 175 0
151 172 0
150 173 0
154 175 0
154 175 0
156 176 0
155 176 0
153 174 0
155 176 0
154 175 0
151 172 0
152 173 0
155 176 0
153 174 0
154 175 0
151 173 0
154 175 0
153 173 0
152 173 0
153 174 0
151 172 0
151 171 0
150 171 0
153 174 0
152 173 0
151 172 0
151 172 0
149 170 0
152 172 0
153 173 0
151 171 0
153 174 0
149 170 0
153 174 0
152 174 0
150 171 0
151 172 0
151 173 0
148 169 0
152 173 0
152 173 0
150 171 0
150 171 0
147 168 0
151 173 0
152 172 0
148 168 0
144 165 0
150 171 0
148 168 0
149 169 0
151 172 0
147 168 0
149 170 0
149 169 0
147 168 0
148 169 0
143 164 0
139 160 0
149 169 0
147 168 0
143 164 0
143 164 0
145 166 0
148 168 0
145 166 0
141 162 0
146 168 0
146 167 0
142 162 0
147 167 0
140 160 0
142 163 0
146 167 0
143 163 0
139 159 0
134 154 0
139 159 0
138 159 0
137 158 0
140 160 0
133 153 0
133 153 0
135 155 0
137 156 0
134 155 0
131 151 0
135 155 0
127 146 0
129 149 0
127 146 0
123 143 0
132 151 0
124 143 0
118 135 0
121 140 0
124 142 0
118 135 0
111 129 0
109 128 0
115 132 0
113 130 0
102 120 0
100 117 0
96 111 0
97 112 0
88 102 0
95 110 0
83 95 0
79 92 0
71 83 0
72 84 0
79 92 0
74 86 0
80 91 0
84 97 0
83 98 0
89 104 0
97 112 0
110 127 0
115 133 0
113 131 0
129 148 0
132 152 0
137 158 0
149 170 0
161 184 0
172 196 0
170 195 0
171 195 0
169 193 0
172 196 0
171 194 0
172 195 0
171 195 0
172 196 0
160 183 31
56 81 80
47 75 89
51 82 90
52 84 101
52 82 85
53 84 98
52 82 94
56 88 115
54 86 99
52 83 89
54 85 109
55 86 108
55 88 112
54 86 115
56 88 111
56 89 110
54 86 105
56 89 106
55 88 103
55 87 109
56 89 116
55 86 107
57 89 111
57 91 117
57 90 113
58 92 119
56 88 109
58 91 116
55 88 102
58 92 123
57 91 113
58 91 119
57 90 109
57 90 118
57 91 108
57 90 111
54 86 109
56 89 108
56 89 126
56 89 114
59 93 125
59 92 121
57 90 110
57 90 126
57 91 114
56 88 115
59 93 125
57 89 114
56 89 102
56 89 114
57 90 127
58 91 115
57 89 111
57 90 111
57 90 121
57 90 119
57 91 110
56 89 106
59 93 124
57 90 114
57 91 117
56 89 118
57 91 118
56 89 111
57 90 103
56 89 109
58 91 129
56 89 108
58 91 122
56 88 115
56 88 116
56 89 118
57 89 113
58 91 120
56 89 110
57 90 96
56 89 115
56 89 110
56 88 113
54 86 103
55 87 108
55 87 104
55 87 111
54 86 106
54 86 101
55 86 106
55 87 109
54 85 106
52 83 91
48 78 72
49 78 76
50 78 63
161 184 18
171 195 0
171 195 0
173 196 0
172 195 0
169 193 0
171 195 0
171 195 0
172 195 0
174 197 0
166 189 0
146 167 0
135 155 0
134 154 0
124 142 0
112 130 0
113 130 0
111 128 0
109 125 0
100 115 0
92 106 0
96 109 0
80 93 0
76 88 0
78 91 0
79 92 0
72 84 0
88 100 0
85 99 0
87 101 0
75 89 0
95 110 0
106 122 0
98 114 0
108 125 0
109 126 0
101 119 0
105 122 0
108 125 0
114 132 0
115 132 0
118 137 0
128 147 0
126 144 0
124 144 0
116 136 0
126 146 0
126 146 0
136 156 0
128 147 0
130 149 0
138 159 0
134 153 0
131 151 0
132 151 0
136 156 0
139 160 0
141 161 0
138 159 0
144 165 0
147 167 0
143 164 0
140 161 0
143 164 0
143 164 0
147 168 0
146 166 0
146 167 0
145 165 0
145 166 0
141 162 0
140 160 0
150 170 0
145 166 0
146 167 0
139 160 0
139 159 0
145 167 0
148 169 0
145 166 0
148 169 0
150 171 0
148 170 0
145 165 0
146 167 0
151 172 0
147 168 0
149 170 0
149 170 0
147 168 0
150 171 0
150 171 0
149 169 0
149 170 0
149 170 0
151 172 0
151 172 0
151 172 0
151 172 0
151 173 0
152 173 0
148 169 0
151 172 0
150 171 0
152 173 0
151 172 0
155 176 0
150 171 0
153 175 0
153 175 0
152 173 0
151 172 0
153 174 0
152 173 0
153 174 0
151 171 0
154 175 0
152 173 0
153 174 0
152 173 0
152 173 0
153 174 0
155 176 0
153 174 0
153 174 0
153 174 0
151 173 0
151 172 0
153 175 0
153 174 0
153 174 0
153 174 0
154 174 0
153 174 0
155 176 0
154 175 0
154 175 0
154 175 0
154 175 0
153 174 0
154 175 0
154 174 0
152 173 0
155 175 0
154 175 0
154 175 0
155 175 0
154 175 0
152 173 0
154 175 0
155 176 0
155 176 0
154 175 0
154 175 0
154 175 0
154 175 0
155 176 0
156 177 0
153 175 0
156 176 0
154 175 0
154 175 0
152 173 0
153 174 0
155 176 0
153 175 0
153 174 0
155 175 0
153 174 0
154 175 0
155 175 0
154 174 0
154 174 0
155 175 0
154 175 0
153 174 0
151 172 0
155 175 0
152 173 0
153 173 0
151 172 0
153 173 0
150 171 0
152 173 0
152 173 0
154 175 0
155 176 0
152 173 0
153 174 0
151 172 0
152 173 0
154 175 0
144 165 0
150 172 0
152 174 0
153 175 0
152 173 0
151 172 0
152 173 0
151 172 0
151 172 0
147 168 0
152 173 0
149 170 0
149 170 0
151 172 0
148 169 0
151 172 0
150 172 0
147 167 0
149 170 0
151 172 0
151 172 0
147 168 0
149 170 0
150 170 0
148 168 0
149 170 0
151 172 0
149 170 0
148 170 0
151 172 0
147 168 0
150 171 0
149 170 0
146 166 0
148 170 0
143 164 0
147 168 0
145 166 0
147 168 0
145 165 0
147 168 0
139 159 0
142 163 0
148 168 0
146 167 0
141 161 0
145 165 0
148 168 0
140 160 0
143 164 0
143 163 0
142 163 0
137 158 0
138 158 0
142 161 0
139 160 0
138 159 0
136 156 0
144 163 0
138 158 0
137 157 0
134 155 0
132 151 0
133 153 0
131 151 0
130 150 0
132 153 0
128 148 0
123 141 0
122 140 0
132 152 0
123 142 0
129 147 0
124 143 0
123 141 0
125 143 0
109 127 0
117 134 0
116 133 0
118 136 0
98 114 0
96 111 0
102 119 0
99 114 0
88 103 0
93 108 0
87 102 0
88 102 0
82 95 0
84 96 0
85 100 0
94 107 0
78 91 0
94 107 0
98 112 0
97 112 0
94 109 0
107 122 0
114 131 0
109 126 0
134 153 0
133 153 0
132 152 0
141 161 0
157 179 0
172 195 0
170 193 0
169 192 0
171 194 0
173 196 0
173 197 0
170 194 0
172 195 0
171 195 0
169 192 0
168 191 0
108 130 60
50 79 80
52 82 104
49 79 89
51 81 92
54 86 110
52 83 92
53 84 102
53 84 96
55 87 111
54 86 94
53 85 84
55 87 115
56 88 103
55 87 107
54 86 91
55 86 108
57 90 112
55 87 110
54 87 100
57 90 110
56 89 109
58 91 127
58 91 122
56 89 110
56 88 114
56 89 110
57 91 120
55 88 103
55 88 114
55 87 103
58 91 122
56 90 112
57 90 121
58 91 118
57 90 115
59 93 115
58 92 118
56 89 108
57 91 102
56 90 107
56 89 103
54 86 107
57 90 110
58 92 121
56 89 113
57 90 108
59 93 124
58 92 115
58 91 118
57 90 111
57 90 108
58 91 121
57 91 121
56 89 109
58 91 117
58 92 121
56 88 114
55 88 108
57 90 113
55 88 105
54 87 94
55 88 102
57 91 118
56 88 108
57 91 119
58 92 125
56 88 106
55 87 108
58 90 123
54 86 102
56 89 114
55 87 105
55 87 100
54 86 97
56 88 108
56 89 109
56 88 112
54 85 95
56 89 105
54 85 109
55 88 106
55 88 108
53 84 98
52 82 104
53 84 104
52 83 100
51 82 84
53 84 100
50 80 89
48 77 75
106 128 50
167 190 0
171 194 0
171 195 0
171 195 0
171 194 0
171 195 0
172 196 0
172 195 0
172 195 0
170 193 0
172 196 0
154 176 0
144 165 0
139 159 0
133 151 0
119 138 0
114 132 0
106 122 0
99 115 0
111 127 0
88 102 0
77 90 0
96 110 0
86 99 0
72 86 0
77 90 0
87 101 0
80 94 0
93 107 0
91 105 0
76 92 0
100 115 0
92 107 0
105 121 0
107 124 0
114 131 0
110 128 0
115 132 0
108 125 0
121 138 0
116 135 0
115 133 0
117 135 0
118 136 0
124 143 0
119 138 0
125 144 0
129 148 0
129 149 0
127 146 0
130 149 0
130 149 0
140 160 0
133 153 0
139 158 0
128 148 0
134 155 0
129 149 0
132 152 0
145 166 0
134 154 0
145 165 0
140 161 0
137 158 0
142 162 0
143 163 0
140 160 0
140 160 0
148 169 0
144 165 0
143 165 0
139 159 0
143 163 0
142 163 0
147 168 0
148 170 0
145 165 0
146 166 0
148 168 0
145 167 0
147 168 0
149 170 0
149 170 0
149 171 0
148 169 0
148 169 0
148 169 0
151 171 0
146 166 0
150 171 0
149 170 0
149 170 0
145 165 0
149 170 0
147 168 0
151 172 0
151 172 0
151 172 0
151 172 0
150 170 0
152 173 0
147 168 0
151 171 0
147 169 0
149 170 0
151 172 0
152 173 0
151 171 0
151 171 0
154 174 0
152 173 0
153 175 0
150 171 0
151 171 0
152 174 0
151 172 0
152 172 0
152 173 0
153 173 0
154 175 0
150 172 0
154 174 0
149 170 0
153 174 0
154 175 0
151 173 0
152 173 0
152 173 0
153 175 0
153 173 0
152 173 0
154 175 0
153 174 0
153 174 0
152 173 0
154 175 0
156 176 0
153 174 0
155 175 0
153 173 0
153 175 0
152 174 0
153 174 0
153 174 0
152 173 0
154 175 0
151 172 0
154 175 0
153 174 0
154 176 0
153 175 0
155 176 0
155 175 0
154 175 0
155 175 0
153 174 0
154 175 0
153 174 0
154 175 0
153 175 0
156 176 0
154 175 0
154 176 0
153 174 0
152 173 0
153 174 0
152 173 0
155 175 0
153 174 0
154 175 0
152 173 0
155 175 0
153 173 0
152 173 0
154 174 0
153 174 0
153 174 0
152 172 0
151 173 0
153 174 0
154 175 0
152 173 0
151 172 0
152 173 0
153 174 0
151 171 0
152 173 0
153 174 0
151 172 0
150 172 0
153 174 0
152 173 0
153 174 0
150 170 0
152 172 0
152 173 0
151 170 0
151 172 0
152 174 0
150 171 0
147 169 0
151 172 0
148 168 0
151 172 0
151 171 0
151 171 0
146 167 0
147 168 0
150 170 0
151 172 0
150 171 0
149 170 0
151 173 0
151 171 0
150 171 0
151 171 0
148 169 0
148 169 0
151 172 0
145 166 0
151 171 0
149 169 0
148 169 0
146 167 0
143 164 0
149 170 0
142 163 0
145 166 0
145 166 0
145 166 0
142 163 0
149 169 0
144 164 0
147 168 0
145 166 0
141 162 0
144 166 0
140 160 0
146 167 0
140 161 0
143 163 0
139 158 0
146 166 0
138 158 0
135 155 0
136 157 0
142 162 0
140 160 0
140 161 0
134 154 0
134 154 0
131 151 0
133 154 0
134 154 0
138 157 0
128 148 0
140 160 0
126 146 0
126 145 0
129 148 0
128 148 0
136 156 0
125 144 0
122 141 0
121 139 0
124 143 0
111 129 0
115 133 0
120 137 0
110 127 0
117 134 0
115 132 0
114 131 0
96 113 0
99 115 0
104 119 0
89 104 0
106 121 0
100 115 0
86 101 0
86 99 0
96 110 0
85 99 0
100 113 0
91 105 0
86 100 0
88 103 0
96 111 0
103 119 0
108 124 0
105 122 0
114 132 0
124 143 0
135 154 0
135 154 0
143 164 0
170 193 0
172 196 0
172 195 0
172 196 0
171 194 0
170 193 0
169 193 0
170 193 0
171 195 0
170 193 0
170 193 0
171 194 0
166 189 18
58 85 80
49 79 92
52 82 90
51 82 91
51 82 90
53 84 99
55 87 97
54 86 100
55 87 110
54 86 104
56 88 108
55 86 104
54 85 101
56 88 115
55 87 106
57 90 120
53 85 96
55 87 108
57 90 120
56 88 113
53 85 101
54 85 98
58 91 113
55 87 97
56 88 108
58 91 114
56 88 108
57 90 105
58 92 117
57 91 119
55 88 103
56 89 108
59 92 124
57 90 112
59 92 125
57 91 111
58 91 115
55 88 98
57 91 117
56 89 106
57 90 115
57 91 117
56 89 102
58 92 122
57 90 102
55 87 108
57 90 118
57 89 123
58 92 118
58 91 112
55 88 97
57 90 121
57 90 121
56 89 108
56 88 108
58 92 111
58 92 122
55 87 108
55 87 100
56 88 107
55 87 105
56 88 108
57 90 107
56 89 108
54 86 103
53 84 95
57 90 115
55 88 108
55 88 103
56 88 109
55 88 105
56 89 103
56 88 108
57 89 117
55 88 96
55 87 99
54 85 104
55 87 109
54 86 103
54 86 99
54 86 113
54 86 95
52 82 94
53 84 97
55 87 104
53 84 99
52 83 98
49 79 75
49 78 81
49 76 69
154 178 35
172 195 0
168 191 0
170 194 0
166 190 0
172 195 0
172 195 0
171 194 0
172 195 0
167 191 0
170 194 0
173 196 0
167 191 0
147 168 0
132 153 0
130 150 0
126 144 0
114 132 0
118 135 0
104 119 0
100 116 0
96 110 0
90 105 0
95 109 0
100 114 0
101 115 0
86 99 0
91 105 0
99 113 0
103 117 0
90 105 0
101 116 0
101 116 0
109 125 0
100 116 0
103 119 0
104 121 0
104 121 0
109 126 0
118 135 0
113 132 0
122 141 0
116 134 0
125 143 0
134 153 0
126 145 0
129 149 0
127 146 0
130 149 0
131 151 0
133 153 0
134 154 0
132 151 0
130 150 0
133 153 0
135 154 0
136 156 0
133 154 0
137 158 0
141 161 0
140 160 0
139 159 0
146 165 0
139 160 0
144 166 0
145 166 0
143 163 0
141 162 0
138 158 0
142 163 0
143 163 0
146 166 0
149 170 0
148 168 0
147 167 0
147 168 0
144 165 0
145 165 0
147 168 0
143 163 0
144 164 0
144 164 0
145 165 0
145 167 0
146 167 0
144 165 0
146 167 0
148 169 0
147 168 0
150 171 0
149 170 0
146 167 0
147 167 0
148 169 0
149 170 0
147 168 0
147 168 0
150 171 0
150 171 0
148 169 0
150 171 0
150 170 0
151 172 0
153 174 0
149 171 0
150 171 0
153 174 0
150 171 0
148 169 0
149 170 0
150 171 0
148 169 0
149 170 0
151 171 0
153 173 0
152 173 0
154 175 0
152 172 0
150 171 0
154 174 0
150 171 0
152 173 0
150 171 0
153 174 0
150 171 0
152 173 0
153 173 0
154 175 0
153 173 0
152 173 0
154 175 0
153 173 0
152 173 0
153 174 0
150 172 0
153 174 0
153 173 0
154 175 0
153 174 0
154 175 0
153 174 0
153 175 0
154 175 0
155 175 0
154 174 0
155 176 0
154 174 0
153 174 0
153 175 0
151 173 0
154 175 0
156 177 0
154 175 0
155 176 0
154 175 0
153 173 0
154 175 0
155 175 0
157 177 0
153 174 0
153 175 0
153 173 0
154 174 0
153 174 0
154 176 0
153 174 0
154 175 0
153 174 0
154 175 0
152 173 0
154 175 0
154 175 0
151 172 0
155 175 0
154 175 0
151 172 0
153 173 0
152 173 0
154 175 0
153 174 0
151 172 0
153 174 0
151 172 0
153 174 0
152 173 0
154 175 0
153 173 0
151 172 0
149 170 0
153 174 0
151 172 0
153 174 0
147 168 0
149 170 0
150 171 0
151 172 0
148 168 0
150 171 0
148 169 0
149 169 0
149 170 0
151 171 0
152 173 0
150 171 0
149 169 0
148 169 0
146 167 0
150 170 0
147 167 0
148 169 0
152 173 0
150 170 0
152 173 0
148 169 0
148 169 0
147 168 0
148 168 0
148 169 0
151 171 0
150 170 0
148 169 0
145 166 0
148 168 0
145 165 0
142 163 0
148 169 0
144 164 0
145 165 0
146 166 0
145 166 0
146 167 0
143 164 0
141 161 0
138 159 0
145 166 0
144 165 0
143 163 0
139 160 0
149 170 0
141 162 0
145 165 0
139 159 0
141 161 0
141 162 0
143 164 0
142 163 0
141 160 0
140 160 0
135 155 0
144 165 0
141 162 0
136 156 0
140 160 0
137 157 0
139 159 0
130 149 0
133 151 0
134 154 0
131 151 0
124 143 0
130 149 0
132 152 0
128 148 0
121 141 0
120 140 0
118 136 0
125 143 0
117 135 0
115 134 0
116 134 0
112 129 0
114 130 0
102 119 0
106 123 0
103 121 0
101 118 0
101 116 0
104 119 0
100 116 0
90 105 0
95 110 0
95 111 0
89 104 0
91 106 0
89 102 0
101 115 0
90 104 0
87 102 0
102 118 0
99 114 0
110 125 0
112 130 0
121 140 0
122 141 0
131 151 0
136 157 0
163 186 0
171 194 0
170 193 0
171 194 0
171 194 0
173 196 0
168 192 0
170 194 0
167 191 0
169 192 0
169 192 0
172 195 0
168 192 0
167 189 0
116 139 65
49 78 74
52 82 93
50 80 90
53 84 86
53 84 95
53 84 96
54 86 104
52 83 98
55 87 104
53 85 94
54 85 101
53 85 109
57 90 119
53 84 91
54 86 103
55 86 108
57 90 113
56 89 104
54 86 102
54 85 102
56 88 117
55 88 106
55 88 109
56 89 111
56 89 110
54 86 108
55 88 101
57 90 113
56 89 115
57 90 114
57 90 114
56 88 108
56 89 110
57 90 105
55 88 97
54 87 108
58 91 114
58 91 115
56 89 121
57 90 111
56 89 110
57 90 117
56 89 106
55 87 114
55 88 109
57 90 118
56 89 114
53 85 105
57 90 120
58 91 108
57 91 118
57 89 112
57 89 117
57 90 114
57 90 110
57 90 117
56 89 105
56 88 99
54 86 98
57 90 117
56 89 117
57 89 111
57 90 122
55 88 106
57 90 112
56 89 123
56 89 109
57 90 110
54 86 104
55 87 108
58 91 118
56 88 101
53 85 100
56 88 114
54 85 104
55 87 106
55 87 104
54 86 110
54 86 112
55 87 108
54 85 107
53 84 99
53 84 100
54 85 92
52 83 99
51 81 97
49 78 79
49 78 94
119 141 49
169 192 0
170 194 0
169 193 0
167 190 0
171 195 0
166 189 0
170 193 0
171 195 0
171 193 0
172 196 0
171 193 0
171 193 0
173 196 0
157 180 0
139 159 0
134 154 0
132 151 0
124 142 0
115 133 0
112 129 0
99 115 0
101 116 0
87 103 0
100 115 0
97 112 0
95 110 0
90 105 0
96 111 0
85 98 0
87 101 0
86 101 0
95 111 0
106 121 0
102 118 0
104 121 0
107 125 0
104 121 0
107 124 0
121 139 0
122 139 0
124 142 0
117 135 0
110 127 0
122 140 0
125 143 0
119 138 0
133 152 0
124 142 0
131 150 0
133 151 0
131 151 0
138 158 0
134 154 0
138 157 0
133 152 0
135 155 0
137 156 0
140 160 0
136 156 0
139 160 0
138 159 0
141 161 0
140 160 0
136 156 0
142 161 0
144 166 0
133 152 0
141 161 0
145 165 0
142 162 0
139 160 0
143 163 0
136 156 0
148 168 0
146 166 0
144 165 0
144 165 0
143 163 0
143 164 0
144 165 0
149 169 0
146 168 0
143 163 0
148 169 0
144 165 0
147 168 0
148 168 0
147 168 0
142 163 0
153 173 0
152 172 0
143 164 0
144 166 0
149 170 0
150 171 0
147 168 0
148 169 0
147 168 0
153 174 0
148 169 0
149 169 0
146 167 0
151 171 0
152 173 0
151 172 0
153 174 0
150 170 0
153 173 0
150 170 0
150 171 0
151 171 0
149 170 0
150 171 0
151 172 0
150 171 0
152 173 0
153 174 0
152 172 0
150 171 0
153 174 0
152 173 0
152 172 0
151 172 0
155 175 0
148 169 0
153 174 0
152 173 0
153 174 0
152 172 0
153 174 0
151 172 0
152 173 0
152 173 0
152 173 0
153 173 0
155 175 0
154 174 0
154 175 0
153 173 0
154 175 0
154 175 0
153 174 0
153 173 0
153 174 0
154 175 0
154 175 0
155 176 0
153 174 0
156 176 0
154 175 0
155 176 0
155 176 0
154 175 0
154 175 0
155 176 0
155 176 0
154 175 0
153 174 0
153 173 0
153 174 0
154 175 0
154 174 0
154 174 0
155 176 0
154 174 0
155 175 0
151 172 0
153 174 0
153 173 0
153 175 0
153 174 0
153 174 0
153 174 0
154 175 0
154 175 0
152 173 0
153 173 0
150 171 0
150 172 0
152 173 0
152 173 0
151 173 0
150 171 0
153 174 0
152 173 0
152 172 0
152 173 0
152 173 0
151 171 0
150 172 0
153 174 0
151 172 0
149 171 0
154 174 0
151 172 0
151 172 0
152 172 0
149 169 0
152 173 0
150 171 0
150 171 0
150 172 0
150 171 0
151 172 0
151 171 0
150 171 0
147 168 0
151 171 0
151 172 0
148 169 0
149 170 0
151 170 0
149 169 0
145 166 0
148 168 0
148 169 0
149 170 0
149 170 0
150 170 0
143 164 0
149 170 0
149 169 0
148 168 0
141 161 0
148 168 0
150 170 0
142 163 0
149 170 0
149 169 0
143 164 0
146 166 0
145 166 0
148 169 0
146 165 0
148 169 0
141 162 0
147 167 0
137 158 0
146 166 0
142 163 0
144 164 0
139 159 0
142 163 0
138 158 0
140 160 0
139 159 0
143 162 0
134 154 0
141 161 0
138 158 0
133 152 0
136 157 0
136 157 0
135 155 0
137 157 0
135 155 0
127 147 0
136 156 0
130 149 0
122 141 0
128 147 0
123 142 0
131 150 0
129 149 0
123 142 0
117 137 0
128 146 0
124 142 0
118 136 0
114 133 0
113 130 0
109 126 0
115 132 0
105 122 0
108 124 0
108 126 0
109 124 0
106 123 0
92 107 0
104 120 0
97 111 0
101 116 0
93 106 0
102 116 0
99 113 0
104 118 0
105 122 0
103 119 0
101 117 0
99 116 0
121 138 0
113 131 0
124 143 0
128 147 0
135 156 0
151 171 0
169 192 0
169 193 0
168 192 0
171 194 0
167 191 0
170 193 0
169 192 0
165 189 0
168 192 0
167 191 0
171 194 0
167 190 0
165 189 0
169 193 0
162 185 0
70 93 66
49 78 75
53 83 94
52 82 98
52 83 104
52 83 97
53 84 107
52 83 85
51 82 92
52 82 93
53 84 99
53 84 95
56 89 100
54 85 104
55 88 105
55 87 103
56 89 107
55 87 109
55 88 98
55 87 104
55 87 103
55 88 103
56 88 110
58 91 109
55 88 103
57 89 111
56 88 106
56 89 102
56 88 114
56 89 104
56 88 112
57 90 105
57 90 98
56 88 105
57 90 122
55 88 105
57 90 121
56 88 106
57 89 107
56 89 110
55 88 108
58 91 115
56 89 113
57 90 117
55 87 109
56 88 100
58 92 117
57 90 115
56 89 111
58 92 121
55 88 97
58 91 122
57 90 114
55 88 110
56 90 113
55 87 108
58 91 121
58 91 114
58 91 120
58 91 113
57 91 114
56 88 113
56 89 100
56 89 108
58 91 118
54 86 98
55 87 109
58 91 107
56 89 109
56 88 100
55 88 115
55 86 110
55 86 95
54 86 106
55 87 108
52 83 78
54 85 98
55 86 98
54 85 94
52 82 95
55 87 101
53 84 106
49 79 89
54 86 106
54 86 101
49 77 89
49 79 78
78 101 75
167 189 25
169 191 0
170 194 0
170 194 0
171 194 0
165 189 0
169 193 0
168 191 0
165 188 0
170 193 0
168 192 0
169 193 0
167 190 0
169 193 0
170 193 0
151 173 0
134 154 0
129 149 0
134 153 0
114 133 0
111 127 0
107 124 0
102 118 0
102 118 0
91 106 0
106 122 0
101 116 0
100 113 0
97 111 0
98 113 0
97 113 0
97 111 0
100 115 0
103 119 0
107 124 0
111 127 0
109 125 0
105 122 0
113 130 0
115 133 0
114 131 0
123 140 0
126 144 0
121 139 0
124 142 0
125 143 0
129 148 0
125 144 0
124 142 0
127 146 0
121 139 0
132 152 0
133 152 0
134 154 0
129 148 0
141 161 0
131 151 0
135 154 0
133 153 0
136 156 0
133 153 0
139 159 0
133 154 0
134 153 0
138 159 0
145 165 0
140 161 0
139 160 0
146 166 0
144 165 0
144 164 0
142 163 0
147 167 0
143 162 0
150 171 0
145 166 0
148 169 0
146 166 0
143 163 0
142 162 0
141 162 0
142 163 0
145 165 0
146 167 0
148 169 0
151 170 0
145 164 0
147 168 0
143 163 0
141 161 0
147 168 0
150 170 0
150 169 0
148 168 0
146 167 0
151 171 0
148 169 0
145 166 0
148 168 0
150 170 0
148 168 0
148 169 0
150 172 0
151 171 0
149 170 0
152 172 0
153 174 0
147 168 0
154 174 0
151 172 0
148 170 0
151 172 0
149 171 0
150 172 0
149 170 0
152 173 0
152 172 0
153 174 0
153 174 0
150 171 0
153 173 0
152 173 0
150 172 0
152 173 0
152 173 0
154 175 0
152 172 0
151 172 0
153 173 0
154 175 0
155 175 0
152 173 0
154 175 0
153 174 0
154 175 0
153 174 0
153 174 0
154 175 0
153 174 0
152 173 0
151 173 0
153 174 0
153 174 0
154 174 0
153 174 0
153 174 0
153 175 0
153 174 0
151 172 0
153 173 0
152 173 0
154 174 0
153 175 0
155 176 0
155 176 0
155 175 0
154 175 0
154 176 0
155 176 0
154 174 0
152 174 0
154 175 0
155 175 0
153 173 0
152 173 0
152 173 0
152 173 0
156 176 0
154 174 0
152 172 0
150 172 0
153 174 0
151 171 0
151 172 0
153 174 0
151 171 0
151 172 0
151 171 0
150 171 0
152 173 0
152 173 0
151 172 0
153 173 0
151 172 0
151 172 0
151 172 0
151 172 0
154 174 0
152 173 0
152 172 0
153 173 0
151 171 0
149 171 0
152 173 0
153 173 0
149 170 0
152 173 0
150 171 0
154 174 0
151 171 0
151 171 0
148 170 0
150 171 0
151 171 0
147 168 0
151 172 0
151 172 0
147 168 0
149 170 0
146 166 0
144 165 0
150 171 0
150 170 0
147 167 0
145 165 0
148 168 0
147 168 0
145 166 0
148 169 0
145 166 0
146 166 0
149 170 0
146 166 0
147 168 0
144 165 0
148 168 0
145 166 0
148 169 0
146 167 0
139 160 0
146 166 0
146 167 0
143 164 0
141 161 0
144 164 0
151 171 0
139 160 0
143 165 0
143 164 0
147 167 0
136 157 0
144 165 0
146 167 0
138 158 0
137 156 0
144 165 0
131 151 0
139 159 0
137 157 0
144 164 0
134 153 0
133 154 0
130 150 0
137 157 0
136 155 0
136 156 0
135 153 0
131 150 0
131 151 0
125 144 0
127 146 0
137 157 0
127 145 0
116 135 0
121 140 0
122 141 0
117 136 0
125 143 0
116 134 0
121 138 0
120 138 0
113 131 0
114 133 0
118 133 0
106 122 0
114 131 0
113 129 0
109 126 0
100 117 0
103 118 0
106 122 0
101 117 0
94 109 0
89 104 0
102 116 0
94 108 0
100 116 0
103 119 0
98 113 0
116 133 0
109 126 0
112 130 0
118 136 0
125 143 0
137 156 0
149 170 0
163 186 0
168 192 0
167 191 0
168 191 0
166 190 0
165 188 0
168 190 0
169 192 0
170 194 0
168 191 0
172 195 0
168 192 0
165 188 0
163 187 0
168 191 0
165 189 0
139 160 30
46 73 62
50 79 93
52 83 98
53 84 94
53 84 99
53 85 106
50 81 75
55 87 110
53 84 96
53 85 100
54 86 97
51 81 86
56 88 110
55 88 106
56 88 102
54 86 82
56 89 96
56 89 111
55 87 105
53 85 93
55 87 100
55 87 104
54 86 98
57 90 111
57 90 114
54 86 98
56 88 110
56 89 106
58 91 117
53 85 94
55 87 114
52 83 90
55 87 106
55 88 107
55 88 99
57 90 125
54 86 97
54 87 103
57 89 111
55 87 110
58 92 121
58 91 111
55 87 100
55 87 108
58 92 126
55 87 100
57 90 115
57 91 114
54 86 102
56 89 114
54 86 110
57 90 110
56 88 112
55 88 110
55 88 105
57 90 115
58 91 114
56 89 111
58 92 115
53 85 90
56 89 102
54 86 98
55 87 108
55 87 102
54 86 102
56 89 103
54 86 106
54 86 89
56 88 112
54 86 106
56 88 105
56 88 115
55 87 100
53 84 83
52 84 89
53 84 89
54 85 103
54 85 105
54 86 113
53 85 93
52 83 98
52 82 97
49 79 73
49 79 78
50 79 77
47 75 69
137 159 35
166 190 0
170 193 0
166 190 0
166 190 0
168 192 0
168 192 0
168 192 0
169 192 0
168 191 0
166 189 0
166 189 0
168 192 0
169 193 0
167 191 0
168 192 0
165 189 0
142 163 0
128 147 0
120 139 0
124 142 0
115 134 0
104 121 0
99 115 0
102 118 0
103 119 0
105 120 0
108 123 0
106 122 0
101 115 0
102 117 0
97 113 0
104 119 0
99 114 0
105 119 0
113 130 0
120 136 0
108 125 0
115 132 0
110 127 0
110 127 0
115 133 0
124 142 0
115 133 0
118 136 0
108 125 0
132 150 0
132 150 0
121 140 0
122 140 0
124 142 0
127 145 0
130 150 0
129 148 0
133 153 0
133 153 0
127 146 0
139 159 0
139 159 0
135 154 0
139 159 0
133 152 0
139 160 0
138 157 0
133 152 0
139 159 0
138 158 0
139 159 0
143 164 0
137 158 0
139 159 0
145 166 0
138 158 0
139 160 0
141 161 0
141 161 0
145 165 0
142 162 0
147 166 0
145 165 0
144 165 0
145 165 0
147 168 0
145 166 0
148 168 0
147 167 0
141 161 0
145 166 0
147 167 0
145 166 0
144 164 0
147 168 0
151 171 0
148 168 0
149 169 0
148 168 0
146 166 0
149 169 0
147 168 0
150 171 0
152 172 0
150 172 0
146 167 0
151 173 0
147 169 0
151 172 0
148 169 0
152 173 0
151 172 0
150 171 0
149 170 0
150 171 0
152 172 0
149 170 0
151 172 0
149 170 0
148 169 0
151 173 0
150 171 0
149 170 0
152 173 0
150 170 0
152 173 0
150 171 0
150 171 0
154 174 0
152 173 0
153 175 0
153 174 0
152 172 0
151 172 0
149 170 0
149 169 0
152 173 0
154 175 0
153 174 0
152 173 0
152 173 0
153 174 0
153 174 0
152 173 0
152 173 0
154 174 0
153 174 0
154 175 0
152 173 0
154 176 0
155 176 0
155 175 0
153 174 0
151 171 0
154 175 0
154 175 0
152 173 0
155 176 0
154 175 0
155 176 0
154 175 0
153 173 0
152 173 0
154 175 0
153 174 0
153 174 0
152 174 0
155 176 0
154 174 0
153 174 0
150 171 0
154 175 0
152 173 0
152 173 0
154 174 0
154 175 0
149 170 0
152 173 0
153 174 0
152 172 0
153 174 0
153 173 0
152 173 0
151 172 0
154 174 0
151 172 0
151 172 0
154 174 0
152 173 0
149 171 0
151 172 0
150 171 0
148 169 0
150 170 0
149 169 0
152 173 0
152 173 0
149 170 0
149 170 0
152 172 0
151 173 0
150 171 0
151 171 0
150 171 0
148 169 0
149 169 0
147 167 0
148 169 0
151 172 0
145 166 0
146 166 0
148 169 0
151 171 0
150 170 0
150 170 0
152 173 0
148 168 0
146 167 0
151 172 0
145 166 0
148 169 0
147 168 0
146 167 0
150 172 0
149 168 0
148 169 0
142 163 0
147 168 0
151 171 0
146 166 0
143 164 0
144 164 0
150 170 0
147 167 0
144 165 0
144 164 0
143 163 0
145 165 0
145 165 0
144 164 0
144 165 0
144 164 0
137 157 0
141 161 0
141 161 0
138 158 0
137 158 0
141 161 0
136 156 0
141 161 0
138 157 0
132 152 0
139 158 0
133 152 0
135 156 0
133 152 0
134 154 0
130 150 0
135 155 0
128 148 0
132 152 0
141 161 0
130 149 0
130 149 0
135 155 0
130 148 0
126 144 0
117 135 0
126 144 0
115 133 0
119 138 0
116 134 0
120 138 0
120 138 0
117 134 0
118 135 0
112 131 0
111 128 0
119 136 0
113 130 0
110 127 0
111 127 0
109 124 0
105 121 0
105 120 0
106 121 0
116 133 0
97 113 0
99 114 0
105 121 0
104 119 0
108 124 0
106 122 0
112 129 0
106 122 0
122 139 0
120 138 0
126 145 0
140 159 0
164 187 0
171 194 0
171 194 0
169 193 0
168 192 0
166 189 0
169 192 0
170 192 0
162 186 0
163 186 0
165 189 0
167 191 0
170 193 0
163 185 0
166 190 0
169 193 0
163 186 0
162 185 0
106 127 61
46 74 70
52 82 99
51 81 86
55 86 104
54 85 102
53 84 93
51 81 79
54 85 110
52 83 94
54 85 101
55 87 106
54 86 97
54 86 105
55 87 108
53 85 93
52 83 105
57 89 112
53 85 98
56 89 104
56 89 109
55 87 111
55 88 110
58 91 114
56 88 108
54 87 105
57 90 111
54 85 95
55 88 107
57 91 117
56 88 117
55 87 97
57 90 115
56 89 103
55 87 105
55 87 99
56 89 109
55 88 102
56 88 107
57 90 120
58 91 115
56 89 103
55 88 100
56 88 115
57 90 117
56 88 99
56 89 111
56 89 110
55 87 110
53 85 95
57 90 114
57 89 105
55 87 99
53 84 92
54 86 108
57 90 118
56 89 117
51 82 86
55 87 103
58 91 115
55 87 102
55 88 106
55 87 105
53 85 88
53 85 93
56 88 97
56 87 118
54 86 113
53 85 91
55 87 108
54 86 104
54 85 90
52 83 96
53 84 78
52 83 95
54 86 113
53 84 97
53 84 100
54 85 98
52 83 93
53 84 89
51 81 101
53 84 93
49 78 77
49 78 84
89 111 64
168 190 0
167 190 0
166 190 0
168 190 0
165 188 0
168 191 0
166 190 0
169 191 0
167 190 0
169 192 0
166 189 0
166 189 0
169 191 0
169 192 0
165 189 0
167 191 0
169 191 0
161 184 0
138 157 0
134 153 0
112 129 0
113 130 0
110 128 0
110 125 0
107 123 0
106 122 0
103 118 0
102 118 0
89 102 0
103 118 0
106 122 0
95 111 0
97 112 0
108 124 0
104 120 0
106 123 0
111 128 0
116 132 0
108 125 0
115 132 0
116 134 0
120 138 0
119 137 0
117 135 0
116 135 0
130 147 0
124 142 0
128 147 0
121 140 0
132 152 0
130 150 0
136 154 0
129 147 0
137 156 0
125 144 0
135 154 0
134 153 0
129 149 0
129 148 0
133 153 0
138 158 0
135 154 0
140 159 0
131 150 0
138 159 0
139 159 0
138 157 0
137 158 0
143 162 0
141 162 0
143 163 0
141 162 0
138 158 0
137 157 0
144 165 0
146 166 0
141 161 0
143 163 0
144 164 0
144 164 0
147 167 0
142 162 0
140 159 0
143 164 0
150 170 0
145 165 0
142 163 0
145 165 0
145 165 0
145 166 0
148 169 0
147 167 0
145 165 0
149 169 0
145 165 0
145 165 0
140 160 0
149 170 0
148 169 0
150 170 0
150 170 0
148 169 0
149 171 0
148 169 0
149 170 0
146 166 0
152 171 0
151 171 0
149 170 0
151 172 0
148 169 0
149 170 0
148 168 0
148 169 0
151 171 0
148 169 0
150 170 0
150 170 0
148 169 0
148 169 0
152 173 0
151 172 0
148 169 0
150 171 0
151 172 0
152 173 0
153 174 0
149 169 0
155 175 0
151 172 0
154 174 0
152 173 0
153 174 0
154 175 0
151 172 0
151 172 0
153 174 0
154 174 0
152 173 0
153 174 0
154 174 0
154 175 0
155 175 0
152 173 0
153 174 0
151 172 0
152 173 0
154 174 0
154 175 0
153 175 0
152 173 0
153 174 0
155 175 0
154 175 0
152 173 0
150 172 0
154 174 0
153 175 0
153 174 0
154 174 0
153 174 0
153 174 0
152 173 0
153 173 0
154 174 0
151 173 0
153 174 0
154 174 0
156 176 0
152 173 0
152 173 0
152 173 0
153 174 0
152 173 0
153 172 0
153 174 0
149 170 0
151 173 0
150 171 0
150 170 0
152 173 0
153 174 0
150 170 0
153 173 0
153 174 0
152 172 0
155 175 0
151 172 0
151 171 0
154 174 0
152 173 0
150 171 0
149 170 0
150 171 0
149 170 0
146 168 0
149 170 0
150 170 0
149 169 0
151 172 0
147 168 0
149 169 0
147 168 0
149 169 0
151 172 0
149 170 0
148 169 0
143 163 0
152 173 0
151 172 0
152 173 0
150 170 0
146 166 0
147 167 0
147 169 0
148 169 0
145 166 0
147 167 0
148 169 0
149 170 0
146 166 0
147 168 0
148 168 0
144 164 0
145 165 0
146 168 0
143 164 0
142 163 0
142 163 0
147 168 0
145 164 0
135 155 0
142 162 0
148 169 0
146 166 0
147 166 0
138 158 0
142 162 0
144 163 0
138 158 0
138 157 0
146 167 0
144 164 0
146 165 0
137 156 0
142 161 0
138 158 0
135 155 0
139 159 0
131 150 0
133 152 0
130 150 0
136 155 0
128 148 0
137 156 0
133 153 0
129 147 0
134 153 0
127 147 0
133 153 0
129 148 0
130 150 0
126 145 0
127 146 0
131 149 0
126 145 0
125 143 0
129 148 0
121 138 0
120 138 0
120 138 0
121 139 0
113 130 0
124 142 0
118 135 0
111 128 0
109 126 0
110 127 0
104 120 0
108 124 0
108 124 0
97 113 0
102 117 0
93 107 0
99 115 0
104 118 0
101 117 0
107 122 0
101 116 0
117 134 0
113 129 0
115 132 0
121 138 0
135 153 0
133 153 0
155 177 0
169 193 0
163 187 0
168 191 0
167 190 0
164 187 0
164 188 0
165 188 0
166 189 0
165 187 0
163 186 0
161 183 0
167 189 0
161 184 0
164 187 0
164 187 0
164 187 0
162 185 0
167 191 0
156 180 0
56 80 58
51 80 88
50 79 90
52 82 102
52 82 89
51 82 89
51 82 92
53 84 92
53 84 91
51 81 87
53 85 103
55 87 100
55 87 101
55 88 111
54 85 100
53 85 94
58 92 120
56 88 102
53 84 95
55 87 100
54 86 103
53 85 102
57 90 112
57 90 115
56 88 108
55 88 103
57 89 112
55 87 98
54 86 110
57 90 107
57 89 115
57 90 113
56 88 113
54 86 95
57 90 118
56 88 108
55 87 94
55 88 102
57 90 111
55 88 102
57 90 108
55 88 107
56 89 108
56 89 113
56 89 108
56 88 109
56 89 107
54 86 92
56 89 102
55 87 97
55 88 100
56 89 100
57 89 114
57 89 114
57 90 117
57 90 112
55 87 110
56 88 103
56 88 99
54 85 114
56 88 107
52 83 97
56 88 108
55 88 99
55 86 109
55 87 90
53 85 95
55 87 105
54 86 103
54 86 101
55 87 94
54 85 100
53 84 101
54 86 107
53 85 85
52 83 84
51 82 94
51 82 89
51 81 91
52 83 94
49 77 82
48 77 83
48 77 75
66 90 64
154 177 0
164 188 0
165 189 0
166 189 0
158 181 0
166 190 0
163 187 0
168 191 0
164 187 0
164 187 0
167 190 0
168 191 0
163 185 0
162 186 0
170 193 0
170 192 0
166 189 0
167 191 0
168 190 0
151 172 0
133 153 0
130 150 0
119 136 0
114 131 0
114 131 0
115 131 0
104 121 0
113 129 0
112 128 0
98 115 0
100 115 0
107 123 0
96 112 0
106 122 0
100 117 0
107 123 0
104 121 0
103 120 0
110 126 0
112 129 0
108 125 0
115 133 0
126 145 0
121 139 0
124 143 0
120 139 0
122 139 0
124 143 0
124 142 0
126 145 0
119 138 0
131 150 0
123 142 0
132 151 0
132 151 0
136 156 0
125 144 0
131 151 0
134 153 0
133 152 0
130 149 0
133 153 0
128 147 0
137 156 0
139 159 0
135 155 0
141 160 0
137 157 0
137 157 0
136 156 0
138 158 0
144 164 0
143 163 0
138 158 0
145 165 0
145 164 0
143 163 0
139 159 0
145 165 0
142 162 0
145 166 0
141 161 0
141 161 0
141 161 0
148 169 0
147 166 0
144 164 0
152 172 0
148 170 0
146 166 0
147 168 0
145 165 0
145 165 0
146 167 0
147 167 0
149 169 0
146 166 0
145 165 0
150 170 0
150 170 0
149 170 0
147 169 0
146 167 0
148 169 0
147 167 0
149 170 0
148 169 0
149 169 0
147 167 0
151 171 0
148 168 0
149 169 0
151 171 0
151 172 0
148 168 0
150 170 0
147 167 0
149 171 0
150 172 0
150 171 0
150 170 0
151 172 0
149 169 0
151 171 0
151 172 0
150 170 0
151 172 0
150 171 0
150 171 0
148 169 0
154 174 0
154 175 0
152 173 0
152 173 0
151 171 0
151 173 0
149 171 0
149 171 0
151 172 0
153 173 0
149 170 0
152 173 0
151 172 0
153 173 0
154 175 0
151 173 0
154 174 0
154 175 0
150 171 0
154 175 0
155 176 0
151 172 0
152 173 0
153 174 0
154 175 0
156 176 0
155 175 0
154 175 0
154 174 0
156 176 0
152 173 0
153 174 0
154 174 0
153 174 0
153 174 0
153 174 0
154 175 0
154 174 0
151 173 0
153 173 0
152 173 0
152 174 0
150 171 0
154 175 0
151 172 0
154 175 0
151 171 0
152 173 0
152 173 0
151 172 0
148 170 0
154 174 0
151 172 0
151 171 0
152 172 0
151 172 0
156 176 0
152 172 0
151 172 0
151 171 0
149 170 0
149 169 0
149 170 0
149 169 0
153 173 0
147 167 0
148 169 0
150 170 0
145 166 0
146 166 0
149 169 0
151 172 0
150 171 0
151 172 0
148 168 0
148 169 0
147 167 0
151 172 0
150 172 0
148 169 0
146 167 0
149 171 0
150 170 0
144 165 0
149 168 0
144 164 0
148 168 0
147 167 0
148 169 0
146 166 0
150 171 0
147 167 0
150 171 0
147 168 0
150 169 0
146 166 0
147 168 0
141 162 0
143 163 0
148 168 0
141 162 0
145 164 0
143 163 0
147 167 0
145 164 0
140 160 0
140 159 0
141 160 0
139 159 0
140 161 0
149 170 0
139 159 0
138 157 0
141 160 0
137 157 0
142 161 0
138 158 0
138 158 0
142 162 0
139 159 0
140 160 0
127 146 0
140 160 0
136 156 0
137 157 0
132 151 0
136 154 0
135 155 0
129 147 0
125 144 0
133 152 0
125 143 0
127 145 0
128 147 0
132 150 0
118 138 0
130 148 0
123 142 0
124 142 0
126 145 0
116 133 0
121 139 0
112 128 0
112 129 0
117 135 0
118 135 0
111 129 0
114 131 0
116 132 0
112 128 0
107 123 0
108 124 0
96 112 0
100 114 0
105 120 0
96 112 0
103 119 0
102 116 0
104 119 0
113 130 0
110 126 0
108 125 0
124 142 0
124 142 0
123 140 0
146 167 0
166 189 0
167 190 0
164 186 0
164 186 0
164 187 0
166 189 0
162 185 0
161 184 0
161 184 0
164 187 0
167 190 0
163 187 0
160 184 0
163 187 0
167 190 0
161 185 0
163 186 0
162 185 0
165 189 0
166 189 0
136 158 35
48 75 79
45 72 66
49 79 83
55 86 108
50 79 93
53 84 100
53 84 100
51 82 73
51 82 91
54 85 95
53 85 98
52 84 93
56 88 108
53 85 91
53 85 99
55 87 110
55 87 105
54 85 106
52 82 93
55 87 110
54 85 106
53 85 97
55 87 99
54 86 107
54 86 98
56 88 117
55 87 98
55 88 90
56 89 105
57 91 99
56 89 105
54 86 94
54 86 108
56 88 98
55 87 102
56 88 110
55 87 105
55 88 115
57 89 115
55 88 105
55 87 97
56 89 111
56 89 114
56 88 117
58 91 121
57 90 111
55 88 90
53 85 90
55 87 102
55 88 107
56 89 111
57 90 111
55 87 106
56 88 105
57 90 114
54 86 95
58 91 114
55 87 100
53 85 105
55 87 103
55 88 97
53 84 93
55 87 98
54 86 109
54 86 100
55 87 95
52 83 96
53 84 109
52 83 93
57 90 113
52 83 95
53 85 98
52 84 86
53 84 90
54 86 105
53 84 100
52 83 100
51 82 84
50 80 84
51 80 90
50 80 85
48 76 78
149 171 25
161 184 0
157 180 0
163 185 0
165 188 0
155 177 0
166 188 0
162 185 0
168 190 0
162 186 0
162 185 0
160 182 0
169 192 0
158 181 0
160 184 0
162 185 0
163 186 0
168 190 0
165 187 0
161 184 0
168 191 0
143 163 0
127 145 0
129 147 0
124 140 0
114 130 0
106 123 0
110 126 0
101 117 0
93 108 0
111 128 0
119 136 0
102 118 0
106 121 0
105 120 0
103 119 0
111 127 0
111 126 0
112 128 0
111 127 0
109 126 0
110 127 0
116 133 0
118 134 0
117 133 0
119 137 0
118 136 0
115 133 0
124 142 0
121 138 0
123 143 0
127 145 0
124 142 0
128 147 0
125 143 0
127 146 0
127 146 0
123 141 0
127 146 0
134 153 0
141 160 0
132 152 0
134 153 0
135 155 0
141 160 0
130 149 0
137 156 0
136 155 0
136 156 0
136 156 0
140 160 0
142 161 0
137 157 0
138 158 0
142 162 0
140 160 0
144 165 0
144 165 0
144 164 0
143 163 0
141 161 0
140 160 0
138 158 0
143 163 0
147 167 0
143 164 0
143 163 0
144 165 0
149 170 0
143 162 0
149 170 0
144 165 0
151 172 0
146 166 0
147 167 0
143 163 0
147 168 0
145 166 0
149 169 0
144 166 0
148 168 0
149 170 0
148 168 0
149 170 0
147 166 0
148 169 0
148 168 0
147 167 0
151 172 0
150 170 0
148 169 0
150 171 0
148 169 0
150 171 0
149 169 0
150 170 0
149 170 0
150 171 0
151 171 0
151 172 0
150 170 0
149 168 0
148 169 0
147 168 0
150 170 0
149 170 0
149 170 0
153 173 0
152 173 0
152 173 0
152 172 0
152 173 0
148 168 0
153 173 0
149 170 0
151 171 0
151 172 0
150 172 0
152 172 0
153 173 0
152 173 0
152 172 0
153 174 0
152 173 0
151 172 0
152 173 0
154 174 0
153 173 0
151 171 0
154 175 0
151 172 0
153 175 0
150 171 0
154 174 0
154 175 0
155 175 0
153 175 0
153 174 0
151 172 0
154 175 0
155 176 0
153 174 0
154 174 0
153 174 0
151 172 0
152 172 0
155 175 0
153 174 0
153 173 0
152 172 0
153 173 0
153 174 0
153 173 0
151 172 0
153 174 0
150 171 0
150 170 0
152 172 0
152 172 0
152 173 0
150 172 0
151 171 0
153 173 0
151 171 0
154 174 0
151 172 0
153 173 0
151 172 0
152 172 0
153 174 0
151 171 0
154 175 0
151 171 0
149 169 0
149 169 0
150 171 0
146 167 0
152 171 0
148 169 0
150 170 0
148 169 0
149 169 0
147 167 0
152 172 0
151 172 0
146 166 0
148 168 0
150 170 0
149 170 0
147 168 0
145 166 0
144 164 0
145 165 0
146 167 0
146 167 0
147 167 0
145 166 0
146 166 0
148 168 0
149 170 0
144 165 0
147 168 0
146 166 0
144 165 0
147 167 0
145 165 0
142 163 0
149 169 0
140 161 0
142 162 0
143 163 0
145 165 0
147 167 0
139 160 0
143 164 0
139 159 0
144 164 0
144 164 0
142 162 0
138 158 0
141 161 0
137 157 0
142 162 0
144 164 0
142 162 0
140 160 0
133 153 0
136 156 0
130 150 0
133 152 0
136 155 0
134 154 0
135 155 0
134 153 0
131 150 0
134 153 0
126 145 0
129 149 0
132 151 0
136 154 0
138 157 0
125 145 0
129 149 0
133 152 0
126 146 0
125 144 0
122 140 0
125 143 0
121 139 0
119 137 0
123 141 0
124 141 0
122 139 0
117 134 0
124 141 0
120 137 0
115 130 0
105 121 0
117 133 0
103 119 0
107 123 0
110 126 0
105 122 0
104 118 0
113 129 0
101 117 0
108 124 0
112 128 0
104 120 0
108 125 0
111 127 0
109 125 0
118 135 0
123 140 0
119 137 0
142 161 0
167 190 0
167 190 0
163 186 0
165 187 0
162 184 0
166 188 0
163 187 0
168 191 0
161 184 0
165 188 0
159 181 0
165 187 0
160 183 0
160 183 0
165 187 0
160 184 0
161 185 0
161 184 0
161 184 0
157 179 0
165 188 0
160 183 0
104 125 51
49 78 75
50 80 85
52 83 91
52 83 89
51 81 83
51 81 71
54 86 107
50 80 91
55 87 99
54 85 98
53 84 105
55 87 101
56 88 99
54 86 106
54 85 90
52 83 97
56 88 108
56 89 100
54 85 103
55 87 97
52 83 97
55 87 103
53 84 86
54 87 100
54 86 97
56 88 105
56 88 105
55 87 103
55 88 103
53 84 100
54 85 95
54 86 91
54 86 105
54 86 92
55 87 97
56 89 115
56 88 112
52 83 94
54 86 88
57 91 115
54 87 99
55 87 105
56 89 110
56 89 108
57 90 111
57 89 114
54 86 105
55 88 110
57 90 108
55 88 107
55 87 97
52 83 95
54 86 105
55 87 105
55 87 98
54 86 100
55 88 103
53 84 100
55 88 103
54 86 100
55 86 110
53 84 97
53 84 97
55 86 103
54 85 93
53 85 91
53 85 100
54 86 104
53 84 96
54 85 96
53 85 91
54 86 99
50 80 72
51 81 95
53 85 101
51 82 90
51 81 96
48 77 82
49 77 62
46 74 73
108 129 25
157 178 0
161 183 0
158 181 0
159 182 0
161 183 0
159 182 0
163 186 0
162 184 0
159 182 0
158 181 0
159 182 0
157 180 0
163 186 0
162 185 0
164 188 0
166 189 0
162 185 0
161 185 0
165 188 0
168 191 0
166 189 0
161 183 0
136 155 0
134 152 0
117 134 0
120 137 0
122 139 0
116 132 0
113 128 0
102 117 0
109 125 0
114 130 0
109 126 0
100 115 0
105 121 0
107 123 0
112 128 0
119 134 0
102 118 0
118 136 0
109 125 0
112 128 0
123 141 0
109 126 0
114 132 0
120 137 0
117 134 0
123 140 0
124 141 0
124 141 0
116 134 0
130 149 0
127 146 0
129 146 0
128 147 0
135 154 0
130 150 0
130 149 0
132 151 0
131 151 0
133 152 0
128 147 0
138 157 0
132 152 0
134 155 0
135 155 0
133 152 0
141 160 0
131 152 0
137 156 0
137 157 0
135 155 0
138 158 0
140 160 0
138 158 0
135 155 0
138 158 0
140 160 0
142 161 0
142 162 0
143 164 0
140 160 0
143 163 0
138 157 0
139 159 0
141 161 0
141 161 0
145 165 0
148 168 0
142 162 0
142 162 0
142 161 0
148 168 0
144 164 0
143 162 0
145 166 0
148 169 0
145 165 0
146 166 0
148 169 0
145 165 0
147 168 0
146 167 0
150 171 0
149 169 0
145 165 0
145 165 0
148 169 0
149 169 0
147 167 0
151 171 0
148 168 0
146 167 0
151 171 0
149 169 0
149 170 0
150 171 0
148 169 0
151 171 0
149 170 0
150 171 0
146 168 0
150 170 0
151 171 0
153 172 0
152 173 0
149 170 0
150 171 0
150 170 0
150 170 0
155 175 0
150 170 0
151 172 0
147 169 0
153 174 0
154 174 0
150 172 0
153 173 0
152 173 0
154 174 0
151 172 0
151 172 0
152 172 0
154 174 0
154 175 0
151 172 0
153 174 0
151 171 0
153 174 0
153 174 0
154 175 0
153 175 0
154 175 0
155 176 0
152 172 0
154 175 0
155 175 0
152 173 0
152 174 0
154 175 0
151 173 0
153 173 0
153 173 0
153 174 0
152 173 0
152 173 0
154 175 0
150 172 0
154 175 0
152 173 0
155 176 0
153 173 0
154 174 0
153 173 0
151 172 0
152 173 0
151 172 0
153 175 0
153 173 0
151 171 0
151 171 0
150 172 0
151 171 0
150 170 0
148 169 0
151 172 0
148 168 0
150 171 0
152 172 0
152 172 0
153 174 0
151 171 0
148 169 0
152 172 0
149 170 0
150 171 0
149 170 0
150 170 0
149 170 0
146 167 0
149 169 0
147 167 0
148 167 0
148 168 0
148 169 0
151 172 0
148 168 0
151 170 0
148 168 0
146 167 0
149 169 0
149 170 0
149 168 0
145 165 0
147 167 0
144 165 0
145 165 0
147 167 0
148 168 0
143 163 0
149 169 0
141 162 0
147 168 0
148 167 0
143 163 0
144 164 0
141 162 0
147 167 0
144 164 0
148 169 0
146 166 0
143 163 0
145 165 0
146 166 0
142 162 0
142 162 0
137 156 0
141 161 0
145 164 0
142 162 0
140 160 0
140 160 0
130 149 0
139 159 0
134 154 0
141 161 0
137 157 0
138 157 0
140 160 0
137 156 0
132 150 0
132 151 0
135 155 0
142 160 0
135 154 0
134 153 0
130 148 0
133 152 0
132 152 0
129 148 0
126 144 0
124 142 0
126 145 0
132 150 0
128 146 0
122 141 0
122 141 0
124 142 0
121 140 0
131 149 0
116 134 0
114 132 0
120 138 0
121 138 0
123 140 0
107 124 0
117 133 0
116 133 0
114 130 0
107 124 0
117 134 0
109 125 0
106 122 0
114 130 0
104 121 0
100 116 0
109 124 0
108 124 0
98 114 0
111 127 0
112 127 0
114 131 0
119 135 0
122 139 0
132 150 0
163 186 0
163 186 0
162 185 0
165 188 0
163 185 0
164 186 0
164 186 0
159 182 0
159 181 0
160 182 0
163 185 0
159 180 0
164 187 0
164 187 0
157 179 0
156 179 0
160 183 0
157 179 0
161 183 0
156 179 0
155 178 0
157 181 0
155 177 0
151 174 0
83 106 58
49 77 72
51 80 88
50 80 84
52 83 89
51 82 85
51 82 91
50 80 86
52 82 95
51 81 96
52 83 88
53 84 95
54 85 103
54 86 102
53 84 93
53 84 88
53 84 86
56 89 111
55 88 102
52 83 88
54 85 103
54 85 105
54 86 100
53 84 97
56 89 107
56 89 111
55 87 111
54 86 95
54 85 101
56 89 103
55 88 97
57 90 103
54 87 94
55 87 102
56 88 100
55 87 92
54 86 88
52 84 88
54 86 100
53 84 100
54 86 95
55 87 114
56 88 111
57 89 107
56 89 107
57 89 117
50 80 80
54 86 84
56 88 108
55 87 107
55 88 103
55 87 102
54 86 94
55 87 99
51 82 90
53 84 90
54 86 108
55 88 115
52 83 84
55 88 100
53 84 100
55 86 106
53 84 93
54 85 93
54 85 82
56 88 107
55 87 105
53 85 95
55 86 104
52 83 88
49 79 87
53 85 104
50 79 73
52 83 96
51 82 86
49 78 87
49 77 92
47 75 66
49 77 75
84 107 60
154 176 0
157 180 0
154 176 0
159 182 0
158 180 0
156 178 0
157 179 0
163 185 0
160 184 0
162 185 0
159 182 0
154 177 0
165 186 0
163 185 0
164 187 0
164 188 0
163 186 0
159 181 0
165 187 0
161 185 0
162 185 0
165 187 0
161 183 0
158 180 0
135 154 0
129 146 0
124 141 0
110 128 0
114 130 0
115 131 0
107 123 0
113 129 0
114 130 0
97 113 0
106 122 0
106 121 0
107 123 0
112 128 0
108 125 0
107 123 0
116 131 0
121 138 0
114 130 0
111 129 0
105 122 0
120 138 0
122 140 0
113 131 0
122 140 0
119 138 0
131 150 0
126 144 0
122 140 0
121 139 0
125 143 0
128 146 0
122 141 0
132 151 0
131 150 0
130 149 0
129 149 0
126 145 0
125 144 0
135 154 0
134 153 0
135 155 0
137 156 0
132 152 0
135 155 0
136 155 0
138 157 0
142 162 0
136 155 0
142 161 0
129 149 0
145 165 0
138 157 0
138 158 0
143 163 0
137 157 0
141 161 0
137 156 0
141 160 0
145 164 0
146 166 0
140 160 0
139 160 0
146 166 0
143 163 0
144 164 0
143 163 0
142 162 0
147 168 0
145 165 0
147 166 0
142 163 0
146 167 0
145 164 0
142 162 0
146 166 0
146 167 0
145 165 0
146 167 0
148 168 0
150 170 0
144 165 0
150 170 0
147 167 0
150 169 0
146 166 0
148 168 0
147 168 0
151 172 0
145 165 0
149 169 0
148 169 0
150 171 0
147 167 0
149 169 0
150 170 0
148 168 0
149 169 0
153 173 0
151 171 0
151 172 0
149 169 0
151 171 0
151 172 0
150 171 0
151 172 0
152 173 0
151 172 0
152 173 0
149 170 0
148 170 0
151 172 0
150 171 0
152 173 0
154 174 0
151 172 0
153 174 0
150 170 0
151 173 0
150 170 0
151 172 0
155 175 0
153 173 0
153 173 0
152 173 0
153 174 0
151 172 0
153 174 0
152 173 0
153 173 0
151 172 0
151 171 0
152 173 0
153 174 0
156 176 0
155 175 0
155 176 0
152 173 0
152 173 0
152 173 0
153 174 0
152 172 0
153 174 0
154 175 0
154 175 0
152 172 0
154 175 0
153 174 0
154 175 0
152 173 0
152 173 0
152 173 0
149 170 0
153 173 0
150 171 0
151 172 0
147 168 0
152 173 0
148 169 0
151 172 0
152 173 0
152 172 0
147 168 0
153 174 0
150 171 0
151 172 0
149 170 0
149 170 0
152 172 0
148 169 0
152 172 0
149 169 0
150 171 0
147 167 0
150 170 0
145 166 0
148 168 0
151 171 0
150 170 0
149 170 0
148 169 0
142 162 0
145 165 0
146 166 0
146 166 0
150 170 0
146 167 0
148 168 0
146 166 0
143 164 0
146 166 0
146 167 0
146 166 0
146 166 0
145 166 0
147 167 0
145 165 0
147 168 0
142 162 0
148 168 0
148 167 0
146 166 0
143 163 0
144 164 0
146 167 0
145 165 0
143 163 0
145 165 0
141 160 0
142 162 0
135 155 0
140 160 0
140 160 0
139 159 0
141 161 0
137 156 0
139 159 0
140 159 0
142 162 0
134 153 0
138 158 0
138 157 0
133 153 0
132 152 0
144 163 0
136 155 0
138 157 0
131 151 0
134 153 0
129 148 0
132 150 0
130 148 0
131 150 0
130 149 0
129 147 0
126 144 0
134 153 0
129 147 0
129 147 0
126 144 0
131 149 0
126 145 0
121 139 0
119 137 0
118 135 0
128 145 0
124 142 0
119 136 0
116 134 0
122 139 0
113 131 0
110 127 0
118 136 0
119 135 0
126 143 0
117 133 0
99 114 0
109 125 0
111 127 0
107 123 0
103 119 0
101 116 0
113 128 0
97 113 0
111 127 0
114 129 0
105 121 0
103 119 0
117 134 0
118 134 0
135 153 0
157 177 0
161 183 0
159 181 0
163 185 0
155 177 0
161 183 0
164 186 0
159 181 0
161 183 0
156 178 0
161 183 0
157 179 0
157 181 0
157 179 0
157 179 0
162 185 0
154 176 0
158 180 0
154 176 0
156 178 0
155 178 0
150 171 0
156 179 0
160 183 0
154 176 0
151 173 0
89 111 67
49 78 90
50 79 89
51 80 86
50 79 82
51 81 79
53 84 92
53 84 98
53 84 87
50 81 84
53 85 82
51 81 89
54 86 90
53 85 103
52 83 86
55 86 98
53 85 98
56 89 107
56 88 107
54 86 92
52 83 78
53 85 99
52 83 80
54 86 95
55 87 103
55 86 100
56 88 108
55 86 105
53 84 91
54 85 99
56 88 103
53 85 88
53 85 86
58 91 115
57 89 110
53 85 99
57 90 118
53 84 94
55 87 102
55 87 113
55 86 105
55 88 92
56 89 108
55 88 106
53 85 92
56 88 102
55 87 102
54 86 97
56 89 103
54 86 102
53 85 88
53 85 90
53 84 98
55 87 105
55 86 105
53 85 94
55 87 103
52 83 99
51 82 73
54 86 99
53 84 94
53 84 100
52 84 89
52 82 101
53 84 97
52 82 105
54 86 100
52 83 94
53 84 91
53 84 89
55 86 94
50 80 78
51 81 84
49 79 79
48 77 80
51 80 85
46 74 70
87 108 51
147 170 0
151 173 0
157 180 0
156 179 0
149 170 0
152 174 0
158 182 0
158 181 0
159 183 0
162 185 0
159 182 0
160 183 0
156 178 0
156 179 0
161 184 0
159 181 0
157 179 0
160 183 0
161 183 0
160 181 0
167 190 0
163 185 0
159 182 0
159 181 0
161 182 0
162 183 0
130 147 0
121 138 0
112 128 0
106 123 0
117 133 0
108 123 0
105 121 0
102 117 0
112 127 0
113 128 0
110 125 0
115 131 0
115 131 0
113 130 0
123 140 0
111 128 0
116 132 0
112 128 0
113 129 0
120 136 0
113 130 0
120 137 0
123 140 0
118 134 0
117 134 0
127 145 0
127 145 0
123 140 0
124 142 0
128 147 0
131 149 0
131 150 0
125 143 0
129 148 0
125 143 0
133 152 0
130 149 0
128 147 0
137 157 0
132 151 0
141 159 0
131 151 0
139 158 0
134 153 0
136 156 0
138 158 0
139 159 0
138 157 0
141 160 0
145 164 0
140 159 0
137 157 0
139 158 0
142 162 0
140 159 0
139 159 0
146 167 0
140 160 0
143 163 0
143 163 0
140 160 0
142 162 0
145 165 0
145 165 0
139 159 0
147 167 0
144 165 0
144 164 0
142 162 0
145 166 0
144 164 0
145 165 0
147 167 0
140 160 0
145 165 0
146 166 0
146 166 0
143 164 0
146 167 0
147 168 0
149 169 0
148 168 0
149 170 0
146 166 0
148 168 0
149 170 0
144 164 0
146 166 0
146 167 0
151 172 0
147 167 0
147 168 0
149 170 0
146 167 0
149 169 0
148 169 0
152 172 0
149 170 0
151 171 0
149 169 0
146 167 0
152 172 0
151 171 0
150 171 0
150 170 0
150 171 0
150 171 0
151 172 0
152 173 0
150 170 0
151 172 0
150 170 0
150 171 0
152 173 0
154 174 0
152 173 0
150 171 0
153 173 0
153 174 0
151 172 0
151 172 0
152 173 0
154 174 0
153 173 0
152 172 0
153 173 0
153 173 0
153 173 0
155 175 0
152 173 0
152 173 0
153 174 0
155 176 0
154 174 0
151 172 0
151 172 0
153 173 0
153 173 0
151 172 0
152 173 0
153 173 0
152 172 0
152 173 0
152 172 0
153 174 0
154 174 0
152 172 0
153 173 0
151 172 0
152 172 0
150 170 0
153 173 0
149 170 0
153 174 0
149 169 0
153 174 0
151 171 0
150 170 0
151 171 0
153 173 0
150 170 0
151 171 0
150 170 0
151 172 0
152 172 0
153 174 0
149 169 0
151 171 0
151 171 0
148 169 0
149 169 0
147 168 0
147 167 0
147 167 0
148 168 0
146 166 0
148 169 0
146 167 0
147 166 0
149 169 0
146 166 0
144 165 0
148 169 0
149 169 0
147 167 0
149 170 0
149 168 0
145 165 0
148 169 0
148 168 0
147 167 0
146 166 0
145 165 0
147 167 0
143 163 0
143 163 0
142 162 0
146 165 0
144 164 0
142 163 0
144 165 0
144 164 0
142 162 0
142 162 0
142 162 0
143 163 0
143 163 0
139 159 0
142 162 0
145 165 0
144 164 0
141 160 0
139 159 0
139 159 0
141 160 0
140 159 0
140 160 0
142 162 0
139 159 0
142 161 0
136 154 0
138 158 0
142 162 0
131 150 0
140 160 0
134 152 0
135 154 0
136 156 0
134 153 0
137 156 0
129 148 0
132 151 0
125 144 0
135 154 0
134 153 0
129 147 0
134 153 0
125 143 0
128 147 0
124 142 0
123 141 0
115 133 0
124 142 0
126 143 0
131 148 0
121 139 0
119 136 0
123 141 0
116 132 0
120 136 0
119 135 0
120 136 0
117 133 0
109 125 0
115 131 0
104 120 0
120 136 0
114 130 0
108 123 0
113 130 0
103 118 0
109 124 0
109 124 0
105 121 0
117 134 0
119 135 0
126 142 0
125 142 0
127 145 0
155 177 0
160 182 0
161 183 0
165 186 0
157 180 0
160 182 0
159 181 0
160 182 0
155 176 0
158 180 0
152 175 0
156 179 0
154 175 0
153 175 0
157 179 0
160 182 0
158 180 0
156 178 0
159 181 0
158 181 0
150 172 0
153 175 0
148 170 0
156 178 0
151 173 0
152 173 0
150 171 0
140 162 18
63 87 64
47 74 78
51 81 78
46 75 78
53 84 89
49 79 86
49 78 67
51 82 93
52 83 86
52 83 91
52 83 93
57 89 109
52 83 93
52 83 94
54 85 95
56 89 103
52 83 94
54 85 95
52 83 98
52 83 95
53 85 92
54 87 94
55 87 108
54 85 99
56 88 105
55 86 102
54 86 100
54 87 97
56 89 111
55 88 111
55 87 107
53 84 92
55 87 99
52 83 94
53 84 94
55 88 108
53 85 97
54 87 100
54 86 95
52 83 92
56 88 114
56 88 103
54 86 97
54 86 103
55 87 108
53 85 94
55 87 100
54 86 88
52 84 92
54 85 105
56 88 108
55 87 102
52 83 100
53 85 90
55 86 100
54 86 105
55 87 97
53 85 103
55 87 107
54 85 91
52 82 95
52 84 78
53 84 105
53 84 100
52 83 93
52 83 102
52 83 87
51 81 94
50 80 79
49 78 76
50 80 91
53 84 95
49 79 87
49 78 77
45 72 61
60 84 65
140 163 0
154 176 0
148 171 0
159 182 0
153 175 0
155 177 0
154 175 0
158 180 0
158 180 0
151 173 0
158 181 0
161 184 0
159 181 0
159 181 0
158 179 0
159 181 0
157 179 0
160 182 0
167 190 0
161 184 0
161 183 0
158 181 0
156 178 0
157 179 0
163 186 0
162 184 0
158 180 0
157 178 0
137 155 0
123 141 0
112 127 0
115 132 0
117 133 0
115 130 0
113 129 0
111 127 0
109 125 0
113 129 0
104 120 0
113 129 0
110 126 0
104 120 0
111 126 0
107 123 0
115 132 0
122 138 0
115 132 0
117 132 0
114 132 0
120 137 0
118 135 0
123 141 0
125 143 0
118 135 0
126 144 0
120 139 0
115 132 0
124 143 0
129 147 0
118 135 0
123 142 0
132 151 0
123 142 0
133 152 0
125 143 0
136 155 0
131 149 0
131 150 0
131 149 0
138 158 0
132 151 0
134 153 0
137 157 0
133 152 0
139 158 0
138 157 0
138 157 0
141 161 0
134 153 0
139 159 0
140 160 0
143 163 0
142 161 0
139 159 0
140 159 0
133 153 0
139 159 0
145 165 0
146 165 0
140 160 0
142 162 0
147 166 0
141 160 0
146 165 0
143 164 0
143 164 0
145 165 0
145 164 0
144 164 0
142 161 0
143 163 0
145 164 0
143 162 0
146 166 0
145 166 0
146 166 0
147 168 0
146 166 0
152 172 0
146 167 0
148 168 0
146 166 0
152 173 0
151 172 0
146 166 0
152 173 0
146 166 0
145 166 0
148 168 0
149 170 0
149 169 0
150 170 0
152 172 0
148 168 0
150 170 0
150 171 0
146 166 0
149 170 0
150 170 0
149 169 0
151 172 0
149 170 0
152 172 0
149 170 0
149 169 0
151 171 0
150 171 0
150 171 0
149 169 0
150 171 0
151 171 0
151 172 0
153 173 0
151 172 0
152 172 0
152 173 0
152 173 0
153 173 0
152 172 0
156 176 0
153 174 0
152 173 0
151 172 0
152 173 0
154 175 0
154 175 0
154 175 0
154 175 0
153 174 0
154 175 0
152 173 0
153 174 0
152 173 0
150 171 0
154 174 0
152 173 0
153 175 0
152 172 0
152 173 0
154 174 0
154 175 0
150 171 0
151 172 0
151 171 0
153 173 0
148 169 0
151 171 0
152 173 0
149 170 0
150 170 0
150 170 0
150 171 0
151 171 0
151 171 0
151 171 0
151 172 0
147 168 0
152 172 0
149 169 0
154 174 0
150 170 0
149 170 0
151 171 0
151 172 0
151 172 0
152 172 0
150 170 0
151 171 0
149 170 0
149 169 0
152 172 0
148 168 0
151 171 0
149 169 0
150 170 0
149 169 0
147 167 0
149 168 0
148 168 0
149 169 0
147 167 0
145 165 0
143 164 0
145 165 0
146 166 0
144 164 0
146 167 0
148 168 0
148 168 0
147 167 0
145 166 0
149 169 0
141 161 0
145 165 0
143 162 0
146 166 0
139 159 0
146 166 0
137 156 0
145 164 0
144 163 0
145 165 0
144 163 0
142 161 0
138 158 0
142 161 0
145 165 0
141 161 0
139 158 0
141 161 0
141 160 0
137 157 0
138 157 0
141 160 0
141 162 0
140 159 0
141 161 0
138 158 0
140 160 0
144 163 0
138 157 0
135 154 0
139 160 0
139 158 0
135 154 0
140 159 0
134 152 0
131 149 0
135 154 0
129 147 0
129 146 0
123 141 0
127 146 0
131 148 0
128 147 0
122 140 0
132 150 0
129 148 0
123 141 0
128 145 0
121 137 0
118 134 0
120 138 0
119 135 0
119 136 0
117 133 0
120 137 0
116 132 0
116 133 0
110 127 0
110 126 0
107 123 0
111 127 0
102 117 0
110 125 0
107 122 0
96 112 0
109 124 0
109 124 0
108 123 0
100 115 0
110 125 0
114 130 0
119 135 0
125 143 0
152 173 0
161 183 0
157 179 0
160 181 0
159 181 0
151 173 0
155 176 0
157 179 0
151 171 0
162 184 0
155 176 0
152 174 0
150 172 0
161 183 0
160 181 0
149 170 0
152 173 0
148 170 0
161 184 0
152 173 0
147 168 0
150 172 0
151 172 0
147 169 0
144 166 0
147 169 0
148 170 0
141 164 0
156 178 0
139 160 0
62 86 62
46 73 56
50 79 92
51 81 83
50 80 88
48 77 84
49 79 80
52 84 84
52 82 89
52 83 90
51 82 93
50 79 80
52 82 99
52 82 90
53 84 93
51 82 93
56 87 108
52 83 86
52 83 101
54 86 92
53 85 105
55 87 95
56 88 100
53 85 76
55 88 100
54 86 97
53 84 86
53 84 104
55 87 107
54 86 94
52 83 78
56 89 110
55 87 88
56 89 93
56 89 97
55 87 95
55 88 111
51 82 88
51 82 92
52 84 95
54 86 100
55 88 110
54 86 99
56 88 102
53 85 95
55 87 98
56 89 100
54 86 97
53 85 94
55 87 103
52 84 100
53 84 90
55 88 111
51 82 80
53 85 86
54 85 96
52 83 102
53 85 90
53 85 94
53 84 95
53 85 86
51 82 93
53 84 86
54 85 89
55 87 104
52 83 84
52 83 96
49 79 95
54 85 89
52 82 86
49 78 61
51 81 71
45 72 61
57 82 64
134 154 31
153 175 0
150 172 0
145 165 0
143 165 0
145 167 0
149 171 0
150 171 0
156 177 0
150 172 0
148 169 0
154 177 0
160 181 0
156 178 0
152 173 0
151 173 0
153 175 0
152 174 0
151 172 0
157 179 0
150 172 0
155 178 0
157 178 0
154 175 0
157 178 0
158 179 0
156 178 0
155 178 0
156 177 0
155 176 0
127 143 0
115 130 0
117 134 0
114 130 0
122 138 0
104 120 0
115 131 0
110 125 0
118 133 0
110 125 0
112 128 0
103 119 0
116 132 0
105 120 0
112 127 0
114 131 0
118 134 0
118 135 0
120 136 0
117 133 0
124 140 0
117 134 0
118 135 0
125 142 0
115 132 0
129 146 0
119 136 0
121 139 0
125 142 0
122 139 0
122 140 0
129 148 0
125 143 0
123 140 0
124 141 0
138 156 0
129 147 0
132 150 0
137 156 0
134 153 0
135 154 0
135 155 0
135 154 0
141 160 0
135 154 0
137 156 0
139 157 0
142 162 0
138 157 0
128 147 0
143 163 0
139 159 0
140 159 0
140 159 0
137 156 0
141 160 0
143 163 0
142 162 0
143 162 0
143 163 0
140 160 0
140 159 0
143 163 0
143 162 0
144 164 0
142 161 0
147 167 0
145 165 0
140 159 0
145 164 0
142 161 0
144 164 0
142 162 0
148 168 0
146 166 0
145 165 0
146 166 0
146 166 0
145 164 0
144 164 0
148 168 0
146 167 0
150 169 0
150 170 0
145 166 0
148 168 0
145 165 0
145 165 0
146 166 0
149 168 0
144 165 0
150 169 0
152 172 0
146 166 0
147 168 0
148 168 0
149 169 0
149 169 0
152 172 0
150 171 0
150 171 0
152 173 0
149 170 0
149 169 0
150 171 0
148 169 0
151 172 0
151 172 0
151 172 0
148 168 0
153 173 0
155 175 0
152 173 0
156 176 0
147 168 0
151 172 0
154 174 0
151 171 0
153 173 0
151 171 0
150 171 0
153 174 0
153 173 0
151 172 0
153 173 0
154 174 0
151 172 0
153 174 0
152 172 0
154 175 0
153 174 0
153 174 0
153 174 0
152 173 0
150 170 0
152 172 0
154 174 0
148 169 0
152 173 0
150 171 0
152 174 0
151 172 0
151 171 0
151 172 0
153 173 0
151 172 0
151 171 0
151 172 0
152 173 0
153 173 0
152 172 0
153 173 0
151 171 0
152 172 0
153 173 0
150 171 0
152 173 0
150 171 0
151 170 0
152 173 0
151 171 0
151 171 0
150 171 0
145 165 0
151 171 0
152 173 0
148 168 0
151 171 0
151 170 0
148 168 0
148 168 0
147 167 0
150 170 0
147 167 0
149 169 0
147 167 0
152 172 0
147 167 0
146 167 0
144 164 0
143 163 0
141 161 0
144 163 0
143 163 0
149 169 0
144 165 0
144 163 0
149 168 0
143 164 0
145 164 0
144 164 0
144 164 0
143 163 0
140 160 0
145 164 0
142 162 0
143 162 0
145 166 0
143 162 0
142 161 0
147 166 0
142 162 0
147 168 0
146 165 0
144 163 0
144 164 0
138 158 0
143 162 0
136 155 0
141 160 0
136 155 0
141 160 0
140 159 0
137 156 0
140 160 0
142 161 0
141 161 0
139 158 0
134 152 0
137 156 0
136 155 0
136 154 0
136 155 0
137 156 0
134 153 0
134 152 0
134 152 0
135 152 0
128 146 0
130 148 0
133 151 0
134 152 0
128 146 0
128 146 0
120 138 0
126 144 0
127 143 0
122 139 0
125 143 0
120 137 0
125 142 0
127 145 0
120 138 0
120 137 0
120 138 0
127 144 0
115 130 0
116 133 0
114 130 0
117 133 0
114 130 0
110 126 0
109 124 0
117 133 0
111 125 0
111 127 0
109 124 0
104 119 0
113 128 0
118 134 0
112 127 0
114 129 0
116 131 0
104 120 0
136 152 0
151 172 0
156 176 0
158 178 0
154 176 0
148 167 0
154 175 0
151 171 0
161 183 0
153 175 0
160 182 0
152 173 0
151 172 0
153 174 0
148 169 0
153 175 0
154 175 0
149 171 0
148 170 0
147 170 0
148 170 0
156 177 0
150 172 0
150 172 0
156 178 0
153 175 0
150 171 0
145 167 0
146 168 0
148 170 0
149 171 0
150 172 0
137 158 24
58 84 71
49 78 80
49 78 64
50 79 89
50 80 83
49 78 87
52 82 91
50 80 82
53 84 103
52 82 80
54 85 98
53 84 97
52 83 93
52 84 80
49 79 82
52 84 76
55 87 102
55 87 103
51 82 82
54 86 86
53 84 92
53 85 92
55 87 95
54 86 105
54 85 100
53 84 97
54 86 102
53 84 92
55 87 102
53 84 86
54 86 103
51 82 84
55 87 95
53 84 92
54 85 92
54 86 110
55 87 95
53 84 102
54 86 99
54 85 95
54 85 94
54 85 103
54 85 97
53 84 100
56 89 115
53 85 88
56 88 108
53 85 88
53 85 82
51 82 86
51 81 78
53 84 99
53 85 97
52 83 92
50 80 91
52 82 88
54 85 95
54 86 105
55 87 100
53 84 93
54 85 103
53 84 100
53 85 100
48 77 51
48 76 67
51 81 78
51 80 91
49 78 72
49 77 78
48 77 82
47 75 69
64 89 76
137 158 35
142 163 0
132 152 0
142 164 0
143 164 0
146 167 0
150 171 0
148 170 0
147 168 0
148 169 0
154 176 0
150 172 0
151 172 0
150 171 0
157 178 0
154 176 0
149 170 0
159 180 0
152 173 0
149 170 0
157 179 0
153 174 0
153 174 0
154 175 0
155 176 0
155 177 0
156 177 0
157 177 0
155 175 0
156 178 0
160 181 0
151 171 0
124 141 0
124 140 0
114 130 0
109 125 0
104 118 0
104 118 0
107 122 0
112 127 0
110 125 0
111 127 0
103 118 0
113 130 0
107 123 0
123 140 0
114 129 0
108 123 0
118 135 0
110 126 0
121 138 0
123 139 0
123 139 0
120 138 0
120 135 0
128 146 0
126 144 0
116 134 0
129 147 0
123 140 0
132 149 0
129 147 0
128 146 0
128 146 0
118 135 0
130 149 0
131 149 0
129 148 0
132 150 0
128 146 0
129 148 0
137 157 0
129 148 0
134 153 0
137 154 0
137 156 0
139 158 0
135 154 0
139 158 0
136 154 0
140 159 0
141 161 0
139 159 0
134 153 0
140 159 0
142 161 0
140 160 0
138 158 0
146 165 0
143 162 0
141 160 0
142 161 0
139 159 0
141 162 0
140 159 0
146 165 0
142 161 0
145 165 0
143 161 0
144 163 0
144 164 0
143 162 0
141 161 0
145 165 0
150 169 0
146 166 0
145 164 0
147 166 0
145 165 0
148 167 0
145 165 0
145 164 0
147 167 0
145 165 0
146 166 0
147 167 0
142 161 0
146 166 0
147 167 0
149 169 0
145 165 0
153 173 0
148 168 0
149 170 0
147 166 0
151 171 0
146 166 0
149 169 0
151 172 0
150 170 0
152 171 0
148 169 0
152 172 0
153 173 0
152 173 0
146 166 0
148 168 0
153 173 0
148 169 0
148 168 0
152 172 0
149 169 0
152 172 0
150 170 0
153 173 0
150 171 0
151 171 0
151 172 0
149 169 0
151 171 0
150 171 0
151 171 0
153 173 0
154 174 0
153 174 0
148 169 0
152 173 0
153 174 0
154 175 0
153 174 0
154 174 0
153 173 0
152 173 0
151 171 0
153 173 0
154 175 0
154 175 0
151 171 0
155 176 0
153 172 0
151 172 0
152 173 0
150 171 0
151 171 0
152 172 0
150 171 0
151 171 0
150 170 0
149 169 0
152 173 0
149 170 0
152 172 0
150 170 0
154 174 0
149 170 0
151 172 0
151 171 0
150 169 0
147 167 0
153 174 0
151 171 0
151 171 0
150 171 0
147 168 0
151 172 0
149 169 0
150 171 0
151 170 0
148 168 0
151 171 0
152 172 0
149 168 0
148 168 0
149 169 0
146 165 0
146 166 0
149 169 0
147 167 0
144 163 0
147 167 0
146 166 0
144 164 0
146 166 0
149 169 0
144 165 0
147 167 0
140 159 0
144 163 0
147 166 0
144 164 0
146 166 0
143 162 0
148 168 0
146 166 0
142 163 0
141 162 0
144 163 0
144 163 0
146 165 0
143 163 0
145 164 0
142 161 0
143 163 0
143 163 0
140 159 0
142 162 0
142 160 0
142 161 0
141 160 0
139 158 0
135 154 0
134 153 0
132 152 0
140 160 0
134 154 0
133 151 0
137 157 0
139 159 0
136 156 0
137 155 0
134 152 0
136 155 0
135 153 0
130 147 0
139 158 0
127 146 0
135 153 0
130 147 0
136 155 0
135 153 0
132 149 0
128 146 0
127 145 0
125 143 0
130 148 0
130 147 0
125 143 0
126 144 0
126 144 0
136 155 0
123 141 0
114 131 0
121 138 0
122 139 0
125 142 0
121 138 0
113 129 0
113 129 0
112 127 0
113 129 0
116 133 0
115 131 0
111 126 0
113 128 0
111 127 0
118 133 0
112 127 0
117 132 0
102 116 0
114 129 0
110 126 0
105 120 0
111 126 0
118 133 0
126 142 0
153 173 0
152 173 0
153 174 0
158 180 0
158 179 0
156 177 0
146 165 0
150 171 0
142 162 0
155 176 0
147 167 0
151 173 0
147 169 0
158 179 0
156 177 0
151 171 0
153 174 0
146 165 0
149 170 0
145 165 0
145 165 0
147 168 0
144 164 0
139 160 0
144 166 0
138 158 0
142 163 0
146 167 0
138 158 0
144 165 0
138 159 0
134 156 0
143 165 0
136 157 0
62 85 60
46 73 73
48 77 73
49 78 82
51 80 80
49 79 73
52 82 92
52 82 86
52 82 100
52 83 100
51 82 80
53 84 86
52 83 92
51 82 86
52 84 84
49 79 75
53 84 98
52 83 95
54 85 94
54 85 99
54 85 105
54 85 105
51 82 84
57 90 119
54 85 102
55 88 108
51 81 90
53 85 88
51 82 88
52 83 84
54 86 92
54 85 100
53 85 88
54 86 99
49 78 80
52 84 86
50 81 82
56 88 107
51 82 76
54 85 90
54 85 103
54 85 99
50 80 88
50 79 88
50 80 78
51 81 82
52 83 88
53 85 93
51 82 90
54 86 97
54 86 96
51 81 78
51 82 90
51 82 84
55 87 93
54 85 100
54 85 103
51 81 87
50 80 86
52 82 84
52 83 87
49 79 76
52 83 89
52 83 91
51 81 89
49 79 86
50 80 84
49 79 71
47 76 69
66 88 66
125 145 36
144 165 0
143 164 0
141 163 0
148 170 0
141 161 0
147 168 0
142 163 0
152 172 0
146 168 0
148 168 0
146 167 0
144 165 0
147 168 0
149 170 0
153 175 0
146 167 0
143 163 0
156 178 0
146 168 0
155 177 0
152 173 0
144 164 0
147 168 0
149 169 0
152 173 0
146 167 0
152 172 0
158 179 0
154 174 0
152 171 0
158 179 0
153 173 0
155 175 0
128 146 0
110 126 0
110 126 0
113 128 0
109 125 0
111 126 0
101 115 0
114 129 0
118 134 0
104 119 0
111 127 0
108 123 0
115 130 0
120 137 0
106 121 0
110 125 0
115 132 0
122 139 0
112 128 0
113 130 0
121 137 0
121 138 0
122 139 0
123 141 0
124 141 0
131 148 0
129 146 0
129 147 0
124 141 0
134 151 0
132 150 0
124 142 0
134 153 0
135 154 0
129 147 0
127 145 0
133 152 0
132 151 0
137 156 0
131 149 0
136 154 0
132 150 0
136 154 0
136 155 0
134 153 0
137 156 0
142 161 0
135 153 0
141 160 0
134 153 0
141 161 0
142 161 0
136 155 0
141 159 0
146 164 0
139 157 0
142 162 0
140 159 0
142 162 0
141 160 0
140 159 0
142 161 0
144 162 0
147 166 0
145 164 0
144 163 0
134 153 0
138 157 0
144 164 0
138 157 0
149 169 0
147 166 0
143 162 0
147 166 0
141 161 0
148 168 0
145 165 0
146 166 0
147 167 0
143 163 0
148 168 0
150 170 0
148 168 0
148 168 0
150 170 0
152 172 0
144 164 0
146 167 0
144 164 0
148 168 0
150 170 0
149 169 0
146 166 0
151 171 0
151 170 0
148 168 0
151 172 0
148 169 0
151 172 0
148 169 0
149 171 0
148 168 0
153 173 0
148 170 0
147 167 0
149 169 0
151 172 0
151 171 0
151 171 0
150 170 0
151 172 0
151 171 0
153 173 0
152 171 0
147 167 0
152 171 0
150 170 0
151 171 0
149 170 0
153 172 0
150 170 0
149 170 0
152 173 0
152 173 0
152 173 0
154 174 0
152 173 0
153 173 0
148 169 0
151 171 0
153 173 0
154 175 0
153 173 0
153 174 0
152 173 0
152 173 0
151 172 0
149 171 0
151 172 0
152 171 0
152 172 0
151 172 0
148 169 0
151 172 0
153 173 0
151 171 0
152 172 0
148 169 0
152 173 0
149 170 0
151 170 0
148 168 0
151 171 0
152 172 0
150 170 0
151 171 0
151 171 0
149 169 0
151 171 0
146 166 0
146 167 0
152 172 0
151 171 0
150 170 0
145 165 0
150 170 0
148 168 0
149 169 0
147 166 0
148 168 0
152 173 0
145 165 0
146 165 0
148 168 0
144 165 0
142 161 0
144 164 0
148 168 0
149 169 0
146 166 0
146 166 0
148 168 0
143 164 0
143 163 0
144 164 0
140 160 0
145 165 0
146 165 0
145 164 0
150 169 0
150 170 0
144 164 0
143 162 0
141 160 0
147 166 0
143 162 0
144 164 0
142 161 0
139 158 0
146 165 0
138 157 0
140 159 0
143 162 0
138 157 0
140 160 0
141 160 0
140 159 0
145 164 0
142 161 0
137 156 0
141 160 0
139 158 0
138 158 0
135 153 0
135 153 0
137 156 0
136 156 0
139 157 0
134 153 0
136 155 0
133 152 0
138 157 0
131 150 0
126 144 0
126 143 0
136 154 0
127 144 0
131 149 0
131 149 0
132 150 0
130 149 0
133 151 0
126 144 0
124 141 0
117 134 0
126 144 0
125 143 0
123 140 0
122 139 0
117 134 0
126 143 0
126 143 0
114 130 0
116 132 0
115 131 0
109 125 0
116 132 0
120 136 0
111 126 0
110 126 0
108 124 0
110 126 0
104 119 0
112 127 0
113 128 0
109 124 0
118 133 0
117 132 0
106 121 0
120 135 0
126 142 0
148 167 0
153 174 0
150 171 0
151 172 0
153 173 0
150 169 0
150 171 0
149 169 0
152 173 0
150 170 0
146 166 0
153 173 0
147 168 0
150 171 0
150 170 0
146 167 0
152 172 0
147 169 0
145 166 0
145 166 0
147 168 0
146 166 0
145 166 0
142 162 0
151 171 0
137 158 0
146 167 0
135 155 0
138 158 0
142 163 0
134 154 0
138 158 0
139 160 0
134 156 0
134 155 0
129 150 31
68 92 53
47 75 72
48 77 60
48 77 71
50 80 80
48 76 75
51 80 89
48 77 68
50 79 71
51 82 86
51 81 91
51 82 88
49 79 84
54 85 95
53 84 82
53 84 90
51 82 88
52 83 94
53 84 103
55 87 108
52 83 103
53 84 88
51 82 84
54 85 78
51 81 86
54 86 97
51 82 80
54 86 92
52 83 86
55 86 110
49 80 72
50 81 74
54 85 99
52 84 78
50 80 86
53 84 92
54 86 94
53 85 88
51 81 78
54 85 99
53 84 86
51 82 76
54 85 86
54 85 105
53 84 94
53 84 95
54 85 101
55 87 102
51 81 92
52 82 88
52 83 91
54 85 99
51 82 100
51 81 82
51 82 84
53 84 93
53 84 94
51 82 91
51 82 96
49 78 78
51 81 94
50 80 75
48 76 88
47 76 80
52 83 82
48 77 77
48 77 74
66 89 59
128 147 18
128 149 0
130 151 0
146 167 0
141 162 0
138 158 0
138 157 0
150 171 0
142 162 0
143 163 0
141 163 0
137 158 0
148 169 0
141 161 0
145 165 0
142 162 0
141 160 0
149 171 0
145 165 0
144 165 0
149 170 0
151 172 0
148 169 0
157 178 0
147 168 0
153 174 0
145 166 0
148 169 0
151 172 0
152 173 0
158 178 0
150 169 0
150 171 0
154 176 0
161 181 0
143 162 0
121 137 0
113 128 0
116 131 0
112 127 0
105 119 0
117 132 0
106 121 0
106 121 0
104 119 0
100 116 0
118 132 0
116 132 0
117 132 0
115 131 0
116 131 0
109 125 0
119 136 0
121 137 0
118 134 0
124 141 0
114 130 0
115 132 0
114 131 0
121 138 0
128 145 0
125 142 0
123 139 0
128 145 0
126 144 0
132 150 0
126 144 0
125 142 0
127 144 0
128 146 0
124 142 0
132 149 0
132 150 0
134 153 0
133 151 0
131 150 0
137 155 0
127 145 0
137 155 0
132 150 0
140 158 0
134 153 0
134 152 0
143 162 0
129 148 0
137 155 0
138 156 0
134 153 0
140 158 0
140 159 0
146 164 0
143 162 0
138 158 0
139 158 0
137 157 0
139 158 0
143 162 0
139 159 0
139 158 0
142 162 0
144 164 0
142 161 0
142 161 0
143 162 0
141 160 0
148 168 0
146 166 0
141 160 0
145 165 0
145 165 0
143 162 0
145 165 0
150 170 0
144 163 0
144 163 0
146 166 0
144 163 0
145 165 0
144 165 0
146 166 0
148 169 0
146 166 0
148 168 0
148 168 0
149 169 0
144 164 0
147 167 0
148 168 0
149 169 0
149 170 0
149 168 0
145 165 0
151 172 0
150 170 0
149 168 0
150 170 0
148 168 0
150 171 0
146 166 0
147 167 0
150 171 0
152 172 0
151 171 0
149 169 0
147 167 0
154 174 0
149 169 0
153 174 0
151 171 0
151 171 0
152 172 0
153 174 0
152 171 0
153 174 0
153 173 0
153 172 0
151 172 0
151 172 0
149 170 0
151 171 0
152 173 0
153 173 0
152 172 0
150 170 0
151 173 0
152 173 0
154 175 0
151 172 0
152 172 0
151 171 0
152 171 0
151 171 0
153 173 0
149 170 0
151 171 0
152 172 0
152 172 0
151 172 0
150 170 0
150 170 0
149 170 0
150 170 0
152 172 0
149 170 0
151 171 0
152 173 0
153 173 0
149 169 0
151 171 0
149 169 0
152 171 0
153 173 0
149 170 0
149 169 0
147 167 0
151 171 0
150 171 0
150 170 0
152 172 0
150 171 0
149 169 0
150 171 0
147 167 0
145 165 0
149 168 0
152 172 0
151 171 0
147 166 0
146 167 0
147 167 0
143 162 0
149 168 0
145 164 0
147 167 0
146 165 0
143 162 0
148 168 0
144 164 0
145 164 0
147 167 0
144 164 0
142 162 0
147 167 0
142 162 0
144 163 0
143 162 0
143 162 0
139 158 0
142 161 0
144 164 0
143 163 0
138 157 0
146 166 0
139 158 0
143 162 0
136 155 0
141 160 0
144 162 0
146 165 0
142 161 0
138 157 0
142 161 0
140 159 0
137 156 0
135 155 0
135 153 0
138 157 0
136 155 0
136 154 0
138 157 0
139 158 0
128 146 0
136 155 0
135 154 0
136 155 0
135 154 0
128 146 0
133 151 0
133 152 0
130 148 0
132 150 0
122 140 0
124 141 0
127 145 0
127 145 0
128 145 0
128 145 0
126 143 0
130 147 0
121 138 0
125 142 0
126 143 0
122 138 0
125 142 0
114 131 0
113 129 0
109 125 0
115 131 0
120 137 0
116 133 0
118 134 0
118 134 0
108 123 0
116 131 0
113 128 0
105 120 0
109 124 0
110 125 0
112 126 0
115 130 0
113 128 0
109 123 0
114 129 0
108 123 0
130 146 0
150 170 0
152 172 0
148 167 0
152 171 0
155 175 0
152 171 0
145 166 0
143 162 0
153 174 0
143 162 0
146 167 0
150 170 0
144 164 0
145 164 0
146 166 0
149 170 0
146 166 0
141 161 0
139 158 0
134 154 0
148 169 0
143 163 0
136 157 0
140 160 0
144 164 0
130 151 0
136 156 0
141 161 0
146 166 0
149 171 0
135 154 0
138 159 0
134 155 0
132 152 0
132 151 0
135 155 0
123 142 0
124 143 16
71 93 63
45 73 61
46 73 74
50 79 78
48 76 65
48 77 72
52 82 76
48 78 80
49 77 78
51 82 86
51 82 76
51 82 90
50 80 95
52 83 86
52 83 86
52 83 88
52 83 88
52 83 100
52 83 86
53 84 94
52 82 95
53 83 94
50 80 78
50 80 84
51 82 67
52 83 88
55 86 100
52 83 84
54 86 88
52 82 80
53 84 99
51 81 95
54 85 97
52 82 95
53 84 92
52 84 88
52 83 84
52 83 100
49 79 72
54 85 84
51 82 91
53 84 92
54 86 97
54 85 94
54 85 99
54 86 95
52 82 93
53 84 90
52 82 91
53 84 91
53 85 86
52 83 86
50 79 78
50 81 69
52 82 91
52 82 89
51 80 82
51 81 84
51 81 90
48 77 54
49 78 84
49 79 76
46 73 59
47 75 71
46 74 56
94 114 61
128 147 0
124 144 0
138 159 0
139 159 0
131 151 0
143 163 0
131 151 0
140 161 0
139 159 0
146 167 0
139 159 0
138 157 0
136 156 0
141 161 0
137 157 0
132 153 0
146 166 0
141 161 0
139 158 0
140 161 0
139 159 0
145 164 0
146 166 0
149 170 0
152 172 0
149 168 0
143 163 0
149 169 0
147 167 0
142 161 0
148 169 0
149 169 0
144 164 0
146 165 0
151 171 0
147 166 0
145 165 0
152 172 0
137 154 0
119 134 0
115 130 0
113 128 0
105 120 0
108 122 0
106 120 0
105 120 0
115 131 0
115 130 0
110 125 0
122 138 0
112 127 0
116 131 0
116 132 0
107 123 0
124 140 0
112 127 0
119 135 0
120 138 0
122 139 0
122 138 0
123 140 0
123 141 0
128 145 0
133 151 0
111 128 0
127 144 0
128 144 0
127 145 0
121 137 0
129 147 0
127 145 0
125 142 0
129 146 0
135 153 0
137 155 0
131 149 0
134 152 0
138 157 0
133 152 0
133 152 0
133 151 0
135 154 0
141 160 0
136 155 0
136 154 0
141 159 0
137 155 0
141 160 0
138 157 0
135 154 0
141 160 0
142 161 0
133 152 0
139 157 0
137 157 0
144 164 0
142 161 0
140 159 0
142 160 0
141 161 0
138 157 0
144 163 0
144 163 0
139 157 0
144 164 0
141 161 0
146 165 0
141 161 0
145 164 0
137 157 0
146 165 0
143 163 0
150 169 0
145 165 0
145 164 0
145 165 0
145 165 0
146 166 0
143 163 0
146 166 0
145 164 0
149 169 0
146 166 0
145 164 0
149 169 0
145 165 0
148 168 0
149 169 0
150 171 0
150 170 0
148 169 0
149 169 0
148 168 0
150 170 0
148 168 0
148 169 0
147 167 0
152 173 0
147 167 0
150 170 0
151 171 0
149 169 0
149 170 0
149 170 0
153 173 0
151 171 0
150 169 0
151 171 0
151 171 0
150 171 0
148 169 0
152 172 0
150 170 0
151 171 0
150 170 0
147 167 0
151 171 0
152 172 0
148 169 0
152 172 0
151 173 0
154 173 0
153 173 0
153 173 0
151 172 0
151 171 0
155 175 0
150 171 0
153 173 0
153 174 0
150 171 0
153 174 0
152 172 0
152 172 0
151 171 0
147 167 0
149 170 0
150 170 0
153 173 0
151 171 0
152 172 0
148 169 0
151 172 0
152 173 0
149 169 0
151 171 0
149 170 0
149 168 0
150 170 0
152 172 0
151 172 0
148 168 0
150 169 0
149 170 0
149 170 0
147 166 0
145 165 0
150 170 0
146 166 0
153 173 0
149 169 0
146 166 0
147 166 0
148 167 0
145 165 0
146 166 0
147 167 0
147 167 0
147 167 0
151 171 0
145 165 0
146 164 0
150 169 0
145 164 0
150 171 0
146 166 0
147 166 0
144 163 0
143 162 0
148 167 0
147 166 0
148 167 0
145 165 0
145 165 0
147 166 0
139 159 0
142 161 0
140 159 0
137 156 0
141 159 0
145 164 0
142 161 0
146 165 0
143 161 0
141 160 0
138 156 0
139 156 0
138 157 0
143 162 0
142 160 0
141 159 0
137 156 0
139 157 0
139 157 0
139 158 0
141 160 0
142 161 0
141 160 0
136 155 0
138 157 0
139 157 0
136 155 0
133 151 0
136 154 0
137 154 0
135 153 0
131 149 0
133 152 0
128 145 0
133 151 0
126 144 0
131 149 0
131 149 0
129 147 0
131 150 0
128 144 0
125 142 0
130 148 0
133 151 0
131 149 0
121 137 0
127 145 0
122 139 0
125 143 0
121 138 0
126 143 0
119 135 0
111 126 0
116 131 0
127 143 0
114 129 0
107 122 0
107 122 0
120 136 0
111 127 0
115 130 0
110 124 0
107 121 0
106 120 0
109 124 0
113 126 0
108 121 0
101 115 0
112 127 0
133 150 0
147 166 0
150 171 0
143 163 0
145 164 0
143 163 0
132 150 0
149 169 0
140 160 0
136 155 0
144 164 0
144 163 0
141 160 0
138 158 0
148 168 0
133 153 0
142 161 0
142 162 0
138 157 0
148 168 0
137 156 0
137 158 0
139 159 0
130 149 0
141 161 0
135 155 0
144 162 0
139 158 0
134 154 0
134 155 0
136 155 0
140 159 0
123 142 0
137 158 0
121 140 0
132 152 0
138 157 0
127 145 0
133 152 0
130 148 0
130 149 0
83 104 53
46 73 74
45 73 61
48 76 78
49 77 91
50 80 82
48 76 75
50 79 80
52 83 94
52 82 94
50 80 86
49 78 65
51 81 86
51 82 76
52 83 95
49 79 78
52 83 84
52 82 90
53 84 100
52 84 86
50 80 76
52 84 84
53 84 90
51 81 90
50 81 69
50 79 78
52 83 84
53 84 90
51 81 84
52 84 94
49 79 76
54 85 90
52 83 88
49 79 72
55 86 100
51 81 90
51 82 92
51 81 80
50 81 91
52 82 86
51 82 72
51 81 88
53 85 90
53 83 94
51 81 82
53 84 91
51 81 72
51 81 82
51 82 90
50 79 90
51 82 90
49 78 70
49 78 78
52 83 82
49 78 80
49 79 86
52 83 86
44 71 71
50 79 80
50 79 76
46 74 53
47 75 76
47 75 69
101 121 44
129 149 0
126 145 0
135 155 0
125 145 0
128 147 0
125 145 0
140 159 0
134 154 0
127 146 0
135 156 0
135 155 0
133 153 0
130 150 0
140 160 0
127 146 0
137 156 0
132 152 0
143 163 0
142 162 0
144 163 0
142 162 0
142 163 0
149 169 0
139 160 0
139 159 0
135 154 0
146 165 0
144 163 0
139 158 0
146 166 0
148 167 0
148 167 0
150 169 0
152 171 0
154 173 0
139 158 0
150 169 0
150 170 0
145 164 0
148 166 0
133 150 0
119 134 0
103 117 0
108 121 0
117 132 0
117 132 0
115 130 0
102 117 0
109 124 0
108 123 0
116 132 0
118 134 0
114 129 0
107 122 0
114 129 0
119 135 0
119 135 0
114 129 0
123 140 0
108 124 0
119 135 0
130 148 0
122 139 0
127 144 0
121 138 0
121 137 0
127 145 0
119 135 0
127 145 0
135 153 0
121 138 0
134 152 0
128 146 0
126 144 0
133 151 0
134 151 0
133 152 0
127 145 0
133 150 0
136 154 0
136 153 0
136 155 0
140 159 0
140 158 0
139 156 0
132 149 0
136 154 0
138 157 0
130 149 0
137 156 0
143 161 0
140 160 0
139 158 0
138 157 0
137 156 0
138 158 0
139 158 0
142 161 0
141 160 0
143 162 0
140 159 0
137 156 0
144 163 0
142 161 0
143 161 0
144 164 0
143 162 0
145 164 0
144 163 0
146 166 0
141 160 0
143 162 0
143 163 0
144 164 0
144 163 0
149 169 0
142 162 0
145 165 0
147 166 0
145 165 0
144 164 0
148 169 0
146 165 0
147 166 0
147 166 0
149 169 0
151 170 0
147 167 0
145 165 0
147 166 0
146 166 0
144 164 0
147 167 0
146 166 0
148 168 0
144 164 0
149 168 0
149 169 0
148 167 0
148 169 0
149 169 0
151 171 0
149 169 0
151 171 0
148 168 0
151 172 0
148 168 0
150 170 0
149 169 0
151 172 0
149 168 0
151 171 0
150 171 0
150 170 0
149 168 0
150 170 0
151 172 0
149 169 0
150 170 0
148 168 0
153 172 0
154 175 0
152 172 0
150 170 0
152 172 0
150 171 0
150 170 0
152 172 0
151 172 0
149 170 0
153 173 0
150 171 0
148 168 0
153 173 0
153 173 0
149 169 0
150 170 0
152 173 0
148 169 0
151 171 0
151 172 0
148 169 0
149 169 0
148 168 0
153 173 0
149 169 0
153 173 0
151 171 0
150 170 0
148 169 0
149 169 0
147 167 0
147 166 0
150 170 0
150 169 0
148 169 0
148 167 0
152 172 0
148 168 0
147 167 0
150 170 0
147 167 0
147 167 0
146 166 0
151 170 0
145 164 0
147 168 0
148 168 0
147 167 0
147 166 0
150 168 0
147 166 0
147 167 0
147 167 0
145 164 0
147 165 0
146 166 0
145 163 0
144 164 0
147 166 0
147 167 0
145 165 0
143 162 0
138 158 0
141 159 0
146 165 0
142 161 0
144 163 0
140 159 0
142 161 0
143 162 0
142 161 0
147 166 0
141 160 0
144 164 0
140 160 0
141 160 0
136 154 0
143 161 0
142 160 0
137 156 0
135 153 0
138 157 0
142 161 0
135 153 0
137 155 0
135 154 0
129 148 0
131 148 0
134 152 0
130 148 0
139 157 0
132 151 0
132 150 0
134 152 0
139 157 0
136 154 0
130 148 0
127 146 0
134 153 0
131 149 0
127 146 0
131 149 0
132 150 0
127 144 0
126 144 0
127 144 0
120 137 0
127 143 0
117 134 0
121 138 0
125 142 0
120 135 0
116 132 0
118 134 0
118 134 0
122 138 0
122 138 0
118 133 0
118 134 0
117 133 0
116 132 0
110 125 0
107 122 0
110 125 0
112 128 0
105 120 0
107 121 0
115 130 0
113 126 0
101 115 0
107 120 0
114 128 0
117 131 0
134 150 0
146 164 0
140 158 0
146 164 0
143 162 0
136 155 0
137 156 0
142 160 0
136 154 0
134 153 0
139 159 0
144 163 0
148 167 0
137 156 0
134 154 0
149 169 0
132 151 0
139 158 0
137 156 0
144 163 0
136 155 0
146 166 0
140 159 0
127 146 0
142 162 0
136 155 0
144 164 0
135 154 0
137 157 0
144 164 0
133 153 0
128 147 0
122 140 0
134 153 0
130 149 0
128 146 0
134 153 0
123 141 0
118 135 0
127 146 0
119 139 0
118 137 0
113 131 0
103 121 25
57 82 72
46 74 76
47 75 57
46 75 72
47 76 74
50 79 84
51 81 88
48 76 69
51 81 88
50 80 80
50 80 86
50 80 82
52 83 90
54 86 88
49 79 86
50 80 74
52 83 86
52 82 88
51 81 82
50 80 86
52 83 91
53 84 90
53 84 90
52 83 92
51 82 88
49 79 86
53 84 92
52 83 90
52 83 80
53 84 95
53 83 90
52 83 84
48 76 76
54 85 99
53 84 90
52 83 95
52 83 74
55 87 99
53 84 94
52 83 80
51 82 76
52 82 84
51 82 78
51 82 86
48 77 72
51 82 78
51 81 82
50 79 76
53 84 90
52 83 82
50 80 82
50 79 84
49 79 82
48 77 67
46 74 63
50 80 86
50 79 71
49 78 97
43 70 57
47 73 58
102 121 25
114 132 0
127 146 0
119 138 0
129 148 0
135 154 0
130 149 0
125 144 0
125 145 0
136 156 0
133 153 0
130 150 0
133 152 0
129 149 0
121 140 0
132 152 0
133 153 0
133 153 0
145 163 0
137 156 0
146 165 0
133 153 0
127 146 0
136 155 0
143 162 0
142 161 0
136 155 0
134 153 0
136 155 0
143 161 0
131 149 0
147 165 0
144 164 0
143 161 0
144 162 0
153 170 0
146 163 0
145 164 0
148 168 0
139 157 0
150 170 0
141 159 0
140 159 0
139 156 0
116 131 0
101 115 0
104 118 0
107 121 0
114 129 0
102 115 0
102 117 0
111 126 0
107 123 0
106 121 0
108 123 0
118 133 0
115 129 0
125 141 0
120 135 0
114 130 0
117 132 0
120 137 0
123 140 0
126 142 0
124 140 0
126 144 0
124 140 0
125 141 0
120 136 0
125 141 0
118 135 0
131 150 0
127 144 0
121 138 0
133 151 0
127 145 0
125 142 0
131 149 0
126 144 0
138 155 0
131 150 0
136 154 0
131 149 0
134 153 0
136 154 0
139 157 0
139 157 0
137 155 0
136 155 0
140 158 0
138 157 0
135 153 0
142 161 0
137 154 0
139 157 0
138 156 0
142 161 0
140 159 0
143 161 0
139 157 0
143 163 0
141 161 0
140 161 0
142 161 0
147 165 0
141 160 0
144 163 0
144 163 0
145 164 0
147 167 0
143 163 0
145 164 0
142 161 0
147 166 0
142 161 0
144 164 0
148 167 0
145 164 0
144 164 0
146 166 0
148 168 0
147 168 0
144 163 0
141 161 0
144 164 0
145 165 0
146 165 0
147 167 0
145 165 0
148 168 0
146 165 0
146 165 0
149 169 0
149 169 0
147 166 0
151 170 0
147 166 0
149 168 0
145 165 0
144 164 0
148 168 0
149 169 0
150 169 0
146 167 0
146 167 0
151 170 0
150 170 0
148 168 0
149 168 0
149 169 0
150 171 0
149 169 0
150 169 0
149 168 0
151 171 0
149 169 0
148 168 0
151 171 0
151 170 0
153 173 0
150 171 0
152 172 0
151 172 0
149 170 0
153 173 0
150 171 0
149 170 0
153 172 0
153 173 0
152 172 0
151 171 0
152 172 0
151 171 0
152 171 0
151 172 0
152 172 0
150 170 0
153 172 0
149 169 0
151 171 0
149 170 0
151 171 0
151 171 0
153 173 0
150 170 0
150 170 0
152 173 0
150 170 0
148 168 0
149 169 0
150 170 0
147 166 0
148 168 0
150 170 0
148 168 0
148 167 0
146 166 0
147 168 0
151 171 0
147 166 0
151 170 0
146 166 0
150 170 0
144 164 0
146 166 0
148 168 0
146 166 0
148 167 0
148 169 0
145 164 0
148 168 0
145 165 0
146 165 0
148 167 0
148 167 0
144 162 0
147 166 0
145 164 0
145 165 0
141 160 0
141 160 0
141 160 0
145 165 0
143 162 0
143 162 0
144 164 0
143 162 0
144 162 0
144 163 0
142 161 0
142 161 0
138 157 0
143 161 0
143 162 0
144 163 0
132 151 0
140 159 0
140 159 0
142 160 0
141 160 0
142 161 0
140 159 0
140 159 0
138 156 0
133 151 0
141 159 0
138 156 0
135 153 0
134 152 0
140 159 0
142 160 0
135 153 0
133 150 0
133 151 0
137 156 0
135 152 0
134 152 0
133 151 0
137 155 0
123 139 0
127 144 0
130 148 0
128 145 0
129 146 0
137 155 0
127 144 0
125 143 0
123 139 0
123 142 0
131 147 0
126 143 0
130 147 0
122 138 0
128 146 0
130 147 0
121 137 0
124 141 0
115 131 0
109 124 0
119 135 0
111 127 0
113 128 0
114 129 0
111 126 0
112 127 0
102 117 0
115 129 0
109 124 0
115 129 0
99 114 0
103 118 0
101 115 0
113 127 0
111 125 0
113 127 0
138 155 0
138 157 0
142 160 0
145 162 0
137 154 0
129 147 0
144 162 0
141 159 0
126 144 0
138 155 0
133 150 0
139 157 0
135 154 0
146 165 0
135 153 0
143 163 0
126 144 0
131 151 0
131 150 0
129 147 0
137 157 0
139 158 0
135 154 0
138 157 0
138 157 0
132 151 0
138 158 0
134 152 0
133 152 0
129 149 0
130 150 0
139 159 0
135 155 0
121 140 0
119 139 0
117 135 0
125 143 0
127 146 0
124 142 0
125 144 0
114 133 0
119 138 0
119 136 0
122 140 0
110 129 0
109 127 25
69 89 51
44 71 60
50 79 93
47 75 70
48 76 76
48 76 72
48 77 80
47 75 82
50 79 86
50 80 84
52 82 89
50 79 74
51 81 76
52 82 86
53 84 88
52 84 86
50 80 82
50 80 88
50 80 70
50 81 86
49 79 67
53 85 100
53 85 88
53 83 100
50 80 84
49 79 76
50 80 90
52 82 82
50 80 82
53 85 82
53 84 92
52 83 92
51 82 84
51 82 76
51 81 82
50 81 86
52 82 80
51 81 91
51 82 72
51 81 78
49 78 90
49 79 86
50 80 90
51 81 78
51 81 84
51 82 86
50 79 78
49 78 68
50 81 72
47 76 74
51 80 96
48 78 76
49 78 80
46 74 84
46 74 58
44 70 62
42 68 67
65 86 40
111 129 25
117 136 0
123 142 0
114 133 0
112 131 0
118 137 0
125 144 0
114 133 0
127 146 0
124 143 0
125 145 0
130 148 0
121 140 0
133 152 0
143 163 0
128 148 0
136 155 0
131 150 0
129 148 0
131 150 0
144 163 0
132 153 0
138 157 0
136 154 0
129 147 0
132 149 0
130 149 0
135 153 0
144 162 0
141 159 0
146 165 0
134 152 0
133 151 0
137 156 0
134 152 0
143 161 0
141 159 0
141 160 0
136 154 0
134 151 0
138 156 0
144 163 0
142 160 0
141 159 0
142 160 0
146 164 0
121 136 0
109 124 0
114 128 0
108 122 0
105 120 0
105 118 0
107 120 0
109 124 0
108 122 0
118 132 0
116 130 0
111 126 0
115 131 0
118 133 0
121 137 0
119 135 0
120 136 0
111 126 0
118 134 0
124 139 0
121 138 0
120 136 0
121 137 0
127 144 0
125 141 0
122 140 0
125 142 0
124 141 0
126 143 0
131 149 0
124 141 0
132 149 0
132 150 0
133 151 0
128 145 0
134 152 0
128 146 0
127 145 0
137 155 0
125 143 0
131 150 0
138 156 0
136 154 0
136 154 0
135 154 0
138 156 0
133 152 0
135 154 0
137 155 0
141 159 0
136 155 0
143 162 0
140 159 0
147 165 0
139 158 0
135 154 0
142 160 0
141 160 0
144 163 0
141 160 0
141 160 0
137 156 0
137 155 0
144 162 0
145 165 0
140 159 0
140 159 0
139 158 0
143 162 0
145 165 0
146 165 0
139 158 0
145 165 0
146 166 0
141 160 0
142 162 0
143 163 0
144 163 0
145 164 0
145 164 0
148 167 0
146 165 0
146 165 0
146 165 0
147 166 0
148 167 0
145 165 0
149 169 0
142 161 0
147 167 0
149 168 0
151 170 0
151 170 0
148 168 0
148 168 0
145 166 0
148 167 0
148 167 0
149 170 0
152 171 0
146 166 0
147 166 0
146 166 0
151 170 0
148 168 0
149 169 0
149 169 0
148 168 0
150 169 0
149 169 0
152 171 0
149 169 0
149 169 0
152 172 0
148 168 0
150 171 0
152 172 0
148 169 0
152 171 0
151 171 0
152 172 0
153 173 0
149 169 0
154 174 0
151 172 0
151 171 0
152 173 0
153 173 0
151 171 0
152 172 0
151 171 0
151 171 0
152 171 0
149 168 0
151 171 0
151 170 0
153 172 0
150 170 0
150 169 0
150 170 0
148 169 0
146 167 0
150 170 0
150 170 0
151 171 0
149 168 0
149 169 0
151 171 0
148 167 0
149 169 0
149 169 0
148 167 0
148 167 0
149 169 0
145 165 0
149 168 0
142 162 0
151 171 0
151 171 0
146 165 0
145 165 0
141 161 0
150 170 0
149 167 0
141 161 0
146 165 0
146 165 0
146 165 0
143 163 0
147 167 0
144 163 0
143 163 0
147 166 0
147 166 0
143 162 0
142 161 0
143 162 0
145 164 0
141 160 0
144 163 0
142 162 0
143 161 0
141 160 0
143 163 0
142 161 0
143 162 0
143 162 0
142 161 0
139 158 0
145 164 0
144 162 0
144 163 0
138 156 0
141 160 0
138 156 0
138 156 0
138 157 0
141 159 0
139 158 0
139 158 0
142 159 0
136 154 0
143 161 0
138 157 0
138 156 0
137 156 0
135 152 0
139 157 0
133 151 0
136 153 0
140 158 0
135 153 0
135 152 0
123 140 0
119 137 0
130 147 0
132 150 0
125 141 0
130 147 0
128 145 0
125 142 0
129 147 0
116 133 0
124 140 0
128 145 0
130 147 0
126 143 0
122 138 0
117 133 0
116 133 0
125 141 0
117 132 0
125 142 0
121 137 0
120 136 0
110 125 0
117 132 0
119 134 0
114 130 0
125 140 0
111 125 0
114 129 0
110 124 0
111 124 0
109 123 0
112 127 0
105 119 0
116 130 0
131 146 0
142 159 0
137 155 0
142 159 0
127 143 0
145 163 0
141 158 0
140 158 0
139 157 0
135 153 0
133 151 0
138 154 0
139 157 0
129 147 0
141 159 0
136 154 0
138 156 0
134 152 0
138 157 0
131 149 0
133 151 0
132 149 0
135 154 0
127 145 0
134 153 0
136 154 0
136 155 0
126 145 0
124 142 0
127 145 0
134 152 0
131 150 0
120 138 0
136 155 0
131 150 0
120 140 0
115 132 0
125 144 0
121 140 0
117 135 0
125 144 0
128 146 0
113 131 0
114 132 0
109 128 0
120 139 0
112 130 0
116 132 0
115 132 0
89 106 18
47 71 57
46 74 64
45 72 65
45 72 60
48 77 82
47 75 80
51 80 84
50 79 74
47 75 80
50 79 94
50 80 64
49 79 82
47 76 72
51 81 74
48 76 84
52 82 82
48 76 90
52 82 84
49 79 80
49 78 78
49 79 76
52 82 84
49 79 70
49 78 74
49 79 72
48 78 76
49 79 72
49 78 78
50 80 80
52 82 84
52 82 97
51 80 88
47 76 72
52 82 94
51 82 84
51 81 88
49 79 80
50 81 86
50 81 88
50 80 86
49 78 99
50 79 80
50 79 86
49 78 80
50 79 86
49 77 88
48 77 62
49 78 72
48 77 67
47 75 76
48 78 72
44 71 54
47 75 65
51 78 65
77 95 25
99 117 0
113 129 0
101 118 0
118 136 0
111 128 0
116 134 0
108 126 0
128 147 0
123 142 0
124 142 0
132 150 0
133 152 0
127 146 0
119 137 0
129 148 0
125 143 0
119 137 0
134 152 0
133 152 0
123 141 0
129 148 0
133 152 0
126 144 0
130 150 0
132 151 0
127 146 0
128 145 0
135 153 0
134 153 0
137 155 0
139 158 0
136 154 0
135 153 0
138 157 0
128 146 0
135 154 0
146 165 0
139 158 0
145 163 0
141 159 0
142 160 0
134 151 0
136 154 0
131 148 0
142 159 0
136 154 0
137 154 0
144 161 0
121 136 0
108 122 0
105 119 0
119 134 0
103 117 0
105 119 0
101 114 0
114 128 0
106 120 0
110 125 0
113 127 0
108 123 0
111 125 0
119 135 0
113 128 0
121 137 0
121 136 0
117 133 0
115 130 0
117 133 0
119 135 0
123 138 0
121 137 0
121 137 0
116 133 0
126 143 0
126 143 0
124 141 0
124 140 0
128 145 0
126 143 0
128 146 0
128 146 0
131 147 0
133 150 0
130 147 0
137 155 0
133 150 0
131 149 0
132 150 0
134 152 0
134 152 0
133 150 0
137 155 0
137 154 0
137 155 0
135 154 0
141 159 0
136 154 0
136 155 0
136 155 0
139 158 0
141 160 0
141 160 0
140 159 0
141 160 0
143 161 0
141 159 0
142 162 0
141 160 0
142 162 0
143 161 0
143 161 0
140 159 0
143 161 0
145 165 0
141 161 0
145 164 0
143 161 0
148 167 0
140 159 0
149 168 0
144 163 0
143 162 0
144 163 0
147 167 0
143 162 0
140 158 0
145 164 0
144 164 0
149 168 0
150 170 0
148 168 0
145 164 0
148 166 0
150 169 0
149 168 0
147 166 0
145 166 0
143 163 0
148 166 0
147 166 0
149 168 0
146 166 0
148 168 0
148 167 0
146 166 0
150 170 0
152 171 0
151 170 0
149 170 0
148 168 0
150 170 0
153 172 0
150 170 0
150 170 0
151 171 0
148 168 0
152 172 0
149 169 0
149 168 0
150 171 0
149 169 0
152 172 0
153 172 0
150 170 0
151 171 0
150 170 0
151 171 0
151 171 0
150 169 0
152 172 0
153 173 0
152 171 0
150 171 0
152 172 0
152 172 0
151 172 0
150 170 0
153 173 0
152 172 0
148 168 0
152 172 0
152 172 0
150 170 0
153 173 0
148 167 0
151 172 0
152 172 0
151 171 0
150 170 0
153 173 0
149 168 0
147 168 0
149 169 0
148 168 0
150 170 0
149 168 0
148 167 0
149 169 0
147 166 0
150 169 0
148 168 0
147 167 0
147 167 0
144 164 0
147 166 0
149 168 0
150 169 0
149 169 0
142 162 0
147 166 0
145 164 0
146 166 0
148 167 0
146 166 0
149 168 0
147 166 0
145 164 0
143 162 0
146 165 0
146 164 0
148 166 0
148 167 0
139 157 0
142 161 0
138 157 0
138 157 0
146 166 0
144 163 0
145 164 0
137 155 0
142 161 0
143 161 0
142 162 0
139 158 0
137 156 0
141 159 0
140 159 0
142 160 0
137 155 0
140 158 0
139 158 0
139 158 0
139 157 0
136 155 0
142 160 0
140 157 0
137 155 0
138 155 0
132 150 0
139 158 0
137 156 0
132 148 0
136 154 0
131 149 0
137 155 0
132 151 0
137 155 0
123 141 0
129 146 0
133 151 0
129 146 0
132 149 0
126 143 0
132 150 0
127 144 0
127 144 0
134 151 0
124 140 0
122 138 0
127 143 0
130 147 0
125 142 0
125 141 0
134 151 0
125 141 0
122 139 0
117 131 0
109 125 0
128 143 0
121 137 0
116 131 0
109 124 0
115 130 0
99 114 0
107 121 0
114 129 0
110 125 0
111 125 0
100 113 0
99 112 0
100 114 0
96 109 0
106 119 0
120 133 0
133 149 0
132 148 0
128 144 0
136 154 0
134 152 0
133 150 0
149 166 0
135 152 0
134 151 0
130 147 0
142 160 0
144 163 0
131 148 0
130 147 0
135 152 0
124 142 0
137 155 0
137 155 0
128 146 0
133 150 0
130 148 0
138 157 0
131 150 0
127 145 0
129 148 0
125 144 0
117 135 0
123 141 0
126 144 0
127 146 0
120 138 0
132 150 0
124 143 0
125 144 0
125 144 0
127 144 0
123 142 0
123 139 0
126 144 0
102 120 0
111 130 0
105 124 0
118 135 0
114 132 0
111 128 0
110 127 0
108 125 0
106 123 0
114 130 0
91 107 0
98 114 0
105 121 0
80 98 25
45 70 50
44 70 64
47 76 74
48 77 76
47 75 61
46 74 72
49 78 74
45 73 67
47 75 78
50 80 82
50 79 76
50 80 90
48 77 80
48 77 65
49 79 84
49 79 72
50 79 84
51 81 84
54 85 95
50 79 84
50 80 84
52 82 86
47 76 60
49 79 78
51 81 90
51 81 92
52 83 78
51 81 88
52 82 84
53 84 92
47 76 74
50 80 80
52 82 90
51 81 92
49 79 74
49 78 82
49 78 70
48 77 70
48 76 72
48 77 77
50 79 82
45 73 64
48 77 76
46 74 54
48 77 72
47 75 71
47 75 80
45 72 76
46 74 81
47 74 65
82 101 36
99 115 25
101 117 0
117 134 0
110 128 0
114 131 0
93 109 0
126 145 0
119 138 0
123 140 0
114 132 0
122 140 0
125 143 0
126 144 0
122 141 0
122 139 0
120 138 0
127 145 0
131 151 0
121 138 0
120 138 0
121 140 0
125 144 0
119 137 0
124 142 0
126 145 0
133 151 0
124 141 0
129 147 0
121 140 0
138 157 0
126 143 0
136 154 0
130 148 0
131 149 0
138 157 0
125 141 0
128 145 0
124 142 0
132 149 0
140 159 0
131 149 0
140 157 0
134 151 0
133 149 0
140 157 0
126 143 0
127 143 0
146 163 0
137 153 0
148 166 0
140 158 0
134 149 0
114 127 0
98 110 0
108 121 0
102 115 0
107 120 0
105 119 0
116 130 0
112 126 0
105 118 0
118 133 0
110 124 0
118 133 0
121 135 0
112 126 0
118 133 0
113 128 0
118 134 0
116 131 0
122 137 0
119 136 0
119 135 0
119 135 0
128 144 0
125 142 0
124 141 0
119 135 0
131 148 0
133 150 0
136 153 0
136 154 0
128 145 0
131 148 0
136 154 0
125 142 0
128 145 0
127 144 0
130 147 0
131 148 0
132 149 0
132 151 0
130 147 0
136 153 0
133 151 0
136 154 0
134 151 0
140 159 0
133 151 0
136 154 0
136 155 0
139 157 0
139 159 0
135 153 0
137 155 0
138 156 0
136 154 0
144 163 0
142 160 0
137 156 0
137 156 0
141 159 0
138 155 0
144 163 0
143 163 0
139 158 0
143 162 0
139 159 0
143 162 0
146 164 0
140 159 0
142 161 0
144 163 0
144 163 0
146 165 0
142 162 0
144 164 0
145 163 0
146 165 0
147 166 0
144 164 0
146 166 0
149 167 0
148 167 0
149 168 0
150 169 0
144 163 0
143 162 0
143 163 0
147 166 0
146 166 0
146 165 0
149 168 0
147 167 0
147 167 0
149 168 0
148 168 0
152 171 0
145 164 0
149 169 0
146 165 0
149 169 0
151 170 0
149 169 0
146 165 0
149 169 0
149 169 0
150 171 0
151 170 0
145 165 0
150 170 0
152 171 0
151 171 0
149 170 0
149 168 0
151 170 0
149 170 0
152 172 0
150 171 0
150 171 0
152 173 0
152 172 0
153 174 0
151 171 0
149 168 0
153 172 0
152 173 0
153 173 0
153 172 0
152 172 0
153 173 0
151 170 0
151 172 0
152 172 0
151 171 0
151 170 0
148 168 0
148 168 0
150 169 0
150 170 0
148 168 0
148 168 0
151 170 0
152 171 0
148 166 0
149 168 0
145 164 0
147 167 0
149 169 0
145 165 0
147 167 0
149 168 0
143 162 0
149 168 0
147 167 0
148 167 0
146 166 0
144 163 0
145 165 0
150 168 0
149 169 0
147 167 0
150 169 0
150 169 0
143 162 0
147 166 0
145 164 0
146 165 0
143 163 0
145 165 0
146 166 0
142 161 0
141 160 0
142 160 0
141 159 0
145 164 0
137 156 0
143 161 0
142 161 0
149 168 0
141 159 0
139 158 0
143 162 0
138 156 0
146 164 0
143 162 0
147 165 0
141 160 0
141 160 0
141 159 0
141 158 0
141 159 0
139 156 0
140 159 0
133 151 0
141 159 0
136 154 0
140 158 0
132 150 0
136 154 0
138 154 0
136 154 0
136 153 0
138 156 0
133 150 0
129 147 0
135 153 0
134 151 0
133 150 0
131 148 0
131 148 0
133 150 0
132 150 0
130 147 0
131 148 0
125 142 0
123 140 0
127 143 0
115 131 0
132 149 0
124 140 0
126 141 0
122 138 0
119 135 0
127 144 0
121 137 0
118 135 0
123 139 0
118 133 0
122 137 0
123 138 0
114 129 0
109 124 0
106 120 0
105 119 0
119 134 0
112 126 0
110 124 0
99 112 0
109 123 0
105 119 0
112 125 0
109 123 0
101 114 0
115 128 0
125 140 0
131 146 0
126 142 0
124 139 0
143 159 0
127 143 0
141 158 0
132 149 0
133 149 0
134 150 0
137 155 0
127 144 0
132 149 0
124 141 0
131 148 0
137 154 0
123 140 0
138 156 0
127 144 0
132 150 0
136 154 0
128 146 0
128 146 0
122 140 0
134 152 0
129 147 0
137 156 0
133 151 0
123 141 0
116 134 0
124 144 0
124 142 0
133 151 0
122 139 0
123 142 0
121 139 0
130 147 0
129 146 0
120 138 0
123 141 0
117 133 0
115 132 0
114 131 0
113 130 0
124 142 0
107 124 0
108 124 0
103 119 0
108 125 0
102 118 0
96 112 0
88 104 0
99 115 0
98 114 0
98 114 18
67 84 31
45 72 62
42 68 50
46 74 74
47 75 84
44 71 62
46 73 72
47 75 70
47 76 70
50 80 76
46 74 70
50 80 76
48 77 88
49 79 74
48 77 67
48 77 67
46 74 57
49 78 72
48 77 82
52 83 84
50 79 76
49 79 67
48 77 78
48 77 82
48 77 78
50 80 76
46 74 76
49 78 82
50 79 90
51 81 86
46 74 72
48 77 74
50 79 90
48 76 76
48 76 80
50 79 74
46 73 78
51 82 82
49 78 71
48 76 72
48 77 67
48 76 84
47 75 70
46 74 69
46 73 57
42 67 51
45 72 67
52 73 47
69 85 0
98 112 0
113 129 0
110 125 0
104 121 0
110 127 0
109 126 0
110 127 0
112 129 0
119 135 0
124 142 0
107 125 0
111 130 0
117 134 0
112 128 0
124 141 0
115 133 0
114 132 0
118 136 0
123 140 0
124 143 0
129 147 0
121 138 0
126 145 0
136 154 0
126 145 0
117 134 0
118 136 0
128 147 0
127 145 0
135 153 0
119 137 0
133 150 0
133 151 0
125 143 0
130 148 0
135 152 0
137 154 0
129 146 0
122 140 0
138 156 0
135 153 0
133 150 0
125 143 0
128 145 0
128 144 0
131 147 0
129 145 0
132 149 0
132 148 0
127 143 0
139 155 0
135 151 0
122 137 0
127 143 0
106 118 0
106 119 0
110 124 0
102 114 0
114 128 0
108 121 0
116 130 0
113 127 0
98 113 0
111 125 0
120 135 0
120 135 0
107 122 0
114 129 0
117 132 0
122 138 0
114 129 0
120 135 0
122 137 0
114 130 0
114 129 0
122 137 0
125 141 0
121 137 0
127 143 0
128 144 0
136 153 0
129 146 0
125 142 0
129 146 0
126 142 0
131 149 0
130 147 0
124 141 0
134 152 0
133 151 0
131 148 0
134 153 0
128 145 0
130 147 0
128 145 0
131 148 0
130 149 0
135 153 0
139 157 0
134 152 0
133 151 0
139 157 0
132 149 0
142 160 0
141 160 0
139 158 0
139 158 0
140 159 0
137 155 0
134 151 0
143 162 0
134 151 0
143 162 0
141 159 0
145 163 0
140 159 0
144 162 0
137 155 0
143 162 0
142 161 0
142 161 0
144 163 0
141 161 0
148 167 0
143 162 0
144 164 0
145 164 0
144 162 0
146 165 0
145 164 0
147 166 0
146 165 0
146 164 0
149 167 0
146 164 0
147 166 0
144 163 0
147 165 0
143 162 0
146 165 0
146 165 0
144 164 0
146 166 0
146 165 0
148 167 0
148 168 0
149 168 0
147 167 0
146 165 0
148 166 0
147 166 0
150 169 0
145 164 0
152 171 0
147 165 0
151 170 0
149 168 0
151 169 0
146 166 0
150 170 0
150 170 0
149 169 0
149 169 0
152 172 0
151 170 0
149 169 0
152 172 0
153 172 0
151 170 0
149 168 0
150 169 0
152 171 0
148 168 0
151 170 0
152 172 0
150 170 0
152 172 0
151 171 0
151 171 0
152 172 0
151 171 0
151 171 0
151 170 0
150 170 0
149 168 0
153 172 0
151 172 0
152 172 0
150 170 0
146 165 0
147 166 0
149 170 0
152 172 0
146 165 0
151 171 0
149 167 0
149 168 0
146 165 0
148 168 0
147 166 0
150 169 0
149 168 0
144 164 0
147 167 0
149 169 0
145 165 0
145 165 0
146 165 0
144 163 0
143 162 0
147 166 0
145 164 0
148 167 0
143 162 0
147 166 0
148 168 0
144 163 0
148 167 0
143 162 0
149 167 0
146 165 0
143 162 0
140 159 0
145 163 0
142 160 0
147 166 0
147 166 0
146 165 0
142 160 0
146 165 0
138 156 0
141 159 0
143 162 0
139 158 0
142 160 0
138 156 0
140 159 0
142 160 0
137 155 0
139 156 0
135 153 0
141 159 0
135 153 0
141 158 0
145 163 0
140 159 0
139 157 0
132 150 0
135 153 0
138 156 0
140 157 0
130 148 0
137 155 0
139 157 0
138 155 0
133 152 0
126 143 0
130 147 0
136 152 0
131 147 0
126 143 0
133 150 0
127 144 0
128 144 0
126 143 0
125 141 0
124 141 0
129 145 0
119 136 0
121 137 0
122 138 0
127 143 0
126 142 0
120 135 0
116 132 0
122 138 0
114 130 0
121 136 0
112 127 0
113 128 0
117 133 0
113 127 0
112 126 0
109 123 0
109 123 0
110 124 0
114 128 0
112 125 0
99 114 0
104 117 0
102 116 0
101 114 0
105 118 0
106 120 0
129 144 0
130 145 0
136 151 0
131 146 0
131 147 0
130 145 0
134 150 0
129 144 0
126 142 0
126 142 0
124 139 0
126 142 0
130 147 0
127 144 0
128 144 0
124 142 0
137 155 0
116 132 0
124 141 0
121 138 0
120 137 0
126 143 0
130 147 0
123 141 0
132 150 0
132 151 0
124 143 0
125 143 0
137 156 0
118 136 0
130 148 0
128 146 0
118 137 0
122 140 0
117 134 0
125 143 0
118 137 0
107 124 0
123 140 0
118 135 0
119 135 0
120 138 0
111 129 0
107 123 0
102 119 0
114 131 0
119 136 0
113 129 0
108 124 0
119 135 0
105 121 0
91 106 0
95 110 0
88 104 0
90 105 0
89 103 0
88 102 0
86 99 0
88 103 18
60 80 50
42 68 44
45 72 64
46 74 70
45 72 67
47 75 65
50 80 70
48 77 62
45 72 73
49 78 76
47 76 74
47 76 62
45 72 60
46 74 51
46 74 72
51 80 84
46 74 65
46 74 65
49 78 72
52 82 86
50 80 82
48 77 67
48 76 86
48 77 70
48 77 82
48 77 82
48 78 76
49 78 80
47 75 70
48 77 78
51 82 82
47 76 72
46 74 70
48 78 65
46 74 65
44 70 57
47 74 70
45 73 74
46 74 54
43 70 64
44 71 70
43 68 57
46 71 44
61 79 44
79 94 0
90 103 0
86 102 0
94 109 0
100 115 0
103 120 0
106 122 0
87 103 0
119 136 0
99 114 0
96 111 0
104 120 0
108 125 0
108 124 0
120 137 0
118 136 0
111 129 0
121 138 0
107 125 0
120 138 0
127 145 0
124 142 0
132 151 0
118 136 0
131 149 0
123 141 0
128 147 0
119 137 0
126 144 0
117 136 0
138 155 0
132 149 0
127 146 0
118 135 0
135 153 0
137 154 0
118 135 0
129 147 0
121 138 0
124 140 0
136 153 0
125 142 0
125 142 0
124 140 0
128 144 0
125 141 0
125 142 0
130 146 0
137 153 0
132 149 0
132 149 0
126 142 0
129 144 0
124 140 0
132 148 0
139 154 0
125 140 0
129 144 0
120 134 0
101 114 0
109 122 0
110 123 0
110 123 0
105 118 0
113 126 0
107 121 0
106 119 0
123 137 0
111 126 0
108 123 0
115 129 0
120 136 0
110 124 0
111 125 0
117 132 0
120 135 0
122 138 0
122 138 0
116 132 0
128 144 0
112 128 0
122 138 0
130 147 0
123 139 0
128 145 0
125 142 0
128 145 0
128 144 0
128 145 0
125 141 0
134 150 0
126 143 0
126 142 0
133 151 0
130 146 0
134 151 0
135 153 0
133 151 0
133 150 0
131 148 0
137 153 0
131 149 0
135 152 0
132 149 0
135 153 0
138 157 0
137 156 0
144 162 0
136 154 0
140 159 0
144 162 0
140 158 0
133 152 0
139 158 0
141 160 0
141 159 0
142 159 0
139 157 0
140 158 0
141 160 0
138 156 0
144 163 0
144 162 0
141 159 0
143 161 0
143 162 0
143 161 0
141 159 0
143 162 0
146 165 0
148 167 0
144 163 0
146 165 0
144 164 0
146 165 0
146 166 0
141 160 0
143 161 0
146 166 0
149 168 0
149 167 0
148 166 0
146 166 0
151 169 0
144 163 0
147 166 0
148 167 0
147 167 0
149 168 0
147 166 0
149 168 0
152 171 0
150 170 0
149 169 0
148 168 0
150 170 0
147 165 0
149 169 0
150 170 0
149 168 0
149 169 0
152 172 0
151 171 0
148 168 0
150 170 0
150 170 0
151 170 0
149 169 0
152 172 0
152 171 0
153 172 0
150 170 0
151 172 0
151 171 0
152 171 0
150 171 0
152 172 0
150 170 0
151 171 0
152 172 0
150 169 0
149 169 0
151 170 0
154 173 0
150 171 0
150 169 0
152 172 0
149 169 0
150 170 0
152 171 0
153 173 0
149 169 0
149 169 0
149 169 0
151 170 0
148 168 0
149 168 0
147 166 0
151 170 0
148 167 0
150 168 0
147 166 0
144 164 0
150 169 0
150 169 0
150 170 0
148 167 0
145 165 0
147 166 0
149 167 0
144 163 0
149 168 0
146 165 0
148 167 0
148 167 0
144 163 0
147 165 0
146 165 0
144 162 0
145 165 0
144 164 0
140 157 0
144 162 0
141 160 0
145 164 0
147 166 0
143 162 0
141 159 0
146 165 0
143 161 0
137 156 0
138 156 0
138 157 0
141 160 0
138 157 0
141 159 0
142 160 0
140 158 0
145 164 0
141 159 0
139 157 0
137 155 0
144 163 0
145 163 0
140 158 0
138 156 0
143 160 0
133 150 0
137 155 0
139 157 0
137 156 0
138 156 0
137 155 0
134 151 0
137 154 0
133 150 0
126 143 0
135 153 0
138 155 0
135 152 0
133 150 0
137 154 0
140 157 0
130 147 0
129 145 0
131 148 0
133 150 0
130 147 0
129 145 0
124 140 0
126 142 0
126 142 0
117 133 0
125 141 0
115 131 0
132 148 0
126 142 0
124 140 0
116 131 0
122 137 0
113 128 0
114 129 0
112 127 0
110 124 0
114 128 0
113 128 0
120 134 0
107 121 0
116 129 0
107 121 0
108 122 0
106 119 0
101 113 0
102 115 0
103 115 0
111 125 0
118 132 0
121 135 0
117 132 0
124 139 0
135 150 0
126 141 0
127 142 0
127 143 0
126 141 0
129 145 0
120 135 0
127 143 0
126 143 0
127 143 0
122 139 0
119 135 0
125 141 0
133 150 0
124 142 0
143 159 0
124 140 0
123 141 0
121 138 0
124 141 0
122 140 0
125 143 0
124 141 0
121 138 0
127 145 0
106 123 0
121 139 0
117 135 0
128 146 0
114 131 0
124 142 0
114 132 0
114 133 0
119 138 0
106 123 0
115 131 0
117 134 0
108 125 0
111 128 0
114 131 0
119 136 0
118 134 0
101 118 0
103 119 0
112 128 0
109 126 0
97 113 0
90 106 0
116 132 0
100 116 0
101 117 0
89 103 0
106 121 0
87 102 0
88 102 0
91 105 0
79 92 0
76 88 0
59 78 47
44 67 51
42 68 54
39 64 36
45 72 80
45 73 70
48 76 62
45 72 70
43 69 40
48 77 76
48 77 88
47 75 67
46 74 76
46 75 65
47 76 76
49 79 76
43 69 51
47 76 67
50 79 78
49 78 80
50 80 84
49 78 76
47 76 60
48 76 82
48 77 67
44 72 57
43 70 67
45 72 67
45 72 72
47 76 65
46 74 62
44 70 72
45 72 70
45 73 60
44 71 54
45 72 60
46 74 70
43 69 57
54 76 44
65 83 47
82 96 0
70 85 0
88 102 0
90 105 0
92 106 0
91 106 0
103 118 0
83 98 0
102 117 0
103 120 0
102 118 0
100 115 0
112 128 0
111 128 0
102 118 0
118 134 0
112 128 0
124 140 0
115 133 0
112 128 0
113 131 0
118 135 0
125 143 0
115 133 0
122 139 0
114 131 0
120 137 0
123 141 0
130 149 0
124 142 0
132 150 0
125 144 0
137 155 0
132 149 0
119 136 0
121 139 0
122 139 0
121 137 0
130 147 0
131 149 0
128 146 0
131 148 0
131 149 0
129 146 0
127 143 0
127 143 0
128 145 0
123 139 0
123 139 0
122 138 0
126 142 0
133 149 0
122 137 0
124 141 0
120 134 0
126 141 0
128 143 0
122 136 0
125 139 0
119 134 0
118 132 0
117 130 0
115 127 0
100 113 0
102 114 0
109 122 0
95 107 0
109 122 0
103 117 0
118 132 0
118 132 0
108 121 0
114 129 0
115 129 0
115 130 0
116 131 0
121 136 0
115 129 0
118 133 0
116 131 0
120 135 0
127 142 0
117 132 0
125 141 0
117 132 0
127 143 0
124 139 0
122 139 0
123 139 0
129 145 0
123 139 0
127 144 0
129 145 0
131 148 0
131 147 0
132 150 0
128 145 0
133 150 0
135 151 0
137 154 0
137 154 0
134 152 0
131 149 0
133 150 0
129 147 0
138 156 0
134 151 0
137 154 0
138 155 0
138 155 0
141 159 0
136 152 0
133 151 0
140 159 0
138 156 0
141 158 0
142 160 0
138 156 0
140 159 0
138 156 0
141 160 0
139 157 0
139 157 0
138 156 0
140 159 0
142 161 0
145 163 0
140 158 0
140 160 0
141 159 0
144 163 0
145 165 0
144 164 0
143 161 0
143 161 0
146 165 0
147 166 0
143 162 0
147 166 0
144 163 0
147 167 0
142 161 0
145 164 0
145 164 0
148 168 0
146 165 0
149 167 0
149 168 0
149 168 0
144 163 0
147 166 0
142 162 0
150 169 0
150 169 0
146 166 0
151 170 0
143 162 0
149 168 0
148 166 0
149 169 0
148 168 0
151 170 0
148 168 0
152 172 0
149 168 0
148 168 0
150 169 0
149 168 0
152 171 0
148 168 0
151 171 0
149 168 0
151 169 0
152 172 0
151 170 0
151 171 0
154 174 0
154 173 0
152 172 0
150 171 0
151 171 0
152 172 0
153 172 0
148 169 0
154 174 0
151 170 0
150 169 0
147 167 0
149 167 0
152 172 0
150 169 0
152 171 0
149 168 0
150 170 0
148 168 0
150 170 0
148 167 0
147 166 0
150 169 0
147 166 0
149 168 0
151 171 0
147 165 0
148 168 0
148 167 0
150 170 0
151 170 0
147 167 0
146 164 0
143 162 0
142 161 0
149 168 0
145 164 0
145 164 0
147 166 0
146 164 0
145 164 0
148 167 0
143 162 0
149 168 0
146 166 0
142 160 0
141 160 0
144 163 0
142 160 0
142 160 0
141 159 0
144 163 0
146 164 0
143 162 0
142 160 0
139 158 0
144 163 0
142 161 0
144 162 0
142 159 0
143 163 0
137 154 0
140 157 0
140 158 0
138 156 0
137 155 0
134 152 0
140 158 0
136 154 0
140 157 0
142 160 0
140 157 0
134 151 0
138 156 0
136 152 0
138 156 0
137 154 0
137 155 0
125 140 0
133 150 0
138 156 0
138 156 0
134 151 0
134 151 0
135 153 0
132 149 0
131 149 0
129 146 0
135 152 0
135 151 0
127 143 0
135 151 0
136 153 0
127 144 0
130 146 0
128 145 0
124 139 0
115 130 0
124 139 0
125 141 0
129 144 0
111 127 0
120 135 0
116 131 0
126 141 0
112 127 0
119 134 0
114 128 0
123 138 0
111 125 0
110 125 0
112 126 0
111 125 0
97 110 0
104 117 0
104 117 0
110 122 0
109 121 0
102 114 0
104 117 0
118 132 0
122 136 0
122 136 0
118 132 0
123 138 0
117 132 0
128 143 0
128 144 0
117 133 0
119 134 0
129 145 0
118 134 0
132 148 0
124 139 0
122 138 0
126 142 0
124 140 0
128 144 0
123 139 0
124 141 0
119 136 0
129 146 0
118 135 0
128 145 0
117 135 0
124 141 0
124 141 0
125 143 0
126 144 0
119 136 0
120 137 0
127 144 0
111 128 0
118 135 0
122 139 0
110 127 0
118 135 0
125 143 0
121 138 0
124 143 0
117 135 0
122 140 0
121 138 0
111 129 0
116 133 0
101 119 0
112 129 0
106 122 0
119 136 0
95 110 0
107 122 0
119 136 0
108 124 0
119 135 0
107 123 0
101 116 0
89 104 0
84 99 0
92 107 0
95 110 0
81 96 0
87 101 0
64 77 0
77 89 0
83 94 0
75 88 0
75 88 18
47 66 40
40 65 44
38 62 47
42 68 56
45 72 67
45 72 72
43 69 60
45 71 67
43 70 62
45 72 67
47 75 80
43 69 67
47 74 65
47 75 78
43 69 70
47 75 64
46 74 72
45 72 57
44 71 54
46 73 65
50 79 74
46 73 76
48 76 65
44 71 57
45 72 57
45 72 70
44 70 70
46 73 80
45 73 70
46 74 72
44 70 51
44 71 62
44 68 62
58 74 54
74 87 25
64 75 0
75 88 0
82 94 0
88 102 0
83 97 0
89 103 0
105 119 0
96 110 0
85 100 0
97 112 0
89 104 0
96 110 0
113 130 0
94 110 0
101 117 0
103 119 0
105 122 0
108 124 0
103 119 0
106 122 0
115 133 0
113 131 0
110 127 0
115 131 0
123 140 0
122 139 0
116 134 0
116 133 0
117 135 0
122 140 0
121 139 0
114 131 0
126 144 0
112 129 0
133 151 0
123 140 0
115 132 0
120 138 0
131 149 0
119 137 0
125 142 0
123 140 0
121 138 0
128 145 0
124 141 0
128 145 0
109 124 0
121 138 0
118 134 0
123 139 0
123 140 0
122 137 0
120 136 0
131 147 0
127 144 0
125 140 0
115 130 0
126 142 0
120 134 0
124 139 0
127 142 0
121 135 0
119 133 0
126 140 0
118 132 0
113 126 0
105 117 0
93 106 0
109 122 0
96 109 0
107 119 0
101 114 0
104 117 0
111 125 0
113 128 0
109 123 0
116 130 0
108 122 0
111 126 0
123 139 0
119 134 0
121 136 0
124 139 0
125 141 0
124 139 0
126 143 0
124 140 0
124 140 0
121 137 0
125 140 0
130 146 0
128 144 0
120 136 0
123 139 0
134 151 0
128 144 0
133 149 0
136 153 0
136 153 0
129 146 0
137 154 0
129 146 0
127 145 0
130 147 0
130 148 0
139 157 0
137 154 0
133 150 0
137 154 0
136 154 0
130 147 0
134 152 0
131 150 0
131 148 0
137 154 0
136 154 0
136 153 0
138 155 0
142 160 0
141 158 0
137 155 0
145 164 0
136 154 0
141 159 0
145 164 0
135 153 0
143 161 0
143 162 0
146 165 0
142 160 0
143 162 0
145 163 0
145 164 0
144 162 0
143 162 0
143 162 0
145 164 0
141 159 0
142 161 0
146 165 0
144 162 0
147 166 0
145 164 0
147 166 0
147 166 0
144 163 0
144 163 0
150 169 0
148 167 0
145 163 0
144 164 0
146 164 0
148 166 0
149 168 0
147 166 0
146 165 0
148 167 0
147 166 0
148 168 0
149 168 0
149 169 0
147 166 0
151 171 0
148 167 0
147 166 0
150 169 0
148 167 0
150 169 0
148 168 0
149 169 0
150 169 0
151 171 0
151 171 0
150 170 0
152 171 0
150 169 0
150 170 0
154 174 0
151 171 0
150 169 0
153 173 0
152 171 0
153 173 0
150 169 0
153 172 0
149 169 0
151 171 0
150 169 0
151 172 0
152 171 0
149 169 0
149 168 0
150 170 0
148 167 0
148 168 0
150 169 0
149 168 0
151 170 0
148 167 0
151 170 0
147 166 0
152 171 0
147 166 0
145 165 0
147 166 0
145 164 0
152 171 0
147 166 0
147 165 0
147 166 0
146 165 0
144 164 0
149 167 0
147 166 0
146 165 0
147 166 0
149 167 0
146 165 0
144 163 0
144 162 0
145 163 0
148 166 0
142 161 0
145 164 0
149 167 0
141 159 0
141 159 0
142 160 0
142 161 0
144 163 0
146 163 0
140 158 0
144 163 0
140 158 0
145 163 0
144 163 0
140 159 0
141 160 0
138 156 0
139 157 0
144 161 0
142 160 0
140 157 0
141 159 0
141 159 0
136 154 0
139 156 0
135 153 0
140 157 0
138 156 0
138 155 0
134 152 0
135 154 0
136 153 0
141 158 0
136 154 0
135 152 0
127 144 0
137 154 0
131 147 0
135 152 0
136 153 0
131 148 0
129 145 0
120 135 0
132 149 0
134 150 0
126 142 0
124 141 0
139 156 0
127 143 0
122 138 0
128 144 0
127 143 0
115 131 0
121 136 0
129 144 0
110 125 0
121 136 0
123 137 0
123 137 0
119 134 0
118 133 0
124 139 0
122 137 0
110 124 0
117 131 0
114 128 0
109 123 0
106 119 0
99 111 0
107 120 0
101 114 0
103 116 0
81 93 0
95 106 0
110 123 0
121 135 0
108 121 0
122 136 0
121 135 0
121 134 0
121 135 0
120 134 0
118 134 0
126 141 0
122 137 0
117 133 0
119 135 0
121 136 0
112 128 0
128 144 0
128 144 0
116 132 0
123 138 0
133 149 0
115 131 0
117 134 0
122 139 0
118 134 0
134 152 0
129 145 0
124 141 0
119 136 0
121 138 0
118 134 0
116 133 0
117 133 0
124 142 0
123 142 0
131 149 0
112 130 0
127 145 0
110 128 0
118 136 0
116 133 0
119 135 0
133 152 0
108 125 0
127 143 0
111 127 0
107 125 0
122 140 0
106 123 0
116 132 0
108 124 0
103 119 0
100 116 0
97 114 0
105 122 0
98 114 0
88 105 0
106 122 0
101 116 0
88 103 0
100 116 0
80 95 0
92 106 0
85 99 0
85 98 0
83 96 0
83 97 0
67 79 0
76 90 0
78 90 0
67 78 0
74 85 18
50 64 18
53 68 44
58 75 44
39 62 47
40 65 54
42 69 54
40 65 47
41 67 59
42 68 54
45 72 88
45 73 62
45 73 65
47 76 57
40 65 40
41 67 36
43 70 62
47 75 65
44 71 57
45 72 72
44 71 70
44 70 65
44 70 65
43 70 60
40 64 54
43 69 62
39 64 51
41 66 65
42 63 47
48 67 44
63 76 0
60 70 0
62 74 0
78 92 0
59 70 0
77 89 0
76 90 0
91 105 0
90 103 0
74 88 0
88 102 0
83 98 0
98 114 0
99 115 0
90 105 0
97 113 0
97 113 0
89 105 0
99 115 0
110 126 0
113 129 0
112 129 0
110 127 0
110 127 0
116 133 0
115 132 0
124 142 0
125 142 0
128 145 0
122 140 0
112 130 0
117 133 0
116 134 0
118 135 0
116 133 0
114 131 0
116 134 0
120 139 0
122 139 0
119 136 0
117 134 0
118 135 0
128 145 0
120 137 0
120 137 0
107 124 0
116 132 0
134 150 0
125 142 0
128 145 0
118 135 0
117 132 0
121 137 0
122 138 0
126 142 0
124 139 0
124 140 0
124 139 0
127 142 0
121 136 0
116 130 0
128 144 0
124 140 0
124 139 0
109 123 0
116 131 0
126 140 0
109 123 0
120 134 0
121 135 0
122 136 0
106 119 0
97 110 0
100 112 0
109 121 0
101 115 0
106 118 0
108 121 0
109 122 0
111 125 0
106 120 0
111 126 0
122 136 0
112 125 0
110 124 0
120 134 0
118 133 0
120 135 0
117 132 0
119 133 0
121 137 0
126 141 0
126 141 0
122 137 0
127 141 0
122 138 0
128 143 0
123 139 0
129 144 0
130 146 0
131 147 0
133 149 0
132 149 0
134 150 0
133 150 0
131 148 0
128 144 0
136 153 0
134 150 0
130 147 0
135 152 0
133 150 0
134 151 0
131 149 0
136 153 0
136 154 0
136 153 0
141 159 0
135 152 0
137 154 0
140 157 0
138 156 0
134 152 0
144 161 0
141 159 0
143 162 0
141 159 0
146 163 0
140 159 0
138 156 0
140 158 0
140 159 0
143 161 0
140 158 0
145 163 0
139 157 0
142 160 0
141 159 0
147 165 0
141 159 0
148 166 0
141 160 0
139 157 0
143 161 0
143 163 0
141 159 0
143 161 0
146 165 0
145 163 0
146 165 0
145 164 0
146 165 0
144 163 0
147 165 0
149 168 0
146 166 0
147 166 0
149 168 0
147 166 0
146 164 0
147 167 0
151 170 0
147 167 0
146 165 0
150 169 0
148 168 0
149 168 0
149 168 0
149 168 0
145 164 0
150 169 0
149 169 0
149 169 0
152 172 0
149 168 0
150 169 0
149 169 0
150 169 0
148 167 0
150 169 0
151 171 0
151 170 0
149 168 0
152 171 0
151 171 0
153 172 0
152 171 0
151 171 0
149 169 0
148 168 0
153 172 0
150 169 0
150 170 0
150 171 0
150 170 0
146 165 0
150 169 0
151 171 0
150 170 0
151 169 0
148 167 0
149 168 0
149 168 0
149 168 0
149 168 0
149 168 0
149 167 0
147 166 0
145 162 0
147 165 0
145 163 0
148 166 0
146 165 0
143 162 0
145 163 0
148 167 0
148 166 0
148 166 0
147 165 0
145 164 0
147 166 0
145 163 0
143 161 0
141 159 0
143 161 0
144 162 0
144 162 0
146 164 0
143 161 0
144 163 0
147 165 0
141 159 0
143 161 0
145 164 0
140 158 0
143 160 0
141 160 0
140 157 0
146 164 0
138 156 0
137 153 0
140 157 0
143 161 0
140 158 0
144 162 0
143 161 0
140 157 0
139 157 0
141 158 0
136 154 0
143 160 0
142 161 0
137 155 0
137 154 0
137 156 0
134 152 0
140 157 0
137 154 0
131 148 0
131 148 0
132 149 0
134 151 0
131 148 0
123 139 0
131 148 0
133 150 0
131 148 0
133 150 0
127 143 0
134 151 0
121 136 0
129 146 0
131 147 0
124 140 0
122 137 0
127 142 0
123 139 0
119 134 0
122 137 0
119 134 0
126 142 0
111 125 0
119 133 0
130 146 0
111 126 0
121 135 0
117 132 0
119 133 0
119 133 0
112 126 0
105 118 0
103 115 0
103 115 0
108 121 0
98 110 0
98 110 0
100 111 0
100 111 0
109 121 0
124 137 0
112 125 0
107 121 0
111 124 0
107 120 0
110 123 0
116 129 0
122 135 0
114 129 0
115 130 0
126 141 0
121 135 0
124 139 0
126 141 0
110 125 0
119 135 0
119 135 0
122 139 0
119 134 0
125 141 0
121 136 0
116 133 0
117 133 0
129 146 0
124 141 0
125 141 0
133 150 0
122 138 0
125 142 0
121 140 0
117 134 0
121 138 0
125 142 0
134 150 0
123 140 0
130 147 0
124 142 0
121 138 0
121 138 0
112 129 0
107 124 0
98 115 0
122 140 0
106 123 0
115 132 0
118 136 0
116 133 0
111 128 0
108 125 0
108 125 0
104 122 0
106 122 0
97 114 0
108 125 0
108 124 0
110 126 0
111 127 0
97 112 0
104 119 0
102 118 0
92 106 0
86 102 0
91 105 0
82 95 0
80 93 0
92 105 0
66 80 0
89 103 0
77 89 0
74 86 0
70 82 0
62 74 0
72 82 0
69 80 0
37 47 0
50 63 0
53 63 18
42 57 40
52 66 36
38 58 36
37 61 44
41 66 54
39 64 51
38 62 54
39 64 60
40 64 57
40 65 40
43 69 67
43 69 74
43 69 51
43 69 62
41 66 44
38 63 40
38 62 25
47 66 44
55 74 51
54 66 0
63 73 18
64 73 18
50 63 0
77 88 0
70 80 0
82 93 0
69 81 0
73 87 0
73 87 0
65 79 0
70 83 0
76 90 0
86 99 0
88 101 0
84 99 0
86 100 0
100 116 0
93 109 0
88 104 0
87 103 0
103 118 0
99 116 0
106 122 0
109 126 0
86 102 0
106 122 0
103 118 0
115 132 0
102 118 0
119 137 0
107 123 0
115 132 0
112 128 0
117 134 0
113 130 0
130 148 0
120 137 0
116 133 0
117 134 0
109 126 0
124 141 0
135 152 0
122 140 0
121 138 0
118 135 0
121 138 0
131 148 0
126 144 0
126 143 0
118 135 0
123 140 0
120 136 0
115 132 0
116 133 0
120 136 0
118 134 0
115 131 0
116 132 0
126 142 0
117 133 0
128 143 0
119 134 0
126 141 0
120 135 0
118 134 0
109 123 0
118 133 0
130 146 0
115 128 0
112 126 0
112 125 0
112 125 0
112 125 0
118 132 0
119 132 0
107 119 0
107 118 0
107 118 0
100 111 0
94 105 0
96 108 0
103 116 0
102 114 0
116 128 0
113 127 0
114 128 0
116 130 0
114 128 0
104 119 0
106 120 0
113 128 0
121 136 0
124 139 0
113 128 0
119 134 0
123 138 0
117 131 0
122 138 0
125 140 0
125 140 0
129 145 0
129 143 0
128 143 0
130 146 0
129 145 0
132 148 0
125 141 0
129 146 0
135 151 0
125 142 0
131 148 0
138 154 0
130 147 0
137 153 0
136 153 0
136 153 0
130 146 0
132 150 0
141 158 0
135 152 0
134 150 0
135 152 0
136 153 0
139 156 0
138 155 0
138 156 0
142 160 0
142 159 0
143 161 0
140 157 0
138 156 0
146 164 0
136 154 0
142 159 0
140 158 0
137 154 0
147 167 0
141 159 0
142 161 0
141 159 0
140 158 0
140 158 0
141 160 0
146 164 0
146 164 0
144 163 0
143 162 0
143 161 0
144 163 0
146 164 0
145 163 0
146 165 0
145 164 0
147 166 0
148 167 0
144 163 0
144 163 0
147 165 0
145 163 0
147 165 0
147 166 0
149 167 0
144 163 0
148 167 0
146 165 0
149 167 0
147 166 0
150 168 0
148 167 0
146 166 0
147 167 0
145 164 0
147 165 0
148 167 0
148 167 0
149 169 0
149 168 0
147 166 0
149 168 0
148 168 0
150 170 0
150 169 0
149 168 0
148 167 0
149 168 0
149 168 0
150 170 0
149 169 0
150 169 0
152 172 0
151 171 0
150 169 0
150 170 0
152 172 0
152 172 0
151 170 0
148 167 0
149 168 0
149 169 0
152 171 0
149 168 0
151 170 0
151 170 0
149 168 0
149 168 0
146 165 0
148 167 0
152 171 0
149 168 0
148 167 0
147 167 0
151 170 0
145 163 0
146 165 0
146 165 0
147 165 0
146 164 0
146 165 0
148 167 0
147 166 0
152 170 0
147 166 0
145 163 0
149 167 0
146 165 0
145 163 0
148 166 0
147 166 0
142 160 0
149 168 0
142 160 0
146 164 0
142 159 0
139 156 0
145 164 0
142 160 0
145 163 0
146 164 0
138 156 0
140 157 0
142 161 0
141 159 0
143 160 0
138 156 0
138 156 0
140 157 0
140 157 0
144 162 0
132 149 0
135 152 0
140 156 0
137 155 0
140 157 0
132 150 0
141 158 0
142 160 0
135 152 0
138 155 0
139 155 0
136 153 0
138 156 0
139 156 0
132 149 0
133 150 0
129 145 0
130 146 0
129 145 0
130 146 0
135 152 0
133 149 0
124 141 0
133 149 0
132 148 0
125 140 0
127 142 0
126 142 0
111 126 0
131 146 0
129 145 0
125 141 0
122 136 0
117 132 0
110 124 0
121 136 0
119 133 0
119 133 0
109 122 0
118 132 0
119 134 0
113 127 0
119 132 0
117 131 0
107 121 0
106 119 0
98 110 0
109 122 0
97 109 0
103 115 0
94 105 0
90 102 0
93 103 0
104 117 0
105 116 0
116 129 0
116 128 0
115 128 0
116 129 0
114 126 0
119 133 0
118 132 0
111 125 0
113 127 0
125 139 0
128 142 0
127 143 0
117 133 0
123 138 0
118 133 0
119 135 0
124 139 0
129 145 0
120 136 0
125 141 0
118 133 0
124 140 0
114 131 0
121 138 0
133 150 0
108 125 0
128 145 0
117 135 0
116 132 0
126 144 0
117 134 0
114 132 0
121 138 0
123 140 0
115 132 0
127 144 0
124 142 0
127 145 0
134 152 0
117 134 0
108 125 0
115 132 0
112 128 0
111 129 0
120 137 0
120 137 0
112 128 0
118 135 0
118 134 0
108 125 0
115 133 0
107 124 0
104 120 0
110 125 0
96 111 0
96 111 0
99 114 0
86 101 0
92 106 0
89 105 0
100 114 0
109 124 0
94 109 0
92 107 0
83 97 0
94 107 0
83 97 0
96 110 0
88 100 0
75 88 0
74 86 0
67 79 0
69 80 0
65 76 0
68 79 0
64 76 0
56 67 0
64 75 0
50 59 0
53 64 0
52 61 0
54 63 0
46 57 18
52 63 18
54 65 18
41 53 18
55 65 0
60 71 25
56 68 25
49 62 36
54 66 0
69 79 18
49 59 0
55 65 0
53 62 0
60 70 0
69 79 0
64 74 0
64 74 0
73 84 0
63 75 0
74 86 0
73 84 0
70 81 0
91 103 0
86 99 0
82 95 0
80 94 0
97 111 0
88 102 0
86 101 0
96 112 0
95 109 0
102 117 0
93 109 0
93 109 0
102 118 0
107 123 0
105 121 0
103 120 0
99 116 0
113 131 0
111 127 0
97 114 0
104 121 0
108 124 0
120 138 0
110 127 0
99 115 0
129 147 0
115 132 0
120 138 0
102 119 0
119 136 0
109 126 0
116 133 0
118 135 0
115 132 0
130 147 0
117 133 0
117 135 0
115 131 0
121 138 0
120 137 0
127 145 0
121 139 0
128 146 0
125 143 0
127 145 0
129 146 0
133 151 0
123 139 0
120 137 0
110 126 0
122 137 0
118 133 0
119 135 0
118 133 0
125 140 0
121 137 0
120 135 0
119 134 0
115 129 0
118 133 0
125 140 0
111 126 0
113 128 0
116 129 0
123 137 0
113 126 0
106 120 0
116 129 0
115 128 0
111 123 0
114 125 0
105 117 0
101 112 0
94 106 0
99 110 0
100 113 0
110 123 0
101 113 0
105 118 0
109 122 0
113 126 0
107 120 0
116 130 0
120 134 0
113 127 0
119 133 0
114 128 0
123 138 0
118 133 0
122 137 0
119 134 0
123 138 0
120 136 0
125 140 0
125 140 0
125 141 0
129 146 0
130 146 0
126 141 0
124 140 0
131 147 0
132 148 0
132 148 0
134 150 0
131 148 0
128 144 0
134 151 0
124 140 0
129 144 0
134 151 0
135 151 0
135 152 0
133 149 0
131 148 0
136 153 0
134 151 0
140 156 0
138 155 0
142 159 0
137 153 0
134 151 0
143 160 0
138 156 0
140 158 0
139 157 0
139 156 0
143 160 0
142 160 0
139 156 0
142 160 0
146 164 0
143 160 0
143 161 0
138 155 0
138 156 0
139 157 0
141 159 0
142 161 0
141 158 0
138 156 0
144 163 0
144 162 0
144 162 0
143 161 0
143 162 0
146 165 0
147 166 0
145 163 0
146 164 0
146 164 0
143 162 0
146 164 0
143 162 0
148 166 0
147 166 0
146 165 0
145 164 0
146 164 0
144 163 0
145 165 0
146 165 0
147 166 0
147 165 0
152 170 0
146 165 0
151 170 0
152 171 0
147 166 0
151 171 0
149 167 0
148 167 0
151 170 0
148 167 0
148 167 0
150 169 0
152 171 0
150 170 0
149 168 0
151 171 0
150 169 0
151 171 0
151 172 0
152 172 0
149 168 0
150 169 0
151 170 0
154 174 0
145 165 0
152 171 0
149 168 0
149 168 0
150 169 0
150 170 0
147 165 0
147 166 0
151 170 0
149 168 0
149 168 0
150 168 0
147 166 0
148 167 0
147 166 0
145 162 0
152 170 0
148 167 0
150 169 0
148 166 0
151 170 0
148 166 0
141 159 0
146 164 0
146 164 0
143 162 0
145 162 0
143 161 0
149 167 0
141 158 0
144 162 0
144 162 0
144 162 0
148 166 0
145 163 0
142 159 0
140 158 0
142 159 0
144 161 0
142 160 0
144 163 0
142 159 0
140 159 0
142 159 0
145 162 0
141 158 0
140 158 0
143 160 0
144 162 0
141 157 0
137 154 0
140 158 0
139 156 0
138 156 0
140 157 0
139 156 0
140 156 0
140 157 0
138 155 0
138 155 0
144 161 0
134 151 0
132 150 0
133 149 0
137 154 0
138 155 0
138 155 0
129 145 0
137 153 0
127 144 0
140 156 0
130 147 0
129 144 0
128 143 0
134 150 0
130 146 0
132 148 0
122 137 0
126 142 0
127 143 0
127 143 0
128 144 0
125 141 0
124 139 0
130 145 0
129 144 0
125 139 0
127 142 0
123 137 0
124 139 0
117 131 0
117 132 0
119 134 0
114 127 0
109 121 0
107 120 0
109 121 0
114 126 0
112 125 0
111 124 0
97 109 0
93 104 0
102 113 0
94 104 0
102 113 0
94 104 0
101 113 0
106 118 0
105 118 0
113 126 0
105 118 0
115 128 0
107 119 0
114 127 0
107 121 0
126 141 0
106 120 0
109 123 0
121 136 0
119 132 0
117 133 0
115 131 0
124 139 0
124 140 0
126 143 0
120 136 0
124 139 0
117 134 0
127 143 0
108 124 0
114 130 0
119 137 0
126 144 0
117 134 0
129 147 0
125 142 0
120 137 0
127 146 0
123 141 0
115 132 0
125 143 0
113 131 0
121 138 0
124 141 0
122 140 0
124 141 0
122 140 0
113 131 0
116 133 0
116 134 0
124 141 0
118 136 0
119 137 0
109 126 0
126 144 0
122 139 0
105 121 0
123 140 0
106 122 0
106 124 0
102 120 0
115 131 0
113 129 0
97 112 0
107 123 0
114 131 0
96 111 0
111 126 0
99 114 0
108 123 0
98 113 0
106 121 0
89 104 0
81 95 0
81 94 0
72 86 0
73 87 0
85 98 0
77 91 0
76 89 0
80 94 0
65 77 0
71 83 0
73 85 0
71 82 0
83 95 0
59 71 0
65 75 0
43 54 0
65 75 0
68 77 0
63 72 0
50 62 0
47 55 0
57 65 0
59 67 0
71 81 0
54 63 0
60 70 0
67 77 0
53 61 0
70 80 0
63 72 0
70 80 0
62 71 0
63 73 0
50 61 0
68 78 0
73 85 0
72 83 0
73 87 0
88 102 0
75 88 0
84 98 0
86 100 0
77 90 0
76 91 0
88 103 0
85 100 0
82 96 0
88 103 0
87 102 0
89 104 0
94 109 0
110 126 0
111 127 0
101 117 0
102 118 0
126 142 0
104 121 0
104 121 0
102 118 0
112 129 0
101 117 0
97 114 0
113 130 0
129 147 0
122 140 0
121 138 0
115 134 0
103 120 0
131 149 0
118 135 0
116 134 0
112 130 0
112 128 0
127 144 0
116 134 0
127 144 0
120 137 0
126 142 0
127 144 0
126 144 0
121 138 0
120 138 0
117 134 0
121 139 0
124 140 0
127 144 0
126 143 0
116 132 0
125 141 0
124 140 0
117 135 0
119 135 0
120 136 0
119 134 0
120 136 0
119 134 0
122 136 0
114 128 0
124 139 0
118 133 0
120 134 0
119 134 0
113 127 0
108 121 0
108 121 0
121 134 0
117 130 0
108 122 0
111 124 0
112 125 0
108 120 0
105 116 0
103 114 0
103 114 0
92 102 0
95 106 0
98 109 0
105 116 0
105 117 0
100 113 0
103 116 0
105 118 0
109 123 0
118 132 0
106 119 0
110 124 0
118 133 0
119 134 0
115 128 0
114 127 0
117 131 0
125 140 0
125 140 0
125 140 0
121 136 0
122 137 0
118 132 0
120 135 0
128 143 0
122 137 0
133 150 0
130 145 0
126 142 0
128 143 0
131 148 0
138 154 0
135 152 0
125 141 0
134 150 0
132 149 0
138 155 0
133 148 0
132 149 0
134 151 0
134 149 0
142 159 0
137 153 0
139 156 0
139 155 0
134 151 0
136 153 0
137 154 0
137 154 0
144 161 0
142 159 0
145 163 0
140 157 0
141 158 0
142 160 0
140 158 0
143 160 0
141 158 0
143 161 0
144 162 0
142 160 0
144 161 0
144 162 0
140 157 0
141 159 0
141 159 0
139 157 0
137 154 0
141 159 0
145 163 0
147 165 0
143 161 0
145 164 0
147 165 0
147 165 0
141 159 0
144 162 0
143 161 0
145 164 0
143 162 0
147 166 0
148 166 0
147 165 0
148 166 0
148 167 0
147 165 0
147 166 0
146 165 0
146 165 0
151 169 0
152 171 0
148 167 0
148 167 0
149 168 0
148 167 0
149 168 0
149 168 0
148 168 0
150 169 0
149 168 0
150 168 0
149 168 0
148 168 0
149 168 0
149 169 0
153 173 0
148 168 0
149 169 0
150 170 0
147 166 0
151 170 0
151 170 0
147 167 0
148 166 0
150 170 0
150 170 0
148 167 0
151 170 0
150 169 0
150 169 0
150 169 0
149 167 0
152 170 0
149 167 0
150 168 0
146 165 0
147 166 0
146 165 0
147 166 0
147 166 0
145 163 0
147 166 0
142 160 0
146 164 0
145 164 0
147 165 0
145 163 0
142 160 0
144 162 0
146 164 0
145 163 0
146 165 0
144 161 0
144 163 0
142 160 0
138 155 0
143 161 0
142 160 0
144 162 0
144 162 0
143 161 0
142 161 0
143 160 0
146 163 0
144 161 0
139 156 0
144 162 0
144 161 0
143 160 0
145 162 0
136 154 0
144 161 0
140 157 0
134 152 0
142 159 0
138 156 0
139 157 0
138 154 0
138 155 0
139 156 0
140 157 0
137 154 0
137 153 0
140 156 0
136 152 0
134 151 0
132 149 0
136 153 0
138 154 0
133 149 0
130 147 0
131 147 0
131 146 0
134 149 0
127 143 0
134 150 0
130 147 0
127 143 0
133 149 0
125 140 0
129 144 0
122 137 0
125 141 0
130 144 0
120 134 0
115 129 0
122 137 0
126 140 0
120 135 0
112 127 0
115 129 0
118 132 0
121 135 0
115 129 0
107 120 0
112 126 0
108 120 0
107 120 0
111 124 0
112 125 0
110 122 0
114 126 0
94 105 0
96 107 0
91 101 0
98 109 0
90 100 0
105 116 0
100 111 0
97 108 0
104 116 0
102 114 0
108 120 0
117 130 0
104 118 0
109 122 0
112 125 0
115 129 0
116 129 0
108 122 0
118 133 0
121 136 0
116 131 0
111 125 0
125 140 0
119 134 0
127 143 0
114 131 0
122 138 0
132 148 0
118 134 0
128 144 0
126 142 0
124 140 0
125 142 0
126 143 0
111 128 0
126 141 0
124 141 0
123 142 0
117 134 0
122 140 0
118 135 0
118 135 0
117 134 0
115 131 0
119 136 0
117 134 0
117 133 0
118 136 0
118 134 0
114 131 0
115 133 0
105 123 0
115 132 0
125 141 0
124 143 0
125 143 0
113 131 0
114 131 0
107 123 0
112 129 0
116 132 0
110 127 0
110 127 0
104 120 0
111 127 0
102 119 0
104 121 0
108 123 0
103 119 0
94 109 0
97 113 0
88 102 0
97 112 0
95 111 0
93 109 0
96 111 0
84 98 0
82 95 0
85 100 0
72 87 0
72 85 0
80 94 0
82 97 0
83 97 0
72 85 0
81 95 0
80 91 0
74 86 0
75 87 0
48 60 0
76 88 0
61 72 0
62 71 0
61 71 0
63 75 0
68 78 0
60 70 0
57 68 0
55 64 0
62 73 0
73 85 0
62 74 0
78 91 0
67 78 0
80 92 0
71 83 0
79 91 0
63 74 0
60 73 0
83 95 0
80 93 0
84 97 0
83 97 0
79 93 0
72 85 0
88 101 0
81 94 0
74 90 0
87 101 0
99 114 0
97 110 0
94 110 0
92 108 0
92 107 0
92 107 0
96 113 0
95 111 0
91 105 0
121 138 0
106 123 0
108 125 0
105 121 0
105 121 0
112 129 0
101 116 0
104 120 0
111 129 0
120 138 0
115 132 0
117 134 0
112 130 0
122 139 0
125 143 0
125 143 0
115 133 0
128 147 0
114 132 0
126 144 0
112 130 0
132 150 0
126 144 0
122 140 0
123 142 0
126 143 0
122 139 0
126 144 0
124 140 0
110 126 0
123 141 0
121 139 0
119 135 0
120 136 0
115 131 0
117 134 0
128 145 0
125 142 0
121 138 0
116 131 0
113 129 0
115 131 0
113 128 0
123 138 0
112 127 0
118 133 0
108 122 0
115 129 0
117 132 0
113 127 0
114 129 0
108 122 0
110 125 0
116 130 0
113 126 0
113 126 0
98 110 0
114 127 0
100 111 0
104 115 0
95 106 0
92 103 0
88 98 0
100 111 0
93 104 0
106 117 0
97 108 0
101 113 0
110 123 0
111 123 0
110 123 0
113 125 0
117 130 0
112 125 0
124 137 0
116 131 0
115 130 0
125 139 0
122 137 0
127 142 0
120 135 0
129 143 0
127 141 0
122 136 0
132 148 0
124 138 0
122 137 0
127 142 0
126 141 0
122 138 0
128 144 0
130 145 0
126 142 0
130 146 0
132 148 0
134 150 0
132 148 0
134 150 0
130 145 0
138 155 0
135 151 0
133 149 0
133 149 0
136 154 0
135 151 0
143 160 0
137 154 0
138 155 0
135 153 0
134 150 0
138 156 0
141 158 0
139 155 0
134 151 0
142 160 0
144 161 0
141 159 0
134 151 0
142 159 0
143 161 0
138 154 0
145 163 0
143 161 0
141 158 0
140 158 0
136 153 0
140 157 0
144 161 0
143 159 0
144 162 0
145 162 0
145 163 0
144 162 0
144 163 0
142 159 0
144 162 0
142 160 0
139 158 0
144 162 0
144 162 0
144 162 0
150 168 0
149 167 0
146 164 0
146 164 0
149 167 0
149 167 0
146 164 0
148 167 0
146 166 0
150 169 0
146 164 0
147 165 0
151 170 0
142 161 0
150 169 0
150 168 0
146 165 0
151 170 0
148 167 0
148 168 0
153 171 0
150 169 0
150 168 0
149 168 0
149 167 0
151 170 0
151 170 0
149 169 0
152 172 0
152 172 0
152 171 0
152 171 0
150 169 0
149 167 0
150 168 0
152 171 0
148 168 0
148 167 0
148 167 0
145 163 0
149 168 0
149 168 0
147 167 0
147 165 0
146 164 0
149 168 0
149 166 0
146 164 0
145 163 0
147 165 0
145 163 0
147 166 0
144 163 0
144 162 0
141 160 0
143 161 0
143 161 0
143 161 0
147 165 0
144 162 0
145 162 0
142 161 0
147 166 0
145 164 0
144 161 0
145 163 0
143 161 0
144 162 0
142 159 0
141 159 0
142 160 0
142 160 0
143 160 0
139 158 0
136 153 0
144 161 0
146 164 0
139 157 0
144 161 0
140 158 0
135 152 0
137 153 0
139 156 0
140 158 0
136 153 0
139 156 0
135 152 0
133 150 0
136 154 0
140 157 0
136 153 0
134 150 0
138 154 0
136 152 0
133 149 0
141 158 0
136 152 0
134 150 0
128 144 0
135 151 0
133 149 0
128 143 0
137 153 0
125 142 0
128 143 0
134 150 0
133 149 0
128 143 0
130 145 0
124 139 0
120 135 0
126 141 0
121 135 0
123 137 0
124 139 0
121 135 0
123 137 0
119 134 0
109 122 0
115 129 0
120 134 0
114 128 0
112 125 0
110 123 0
112 125 0
109 121 0
104 116 0
108 120 0
110 122 0
99 111 0
89 100 0
95 105 0
97 108 0
100 111 0
108 120 0
101 112 0
100 112 0
109 120 0
105 117 0
108 120 0
113 126 0
104 117 0
114 127 0
113 127 0
110 123 0
111 125 0
108 122 0
102 115 0
119 133 0
113 128 0
119 134 0
122 137 0
124 140 0
120 135 0
125 142 0
118 134 0
133 149 0
116 132 0
120 136 0
130 145 0
120 135 0
119 136 0
126 142 0
126 143 0
123 139 0
118 134 0
116 133 0
127 144 0
125 143 0
123 139 0
117 134 0
122 140 0
120 138 0
126 144 0
115 134 0
115 132 0
108 125 0
116 133 0
121 138 0
121 138 0
124 142 0
116 133 0
115 132 0
119 138 0
123 140 0
109 127 0
117 134 0
117 133 0
115 131 0
116 134 0
117 135 0
108 126 0
107 123 0
108 124 0
107 124 0
107 124 0
97 113 0
102 118 0
108 125 0
111 127 0
95 110 0
103 119 0
107 122 0
84 99 0
88 103 0
93 110 0
88 102 0
86 100 0
90 105 0
90 103 0
80 94 0
69 83 0
78 92 0
87 101 0
68 81 0
87 101 0
78 91 0
87 100 0
74 88 0
80 94 0
84 97 0
72 85 0
80 92 0
81 93 0
72 84 0
83 96 0
66 78 0
71 84 0
65 75 0
69 80 0
74 87 0
79 92 0
73 85 0
75 89 0
85 98 0
68 81 0
87 100 0
80 91 0
80 93 0
82 95 0
93 107 0
69 83 0
82 96 0
71 86 0
91 105 0
95 110 0
86 100 0
98 112 0
83 98 0
100 116 0
109 125 0
96 112 0
110 126 0
92 108 0
95 111 0
104 120 0
102 117 0
112 129 0
102 118 0
110 127 0
96 112 0
103 120 0
107 125 0
100 117 0
110 125 0
122 140 0
119 136 0
111 128 0
114 131 0
111 128 0
109 126 0
125 143 0
124 142 0
126 144 0
116 134 0
126 144 0
117 134 0
126 142 0
127 144 0
134 152 0
117 133 0
122 140 0
118 136 0
120 137 0
130 148 0
117 134 0
121 138 0
129 147 0
131 148 0
126 143 0
135 152 0
115 131 0
122 139 0
110 126 0
112 127 0
103 119 0
122 138 0
124 141 0
115 132 0
122 138 0
119 134 0
121 137 0
119 134 0
119 134 0
121 135 0
117 131 0
109 122 0
116 130 0
109 123 0
109 123 0
116 131 0
110 123 0
113 127 0
109 122 0
112 124 0
110 123 0
108 120 0
112 124 0
117 129 0
110 122 0
102 114 0
102 112 0
95 105 0
93 102 0
94 105 0
98 108 0
98 109 0
102 114 0
103 115 0
96 108 0
114 127 0
115 128 0
114 126 0
118 130 0
116 129 0
119 132 0
116 129 0
120 133 0
116 130 0
122 136 0
115 130 0
115 129 0
126 141 0
117 131 0
124 139 0
132 146 0
126 141 0
124 138 0
126 140 0
126 142 0
122 136 0
129 143 0
125 141 0
132 148 0
130 147 0
131 147 0
132 149 0
132 147 0
135 151 0
136 153 0
127 142 0
134 151 0
134 150 0
133 150 0
139 155 0
139 154 0
130 146 0
139 156 0
135 152 0
135 151 0
142 159 0
139 156 0
141 158 0
137 154 0
136 153 0
138 156 0
140 157 0
143 161 0
142 160 0
142 160 0
138 154 0
144 161 0
144 162 0
143 161 0
141 158 0
142 159 0
141 159 0
139 157 0
145 163 0
142 159 0
145 163 0
146 163 0
143 160 0
145 163 0
144 161 0
143 162 0
145 163 0
147 165 0
143 160 0
146 163 0
146 165 0
147 166 0
146 164 0
148 166 0
148 165 0
146 165 0
149 166 0
147 166 0
148 167 0
148 166 0
148 166 0
146 164 0
148 166 0
150 169 0
147 166 0
151 169 0
148 168 0
153 172 0
151 171 0
152 171 0
148 166 0
152 171 0
150 168 0
150 169 0
149 168 0
150 169 0
152 171 0
151 171 0
161 182 0
151 170 0
150 169 0
148 167 0
151 170 0
149 169 0
149 169 0
150 169 0
146 165 0
149 168 0
146 165 0
147 166 0
150 168 0
148 167 0
148 166 0
152 171 0
146 164 0
144 162 0
146 163 0
149 168 0
149 167 0
145 162 0
145 163 0
146 163 0
144 162 0
146 164 0
143 160 0
149 167 0
144 161 0
145 163 0
146 163 0
140 159 0
145 163 0
142 160 0
142 160 0
139 156 0
143 160 0
143 159 0
143 161 0
144 162 0
140 157 0
141 158 0
140 157 0
137 155 0
139 157 0
142 160 0
142 159 0
132 148 0
141 158 0
140 157 0
138 154 0
143 160 0
138 155 0
133 150 0
132 148 0
139 156 0
140 157 0
143 160 0
134 150 0
133 149 0
137 154 0
132 149 0
139 157 0
135 151 0
136 152 0
135 151 0
133 149 0
135 151 0
135 151 0
131 146 0
132 147 0
132 147 0
134 149 0
131 147 0
128 142 0
125 139 0
131 146 0
134 149 0
129 145 0
124 139 0
130 145 0
123 137 0
121 136 0
122 136 0
122 137 0
123 138 0
127 142 0
125 139 0
118 132 0
118 131 0
117 131 0
125 139 0
117 130 0
111 123 0
112 125 0
111 123 0
111 124 0
103 114 0
100 112 0
96 107 0
95 105 0
90 99 0
87 97 0
101 112 0
104 115 0
98 109 0
104 115 0
103 114 0
104 116 0
109 121 0
114 128 0
103 115 0
113 127 0
114 127 0
118 132 0
105 119 0
118 132 0
114 128 0
117 131 0
122 136 0
118 134 0
117 131 0
114 128 0
130 145 0
129 145 0
125 140 0
133 150 0
120 136 0
121 137 0
126 142 0
114 129 0
134 151 0
127 144 0
118 136 0
133 150 0
124 142 0
115 132 0
121 138 0
113 129 0
131 148 0
128 146 0
124 142 0
120 138 0
126 142 0
121 139 0
119 137 0
129 148 0
117 134 0
127 145 0
125 143 0
120 138 0
113 130 0
126 145 0
110 127 0
117 133 0
122 140 0
118 137 0
117 134 0
118 135 0
111 128 0
111 129 0
116 133 0
109 126 0
96 113 0
109 127 0
120 137 0
107 124 0
108 125 0
111 127 0
110 128 0
108 124 0
113 131 0
95 110 0
109 125 0
87 102 0
102 118 0
91 106 0
85 101 0
82 97 0
103 118 0
102 118 0
76 92 0
89 104 0
83 98 0
99 115 0
93 107 0
84 97 0
84 99 0
84 98 0
84 100 0
87 101 0
74 87 0
77 92 0
75 88 0
77 90 0
73 85 0
65 78 0
71 84 0
73 85 0
81 95 0
80 92 0
95 108 0
70 82 0
85 98 0
86 98 0
90 103 0
79 92 0
71 83 0
82 96 0
82 96 0
75 89 0
84 98 0
90 105 0
77 92 0
88 102 0
77 90 0
95 110 0
93 108 0
85 101 0
89 104 0
96 112 0
93 109 0
89 105 0
95 111 0
104 120 0
108 125 0
103 120 0
107 124 0
91 107 0
107 124 0
89 105 0
123 140 0
108 124 0
111 128 0
111 128 0
117 135 0
109 125 0
120 137 0
113 131 0
107 124 0
110 128 0
114 132 0
114 131 0
116 134 0
116 134 0
116 134 0
116 133 0
106 123 0
114 131 0
111 128 0
121 139 0
121 138 0
124 142 0
124 141 0
126 144 0
122 140 0
122 140 0
125 142 0
123 141 0
123 141 0
126 144 0
122 140 0
124 141 0
122 139 0
115 131 0
112 128 0
127 144 0
130 146 0
121 138 0
120 137 0
118 134 0
123 139 0
118 135 0
119 135 0
109 125 0
113 129 0
117 132 0
119 135 0
110 125 0
131 147 0
116 132 0
112 126 0
115 129 0
113 127 0
121 135 0
126 141 0
106 119 0
114 128 0
108 121 0
105 117 0
116 129 0
110 123 0
114 126 0
100 111 0
96 106 0
98 109 0
106 117 0
86 96 0
87 96 0
90 100 0
104 115 0
100 111 0
108 120 0
110 122 0
107 119 0
110 122 0
120 133 0
112 125 0
122 136 0
114 127 0
121 135 0
121 134 0
120 134 0
114 128 0
121 134 0
117 130 0
125 140 0
119 133 0
119 133 0
129 145 0
121 136 0
124 140 0
126 142 0
128 144 0
127 143 0
132 148 0
134 149 0
134 149 0
132 147 0
131 146 0
133 149 0
131 147 0
137 154 0
132 147 0
132 148 0
136 152 0
124 139 0
132 148 0
141 158 0
136 152 0
135 151 0
136 153 0
137 154 0
138 155 0
142 159 0
140 158 0
144 161 0
141 158 0
137 154 0
139 155 0
139 157 0
137 153 0
140 157 0
144 161 0
143 160 0
137 153 0
142 158 0
142 160 0
144 162 0
145 163 0
141 159 0
143 160 0
142 160 0
142 160 0
142 160 0
143 161 0
147 166 0
142 160 0
149 167 0
144 161 0
145 163 0
144 162 0
142 160 0
147 165 0
147 164 0
145 163 0
147 165 0
145 163 0
143 160 0
147 165 0
148 167 0
147 166 0
146 165 0
147 166 0
147 165 0
145 164 0
147 165 0
146 164 0
149 167 0
149 168 0
148 167 0
149 167 0
149 168 0
151 171 0
148 167 0
150 169 0
150 170 0
149 168 0
154 173 0
158 179 0
170 193 0
169 193 0
165 187 0
155 175 0
151 170 0
149 168 0
151 170 0
150 169 0
152 170 0
148 166 0
150 169 0
147 166 0
149 167 0
147 165 0
146 164 0
146 164 0
150 169 0
144 163 0
146 163 0
146 163 0
149 167 0
144 161 0
150 168 0
148 166 0
146 164 0
147 165 0
146 164 0
143 161 0
146 163 0
144 161 0
144 162 0
145 162 0
142 160 0
145 163 0
144 161 0
147 165 0
140 157 0
142 158 0
141 158 0
140 157 0
141 157 0
139 156 0
139 156 0
141 158 0
143 160 0
139 155 0
141 158 0
135 152 0
133 150 0
137 153 0
135 152 0
138 155 0
144 160 0
137 154 0
134 151 0
138 155 0
146 162 0
138 155 0
131 147 0
136 153 0
135 151 0
135 151 0
134 150 0
135 151 0
134 150 0
131 147 0
134 151 0
132 148 0
134 150 0
126 141 0
135 151 0
135 152 0
123 138 0
129 144 0
128 143 0
127 142 0
127 141 0
127 142 0
124 138 0
125 140 0
122 136 0
122 137 0
129 144 0
120 134 0
119 133 0
109 123 0
122 135 0
118 131 0
119 133 0
115 128 0
115 128 0
114 127 0
109 121 0
112 123 0
109 121 0
98 109 0
90 100 0
96 105 0
93 102 0
97 106 0
84 94 0
88 97 0
98 108 0
95 106 0
102 113 0
101 112 0
105 118 0
101 113 0
110 122 0
117 130 0
110 123 0
104 117 0
113 127 0
114 127 0
125 139 0
115 129 0
121 136 0
122 137 0
118 132 0
114 129 0
119 134 0
125 141 0
129 145 0
123 139 0
122 138 0
116 131 0
128 143 0
121 138 0
126 144 0
113 129 0
130 147 0
128 145 0
134 151 0
127 144 0
123 140 0
121 137 0
120 137 0
119 136 0
113 130 0
130 149 0
135 152 0
118 137 0
124 142 0
129 148 0
120 138 0
124 141 0
120 139 0
116 134 0
124 143 0
129 148 0
117 135 0
116 134 0
118 136 0
126 145 0
113 131 0
123 142 0
127 145 0
106 123 0
119 137 0
121 139 0
113 131 0
121 139 0
105 122 0
120 137 0
113 131 0
111 127 0
117 133 0
108 127 0
116 133 0
113 130 0
102 119 0
102 118 0
107 125 0
104 120 0
105 121 0
98 114 0
103 119 0
94 109 0
104 121 0
101 116 0
108 124 0
95 110 0
103 120 0
107 123 0
94 108 0
92 106 0
83 99 0
79 93 0
80 94 0
76 90 0
92 107 0
96 110 0
83 97 0
88 102 0
67 79 0
91 106 0
89 103 0
89 104 0
74 89 0
68 82 0
80 94 0
85 99 0
77 90 0
81 95 0
85 98 0
87 102 0
85 102 0
83 98 0
81 95 0
96 111 0
85 100 0
89 104 0
89 104 0
93 108 0
85 98 0
103 119 0
89 104 0
105 121 0
88 103 0
91 107 0
102 118 0
106 123 0
91 108 0
96 112 0
97 113 0
95 112 0
111 129 0
96 112 0
105 122 0
97 114 0
105 121 0
111 129 0
103 121 0
106 123 0
111 128 0
112 129 0
121 138 0
117 135 0
111 129 0
110 127 0
117 134 0
128 146 0
111 129 0
118 136 0
122 141 0
120 138 0
120 137 0
124 142 0
125 143 0
122 141 0
124 142 0
116 134 0
129 148 0
132 150 0
123 141 0
121 139 0
116 133 0
124 142 0
125 143 0
125 142 0
128 145 0
122 140 0
130 147 0
124 142 0
125 143 0
120 137 0
117 134 0
133 151 0
120 137 0
126 143 0
113 129 0
123 141 0
117 134 0
129 145 0
122 137 0
130 146 0
120 136 0
119 135 0
128 144 0
126 142 0
112 126 0
112 127 0
113 127 0
110 124 0
118 132 0
102 116 0
113 128 0
106 120 0
122 136 0
109 122 0
103 116 0
105 116 0
111 125 0
104 115 0
99 110 0
107 118 0
108 119 0
91 101 0
101 111 0
98 107 0
95 104 0
95 104 0
99 109 0
102 112 0
102 113 0
105 117 0
107 119 0
106 118 0
112 125 0
115 128 0
110 123 0
119 132 0
108 121 0
118 133 0
123 137 0
118 132 0
117 131 0
125 139 0
117 131 0
126 140 0
130 145 0
127 141 0
125 140 0
132 148 0
128 143 0
134 149 0
132 147 0
131 146 0
128 143 0
129 145 0
137 153 0
130 146 0
126 141 0
137 154 0
133 148 0
134 150 0
138 153 0
131 148 0
137 153 0
133 149 0
139 156 0
140 156 0
136 152 0
142 158 0
135 151 0
140 157 0
140 157 0
137 153 0
139 156 0
134 151 0
144 162 0
138 154 0
142 158 0
137 154 0
141 158 0
141 158 0
142 159 0
140 158 0
141 159 0
145 162 0
139 156 0
140 157 0
142 159 0
142 159 0
142 160 0
145 163 0
140 157 0
143 161 0
144 162 0
144 162 0
142 159 0
143 160 0
145 164 0
143 160 0
148 166 0
146 164 0
146 165 0
147 165 0
147 165 0
145 164 0
143 162 0
145 163 0
146 164 0
146 164 0
148 166 0
150 167 0
151 168 0
148 167 0
146 165 0
147 165 0
151 169 0
149 168 0
152 171 0
147 167 0
151 170 0
150 170 0
157 177 0
161 183 0
169 191 0
169 193 0
170 193 0
171 194 0
168 191 0
170 193 0
168 191 0
160 182 0
155 174 0
150 170 0
147 166 0
150 169 0
149 168 0
147 166 0
149 168 0
147 165 0
144 162 0
146 165 0
149 168 0
146 164 0
147 165 0
147 164 0
145 163 0
147 165 0
147 164 0
148 166 0
148 166 0
143 161 0
141 158 0
143 160 0
145 162 0
146 164 0
143 160 0
142 159 0
141 157 0
144 160 0
145 162 0
139 155 0
144 161 0
139 156 0
141 158 0
142 159 0
140 157 0
144 160 0
141 158 0
142 159 0
145 162 0
142 159 0
134 150 0
144 161 0
135 151 0
142 159 0
137 153 0
136 152 0
142 159 0
137 153 0
134 150 0
131 146 0
136 152 0
132 149 0
130 146 0
132 148 0
142 158 0
139 155 0
134 149 0
132 147 0
139 154 0
132 146 0
131 146 0
132 147 0
128 144 0
127 142 0
133 148 0
129 144 0
126 141 0
121 135 0
132 148 0
130 145 0
128 142 0
125 140 0
119 133 0
119 133 0
118 132 0
129 144 0
123 136 0
121 135 0
115 128 0
114 127 0
114 127 0
119 131 0
110 122 0
98 110 0
111 124 0
96 107 0
105 116 0
96 106 0
94 104 0
88 97 0
80 88 0
84 92 0
97 107 0
93 102 0
96 106 0
91 102 0
96 106 0
97 108 0
105 117 0
106 117 0
109 121 0
108 120 0
108 120 0
116 129 0
108 121 0
111 123 0
105 119 0
122 136 0
119 133 0
112 126 0
110 126 0
117 132 0
122 138 0
133 149 0
124 140 0
111 127 0
128 144 0
123 140 0
126 143 0
115 131 0
110 127 0
128 143 0
127 144 0
125 142 0
117 133 0
131 148 0
131 148 0
127 145 0
127 144 0
114 132 0
136 153 0
116 133 0
114 131 0
126 143 0
137 154 0
119 137 0
131 150 0
130 148 0
128 147 0
116 135 0
116 134 0
117 136 0
120 138 0
125 144 0
126 143 0
126 144 0
116 133 0
127 145 0
134 153 0
120 138 0
120 138 0
111 129 0
126 145 0
120 139 0
119 138 0
109 127 0
111 128 0
109 126 0
111 129 0
107 124 0
119 136 0
113 130 0
107 125 0
108 127 0
103 120 0
98 114 0
103 120 0
101 117 0
96 113 0
102 118 0
107 124 0
88 105 0
99 116 0
104 119 0
93 109 0
103 119 0
98 114 0
86 102 0
94 110 0
95 111 0
100 116 0
94 110 0
104 120 0
102 117 0
96 110 0
97 112 0
83 97 0
87 103 0
92 106 0
97 112 0
86 101 0
83 97 0
94 109 0
83 97 0
81 95 0
94 109 0
85 101 0
98 113 0
91 106 0
86 102 0
100 115 0
91 106 0
88 103 0
86 102 0
89 104 0
80 95 0
105 121 0
94 110 0
83 97 0
94 109 0
88 104 0
106 123 0
110 126 0
83 101 0
102 118 0
97 114 0
97 115 0
98 113 0
106 121 0
105 122 0
99 114 0
94 111 0
110 127 0
100 117 0
122 140 0
102 119 0
111 129 0
103 120 0
112 129 0
110 128 0
115 131 0
108 126 0
120 137 0
114 131 0
113 131 0
121 140 0
109 126 0
130 150 0
120 138 0
126 144 0
138 157 0
117 134 0
124 143 0
121 139 0
126 144 0
117 135 0
113 131 0
126 145 0
135 153 0
118 135 0
124 143 0
114 131 0
129 147 0
128 145 0
128 146 0
120 138 0
123 140 0
130 147 0
129 147 0
125 142 0
126 143 0
125 141 0
125 142 0
127 145 0
116 133 0
123 140 0
128 145 0
118 135 0
120 137 0
130 146 0
118 134 0
119 136 0
110 125 0
123 139 0
120 134 0
126 141 0
121 137 0
112 126 0
115 129 0
113 128 0
115 129 0
115 129 0
124 138 0
116 129 0
114 127 0
107 119 0
110 122 0
110 123 0
108 120 0
103 114 0
104 116 0
90 101 0
103 113 0
96 105 0
91 101 0
93 103 0
86 94 0
95 105 0
87 95 0
92 102 0
93 104 0
105 116 0
99 110 0
98 109 0
117 129 0
100 112 0
109 121 0
115 128 0
114 127 0
121 135 0
117 130 0
116 130 0
114 128 0
123 137 0
115 129 0
125 139 0
121 136 0
128 143 0
124 138 0
127 142 0
121 134 0
135 151 0
123 138 0
125 141 0
128 142 0
132 147 0
129 144 0
134 150 0
133 148 0
132 148 0
136 152 0
130 146 0
136 152 0
134 150 0
137 153 0
139 156 0
133 148 0
138 154 0
137 152 0
137 153 0
132 148 0
134 151 0
140 156 0
137 154 0
142 159 0
137 154 0
135 152 0
143 159 0
140 157 0
140 157 0
142 159 0
144 161 0
140 157 0
142 159 0
142 159 0
137 154 0
142 160 0
144 161 0
145 163 0
139 156 0
141 158 0
142 159 0
143 161 0
142 160 0
148 166 0
142 159 0
147 164 0
142 160 0
143 161 0
149 166 0
147 165 0
150 167 0
142 159 0
141 159 0
147 166 0
146 164 0
148 166 0
146 164 0
147 164 0
145 163 0
150 168 0
148 166 0
149 168 0
148 166 0
147 166 0
148 167 0
150 170 0
155 175 0
160 181 0
165 186 0
169 192 0
171 193 0
172 195 0
170 193 0
171 195 0
171 193 0
173 195 0
168 191 0
169 192 0
169 192 0
169 192 0
166 187 0
159 179 0
153 172 0
151 171 0
143 161 0
148 167 0
150 168 0
147 165 0
145 162 0
146 164 0
150 168 0
149 166 0
147 164 0
144 162 0
147 165 0
145 163 0
142 160 0
147 164 0
143 160 0
143 161 0
145 162 0
144 160 0
143 160 0
145 162 0
144 161 0
135 152 0
145 162 0
140 156 0
144 161 0
147 165 0
144 161 0
142 159 0
136 153 0
141 158 0
139 157 0
141 157 0
142 158 0
136 153 0
142 159 0
142 158 0
137 154 0
134 150 0
141 158 0
137 153 0
135 150 0
134 150 0
135 152 0
130 145 0
136 151 0
128 143 0
132 147 0
134 150 0
136 153 0
139 154 0
136 152 0
136 153 0
133 149 0
133 148 0
131 146 0
137 152 0
130 144 0
124 138 0
131 145 0
128 143 0
129 144 0
125 139 0
121 135 0
123 137 0
115 128 0
123 137 0
125 139 0
123 137 0
119 133 0
120 133 0
117 129 0
121 133 0
121 133 0
114 127 0
102 113 0
110 122 0
109 121 0
98 109 0
102 111 0
95 105 0
99 109 0
81 90 0
80 88 0
79 87 0
95 104 0
91 101 0
84 94 0
92 103 0
102 113 0
105 117 0
106 117 0
118 130 0
104 115 0
119 131 0
113 126 0
109 121 0
111 124 0
116 130 0
124 138 0
122 137 0
108 122 0
113 127 0
126 141 0
116 130 0
111 124 0
127 142 0
122 137 0
126 141 0
119 135 0
116 131 0
123 140 0
123 139 0
126 142 0
126 143 0
133 151 0
127 144 0
129 147 0
128 145 0
122 140 0
121 139 0
130 148 0
129 147 0
127 146 0
131 149 0
121 138 0
123 140 0
128 145 0
118 136 0
120 138 0
127 145 0
123 141 0
119 136 0
134 153 0
127 145 0
121 139 0
122 140 0
124 143 0
128 146 0
128 145 0
131 151 0
133 152 0
119 136 0
116 134 0
121 139 0
117 136 0
118 136 0
128 146 0
124 142 0
115 133 0
127 145 0
112 130 0
110 129 0
126 145 0
126 144 0
117 134 0
114 132 0
107 124 0
117 134 0
110 128 0
104 120 0
117 134 0
109 127 0
102 119 0
101 118 0
102 120 0
104 121 0
109 126 0
107 124 0
92 109 0
112 129 0
105 121 0
111 128 0
90 106 0
107 123 0
103 118 0
90 105 0
92 109 0
87 103 0
94 111 0
81 97 0
88 105 0
93 109 0
102 118 0
103 119 0
94 110 0
93 108 0
92 109 0
92 107 0
90 107 0
86 101 0
98 113 0
97 112 0
93 107 0
87 103 0
76 92 0
99 114 0
96 111 0
91 106 0
90 105 0
101 115 0
90 106 0
91 106 0
87 102 0
97 112 0
98 114 0
102 119 0
100 116 0
100 117 0
106 123 0
109 126 0
109 126 0
101 118 0
101 118 0
104 122 0
108 126 0
110 128 0
113 130 0
112 128 0
111 129 0
111 128 0
110 126 0
114 131 0
113 131 0
111 129 0
112 129 0
118 137 0
114 133 0
112 129 0
118 135 0
116 133 0
106 124 0
121 138 0
118 136 0
121 140 0
122 140 0
125 144 0
127 145 0
122 140 0
127 145 0
127 145 0
129 148 0
134 153 0
126 145 0
127 145 0
125 144 0
120 137 0
123 141 0
119 137 0
128 146 0
132 150 0
124 142 0
132 151 0
129 148 0
124 142 0
122 139 0
135 152 0
127 144 0
124 140 0
133 151 0
123 140 0
128 145 0
125 142 0
126 143 0
129 145 0
124 140 0
119 135 0
117 134 0
131 148 0
118 133 0
127 143 0
132 148 0
130 146 0
117 132 0
125 139 0
110 124 0
124 138 0
117 131 0
123 137 0
127 141 0
112 125 0
106 119 0
111 124 0
117 130 0
100 113 0
108 120 0
104 117 0
111 123 0
111 123 0
108 118 0
102 113 0
97 108 0
93 103 0
90 99 0
93 102 0
90 98 0
92 101 0
86 95 0
84 93 0
96 106 0
97 107 0
108 119 0
115 127 0
105 117 0
107 119 0
107 118 0
125 138 0
107 119 0
121 134 0
117 130 0
120 134 0
118 131 0
116 129 0
124 137 0
120 134 0
128 142 0
120 133 0
126 141 0
126 140 0
129 143 0
125 139 0
131 147 0
130 145 0
131 147 0
128 143 0
125 140 0
132 147 0
134 150 0
130 145 0
137 152 0
134 150 0
132 147 0
131 145 0
134 151 0
132 147 0
140 156 0
134 150 0
137 154 0
135 151 0
137 153 0
138 155 0
133 148 0
138 153 0
141 157 0
141 157 0
139 156 0
136 153 0
141 158 0
142 159 0
142 160 0
145 163 0
141 158 0
138 155 0
146 163 0
144 161 0
141 157 0
145 162 0
143 160 0
144 161 0
145 162 0
146 163 0
144 161 0
144 160 0
145 162 0
146 163 0
147 164 0
142 159 0
146 163 0
149 166 0
147 166 0
146 164 0
149 167 0
146 163 0
145 163 0
146 163 0
145 163 0
148 166 0
146 165 0
151 169 0
148 167 0
153 173 0
157 178 0
168 190 0
173 195 0
171 194 0
171 194 0
168 191 0
170 193 0
171 193 0
171 194 0
170 192 0
171 193 0
170 192 0
167 191 0
171 193 0
168 190 0
171 192 0
167 189 0
171 193 0
171 193 0
169 192 0
163 184 0
158 177 0
148 167 0
148 167 0
144 162 0
145 163 0
149 167 0
144 160 0
147 164 0
147 164 0
146 164 0
148 166 0
145 162 0
146 163 0
138 154 0
146 163 0
145 161 0
143 160 0
143 160 0
141 157 0
139 157 0
141 158 0
142 158 0
139 155 0
142 158 0
143 161 0
142 159 0
143 159 0
142 159 0
137 154 0
137 153 0
140 156 0
142 158 0
140 156 0
138 154 0
139 155 0
139 155 0
134 149 0
132 147 0
138 154 0
133 150 0
137 153 0
139 155 0
136 151 0
135 150 0
131 147 0
136 152 0
129 144 0
128 143 0
130 146 0
130 145 0
129 144 0
128 142 0
127 141 0
130 145 0
132 146 0
129 143 0
127 141 0
127 142 0
124 138 0
128 142 0
123 137 0
129 144 0
123 136 0
120 133 0
113 126 0
115 128 0
120 133 0
111 124 0
116 129 0
119 132 0
111 123 0
105 117 0
101 112 0
104 115 0
106 117 0
93 104 0
84 92 0
83 91 0
91 99 0
90 98 0
100 109 0
93 103 0
95 105 0
103 113 0
103 114 0
101 111 0
104 116 0
109 122 0
112 124 0
110 122 0
114 126 0
105 117 0
108 120 0
121 134 0
111 124 0
126 139 0
121 135 0
111 126 0
123 137 0
125 141 0
134 150 0
124 139 0
128 143 0
128 143 0
125 141 0
122 138 0
127 144 0
129 146 0
117 134 0
126 143 0
130 147 0
123 139 0
123 140 0
122 138 0
119 135 0
132 149 0
127 144 0
132 149 0
123 140 0
128 146 0
121 138 0
126 143 0
130 148 0
122 139 0
130 147 0
123 140 0
129 146 0
125 142 0
134 152 0
120 137 0
111 128 0
125 144 0
129 146 0
125 144 0
126 144 0
121 139 0
125 144 0
128 146 0
132 148 0
127 145 0
113 131 0
120 138 0
120 137 0
120 138 0
122 140 0
134 152 0
120 138 0
115 132 0
116 134 0
124 142 0
113 131 0
110 128 0
114 131 0
110 127 0
121 139 0
116 133 0
110 128 0
108 126 0
110 128 0
105 122 0
115 132 0
106 123 0
114 131 0
102 119 0
109 125 0
111 128 0
93 110 0
89 105 0
100 118 0
113 129 0
103 119 0
109 127 0
116 133 0
110 126 0
92 108 0
100 115 0
105 122 0
91 107 0
91 108 0
102 117 0
95 110 0
84 99 0
101 117 0
92 109 0
95 112 0
102 118 0
101 116 0
97 113 0
98 115 0
100 116 0
97 112 0
96 112 0
102 119 0
107 124 0
94 109 0
109 126 0
108 125 0
95 110 0
104 120 0
102 119 0
107 122 0
89 105 0
101 118 0
91 108 0
106 122 0
104 120 0
108 125 0
107 124 0
97 115 0
98 115 0
98 114 0
114 130 0
111 129 0
113 130 0
108 126 0
107 123 0
110 128 0
110 127 0
124 142 0
126 144 0
123 142 0
118 135 0
120 138 0
109 125 0
113 130 0
123 142 0
121 141 0
106 124 0
111 128 0
128 147 0
115 134 0
131 149 0
116 134 0
119 136 0
118 136 0
122 141 0
123 142 0
131 149 0
129 150 0
135 154 0
126 144 0
125 144 0
121 139 0
124 142 0
134 152 0
122 140 0
123 141 0
128 146 0
126 143 0
126 144 0
125 143 0
127 144 0
120 137 0
121 138 0
132 149 0
131 149 0
128 147 0
124 142 0
123 139 0
132 150 0
126 143 0
134 152 0
119 134 0
131 147 0
125 140 0
128 144 0
120 137 0
115 131 0
125 141 0
128 144 0
120 136 0
125 141 0
119 133 0
116 131 0
123 138 0
121 137 0
116 131 0
121 135 0
123 138 0
109 123 0
121 135 0
115 128 0
119 132 0
109 121 0
106 118 0
114 126 0
117 130 0
107 119 0
100 112 0
91 101 0
100 111 0
108 120 0
100 111 0
97 107 0
95 104 0
93 102 0
94 103 0
72 80 0
87 96 0
95 104 0
91 101 0
103 114 0
106 117 0
115 127 0
105 117 0
115 127 0
119 132 0
112 124 0
115 128 0
111 124 0
126 139 0
129 142 0
117 130 0
130 144 0
128 141 0
122 136 0
131 147 0
125 139 0
127 141 0
130 144 0
122 136 0
131 146 0
126 140 0
125 140 0
131 146 0
122 136 0
132 147 0
132 147 0
138 153 0
136 152 0
134 149 0
134 150 0
133 147 0
134 149 0
135 150 0
131 145 0
133 149 0
138 153 0
130 146 0
138 154 0
141 157 0
136 152 0
134 150 0
143 158 0
140 156 0
140 157 0
141 158 0
141 157 0
142 158 0
142 157 0
140 156 0
139 155 0
137 153 0
136 152 0
143 160 0
142 159 0
142 159 0
142 159 0
143 160 0
144 161 0
142 160 0
144 161 0
146 163 0
147 165 0
145 161 0
143 161 0
145 163 0
144 162 0
146 163 0
145 163 0
148 165 0
150 169 0
144 162 0
149 166 0
151 171 0
158 177 0
162 183 0
168 190 0
168 190 0
171 193 0
169 191 0
167 190 0
168 191 0
170 193 0
171 193 0
172 194 0
172 194 0
169 191 0
171 194 0
168 191 0
168 192 0
165 188 0
170 192 0
173 194 0
170 192 0
168 190 0
171 192 0
171 191 0
169 191 0
169 191 0
169 190 0
169 191 0
165 187 0
160 180 0
155 174 0
150 169 0
144 163 0
145 162 0
147 164 0
148 166 0
146 163 0
144 162 0
144 161 0
144 161 0
145 162 0
143 160 0
143 160 0
141 158 0
146 163 0
145 161 0
140 156 0
142 158 0
140 156 0
142 158 0
145 160 0
141 157 0
138 155 0
139 155 0
135 151 0
139 154 0
139 155 0
135 151 0
140 155 0
141 157 0
138 154 0
136 151 0
141 156 0
142 158 0
139 154 0
133 147 0
133 148 0
133 148 0
130 146 0
133 148 0
138 153 0
129 144 0
132 146 0
129 144 0
134 148 0
133 148 0
126 140 0
126 140 0
128 142 0
128 141 0
128 142 0
124 137 0
124 138 0
123 136 0
125 139 0
120 133 0
124 137 0
125 138 0
114 127 0
123 136 0
113 126 0
121 133 0
115 127 0
112 124 0
112 123 0
106 117 0
103 113 0
95 105 0
90 99 0
90 99 0
88 97 0
93 101 0
99 109 0
87 96 0
92 102 0
100 109 0
88 97 0
113 124 0
112 123 0
112 124 0
104 115 0
105 117 0
109 122 0
111 124 0
114 127 0
106 119 0
119 133 0
114 126 0
109 122 0
106 120 0
123 138 0
123 137 0
117 132 0
123 138 0
119 134 0
126 141 0
123 138 0
120 135 0
133 149 0
123 139 0
131 147 0
129 144 0
132 149 0
118 135 0
122 138 0
127 144 0
123 139 0
126 143 0
130 147 0
134 151 0
127 144 0
125 142 0
132 150 0
122 140 0
117 134 0
129 146 0
139 158 0
126 143 0
130 148 0
125 143 0
133 152 0
129 146 0
124 142 0
125 142 0
126 144 0
137 155 0
115 132 0
123 141 0
125 143 0
125 143 0
125 144 0
118 136 0
115 134 0
124 143 0
128 148 0
119 138 0
123 142 0
128 147 0
106 124 0
121 141 0
118 137 0
120 139 0
107 128 0
114 132 0
119 137 0
116 134 0
130 148 0
113 131 0
117 136 0
118 137 0
113 131 0
114 132 0
114 132 0
104 122 0
116 132 0
125 143 0
115 133 0
114 133 0
110 128 0
115 132 0
94 112 0
112 129 0
130 148 0
110 126 0
107 125 0
113 130 0
107 124 0
109 126 0
103 120 0
103 120 0
112 131 0
109 127 0
105 122 0
109 126 0
105 123 0
89 106 0
108 125 0
100 118 0
100 116 0
108 125 0
98 114 0
98 115 0
101 118 0
92 109 0
97 115 0
83 100 0
114 132 0
108 126 0
99 116 0
107 125 0
104 122 0
94 110 0
90 106 0
101 118 0
96 112 0
89 107 0
102 118 0
95 112 0
99 117 0
99 117 0
102 119 0
99 117 0
108 126 0
106 123 0
119 137 0
108 126 0
109 126 0
107 125 0
94 111 0
106 123 0
108 124 0
93 109 0
110 128 0
117 136 0
106 123 0
114 132 0
115 133 0
112 131 0
111 131 0
118 138 0
125 144 0
133 151 0
124 142 0
117 135 0
128 146 0
121 139 0
118 135 0
125 144 0
120 139 0
129 148 0
126 145 0
121 139 0
123 142 0
132 151 0
125 144 0
122 141 0
126 144 0
136 154 0
129 149 0
117 136 0
124 142 0
132 151 0
114 132 0
128 146 0
127 145 0
131 150 0
131 149 0
125 143 0
126 143 0
131 148 0
126 144 0
134 150 0
113 131 0
123 142 0
118 135 0
131 148 0
125 142 0
129 146 0
127 144 0
132 148 0
123 139 0
128 145 0
124 140 0
132 148 0
133 149 0
133 149 0
138 155 0
129 146 0
121 137 0
117 132 0
119 134 0
128 143 0
129 143 0
121 136 0
126 141 0
123 137 0
125 140 0
116 130 0
114 128 0
123 137 0
118 131 0
117 131 0
111 124 0
111 124 0
109 121 0
102 114 0
109 120 0
101 112 0
109 121 0
106 117 0
111 122 0
99 109 0
93 102 0
96 105 0
95 103 0
89 98 0
99 108 0
98 107 0
87 96 0
96 106 0
99 110 0
104 114 0
109 121 0
112 123 0
112 124 0
107 119 0
118 130 0
121 133 0
113 125 0
115 128 0
121 134 0
124 137 0
129 142 0
121 133 0
117 131 0
124 138 0
124 138 0
125 139 0
132 147 0
128 142 0
125 139 0
131 145 0
131 146 0
136 151 0
131 146 0
131 146 0
135 150 0
134 149 0
132 147 0
135 151 0
140 155 0
134 150 0
133 149 0
139 154 0
130 146 0
137 152 0
138 154 0
136 151 0
140 156 0
142 159 0
133 149 0
140 156 0
135 151 0
143 160 0
140 155 0
139 155 0
141 156 0
136 152 0
138 155 0
138 154 0
140 157 0
147 164 0
140 156 0
142 158 0
141 157 0
143 160 0
141 157 0
140 157 0
147 165 0
142 160 0
142 159 0
144 161 0
145 162 0
144 162 0
145 162 0
148 166 0
152 170 0
154 174 0
159 179 0
165 185 0
169 191 0
170 192 0
171 193 0
169 191 0
169 190 0
167 189 0
173 194 0
170 192 0
166 188 0
169 191 0
170 192 0
170 192 0
170 193 0
168 191 0
168 191 0
171 192 0
172 195 0
170 192 0
169 191 0
167 189 0
169 191 0
169 191 0
168 190 0
168 190 0
168 190 0
166 188 0
169 190 0
169 191 0
169 191 0
168 190 0
168 189 0
167 188 0
163 183 0
163 183 0
158 177 0
152 170 0
144 162 0
147 164 0
147 164 0
144 161 0
145 161 0
142 159 0
147 165 0
143 160 0
147 163 0
141 157 0
139 155 0
141 158 0
141 158 0
140 157 0
137 152 0
142 158 0
138 154 0
140 156 0
138 153 0
139 155 0
137 152 0
135 151 0
137 152 0
135 150 0
133 149 0
138 153 0
137 152 0
136 151 0
129 145 0
129 144 0
133 148 0
127 141 0
132 146 0
131 146 0
135 150 0
127 140 0
123 137 0
132 146 0
131 146 0
127 141 0
126 140 0
136 151 0
133 148 0
123 137 0
123 137 0
118 131 0
126 140 0
126 139 0
128 141 0
116 129 0
121 134 0
116 129 0
117 130 0
108 119 0
117 129 0
111 122 0
103 114 0
100 110 0
101 110 0
100 109 0
87 95 0
90 98 0
98 107 0
99 109 0
99 109 0
103 114 0
106 116 0
91 101 0
101 112 0
109 121 0
98 109 0
108 119 0
109 120 0
109 121 0
120 132 0
117 129 0
114 127 0
112 125 0
114 127 0
123 137 0
116 130 0
127 141 0
124 139 0
127 142 0
122 137 0
126 141 0
114 129 0
127 144 0
126 141 0
126 142 0
128 142 0
127 143 0
124 140 0
128 144 0
137 153 0
133 150 0
136 153 0
124 141 0
126 143 0
128 144 0
131 149 0
134 151 0
131 148 0
134 151 0
120 137 0
126 144 0
130 147 0
134 152 0
138 156 0
127 145 0
130 149 0
130 148 0
135 154 0
129 146 0
118 135 0
126 144 0
129 148 0
122 141 0
133 151 0
114 132 0
135 154 0
116 134 0
135 154 0
120 140 0
132 151 0
118 136 0
125 143 0
123 142 0
126 146 0
125 143 0
130 148 0
121 139 0
126 145 0
118 138 0
114 132 0
119 138 0
125 143 0
130 150 0
113 131 0
122 140 0
118 137 0
119 138 0
120 139 0
121 139 0
122 141 0
123 142 0
122 141 0
128 146 0
119 137 0
109 126 0
112 130 0
124 141 0
105 123 0
110 128 0
101 118 0
121 138 0
113 130 0
124 143 0
102 119 0
112 131 0
111 131 0
105 123 0
106 123 0
105 124 0
102 120 0
105 123 0
106 124 0
94 111 0
112 130 0
104 121 0
117 135 0
102 119 0
94 110 0
102 118 0
111 128 0
109 126 0
110 127 0
110 128 0
105 122 0
101 119 0
110 127 0
109 126 0
112 130 0
93 110 0
99 114 0
99 116 0
108 125 0
99 116 0
104 121 0
98 116 0
105 123 0
102 120 0
100 118 0
114 132 0
96 113 0
108 125 0
116 135 0
113 130 0
99 117 0
103 120 0
93 111 0
105 123 0
108 126 0
116 134 0
112 129 0
116 134 0
125 143 0
128 147 0
121 138 0
129 148 0
123 140 0
112 129 0
118 136 0
130 148 0
127 145 0
120 138 0
125 144 0
113 131 0
118 137 0
129 147 0
120 139 0
127 146 0
131 149 0
120 138 0
119 138 0
131 149 0
130 150 0
124 143 0
128 146 0
120 139 0
120 138 0
133 152 0
130 149 0
134 152 0
131 149 0
126 143 0
123 141 0
139 158 0
123 140 0
123 141 0
115 132 0
136 153 0
129 147 0
136 155 0
131 150 0
127 145 0
123 141 0
131 149 0
129 145 0
137 155 0
131 148 0
120 137 0
138 156 0
129 145 0
136 153 0
131 149 0
130 146 0
131 148 0
123 139 0
122 139 0
132 147 0
124 140 0
127 144 0
122 139 0
118 135 0
130 146 0
129 145 0
134 150 0
117 133 0
126 142 0
122 137 0
128 144 0
130 145 0
122 136 0
126 141 0
115 129 0
118 132 0
120 134 0
122 135 0
120 135 0
110 123 0
113 125 0
102 114 0
111 124 0
109 121 0
109 120 0
106 117 0
109 121 0
104 115 0
100 110 0
104 114 0
100 110 0
93 102 0
94 102 0
100 110 0
86 95 0
93 102 0
98 107 0
95 105 0
104 114 0
107 118 0
113 125 0
114 125 0
113 125 0
124 137 0
113 124 0
112 124 0
122 134 0
119 132 0
125 140 0
125 138 0
122 135 0
125 138 0
135 149 0
127 141 0
127 142 0
124 137 0
124 137 0
124 138 0
134 149 0
129 144 0
131 146 0
130 144 0
132 147 0
138 153 0
140 155 0
132 147 0
136 151 0
134 150 0
140 155 0
134 149 0
136 152 0
135 150 0
133 148 0
137 153 0
137 151 0
142 158 0
139 155 0
140 156 0
139 154 0
137 153 0
138 154 0
139 156 0
137 153 0
141 158 0
140 156 0
138 154 0
143 159 0
137 153 0
141 158 0
137 153 0
144 160 0
146 163 0
143 161 0
145 163 0
149 165 0
149 167 0
158 178 0
162 181 0
165 186 0
166 186 0
167 187 0
166 187 0
169 191 0
168 190 0
170 191 0
168 189 0
167 189 0
169 192 0
167 189 0
170 192 0
169 191 0
169 191 0
171 193 0
168 190 0
168 191 0
169 190 0
171 192 0
169 191 0
169 192 0
171 194 0
169 190 0
168 190 0
171 192 0
169 191 0
171 192 0
170 191 0
169 190 0
170 190 0
166 188 0
165 187 0
168 190 0
167 189 0
167 188 0
166 186 0
166 186 0
167 187 0
166 188 0
166 186 0
166 186 0
166 187 0
163 183 0
156 175 0
151 169 0
157 175 0
147 165 0
144 162 0
143 160 0
147 164 0
142 158 0
143 159 0
140 156 0
139 156 0
135 151 0
139 155 0
134 150 0
136 152 0
141 157 0
139 154 0
135 150 0
136 151 0
135 150 0
132 147 0
131 145 0
133 147 0
137 152 0
134 148 0
132 146 0
133 147 0
131 145 0
129 143 0
134 149 0
131 145 0
129 144 0
133 148 0
128 142 0
126 140 0
121 134 0
131 144 0
123 135 0
121 135 0
130 144 0
129 142 0
126 140 0
116 128 0
121 134 0
124 137 0
125 139 0
112 124 0
109 121 0
116 128 0
108 119 0
110 121 0
101 112 0
103 113 0
107 118 0
114 124 0
98 107 0
104 114 0
105 115 0
95 104 0
97 107 0
113 124 0
100 111 0
111 121 0
106 116 0
104 115 0
112 123 0
113 125 0
103 114 0
108 120 0
116 129 0
114 127 0
118 131 0
118 131 0
115 128 0
125 140 0
115 130 0
126 139 0
125 139 0
131 146 0
120 135 0
116 131 0
126 142 0
125 141 0
121 137 0
135 151 0
127 143 0
127 143 0
133 149 0
120 136 0
126 142 0
124 140 0
124 139 0
128 145 0
123 140 0
127 144 0
129 145 0
130 147 0
133 151 0
132 148 0
119 136 0
133 151 0
129 148 0
141 159 0
124 142 0
130 148 0
126 144 0
130 149 0
131 149 0
133 152 0
120 138 0
122 140 0
133 151 0
138 158 0
135 153 0
141 161 0
121 140 0
126 144 0
126 145 0
126 144 0
134 153 0
139 159 0
130 149 0
132 151 0
127 146 0
122 140 0
120 140 0
120 139 0
130 149 0
123 142 0
120 138 0
121 140 0
132 151 0
125 143 0
137 157 0
115 134 0
126 145 0
130 150 0
133 151 0
109 127 0
118 137 0
112 131 0
116 135 0
115 134 0
114 133 0
128 147 0
128 148 0
115 133 0
128 147 0
127 145 0
127 146 0
112 131 0
112 129 0
114 134 0
108 127 0
117 136 0
102 122 0
105 123 0
100 119 0
110 127 0
115 133 0
113 129 0
109 126 0
110 128 0
98 116 0
105 123 0
102 119 0
115 133 0
97 115 0
115 133 0
111 130 0
115 132 0
111 130 0
105 124 0
114 131 0
100 116 0
111 130 0
99 116 0
93 110 0
127 145 0
109 126 0
113 132 0
101 120 0
107 125 0
111 128 0
107 124 0
96 114 0
113 131 0
108 126 0
102 118 0
108 125 0
104 122 0
101 118 0
104 122 0
90 109 0
118 136 0
111 129 0
114 132 0
120 138 0
119 138 0
119 137 0
119 138 0
117 135 0
126 144 0
120 139 0
121 139 0
110 128 0
112 129 0
127 146 0
124 142 0
115 133 0
122 141 0
128 147 0
122 140 0
119 138 0
122 140 0
124 143 0
120 139 0
124 144 0
120 139 0
132 151 0
123 142 0
127 147 0
125 144 0
138 158 0
124 143 0
126 146 0
134 152 0
135 154 0
133 152 0
131 150 0
128 146 0
134 153 0
129 148 0
132 150 0
128 146 0
132 150 0
127 145 0
131 149 0
128 147 0
134 153 0
134 153 0
133 152 0
132 150 0
138 156 0
127 144 0
131 150 0
121 137 0
131 149 0
132 151 0
140 159 0
127 143 0
125 143 0
126 144 0
136 153 0
132 150 0
119 135 0
122 139 0
127 143 0
131 148 0
129 146 0
131 147 0
130 148 0
121 137 0
123 139 0
127 143 0
126 143 0
132 147 0
122 138 0
127 142 0
114 130 0
121 136 0
130 146 0
125 140 0
121 135 0
119 133 0
123 137 0
121 135 0
135 149 0
114 128 0
115 128 0
123 136 0
115 128 0
114 127 0
106 118 0
107 118 0
102 114 0
109 121 0
105 116 0
101 112 0
98 108 0
109 119 0
107 118 0
105 114 0
102 112 0
102 112 0
103 113 0
92 100 0
98 108 0
103 113 0
96 106 0
89 98 0
110 120 0
107 117 0
104 115 0
110 121 0
112 125 0
117 129 0
120 132 0
116 128 0
116 128 0
118 131 0
127 140 0
119 132 0
120 133 0
126 139 0
132 145 0
127 140 0
130 144 0
127 141 0
127 140 0
136 150 0
131 146 0
132 146 0
133 148 0
134 149 0
131 145 0
129 144 0
126 141 0
130 145 0
133 148 0
133 147 0
132 146 0
137 151 0
133 148 0
138 153 0
138 154 0
137 153 0
142 158 0
138 154 0
141 155 0
138 154 0
144 161 0
141 157 0
140 156 0
141 158 0
141 157 0
137 152 0
146 163 0
147 164 0
152 170 0
156 174 0
159 177 0
163 184 0
165 186 0
166 186 0
166 187 0
167 187 0
168 189 0
165 186 0
165 185 0
168 190 0
169 190 0
166 187 0
169 191 0
167 189 0
167 188 0
168 191 0
166 187 0
167 189 0
166 188 0
165 186 0
168 191 0
165 186 0
171 193 0
171 193 0
167 190 0
168 190 0
168 191 0
170 191 0
167 189 0
168 190 0
171 192 0
168 190 0
168 190 0
169 190 0
166 187 0
167 190 0
168 189 0
167 189 0
165 185 0
167 189 0
165 186 0
165 187 0
166 187 0
164 185 0
159 179 0
165 185 0
166 186 0
163 183 0
165 185 0
164 183 0
160 180 0
162 183 0
164 183 0
164 184 0
161 180 0
151 169 0
157 174 0
147 165 0
145 161 0
148 165 0
143 158 0
138 153 0
136 151 0
146 161 0
136 150 0
132 147 0
132 146 0
137 152 0
135 150 0
127 141 0
131 145 0
138 153 0
128 142 0
137 151 0
125 139 0
126 139 0
126 140 0
130 143 0
132 145 0
122 136 0
128 141 0
126 139 0
122 135 0
123 136 0
127 140 0
123 136 0
122 135 0
117 129 0
120 132 0
121 132 0
117 129 0
111 122 0
120 131 0
111 122 0
110 120 0
111 122 0
114 124 0
107 118 0
105 115 0
112 123 0
104 114 0
107 117 0
103 113 0
110 120 0
109 119 0
102 113 0
101 111 0
116 127 0
117 128 0
107 118 0
109 120 0
107 118 0
112 124 0
115 128 0
110 123 0
108 121 0
120 132 0
119 132 0
124 138 0
123 136 0
120 133 0
119 132 0
123 139 0
118 131 0
126 141 0
126 140 0
128 143 0
127 142 0
119 135 0
127 143 0
122 137 0
134 151 0
126 142 0
126 143 0
137 153 0
133 149 0
130 147 0
127 143 0
128 144 0
130 147 0
127 144 0
129 145 0
136 153 0
133 151 0
137 154 0
134 151 0
135 154 0
126 144 0
130 147 0
133 151 0
123 141 0
136 154 0
119 136 0
128 147 0
125 143 0
134 152 0
122 140 0
127 146 0
127 145 0
113 132 0
125 142 0
120 138 0
130 149 0
131 150 0
127 145 0
115 134 0
139 158 0
131 150 0
128 147 0
126 145 0
133 152 0
126 146 0
131 150 0
131 151 0
123 144 0
121 139 0
145 165 0
119 137 0
121 141 0
114 132 0
126 145 0
135 154 0
119 137 0
138 157 0
126 146 0
130 149 0
124 143 0
126 146 0
129 147 0
115 134 0
123 142 0
122 141 0
126 146 0
118 137 0
111 131 0
113 132 0
107 124 0
126 145 0
107 125 0
110 129 0
126 145 0
114 132 0
102 120 0
101 119 0
102 121 0
118 137 0
110 129 0
119 138 0
114 133 0
118 137 0
114 133 0
111 131 0
109 128 0
113 131 0
102 120 0
112 131 0
102 120 0
115 133 0
105 123 0
103 122 0
121 140 0
110 128 0
106 123 0
115 134 0
105 121 0
107 127 0
110 129 0
114 132 0
115 134 0
111 129 0
116 133 0
116 134 0
114 131 0
106 124 0
107 126 0
111 130 0
109 128 0
106 126 0
109 128 0
113 130 0
112 130 0
116 134 0
114 132 0
120 138 0
112 131 0
114 132 0
113 131 0
108 126 0
115 132 0
127 145 0
122 140 0
117 136 0
110 128 0
114 133 0
119 137 0
111 131 0
108 127 0
111 130 0
112 129 0
115 134 0
117 137 0
122 140 0
114 132 0
114 132 0
127 146 0
132 152 0
117 137 0
127 146 0
135 155 0
133 152 0
131 150 0
128 147 0
131 149 0
127 145 0
128 147 0
141 161 0
134 154 0
117 135 0
127 146 0
130 149 0
130 149 0
125 144 0
124 142 0
128 148 0
127 146 0
126 145 0
131 150 0
128 147 0
115 134 0
138 157 0
141 161 0
122 140 0
121 140 0
140 159 0
133 152 0
133 151 0
122 139 0
131 148 0
136 154 0
127 144 0
134 151 0
137 155 0
135 152 0
129 146 0
126 142 0
124 141 0
122 139 0
122 138 0
128 145 0
126 142 0
125 141 0
122 137 0
134 151 0
135 151 0
128 145 0
130 146 0
131 148 0
130 145 0
120 135 0
125 141 0
131 147 0
128 144 0
124 138 0
131 147 0
111 125 0
128 142 0
122 136 0
122 135 0
127 141 0
118 132 0
120 133 0
121 134 0
120 133 0
111 123 0
105 116 0
113 126 0
110 122 0
119 131 0
112 124 0
109 120 0
114 126 0
109 120 0
114 126 0
105 115 0
107 117 0
112 124 0
104 114 0
99 109 0
104 114 0
105 116 0
105 115 0
109 120 0
113 124 0
112 123 0
113 124 0
111 122 0
115 126 0
112 123 0
124 136 0
121 133 0
114 125 0
124 136 0
125 138 0
114 126 0
116 128 0
120 133 0
125 138 0
125 138 0
127 141 0
127 141 0
125 139 0
124 137 0
126 139 0
126 140 0
135 149 0
129 143 0
133 147 0
134 149 0
133 147 0
131 145 0
133 147 0
135 150 0
136 150 0
138 153 0
138 153 0
135 150 0
141 157 0
138 153 0
136 152 0
138 154 0
143 159 0
147 164 0
149 165 0
151 168 0
155 173 0
159 177 0
165 184 0
161 180 0
165 185 0
164 184 0
168 187 0
165 185 0
164 184 0
165 186 0
157 177 0
164 185 0
165 186 0
165 185 0
164 186 0
168 189 0
165 186 0
166 186 0
167 188 0
166 187 0
165 185 0
168 189 0
168 190 0
167 187 0
168 189 0
168 190 0
170 192 0
169 190 0
171 193 0
169 191 0
171 193 0
168 189 0
170 192 0
168 189 0
169 191 0
171 193 0
167 189 0
167 189 0
166 188 0
167 188 0
165 187 0
167 188 0
164 185 0
167 187 0
166 186 0
166 188 0
165 187 0
164 184 0
164 185 0
165 186 0
165 185 0
165 185 0
164 184 0
166 185 0
162 182 0
165 184 0
165 184 0
164 184 0
164 183 0
159 178 0
157 175 0
161 179 0
162 181 0
159 177 0
158 177 0
159 177 0
156 174 0
157 174 0
159 177 0
149 166 0
152 169 0
150 166 0
150 166 0
145 160 0
143 158 0
144 159 0
141 156 0
137 152 0
141 156 0
139 153 0
134 148 0
132 147 0
133 146 0
124 137 0
130 144 0
134 147 0
128 141 0
131 145 0
125 138 0
129 141 0
123 136 0
122 135 0
123 135 0
121 133 0
116 126 0
123 134 0
120 131 0
112 122 0
123 134 0
115 126 0
113 123 0
117 128 0
107 118 0
117 129 0
120 132 0
106 117 0
108 119 0
115 126 0
97 108 0
115 126 0
108 119 0
119 130 0
113 124 0
121 133 0
111 123 0
120 132 0
109 121 0
122 135 0
110 122 0
118 131 0
117 130 0
125 138 0
114 127 0
130 144 0
119 132 0
121 135 0
129 144 0
128 143 0
130 145 0
124 140 0
132 147 0
129 144 0
120 136 0
130 146 0
124 139 0
125 140 0
132 147 0
130 146 0
134 150 0
120 136 0
127 143 0
125 142 0
131 147 0
127 144 0
142 159 0
130 146 0
136 153 0
128 144 0
135 152 0
134 151 0
117 134 0
124 141 0
131 149 0
127 145 0
127 145 0
138 157 0
133 151 0
137 155 0
129 147 0
131 149 0
134 152 0
131 149 0
131 149 0
131 150 0
140 160 0
128 147 0
130 149 0
123 142 0
139 158 0
128 147 0
135 153 0
135 155 0
131 150 0
129 148 0
134 154 0
133 152 0
119 137 0
128 148 0
119 138 0
133 154 0
131 150 0
115 133 0
130 150 0
133 152 0
131 150 0
128 148 0
129 149 0
129 147 0
130 149 0
126 146 0
123 142 0
121 139 0
128 146 0
130 150 0
127 147 0
129 149 0
119 138 0
120 138 0
114 132 0
122 141 0
119 138 0
125 144 0
113 132 0
108 127 0
122 141 0
111 130 0
115 133 0
124 142 0
117 135 0
113 131 0
116 135 0
107 124 0
106 123 0
119 136 0
110 129 0
101 120 0
118 138 0
104 123 0
115 133 0
124 143 0
107 124 0
123 142 0
114 132 0
110 128 0
103 121 0
114 133 0
101 118 0
116 134 0
101 120 0
112 131 0
111 129 0
113 131 0
115 134 0
109 125 0
112 131 0
114 132 0
115 134 0
114 132 0
113 131 0
110 128 0
115 133 0
117 136 0
120 138 0
114 133 0
121 141 0
115 134 0
110 128 0
109 127 0
125 144 0
116 135 0
126 144 0
120 139 0
110 128 0
121 141 0
119 138 0
101 120 0
123 143 0
112 131 0
118 137 0
123 141 0
123 142 0
119 138 0
118 137 0
123 142 0
122 140 0
133 151 0
119 138 0
123 143 0
121 140 0
130 149 0
122 141 0
129 148 0
125 145 0
126 146 0
125 143 0
125 144 0
127 147 0
125 145 0
132 151 0
118 138 0
131 150 0
121 139 0
130 149 0
120 139 0
136 157 0
124 143 0
132 149 0
128 147 0
127 146 0
134 154 0
136 154 0
134 153 0
132 153 0
123 142 0
132 150 0
131 150 0
130 148 0
134 152 0
136 154 0
137 155 0
130 149 0
123 141 0
128 146 0
136 154 0
129 147 0
137 155 0
135 152 0
138 156 0
142 160 0
135 153 0
137 155 0
133 150 0
130 147 0
141 160 0
133 151 0
131 148 0
130 148 0
129 147 0
130 147 0
133 150 0
135 151 0
132 149 0
134 150 0
130 146 0
130 147 0
126 142 0
134 150 0
126 140 0
134 151 0
121 136 0
120 135 0
133 148 0
125 139 0
121 135 0
126 140 0
130 144 0
123 137 0
122 137 0
125 138 0
114 126 0
125 138 0
119 132 0
118 131 0
117 130 0
111 123 0
117 129 0
119 132 0
124 136 0
116 129 0
117 128 0
112 124 0
107 118 0
121 133 0
108 118 0
110 121 0
114 125 0
112 123 0
108 119 0
114 124 0
107 118 0
112 123 0
112 122 0
110 121 0
123 134 0
117 128 0
119 130 0
117 128 0
123 134 0
124 135 0
127 140 0
129 142 0
128 141 0
123 135 0
129 142 0
122 135 0
131 144 0
130 143 0
133 146 0
131 144 0
134 148 0
132 146 0
138 152 0
135 149 0
137 151 0
140 154 0
136 151 0
142 157 0
141 157 0
143 159 0
139 155 0
147 164 0
153 170 0
153 170 0
155 173 0
154 171 0
157 174 0
163 181 0
160 178 0
159 177 0
162 180 0
161 179 0
163 182 0
161 180 0
162 181 0
165 185 0
163 183 0
164 184 0
163 181 0
162 181 0
161 181 0
165 185 0
165 185 0
165 184 0
164 184 0
171 191 0
166 186 0
167 187 0
169 190 0
166 186 0
169 190 0
167 189 0
165 187 0
168 189 0
166 188 0
168 189 0
171 192 0
168 190 0
167 189 0
170 191 0
170 192 0
169 191 0
169 190 0
170 191 0
170 192 0
171 192 0
167 188 0
166 187 0
165 186 0
167 188 0
166 187 0
169 190 0
163 183 0
168 189 0
163 184 0
168 188 0
164 183 0
165 186 0
166 187 0
168 188 0
167 188 0
158 177 0
161 180 0
164 184 0
161 181 0
161 180 0
164 184 0
164 183 0
164 183 0
163 182 0
160 179 0
160 179 0
162 181 0
158 176 0
158 177 0
158 176 0
154 171 0
161 179 0
154 172 0
151 169 0
154 171 0
157 173 0
149 165 0
151 167 0
153 168 0
150 167 0
145 162 0
146 162 0
155 171 0
144 159 0
147 162 0
145 161 0
137 151 0
142 157 0
138 152 0
139 152 0
130 143 0
129 143 0
133 146 0
130 143 0
132 146 0
132 145 0
136 150 0
126 139 0
125 137 0
118 130 0
127 139 0
130 142 0
125 137 0
111 122 0
119 131 0
121 133 0
113 124 0
113 125 0
117 128 0
118 129 0
117 130 0
119 130 0
116 127 0
119 131 0
117 128 0
116 128 0
116 129 0
118 130 0
121 134 0
124 137 0
125 138 0
121 134 0
117 130 0
131 144 0
125 139 0
120 133 0
127 141 0
119 134 0
122 136 0
112 127 0
126 141 0
135 150 0
132 147 0
129 143 0
137 153 0
133 150 0
127 143 0
128 144 0
137 153 0
137 153 0
134 151 0
137 154 0
131 148 0
135 151 0
136 153 0
129 146 0
130 147 0
135 152 0
138 156 0
133 150 0
130 146 0
134 153 0
129 147 0
131 148 0
137 154 0
131 149 0
123 140 0
126 144 0
136 155 0
127 145 0
142 160 0
131 149 0
136 155 0
130 147 0
128 147 0
124 143 0
135 154 0
131 150 0
132 151 0
131 150 0
137 156 0
137 157 0
132 151 0
133 153 0
140 159 0
136 156 0
131 149 0
134 152 0
140 160 0
129 149 0
130 150 0
122 141 0
130 149 0
131 151 0
121 141 0
131 150 0
121 140 0
143 162 0
128 148 0
136 156 0
127 147 0
129 148 0
129 148 0
119 137 0
128 147 0
128 148 0
127 147 0
126 145 0
111 129 0
134 154 0
129 149 0
124 143 0
125 144 0
121 140 0
116 136 0
119 138 0
121 140 0
112 132 0
112 131 0
122 142 0
116 134 0
123 143 0
124 142 0
127 146 0
116 135 0
120 139 0
120 138 0
125 145 0
119 138 0
123 142 0
110 129 0
117 137 0
117 135 0
121 140 0
117 136 0
114 134 0
115 134 0
123 141 0
122 141 0
121 139 0
125 144 0
122 140 0
106 124 0
116 134 0
126 144 0
118 137 0
114 135 0
110 129 0
98 116 0
104 122 0
116 135 0
105 123 0
114 130 0
122 141 0
112 130 0
112 130 0
126 146 0
122 140 0
113 131 0
116 136 0
115 134 0
116 135 0
121 141 0
119 137 0
116 134 0
114 132 0
114 133 0
126 145 0
111 130 0
123 142 0
117 136 0
122 142 0
117 138 0
123 143 0
120 138 0
121 141 0
125 145 0
132 150 0
120 139 0
109 128 0
116 136 0
126 145 0
108 126 0
121 141 0
131 150 0
123 143 0
130 148 0
126 144 0
125 145 0
127 147 0
129 148 0
134 154 0
127 146 0
124 143 0
124 144 0
126 146 0
131 151 0
129 149 0
138 157 0
126 146 0
128 148 0
123 142 0
138 157 0
135 155 0
134 154 0
128 148 0
132 151 0
132 151 0
129 148 0
130 149 0
128 147 0
135 155 0
134 153 0
126 145 0
130 149 0
137 156 0
133 152 0
125 143 0
135 153 0
127 145 0
129 147 0
123 141 0
126 145 0
134 152 0
135 152 0
135 152 0
134 153 0
136 154 0
135 154 0
133 150 0
130 147 0
137 155 0
137 154 0
131 148 0
138 155 0
131 147 0
121 137 0
131 148 0
135 153 0
133 150 0
130 146 0
126 142 0
136 153 0
132 148 0
135 150 0
133 149 0
134 151 0
132 149 0
128 143 0
127 143 0
126 142 0
127 141 0
131 146 0
124 137 0
126 140 0
118 132 0
123 136 0
126 140 0
130 143 0
118 132 0
121 133 0
121 135 0
114 127 0
120 132 0
124 138 0
121 134 0
122 134 0
128 140 0
124 136 0
120 132 0
120 131 0
124 137 0
111 122 0
115 126 0
128 140 0
115 126 0
122 134 0
118 129 0
115 125 0
110 122 0
118 130 0
119 130 0
131 144 0
127 140 0
130 143 0
127 140 0
135 147 0
125 137 0
137 150 0
136 150 0
132 145 0
132 145 0
133 146 0
138 152 0
136 150 0
147 162 0
142 156 0
137 150 0
148 163 0
144 159 0
150 166 0
150 166 0
154 170 0
155 172 0
154 171 0
157 174 0
153 171 0
160 178 0
155 172 0
154 171 0
156 173 0
155 172 0
156 175 0
162 180 0
161 178 0
157 175 0
159 177 0
162 180 0
162 181 0
158 177 0
164 182 0
166 185 0
158 177 0
163 183 0
164 184 0
159 178 0
170 190 0
166 185 0
166 186 0
166 186 0
166 186 0
161 181 0
163 183 0
163 182 0
168 189 0
170 191 0
166 187 0
168 189 0
166 187 0
168 189 0
170 191 0
169 191 0
167 188 0
168 189 0
170 192 0
169 191 0
169 190 0
169 190 0
167 189 0
168 188 0
170 191 0
168 190 0
168 190 0
168 189 0
166 187 0
166 187 0
162 182 0
165 186 0
165 185 0
163 183 0
164 184 0
164 185 0
162 182 0
166 185 0
164 184 0
166 185 0
162 181 0
163 182 0
164 183 0
161 180 0
162 180 0
160 179 0
162 181 0
158 177 0
162 180 0
162 180 0
154 172 0
152 169 0
153 170 0
159 177 0
152 169 0
159 175 0
157 174 0
157 174 0
151 168 0
154 171 0
149 165 0
155 171 0
152 168 0
147 163 0
148 164 0
151 166 0
142 157 0
146 162 0
146 162 0
138 152 0
144 158 0
133 148 0
134 147 0
137 152 0
138 152 0
132 145 0
131 144 0
141 155 0
131 144 0
119 131 0
130 142 0
127 140 0
133 146 0
121 133 0
127 140 0
120 132 0
129 142 0
125 137 0
122 133 0
118 129 0
129 142 0
127 140 0
129 142 0
131 144 0
112 125 0
128 141 0
126 139 0
129 142 0
123 136 0
119 132 0
122 136 0
127 141 0
135 149 0
119 132 0
125 139 0
131 145 0
122 135 0
132 146 0
131 145 0
135 150 0
130 144 0
120 134 0
124 139 0
132 148 0
125 141 0
131 146 0
126 142 0
131 147 0
125 142 0
126 142 0
139 155 0
136 152 0
133 148 0
133 149 0
127 144 0
133 149 0
136 153 0
135 151 0
132 149 0
132 149 0
133 151 0
130 147 0
131 148 0
138 156 0
140 159 0
133 150 0
130 147 0
123 140 0
127 144 0
135 152 0
144 162 0
142 162 0
137 155 0
129 149 0
131 150 0
141 159 0
136 155 0
132 152 0
128 148 0
136 155 0
133 153 0
133 151 0
123 142 0
139 159 0
129 148 0
138 157 0
131 151 0
125 145 0
135 153 0
130 150 0
135 156 0
130 149 0
133 154 0
138 159 0
132 152 0
140 159 0
129 149 0
132 152 0
127 146 0
136 156 0
128 147 0
134 154 0
124 143 0
129 148 0
116 135 0
133 152 0
132 151 0
123 143 0
125 144 0
119 138 0
118 137 0
123 143 0
121 140 0
125 145 0
135 155 0
133 153 0
124 144 0
119 138 0
118 138 0
132 152 0
122 141 0
112 131 0
118 138 0
120 139 0
127 147 0
119 138 0
115 134 0
120 140 0
132 152 0
114 134 0
122 141 0
121 140 0
119 137 0
113 132 0
109 128 0
112 131 0
119 139 0
110 130 0
113 133 0
117 136 0
125 144 0
116 136 0
121 140 0
114 133 0
122 141 0
117 137 0
107 128 0
114 133 0
117 137 0
108 127 0
124 143 0
113 132 0
115 134 0
107 125 0
111 128 0
111 129 0
117 136 0
110 128 0
113 132 0
107 127 0
117 135 0
116 135 0
117 136 0
112 131 0
126 145 0
120 139 0
125 144 0
120 140 0
115 135 0
125 144 0
114 132 0
121 140 0
123 141 0
125 144 0
124 144 0
129 148 0
118 138 0
121 141 0
119 139 0
117 137 0
115 134 0
120 139 0
126 145 0
130 150 0
133 152 0
120 139 0
123 143 0
123 142 0
137 158 0
115 133 0
136 156 0
130 150 0
132 151 0
131 150 0
127 147 0
131 151 0
137 157 0
134 154 0
120 139 0
133 152 0
133 153 0
137 158 0
128 147 0
132 152 0
130 149 0
140 160 0
133 151 0
126 146 0
131 150 0
144 164 0
135 155 0
133 153 0
142 162 0
134 153 0
125 145 0
129 148 0
134 152 0
137 156 0
133 153 0
135 155 0
144 164 0
124 143 0
140 159 0
137 156 0
132 151 0
127 146 0
136 154 0
140 158 0
138 157 0
139 157 0
139 157 0
140 157 0
137 155 0
139 158 0
133 151 0
141 159 0
138 156 0
138 156 0
139 157 0
134 152 0
129 146 0
139 156 0
138 155 0
132 149 0
135 151 0
131 147 0
137 154 0
137 153 0
130 146 0
132 147 0
133 150 0
128 144 0
129 145 0
125 141 0
138 153 0
122 137 0
135 150 0
119 134 0
128 143 0
126 141 0
125 138 0
124 138 0
126 140 0
131 145 0
119 132 0
132 146 0
118 131 0
131 146 0
113 125 0
117 129 0
121 134 0
127 140 0
129 142 0
122 135 0
121 134 0
127 139 0
128 140 0
125 137 0
117 128 0
128 140 0
123 135 0
126 138 0
119 130 0
118 130 0
126 138 0
130 143 0
124 137 0
126 138 0
132 145 0
135 149 0
129 141 0
132 145 0
136 150 0
140 154 0
140 153 0
136 150 0
139 153 0
133 146 0
136 149 0
144 158 0
144 159 0
138 152 0
150 165 0
146 161 0
148 163 0
147 162 0
150 167 0
151 167 0
148 164 0
146 162 0
153 170 0
151 168 0
156 173 0
158 176 0
158 175 0
159 177 0
160 177 0
159 176 0
159 177 0
159 178 0
159 177 0
163 181 0
155 173 0
162 180 0
159 178 0
159 177 0
167 186 0
162 180 0
162 181 0
163 182 0
164 184 0
163 183 0
165 185 0
161 181 0
164 184 0
167 186 0
166 185 0
166 186 0
163 183 0
166 187 0
166 186 0
167 188 0
170 190 0
167 189 0
168 189 0
166 186 0
167 188 0
166 187 0
167 189 0
166 188 0
166 187 0
170 191 0
168 189 0
170 191 0
169 192 0
165 185 0
165 186 0
166 188 0
165 185 0
164 184 0
166 187 0
163 183 0
164 183 0
166 186 0
162 182 0
160 180 0
161 180 0
161 179 0
162 182 0
159 178 0
163 182 0
159 179 0
162 182 0
160 179 0
161 180 0
157 176 0
163 182 0
158 176 0
160 178 0
162 180 0
156 174 0
158 176 0
157 174 0
157 175 0
151 168 0
154 171 0
152 168 0
147 162 0
158 175 0
153 170 0
154 171 0
153 169 0
150 166 0
147 163 0
146 161 0
143 158 0
145 160 0
148 164 0
146 160 0
146 160 0
137 151 0
139 154 0
141 154 0
139 153 0
136 150 0
134 148 0
134 147 0
131 144 0
132 144 0
132 145 0
132 145 0
131 144 0
120 132 0
117 129 0
123 136 0
126 138 0
126 138 0
122 135 0
125 138 0
119 131 0
127 140 0
126 139 0
120 133 0
131 144 0
123 137 0
123 136 0
133 147 0
125 137 0
126 139 0
126 140 0
131 144 0
129 143 0
129 143 0
130 145 0
124 138 0
124 138 0
128 142 0
125 140 0
135 150 0
128 142 0
125 139 0
138 154 0
135 150 0
122 137 0
135 151 0
133 149 0
131 147 0
136 152 0
131 148 0
137 154 0
139 155 0
134 151 0
132 149 0
134 151 0
134 151 0
130 147 0
133 150 0
133 150 0
138 155 0
127 144 0
135 152 0
119 137 0
135 153 0
135 153 0
133 151 0
135 153 0
141 160 0
133 151 0
142 161 0
128 146 0
139 158 0
133 152 0
136 156 0
143 163 0
136 155 0
134 153 0
131 149 0
132 150 0
140 159 0
131 149 0
131 150 0
137 157 0
131 150 0
132 151 0
141 161 0
129 149 0
130 149 0
138 158 0
137 157 0
137 156 0
129 148 0
137 156 0
141 161 0
137 156 0
130 150 0
136 156 0
133 153 0
136 157 0
133 153 0
132 152 0
125 144 0
140 160 0
134 154 0
133 152 0
127 147 0
142 163 0
123 143 0
111 130 0
132 153 0
129 150 0
140 160 0
131 150 0
124 145 0
136 156 0
122 141 0
119 138 0
130 150 0
125 144 0
110 130 0
126 145 0
126 146 0
106 124 0
123 142 0
121 141 0
124 143 0
112 133 0
123 143 0
119 138 0
120 141 0
121 140 0
124 143 0
120 140 0
115 134 0
126 146 0
121 140 0
125 145 0
116 135 0
124 143 0
112 131 0
111 131 0
114 131 0
121 140 0
114 132 0
130 149 0
124 143 0
120 141 0
120 140 0
121 141 0
119 137 0
117 135 0
119 138 0
113 132 0
109 129 0
119 138 0
120 139 0
114 133 0
127 146 0
114 135 0
115 134 0
123 142 0
125 144 0
128 148 0
128 148 0
124 142 0
110 128 0
112 131 0
127 147 0
122 141 0
129 148 0
117 136 0
110 131 0
126 145 0
122 142 0
115 134 0
121 140 0
138 159 0
126 145 0
129 148 0
123 142 0
125 145 0
127 146 0
130 150 0
130 151 0
131 151 0
131 150 0
134 153 0
123 142 0
123 141 0
127 147 0
127 147 0
125 144 0
129 148 0
120 140 0
130 150 0
133 152 0
126 145 0
128 147 0
128 148 0
130 150 0
133 153 0
135 155 0
126 146 0
141 161 0
123 143 0
127 146 0
127 147 0
131 151 0
129 150 0
137 156 0
140 160 0
133 152 0
139 159 0
138 157 0
130 149 0
136 156 0
130 150 0
129 148 0
137 156 0
134 153 0
141 160 0
142 160 0
132 152 0
143 160 0
139 159 0
130 149 0
147 166 0
138 157 0
131 150 0
130 149 0
139 157 0
140 160 0
134 153 0
137 156 0
139 158 0
132 150 0
143 161 0
129 146 0
132 150 0
136 154 0
134 150 0
138 157 0
135 152 0
136 154 0
131 148 0
139 156 0
130 146 0
132 149 0
136 152 0
132 148 0
134 151 0
134 151 0
136 151 0
127 143 0
135 150 0
133 149 0
130 146 0
127 143 0
136 151 0
133 149 0
131 147 0
135 151 0
132 147 0
126 141 0
135 149 0
118 132 0
131 146 0
128 142 0
130 144 0
132 146 0
132 145 0
120 133 0
130 144 0
116 129 0
127 141 0
115 127 0
123 136 0
139 152 0
135 150 0
123 135 0
133 146 0
117 129 0
129 142 0
122 134 0
123 135 0
130 144 0
124 137 0
131 144 0
126 139 0
135 147 0
134 147 0
132 145 0
131 144 0
129 142 0
135 148 0
142 157 0
130 144 0
138 152 0
142 157 0
136 150 0
140 155 0
144 159 0
145 161 0
144 158 0
145 160 0
145 160 0
153 169 0
149 165 0
149 165 0
151 167 0
150 167 0
147 163 0
148 165 0
154 171 0
154 171 0
152 168 0
158 174 0
151 167 0
154 171 0
157 175 0
157 176 0
154 171 0
159 178 0
161 180 0
161 180 0
162 181 0
160 179 0
161 180 0
158 177 0
168 188 0
162 182 0
157 176 0
164 185 0
162 181 0
166 185 0
162 182 0
159 179 0
164 185 0
165 186 0
168 189 0
165 186 0
165 185 0
165 186 0
167 187 0
168 189 0
165 185 0
166 186 0
167 189 0
169 190 0
166 187 0
170 191 0
165 185 0
169 190 0
166 186 0
164 185 0
166 187 0
166 187 0
168 189 0
167 188 0
165 185 0
167 188 0
162 183 0
167 186 0
164 184 0
163 184 0
161 181 0
161 180 0
163 182 0
163 182 0
164 184 0
159 178 0
161 180 0
163 182 0
161 180 0
161 180 0
158 176 0
159 177 0
159 178 0
158 176 0
159 176 0
155 173 0
161 179 0
159 177 0
157 175 0
159 176 0
153 170 0
156 173 0
155 172 0
149 164 0
152 168 0
150 166 0
144 159 0
147 163 0
149 165 0
149 164 0
141 156 0
150 166 0
141 155 0
147 163 0
144 159 0
140 154 0
141 155 0
142 157 0
140 155 0
144 159 0
134 147 0
145 159 0
127 141 0
126 139 0
130 144 0
131 144 0
131 144 0
135 148 0
135 149 0
133 147 0
127 140 0
125 138 0
128 141 0
132 146 0
131 145 0
133 147 0
132 146 0
127 140 0
128 142 0
120 133 0
127 141 0
125 139 0
129 142 0
130 144 0
136 151 0
133 147 0
130 143 0
125 140 0
132 146 0
131 146 0
133 148 0
129 144 0
128 143 0
125 140 0
128 144 0
132 148 0
133 148 0
122 137 0
138 154 0
134 150 0
132 148 0
135 152 0
134 150 0
133 150 0
136 153 0
130 148 0
136 152 0
140 157 0
134 151 0
134 151 0
134 151 0
140 157 0
141 158 0
136 154 0
136 154 0
135 152 0
136 154 0
134 153 0
144 164 0
130 149 0
134 152 0
137 155 0
136 155 0
134 153 0
130 150 0
145 164 0
135 154 0
140 158 0
129 146 0
138 157 0
130 150 0
139 157 0
133 152 0
135 155 0
138 159 0
142 161 0
144 164 0
136 156 0
127 147 0
132 151 0
134 155 0
138 158 0
135 154 0
142 162 0
133 153 0
135 155 0
146 166 0
130 150 0
136 157 0
131 151 0
129 148 0
138 159 0
132 151 0
135 154 0
142 162 0
122 142 0
145 165 0
118 139 0
133 154 0
139 159 0
135 155 0
137 157 0
131 151 0
123 143 0
127 148 0
122 141 0
139 160 0
126 146 0
125 144 0
137 158 0
127 147 0
126 146 0
124 145 0
118 137 0
124 143 0
118 137 0
132 153 0
128 147 0
119 138 0
120 139 0
125 144 0
115 135 0
132 153 0
116 136 0
111 130 0
119 139 0
113 133 0
124 143 0
120 139 0
116 134 0
137 158 0
116 135 0
130 150 0
121 142 0
108 127 0
134 154 0
132 152 0
115 135 0
125 145 0
122 142 0
124 144 0
129 148 0
120 140 0
116 135 0
126 146 0
125 144 0
121 139 0
118 137 0
107 126 0
130 150 0
120 139 0
131 152 0
118 137 0
118 137 0
126 146 0
117 137 0
123 143 0
123 143 0
122 142 0
125 145 0
126 146 0
125 145 0
128 148 0
122 141 0
131 151 0
125 145 0
109 129 0
135 157 0
123 143 0
122 141 0
123 144 0
116 136 0
136 155 0
123 142 0
130 150 0
124 143 0
127 147 0
124 143 0
133 154 0
127 146 0
130 150 0
122 142 0
134 153 0
130 149 0
125 145 0
124 144 0
128 148 0
139 159 0
138 158 0
136 155 0
128 147 0
122 142 0
138 157 0
124 144 0
135 154 0
124 143 0
128 148 0
137 158 0
132 151 0
134 153 0
147 167 0
132 154 0
133 153 0
135 155 0
141 161 0
133 152 0
139 158 0
128 147 0
137 157 0
119 139 0
136 155 0
139 158 0
132 151 0
137 156 0
130 149 0
134 152 0
138 157 0
122 141 0
138 157 0
132 151 0
128 146 0
134 153 0
139 158 0
143 162 0
140 159 0
136 155 0
137 156 0
137 155 0
131 150 0
135 153 0
133 152 0
136 154 0
142 161 0
131 150 0
139 157 0
128 146 0
133 151 0
136 153 0
133 151 0
131 148 0
134 152 0
140 157 0
133 149 0
126 142 0
129 146 0
132 149 0
127 144 0
141 158 0
133 149 0
126 142 0
136 153 0
130 146 0
129 145 0
134 150 0
133 148 0
140 156 0
131 146 0
142 158 0
134 150 0
129 143 0
134 148 0
134 149 0
130 144 0
128 143 0
134 149 0
135 149 0
131 145 0
120 133 0
127 140 0
133 147 0
128 141 0
126 140 0
128 141 0
131 144 0
126 140 0
124 137 0
134 148 0
125 139 0
140 153 0
121 133 0
129 142 0
128 141 0
125 139 0
131 144 0
133 146 0
129 142 0
131 144 0
133 146 0
139 153 0
134 148 0
146 161 0
142 156 0
137 151 0
137 151 0
143 157 0
144 159 0
140 155 0
144 159 0
142 156 0
140 155 0
147 163 0
145 161 0
146 161 0
147 163 0
146 162 0
148 164 0
146 161 0
148 164 0
153 170 0
152 168 0
152 169 0
152 168 0
158 176 0
158 176 0
159 175 0
155 172 0
157 175 0
156 174 0
160 177 0
159 177 0
163 181 0
159 177 0
160 179 0
157 176 0
157 175 0
164 183 0
164 184 0
161 181 0
166 185 0
164 184 0
161 180 0
165 184 0
164 183 0
163 182 0
164 185 0
166 187 0
165 185 0
162 183 0
168 189 0
165 185 0
164 185 0
166 188 0
165 185 0
167 189 0
169 190 0
164 186 0
167 187 0
166 186 0
170 191 0
166 186 0
162 182 0
162 182 0
167 188 0
167 187 0
166 186 0
165 185 0
165 184 0
164 184 0
165 185 0
159 178 0
165 184 0
163 182 0
160 178 0
166 185 0
164 183 0
163 182 0
163 183 0
158 176 0
162 181 0
158 176 0
162 181 0
160 178 0
158 176 0
153 170 0
154 172 0
161 179 0
157 174 0
153 169 0
159 176 0
148 165 0
148 165 0
151 168 0
148 165 0
149 166 0
148 165 0
154 170 0
150 167 0
145 160 0
141 156 0
152 167 0
146 162 0
144 160 0
147 163 0
142 157 0
135 148 0
138 152 0
137 152 0
141 156 0
137 151 0
132 146 0
136 150 0
135 150 0
135 150 0
143 157 0
131 144 0
133 147 0
136 149 0
129 142 0
133 146 0
135 149 0
131 145 0
136 150 0
133 147 0
137 152 0
134 148 0
133 147 0
134 149 0
131 145 0
133 147 0
136 150 0
133 148 0
132 146 0
140 156 0
135 150 0
133 148 0
126 141 0
132 147 0
140 156 0
126 141 0
125 139 0
132 147 0
133 148 0
141 157 0
140 155 0
137 153 0
144 160 0
134 150 0
127 143 0
136 152 0
129 146 0
136 152 0
134 151 0
128 146 0
137 153 0
122 138 0
137 155 0
135 152 0
134 152 0
123 139 0
142 160 0
143 161 0
138 155 0
140 157 0
140 158 0
143 161 0
137 155 0
132 151 0
134 152 0
136 154 0
134 151 0
141 159 0
140 158 0
142 161 0
135 155 0
138 157 0
137 155 0
134 152 0
131 149 0
135 155 0
136 155 0
130 148 0
135 155 0
139 157 0
133 153 0
145 166 0
139 159 0
137 157 0
139 159 0
139 159 0
137 156 0
136 156 0
141 161 0
143 163 0
128 147 0
137 157 0
130 150 0
140 160 0
127 147 0
137 158 0
141 162 0
123 143 0
130 150 0
129 149 0
116 136 0
140 159 0
130 150 0
136 156 0
128 148 0
137 157 0
130 150 0
134 155 0
128 148 0
136 157 0
133 153 0
136 155 0
123 143 0
132 152 0
134 154 0
130 150 0
120 140 0
124 143 0
129 149 0
131 150 0
132 152 0
132 153 0
129 150 0
122 141 0
128 148 0
130 150 0
132 152 0
131 150 0
127 146 0
137 157 0
139 159 0
123 142 0
132 152 0
124 144 0
129 148 0
120 141 0
126 146 0
118 137 0
135 155 0
124 145 0
119 140 0
131 151 0
124 144 0
133 153 0
125 145 0
124 144 0
120 140 0
111 130 0
133 153 0
127 147 0
123 143 0
123 143 0
114 132 0
118 138 0
126 146 0
124 144 0
114 133 0
124 144 0
122 141 0
123 142 0
114 134 0
126 146 0
133 155 0
122 142 0
124 144 0
125 146 0
121 140 0
129 149 0
115 134 0
127 147 0
130 150 0
124 144 0
121 141 0
132 152 0
131 150 0
115 135 0
125 144 0
123 142 0
133 153 0
133 154 0
126 145 0
124 143 0
133 154 0
125 145 0
127 148 0
132 152 0
135 156 0
125 145 0
129 150 0
131 150 0
128 148 0
128 148 0
129 148 0
130 151 0
126 146 0
130 151 0
122 143 0
128 147 0
128 148 0
139 159 0
139 160 0
133 153 0
131 153 0
129 149 0
129 149 0
133 153 0
133 152 0
140 160 0
130 149 0
136 156 0
140 160 0
139 159 0
138 159 0
133 152 0
131 150 0
129 148 0
146 166 0
137 157 0
132 152 0
135 155 0
146 167 0
134 154 0
132 150 0
132 152 0
150 170 0
134 153 0
138 158 0
140 159 0
142 161 0
135 155 0
134 153 0
135 155 0
138 156 0
140 159 0
139 158 0
136 154 0
145 165 0
139 157 0
127 146 0
137 155 0
130 148 0
137 156 0
135 154 0
133 151 0
137 156 0
134 152 0
138 156 0
128 145 0
133 151 0
133 149 0
136 153 0
134 152 0
141 158 0
142 160 0
131 148 0
138 156 0
137 153 0
140 157 0
130 145 0
132 148 0
144 162 0
137 154 0
138 154 0
132 148 0
137 153 0
131 147 0
137 152 0
144 160 0
135 150 0
140 155 0
133 148 0
127 142 0
138 153 0
137 152 0
131 145 0
127 142 0
127 142 0
129 143 0
133 148 0
130 145 0
131 145 0
132 147 0
130 144 0
124 137 0
132 146 0
129 143 0
129 142 0
137 150 0
133 146 0
134 148 0
139 153 0
135 149 0
137 151 0
139 153 0
129 143 0
143 157 0
134 148 0
136 149 0
143 158 0
134 148 0
133 147 0
143 158 0
139 153 0
149 164 0
141 155 0
138 152 0
137 151 0
141 155 0
146 163 0
143 158 0
142 158 0
151 167 0
152 168 0
155 172 0
150 166 0
147 163 0
154 170 0
154 170 0
155 172 0
152 170 0
148 164 0
158 176 0
160 177 0
159 177 0
156 174 0
159 177 0
159 177 0
162 181 0
155 174 0
158 176 0
162 180 0
158 176 0
166 185 0
163 182 0
162 182 0
165 183 0
161 179 0
164 183 0
165 185 0
163 182 0
162 181 0
166 187 0
165 185 0
166 185 0
165 185 0
164 184 0
163 184 0
167 187 0
167 187 0
167 187 0
168 189 0
164 185 0
164 185 0
163 184 0
168 189 0
167 187 0
163 183 0
165 186 0
163 184 0
162 182 0
167 187 0
160 179 0
162 182 0
161 181 0
166 185 0
162 182 0
159 179 0
164 184 0
166 187 0
156 175 0
164 183 0
155 174 0
163 183 0
155 174 0
157 174 0
153 171 0
159 178 0
161 179 0
154 171 0
158 176 0
157 174 0
157 176 0
159 177 0
155 173 0
155 172 0
148 165 0
156 172 0
153 169 0
152 169 0
148 165 0
159 176 0
149 165 0
157 174 0
142 158 0
148 163 0
144 160 0
152 168 0
151 167 0
141 156 0
146 161 0
146 162 0
145 161 0
148 164 0
144 159 0
139 154 0
136 150 0
137 151 0
131 145 0
138 153 0
148 163 0
133 147 0
137 151 0
134 148 0
133 148 0
131 144 0
138 152 0
133 147 0
136 150 0
134 149 0
139 154 0
138 152 0
129 144 0
134 148 0
136 151 0
136 150 0
140 155 0
131 145 0
134 149 0
131 146 0
136 152 0
130 144 0
130 145 0
131 147 0
134 149 0
137 153 0
131 147 0
144 161 0
127 143 0
140 156 0
137 153 0
133 149 0
144 161 0
137 154 0
148 164 0
136 153 0
140 157 0
140 157 0
145 162 0
142 160 0
136 154 0
133 152 0
143 161 0
135 152 0
138 155 0
135 152 0
137 154 0
138 156 0
143 160 0
145 163 0
137 154 0
135 153 0
140 159 0
131 149 0
136 154 0
139 158 0
134 152 0
136 154 0
138 156 0
133 152 0
138 157 0
142 160 0
134 153 0
140 158 0
141 160 0
139 158 0
142 162 0
139 159 0
134 154 0
141 161 0
141 160 0
141 161 0
140 160 0
142 161 0
127 147 0
140 160 0
131 150 0
145 166 0
142 161 0
139 159 0
144 164 0
138 156 0
143 164 0
141 161 0
136 156 0
130 151 0
128 148 0
136 156 0
141 161 0
139 160 0
140 161 0
130 151 0
134 155 0
138 157 0
129 149 0
132 152 0
135 155 0
130 150 0
134 154 0
131 151 0
139 159 0
127 147 0
122 141 0
124 144 0
135 155 0
134 154 0
134 155 0
129 149 0
124 145 0
136 156 0
127 147 0
130 151 0
125 145 0
129 149 0
125 144 0
113 133 0
127 146 0
136 157 0
134 154 0
128 148 0
130 152 0
124 144 0
121 141 0
121 140 0
121 141 0
132 151 0
121 142 0
128 148 0
124 142 0
130 150 0
122 141 0
123 143 0
124 145 0
124 144 0
128 147 0
127 146 0
128 149 0
120 140 0
120 139 0
135 155 0
132 152 0
132 151 0
110 130 0
124 144 0
139 159 0
114 135 0
123 144 0
120 141 0
131 151 0
117 138 0
129 149 0
116 135 0
120 140 0
130 150 0
128 148 0
122 142 0
130 149 0
126 146 0
129 148 0
133 153 0
133 154 0
125 145 0
126 147 0
124 143 0
129 149 0
125 145 0
124 143 0
123 144 0
135 155 0
127 146 0
120 141 0
119 138 0
122 141 0
139 160 0
127 147 0
129 150 0
129 149 0
129 149 0
136 156 0
133 154 0
133 154 0
128 149 0
133 153 0
132 153 0
127 147 0
128 149 0
129 149 0
128 148 0
136 155 0
132 152 0
131 152 0
142 164 0
131 150 0
131 151 0
134 154 0
129 149 0
131 153 0
131 151 0
127 147 0
136 156 0
144 165 0
140 161 0
137 157 0
138 159 0
132 151 0
127 146 0
129 150 0
134 154 0
137 157 0
124 144 0
139 159 0
131 150 0
142 162 0
129 148 0
139 159 0
137 156 0
155 175 0
137 155 0
131 149 0
130 149 0
129 148 0
147 167 0
141 160 0
128 148 0
138 156 0
140 159 0
135 155 0
139 156 0
137 156 0
139 157 0
140 159 0
127 145 0
142 161 0
141 159 0
143 161 0
135 153 0
144 162 0
135 154 0
139 157 0
137 154 0
136 153 0
133 151 0
135 152 0
142 160 0
138 156 0
135 153 0
136 153 0
132 149 0
137 153 0
137 154 0
125 141 0
138 154 0
141 158 0
132 148 0
143 159 0
130 147 0
135 150 0
148 164 0
130 144 0
129 146 0
144 160 0
132 147 0
137 152 0
135 150 0
139 154 0
138 153 0
133 148 0
134 149 0
137 151 0
127 141 0
135 149 0
138 152 0
130 145 0
131 146 0
142 156 0
134 147 0
128 142 0
135 149 0
140 154 0
138 153 0
135 148 0
130 144 0
139 154 0
128 141 0
138 152 0
133 147 0
135 150 0
143 158 0
141 156 0
136 150 0
134 147 0
149 164 0
141 156 0
136 151 0
143 159 0
143 158 0
147 163 0
132 147 0
145 159 0
148 163 0
140 155 0
148 163 0
148 164 0
151 167 0
147 163 0
153 169 0
149 165 0
151 168 0
154 172 0
152 168 0
157 174 0
152 168 0
153 170 0
154 171 0
157 175 0
154 172 0
152 169 0
154 172 0
155 173 0
159 177 0
160 179 0
163 182 0
159 177 0
158 176 0
165 184 0
160 180 0
156 176 0
164 183 0
163 183 0
161 180 0
164 184 0
166 186 0
161 181 0
167 187 0
164 184 0
167 187 0
168 188 0
166 186 0
165 184 0
170 191 0
166 187 0
166 186 0
164 184 0
166 187 0
161 182 0
169 188 0
163 184 0
165 185 0
164 184 0
165 185 0
167 187 0
162 181 0
162 182 0
161 181 0
162 183 0
165 185 0
162 181 0
160 180 0
162 181 0
167 186 0
165 184 0
161 181 0
160 178 0
159 177 0
159 177 0
155 173 0
155 172 0
162 180 0
158 176 0
157 175 0
156 174 0
155 173 0
154 171 0
154 171 0
155 173 0
156 173 0
151 168 0
150 166 0
148 165 0
150 167 0
149 165 0
148 164 0
148 164 0
142 158 0
147 163 0
149 165 0
146 162 0
143 158 0
149 165 0
146 162 0
145 160 0
147 162 0
143 158 0
143 158 0
140 155 0
145 159 0
139 154 0
145 160 0
141 156 0
137 152 0
142 157 0
143 158 0
136 151 0
140 156 0
136 151 0
133 147 0
146 162 0
138 152 0
133 148 0
141 156 0
142 157 0
131 146 0
132 146 0
134 149 0
135 150 0
138 153 0
141 156 0
131 146 0
137 153 0
142 157 0
135 151 0
140 156 0
133 149 0
132 148 0
140 155 0
146 162 0
139 156 0
137 153 0
147 164 0
133 149 0
140 156 0
137 154 0
145 162 0
136 153 0
144 160 0
135 152 0
131 148 0
137 153 0
137 154 0
136 154 0
139 156 0
138 156 0
130 148 0
137 156 0
143 161 0
143 162 0
143 161 0
143 161 0
139 156 0
134 152 0
136 154 0
138 156 0
137 154 0
127 145 0
134 153 0
133 151 0
135 154 0
141 160 0
140 159 0
131 149 0
140 159 0
138 157 0
134 153 0
142 161 0
149 169 0
141 161 0
132 149 0
137 156 0
131 150 0
139 159 0
137 156 0
135 154 0
136 156 0
132 152 0
143 163 0
131 151 0
145 165 0
137 157 0
132 152 0
141 161 0
138 158 0
139 158 0
127 147 0
133 152 0
137 157 0
136 157 0
139 160 0
134 154 0
131 152 0
136 157 0
138 158 0
127 148 0
134 156 0
141 162 0
130 149 0
125 144 0
137 158 0
133 153 0
142 163 0
138 159 0
137 157 0
132 153 0
134 155 0
132 152 0
136 156 0
134 155 0
140 161 0
126 147 0
131 152 0
132 152 0
136 156 0
132 152 0
130 150 0
132 152 0
133 152 0
120 140 0
133 155 0
139 160 0
136 156 0
136 156 0
123 144 0
132 153 0
123 144 0
138 159 0
133 152 0
131 151 0
130 150 0
121 141 0
130 151 0
129 149 0
122 142 0
128 147 0
122 142 0
125 144 0
119 139 0
126 146 0
123 142 0
121 141 0
119 138 0
119 139 0
111 131 0
133 153 0
132 151 0
122 141 0
114 135 0
132 153 0
128 147 0
129 149 0
128 149 0
133 154 0
125 145 0
127 147 0
131 151 0
118 139 0
129 149 0
133 153 0
128 149 0
124 144 0
133 154 0
123 143 0
131 151 0
122 143 0
119 138 0
130 151 0
134 153 0
131 151 0
118 138 0
133 154 0
130 150 0
134 155 0
132 152 0
135 155 0
127 148 0
128 148 0
121 141 0
124 144 0
139 160 0
128 147 0
127 146 0
124 145 0
133 155 0
136 156 0
125 145 0
136 156 0
140 160 0
133 155 0
139 160 0
138 159 0
132 152 0
127 148 0
131 150 0
140 161 0
145 167 0
140 160 0
131 152 0
131 152 0
134 154 0
137 157 0
137 158 0
136 156 0
147 168 0
133 152 0
144 164 0
148 169 0
136 157 0
131 151 0
128 148 0
149 169 0
140 161 0
144 164 0
138 158 0
141 161 0
141 161 0
133 153 0
139 158 0
133 152 0
137 156 0
137 157 0
135 154 0
140 160 0
138 158 0
135 154 0
139 158 0
142 162 0
142 161 0
138 159 0
128 148 0
139 158 0
141 160 0
132 150 0
141 159 0
142 161 0
140 160 0
142 162 0
137 156 0
135 153 0
135 153 0
141 160 0
130 148 0
134 152 0
133 150 0
139 157 0
143 162 0
144 162 0
138 155 0
154 171 0
136 154 0
145 164 0
140 158 0
141 158 0
136 152 0
130 147 0
135 152 0
128 143 0
143 160 0
136 152 0
140 156 0
139 156 0
138 156 0
137 153 0
131 146 0
137 152 0
136 152 0
127 143 0
135 151 0
133 149 0
135 150 0
132 147 0
147 163 0
141 157 0
126 142 0
139 155 0
132 147 0
132 146 0
139 155 0
138 152 0
134 149 0
133 148 0
144 159 0
141 156 0
140 156 0
139 153 0
140 155 0
139 153 0
133 148 0
134 148 0
138 152 0
138 153 0
138 153 0
141 155 0
145 160 0
139 155 0
141 155 0
145 159 0
138 153 0
136 150 0
135 150 0
145 161 0
138 153 0
153 168 0
145 161 0
149 165 0
141 156 0
152 169 0
146 162 0
144 160 0
149 165 0
149 165 0
149 165 0
152 168 0
157 174 0
154 170 0
153 170 0
157 174 0
157 174 0
155 172 0
155 173 0
157 175 0
154 171 0
162 181 0
160 178 0
162 181 0
155 174 0
159 178 0
158 176 0
161 180 0
158 177 0
161 180 0
162 180 0
162 182 0
165 185 0
163 183 0
162 181 0
161 181 0
164 184 0
161 180 0
164 183 0
168 187 0
166 186 0
166 186 0
160 179 0
165 185 0
165 185 0
165 185 0
159 179 0
162 182 0
163 184 0
165 184 0
162 182 0
164 184 0
162 182 0
164 183 0
162 181 0
160 179 0
162 181 0
163 182 0
165 184 0
164 183 0
163 181 0
160 178 0
163 182 0
157 176 0
163 182 0
161 180 0
162 180 0
159 177 0
158 176 0
153 172 0
157 174 0
153 171 0
158 175 0
153 170 0
158 176 0
154 171 0
150 167 0
155 172 0
153 170 0
152 168 0
149 166 0
155 172 0
148 163 0
152 169 0
147 162 0
146 162 0
154 171 0
151 167 0
142 158 0
141 156 0
146 161 0
142 158 0
139 155 0
147 161 0
138 153 0
141 155 0
140 154 0
139 154 0
144 159 0
143 158 0
146 161 0
145 159 0
144 159 0
144 159 0
142 156 0
137 152 0
135 150 0
145 160 0
143 158 0
129 143 0
143 158 0
133 148 0
134 149 0
138 153 0
133 148 0
144 159 0
132 147 0
145 160 0
142 158 0
145 161 0
142 158 0
144 160 0
145 160 0
138 154 0
131 146 0
146 164 0
138 153 0
135 151 0
143 159 0
139 156 0
137 153 0
140 157 0
144 162 0
143 160 0
144 162 0
133 151 0
139 156 0
142 160 0
138 154 0
132 150 0
135 152 0
137 154 0
132 150 0
140 157 0
144 162 0
141 160 0
134 153 0
145 164 0
141 159 0
138 157 0
132 151 0
140 159 0
138 156 0
132 150 0
131 149 0
143 161 0
149 168 0
138 157 0
148 167 0
140 159 0
136 156 0
144 164 0
139 158 0
145 165 0
139 158 0
134 153 0
131 151 0
146 165 0
142 162 0
145 165 0
139 158 0
136 156 0
142 162 0
146 166 0
147 167 0
138 158 0
141 161 0
141 163 0
134 154 0
145 165 0
139 158 0
129 149 0
144 165 0
138 158 0
137 158 0
141 161 0
136 157 0
130 150 0
141 160 0
138 158 0
151 171 0
139 160 0
147 168 0
141 162 0
142 163 0
133 154 0
131 152 0
141 161 0
143 163 0
125 145 0
134 155 0
137 158 0
132 152 0
122 143 0
129 150 0
136 155 0
142 161 0
141 162 0
137 158 0
139 159 0
123 144 0
133 154 0
131 151 0
130 152 0
129 149 0
130 151 0
129 150 0
124 144 0
140 161 0
140 160 0
120 140 0
126 146 0
134 155 0
126 146 0
136 157 0
127 147 0
137 158 0
129 149 0
118 138 0
123 144 0
134 155 0
132 151 0
125 145 0
128 148 0
131 151 0
125 145 0
125 145 0
135 156 0
124 143 0
128 149 0
124 144 0
129 150 0
116 136 0
132 151 0
120 140 0
121 141 0
115 136 0
124 145 0
129 150 0
136 157 0
128 147 0
128 148 0
121 142 0
117 137 0
116 136 0
116 136 0
136 156 0
125 145 0
133 152 0
130 149 0
129 149 0
125 146 0
137 156 0
130 151 0
130 151 0
132 152 0
139 159 0
130 150 0
126 147 0
133 153 0
127 146 0
130 150 0
136 156 0
133 154 0
143 163 0
128 149 0
128 149 0
133 154 0
123 144 0
130 151 0
128 148 0
142 162 0
125 145 0
137 158 0
128 148 0
132 153 0
140 161 0
126 147 0
138 158 0
137 157 0
135 153 0
132 152 0
144 164 0
145 166 0
146 167 0
137 157 0
133 154 0
137 158 0
137 157 0
139 160 0
141 162 0
133 152 0
129 150 0
142 162 0
138 158 0
139 159 0
132 151 0
139 159 0
142 163 0
139 159 0
143 163 0
145 166 0
142 163 0
134 154 0
133 153 0
136 156 0
140 160 0
141 162 0
147 166 0
143 163 0
140 160 0
151 171 0
139 158 0
138 158 0
131 150 0
137 158 0
138 157 0
141 161 0
136 156 0
138 158 0
136 156 0
145 163 0
137 155 0
139 158 0
135 153 0
141 160 0
139 157 0
139 157 0
136 155 0
137 155 0
141 160 0
137 156 0
148 167 0
138 156 0
143 162 0
140 158 0
134 151 0
145 163 0
141 159 0
138 156 0
144 162 0
143 160 0
138 155 0
138 154 0
140 157 0
140 158 0
145 163 0
134 151 0
131 148 0
139 156 0
136 153 0
139 155 0
141 158 0
143 159 0
138 154 0
136 152 0
140 157 0
150 167 0
140 157 0
142 158 0
145 160 0
139 155 0
138 153 0
134 150 0
143 159 0
134 149 0
143 158 0
141 156 0
139 155 0
129 143 0
138 153 0
133 148 0
138 153 0
145 161 0
142 158 0
137 152 0
135 150 0
134 148 0
142 157 0
144 159 0
134 148 0
138 154 0
142 158 0
140 155 0
142 157 0
139 155 0
139 153 0
146 161 0
144 159 0
142 158 0
150 166 0
141 157 0
141 156 0
150 165 0
147 163 0
142 157 0
147 163 0
149 166 0
150 167 0
150 165 0
150 165 0
149 165 0
158 176 0
152 168 0
160 177 0
151 168 0
155 171 0
159 176 0
157 174 0
152 169 0
157 175 0
155 172 0
155 173 0
154 173 0
158 176 0
155 172 0
156 174 0
157 175 0
163 181 0
165 184 0
165 184 0
163 182 0
163 182 0
161 180 0
161 180 0
158 178 0
163 182 0
167 186 0
163 183 0
164 185 0
163 183 0
163 183 0
167 187 0
168 189 0
166 186 0
165 186 0
165 185 0
166 186 0
160 181 0
161 181 0
166 186 0
163 183 0
159 177 0
164 183 0
160 179 0
163 182 0
160 180 0
160 179 0
164 183 0
159 178 0
163 182 0
162 181 0
162 182 0
157 174 0
159 177 0
159 177 0
161 179 0
163 182 0
158 177 0
154 172 0
159 177 0
153 171 0
154 170 0
157 175 0
152 170 0
162 180 0
151 168 0
154 171 0
156 173 0
152 169 0
154 171 0
152 169 0
151 166 0
148 164 0
149 166 0
151 167 0
149 165 0
144 160 0
149 166 0
147 162 0
148 164 0
145 161 0
148 164 0
149 165 0
145 161 0
144 159 0
137 152 0
144 159 0
145 160 0
148 164 0
143 159 0
145 161 0
131 146 0
145 160 0
142 157 0
138 154 0
141 156 0
142 157 0
140 154 0
135 150 0
140 155 0
140 155 0
145 160 0
145 161 0
142 157 0
134 150 0
140 156 0
137 152 0
137 153 0
137 153 0
144 161 0
141 158 0
135 151 0
139 156 0
141 158 0
144 161 0
133 149 0
139 155 0
143 160 0
144 160 0
139 156 0
134 150 0
147 166 0
148 165 0
144 161 0
141 159 0
145 162 0
138 156 0
142 160 0
140 158 0
138 156 0
144 161 0
148 167 0
136 154 0
144 162 0
137 155 0
140 159 0
141 161 0
141 160 0
136 154 0
140 159 0
138 157 0
139 158 0
139 157 0
136 156 0
139 158 0
139 159 0
143 161 0
141 161 0
141 160 0
142 162 0
142 160 0
145 164 0
137 156 0
140 160 0
136 155 0
149 168 0
144 165 0
131 149 0
143 163 0
141 162 0
138 158 0
143 164 0
136 156 0
146 166 0
140 161 0
138 159 0
138 158 0
137 157 0
139 159 0
126 147 0
141 161 0
140 162 0
135 154 0
144 164 0
135 155 0
135 157 0
135 155 0
137 158 0
145 167 0
133 155 0
136 157 0
140 161 0
139 161 0
135 154 0
133 153 0
140 159 0
135 155 0
134 156 0
132 152 0
142 162 0
143 165 0
137 157 0
136 157 0
133 154 0
141 162 0
132 152 0
134 155 0
133 152 0
131 151 0
136 157 0
128 148 0
134 155 0
125 145 0
131 151 0
133 154 0
136 158 0
132 152 0
137 158 0
131 152 0
130 150 0
142 162 0
137 157 0
137 157 0
137 157 0
133 153 0
129 149 0
126 146 0
133 153 0
132 153 0
134 155 0
128 148 0
118 138 0
127 147 0
133 153 0
128 148 0
122 144 0
128 149 0
134 154 0
125 145 0
122 141 0
125 146 0
129 149 0
129 149 0
133 153 0
139 158 0
132 153 0
128 149 0
138 159 0
124 145 0
131 151 0
124 145 0
126 146 0
128 148 0
131 151 0
124 143 0
137 158 0
135 156 0
127 147 0
135 156 0
142 162 0
126 146 0
120 141 0
128 147 0
126 147 0
133 154 0
134 155 0
137 157 0
134 154 0
134 155 0
129 150 0
133 155 0
128 149 0
131 153 0
130 151 0
135 155 0
127 148 0
135 155 0
125 146 0
134 155 0
129 149 0
131 151 0
128 149 0
135 155 0
137 158 0
134 155 0
134 155 0
136 158 0
130 150 0
140 162 0
139 159 0
137 158 0
139 159 0
123 143 0
138 157 0
135 155 0
139 160 0
140 161 0
128 147 0
144 165 0
144 165 0
142 164 0
137 156 0
135 154 0
134 154 0
143 163 0
138 159 0
142 162 0
130 150 0
141 161 0
141 162 0
140 160 0
142 162 0
138 158 0
139 160 0
143 164 0
131 151 0
138 158 0
146 166 0
145 165 0
141 161 0
141 160 0
138 159 0
139 159 0
147 168 0
135 153 0
136 156 0
137 156 0
130 149 0
142 161 0
141 160 0
147 166 0
140 158 0
138 157 0
136 155 0
147 167 0
134 152 0
133 151 0
142 161 0
144 163 0
140 158 0
137 156 0
138 157 0
143 161 0
147 165 0
146 164 0
140 158 0
138 156 0
147 166 0
147 165 0
148 167 0
147 164 0
140 157 0
144 162 0
139 156 0
140 159 0
132 150 0
141 158 0
144 162 0
128 145 0
141 159 0
143 159 0
139 156 0
140 157 0
141 159 0
139 155 0
143 160 0
133 148 0
142 159 0
137 153 0
150 166 0
136 152 0
135 151 0
142 159 0
138 154 0
137 153 0
141 157 0
139 155 0
137 153 0
139 155 0
138 153 0
142 158 0
142 157 0
139 153 0
140 156 0
143 159 0
135 151 0
133 147 0
143 158 0
142 157 0
141 157 0
138 153 0
139 155 0
143 158 0
143 159 0
147 162 0
142 157 0
144 160 0
150 166 0
144 159 0
142 157 0
147 163 0
147 163 0
142 158 0
152 168 0
146 161 0
141 157 0
149 165 0
153 169 0
156 173 0
151 167 0
150 166 0
153 169 0
151 167 0
153 170 0
149 166 0
161 179 0
156 173 0
156 173 0
155 172 0
159 177 0
154 171 0
155 173 0
163 182 0
157 175 0
154 171 0
156 174 0
159 177 0
157 175 0
162 181 0
163 181 0
157 176 0
158 178 0
160 179 0
158 177 0
164 182 0
158 177 0
162 181 0
164 184 0
162 182 0
166 186 0
161 180 0
161 182 0
165 184 0
166 186 0
162 182 0
168 188 0
168 188 0
161 181 0
162 181 0
161 181 0
162 182 0
161 180 0
162 181 0
157 175 0
153 172 0
161 180 0
160 179 0
160 178 0
160 178 0
163 181 0
155 174 0
159 177 0
161 179 0
159 177 0
157 175 0
153 171 0
160 178 0
158 176 0
155 173 0
157 175 0
155 172 0
153 170 0
155 172 0
155 170 0
154 171 0
152 169 0
156 173 0
149 166 0
154 171 0
149 165 0
150 166 0
155 172 0
154 171 0
152 169 0
144 161 0
148 164 0
148 165 0
145 159 0
149 165 0
149 165 0
142 157 0
145 161 0
152 168 0
142 158 0
145 161 0
146 162 0
144 159 0
153 169 0
149 165 0
150 165 0
147 163 0
142 158 0
144 160 0
141 156 0
141 157 0
137 153 0
143 159 0
136 151 0
135 150 0
141 157 0
141 157 0
141 158 0
142 158 0
145 162 0
139 155 0
148 164 0
143 159 0
145 161 0
141 158 0
139 155 0
148 165 0
136 153 0
142 159 0
132 149 0
144 160 0
147 163 0
137 153 0
139 156 0
137 155 0
147 164 0
141 159 0
144 161 0
148 165 0
138 156 0
141 160 0
141 159 0
143 161 0
143 161 0
143 161 0
136 154 0
140 159 0
137 155 0
144 163 0
137 155 0
137 156 0
146 165 0
139 158 0
145 163 0
137 156 0
143 162 0
146 166 0
134 153 0
145 164 0
139 158 0
137 156 0
139 158 0
148 167 0
142 161 0
139 159 0
134 153 0
141 161 0
132 152 0
151 172 0
148 169 0
145 165 0
143 164 0
149 169 0
138 158 0
138 159 0
137 157 0
139 159 0
139 158 0
142 162 0
142 162 0
135 155 0
136 156 0
137 157 0
148 169 0
136 157 0
132 152 0
138 158 0
137 158 0
133 154 0
146 167 0
141 161 0
137 157 0
130 150 0
132 153 0
143 164 0
137 156 0
137 158 0
139 161 0
146 166 0
138 159 0
140 160 0
136 157 0
151 173 0
145 166 0
138 159 0
147 169 0
139 161 0
133 154 0
134 154 0
136 157 0
136 157 0
133 152 0
134 156 0
136 157 0
149 170 0
133 154 0
128 147 0
133 154 0
124 145 0
130 149 0
136 155 0
138 157 0
132 153 0
132 152 0
136 157 0
129 151 0
127 148 0
131 151 0
141 162 0
136 156 0
123 144 0
129 150 0
132 153 0
129 150 0
133 153 0
138 160 0
138 158 0
130 152 0
135 156 0
116 136 0
127 148 0
136 157 0
130 151 0
130 151 0
135 156 0
126 147 0
133 154 0
128 148 0
139 159 0
124 145 0
121 141 0
138 160 0
136 157 0
118 139 0
138 160 0
129 149 0
126 147 0
130 151 0
128 148 0
132 152 0
130 150 0
122 142 0
125 146 0
130 149 0
134 155 0
131 151 0
125 145 0
128 150 0
137 159 0
124 145 0
137 157 0
137 158 0
128 149 0
136 157 0
130 151 0
119 140 0
127 148 0
136 156 0
133 154 0
144 165 0
133 153 0
129 149 0
135 156 0
122 143 0
137 158 0
132 151 0
136 158 0
142 163 0
131 151 0
132 152 0
134 156 0
131 152 0
139 160 0
138 159 0
131 151 0
133 154 0
130 149 0
139 159 0
136 157 0
136 157 0
143 164 0
129 151 0
136 157 0
129 149 0
145 166 0
138 159 0
133 152 0
143 164 0
142 163 0
137 157 0
141 161 0
136 156 0
143 164 0
133 153 0
136 156 0
140 161 0
144 164 0
137 158 0
136 156 0
138 158 0
136 157 0
138 158 0
145 165 0
147 168 0
146 166 0
139 160 0
142 161 0
147 169 0
135 155 0
147 167 0
146 165 0
137 158 0
135 153 0
141 162 0
149 169 0
146 167 0
147 167 0
143 162 0
144 164 0
142 161 0
134 153 0
139 157 0
139 158 0
146 164 0
129 147 0
136 156 0
147 167 0
147 167 0
140 159 0
140 157 0
143 161 0
145 164 0
142 162 0
150 169 0
150 168 0
146 165 0
141 158 0
143 162 0
139 157 0
143 161 0
135 152 0
141 159 0
143 161 0
151 170 0
145 163 0
137 154 0
143 161 0
138 156 0
134 150 0
142 159 0
141 159 0
144 160 0
135 152 0
137 153 0
149 166 0
137 153 0
141 157 0
143 160 0
140 157 0
139 157 0
149 165 0
143 159 0
145 161 0
146 162 0
144 161 0
140 156 0
136 152 0
144 160 0
144 159 0
144 160 0
140 156 0
144 160 0
144 160 0
144 160 0
149 165 0
149 165 0
148 165 0
145 161 0
144 160 0
144 159 0
154 170 0
141 156 0
139 155 0
137 153 0
150 166 0
158 174 0
145 160 0
139 154 0
152 168 0
149 165 0
153 170 0
146 162 0
152 169 0
150 166 0
142 159 0
151 167 0
152 169 0
155 172 0
155 171 0
149 166 0
153 170 0
156 174 0
154 170 0
156 174 0
155 172 0
157 175 0
156 173 0
154 172 0
155 173 0
159 176 0
164 183 0
159 177 0
162 180 0
162 181 0
161 180 0
163 182 0
158 177 0
162 181 0
165 184 0
159 178 0
158 177 0
160 179 0
164 185 0
163 182 0
158 178 0
166 186 0
164 184 0
161 180 0
165 184 0
161 181 0
165 186 0
165 185 0
163 183 0
164 183 0
163 182 0
160 180 0
163 182 0
164 185 0
159 177 0
162 180 0
157 175 0
162 181 0
160 180 0
163 182 0
164 183 0
164 184 0
163 181 0
160 178 0
162 181 0
156 174 0
157 176 0
157 175 0
151 168 0
157 174 0
161 179 0
157 175 0
153 170 0
159 177 0
152 169 0
151 168 0
156 173 0
150 167 0
154 170 0
154 171 0
148 164 0
149 166 0
156 173 0
147 164 0
143 158 0
150 167 0
149 166 0
152 169 0
145 161 0
153 169 0
153 169 0
140 155 0
152 168 0
147 163 0
145 160 0
151 166 0
152 168 0
147 163 0
140 156 0
146 163 0
146 163 0
147 164 0
148 164 0
131 145 0
136 152 0
134 150 0
143 158 0
149 165 0
149 166 0
144 160 0
143 159 0
144 161 0
142 157 0
142 158 0
144 160 0
146 163 0
142 159 0
140 157 0
145 162 0
141 158 0
138 154 0
144 161 0
143 160 0
143 160 0
141 157 0
147 164 0
148 166 0
144 161 0
146 164 0
147 165 0
140 157 0
137 155 0
149 168 0
139 157 0
139 156 0
141 158 0
147 165 0
141 159 0
143 161 0
145 163 0
139 157 0
143 161 0
146 164 0
141 160 0
147 166 0
144 163 0
140 159 0
152 172 0
148 168 0
139 158 0
140 158 0
142 161 0
145 166 0
152 172 0
145 165 0
138 158 0
144 163 0
141 160 0
145 165 0
145 164 0
140 158 0
142 162 0
149 169 0
143 163 0
140 160 0
137 156 0
136 156 0
141 161 0
154 174 0
138 159 0
145 164 0
138 159 0
136 156 0
144 164 0
130 152 0
138 159 0
140 160 0
136 155 0
141 162 0
142 163 0
141 161 0
145 166 0
144 165 0
138 157 0
132 152 0
136 156 0
142 163 0
136 156 0
139 159 0
138 158 0
144 165 0
138 158 0
137 159 0
139 159 0
134 155 0
133 154 0
144 165 0
136 157 0
145 166 0
140 162 0
141 162 0
135 155 0
132 152 0
136 158 0
136 157 0
129 149 0
139 160 0
135 155 0
137 158 0
132 152 0
149 170 0
139 160 0
131 152 0
126 147 0
131 151 0
142 163 0
139 160 0
134 155 0
139 161 0
137 159 0
130 151 0
129 151 0
129 150 0
135 155 0
136 157 0
132 153 0
129 150 0
138 160 0
131 152 0
138 159 0
134 155 0
129 150 0
129 149 0
129 149 0
128 149 0
138 160 0
128 148 0
132 152 0
130 151 0
137 158 0
141 162 0
130 150 0
131 152 0
129 151 0
134 154 0
137 159 0
139 160 0
135 155 0
130 150 0
123 144 0
129 148 0
132 152 0
125 145 0
139 160 0
128 149 0
127 148 0
136 156 0
133 154 0
138 160 0
127 148 0
127 147 0
138 158 0
127 147 0
129 149 0
138 159 0
130 151 0
134 155 0
133 154 0
143 164 0
145 167 0
141 162 0
133 154 0
121 142 0
127 148 0
136 157 0
141 162 0
127 148 0
126 145 0
131 152 0
141 161 0
142 162 0
133 153 0
141 162 0
140 162 0
145 166 0
137 158 0
137 159 0
134 153 0
143 164 0
132 153 0
124 145 0
133 154 0
141 163 0
132 152 0
142 162 0
142 164 0
137 158 0
141 162 0
131 152 0
141 161 0
140 160 0
142 163 0
134 155 0
138 159 0
135 156 0
145 166 0
133 153 0
136 156 0
139 159 0
138 159 0
140 161 0
150 172 0
143 164 0
145 165 0
132 152 0
135 155 0
135 154 0
150 171 0
140 161 0
149 169 0
141 162 0
148 169 0
142 163 0
138 158 0
143 163 0
142 161 0
143 163 0
132 151 0
139 159 0
137 157 0
149 168 0
137 157 0
145 165 0
143 162 0
136 156 0
138 157 0
143 164 0
143 163 0
138 156 0
142 161 0
147 167 0
143 163 0
137 157 0
136 155 0
138 156 0
140 159 0
148 168 0
146 165 0
134 152 0
146 164 0
138 156 0
138 157 0
136 154 0
147 166 0
143 161 0
136 154 0
145 163 0
143 162 0
144 162 0
142 159 0
146 164 0
144 162 0
150 168 0
139 156 0
144 162 0
143 160 0
142 159 0
148 165 0
139 157 0
142 160 0
139 155 0
138 155 0
147 164 0
141 158 0
148 164 0
141 158 0
147 163 0
148 166 0
142 158 0
144 160 0
147 163 0
146 163 0
141 157 0
142 158 0
143 160 0
143 159 0
141 157 0
147 163 0
146 162 0
145 162 0
144 160 0
151 167 0
146 163 0
147 163 0
145 162 0
138 154 0
143 159 0
153 170 0
144 161 0
151 167 0
141 157 0
144 160 0
147 163 0
147 163 0
141 157 0
145 161 0
144 159 0
148 165 0
149 165 0
146 161 0
156 173 0
153 170 0
147 163 0
156 173 0
146 162 0
154 170 0
155 172 0
151 168 0
150 167 0
156 173 0
157 174 0
154 171 0
155 173 0
157 175 0
158 176 0
160 179 0
158 176 0
158 176 0
158 176 0
161 180 0
157 175 0
160 179 0
158 177 0
166 184 0
158 176 0
162 180 0
163 182 0
163 183 0
159 178 0
164 182 0
164 184 0
162 181 0
163 183 0
166 185 0
165 185 0
162 182 0
167 186 0
162 181 0
162 183 0
160 180 0
162 181 0
165 184 0
158 176 0
165 184 0
163 183 0
158 176 0
163 182 0
162 181 0
158 176 0
162 180 0
157 176 0
158 177 0
158 177 0
157 174 0
157 175 0
160 179 0
153 171 0
158 176 0
159 178 0
155 172 0
160 177 0
152 170 0
153 171 0
152 170 0
160 178 0
153 170 0
152 169 0
151 168 0
156 174 0
148 164 0
155 172 0
154 171 0
158 175 0
148 165 0
156 173 0
146 162 0
148 165 0
147 164 0
145 162 0
147 164 0
140 155 0
151 167 0
145 161 0
146 162 0
147 163 0
145 161 0
148 164 0
142 158 0
145 160 0
144 160 0
150 166 0
149 165 0
139 154 0
132 148 0
147 163 0
142 159 0
145 161 0
143 160 0
146 163 0
148 165 0
141 158 0
150 166 0
147 164 0
142 159 0
137 154 0
147 165 0
134 151 0
145 162 0
146 162 0
146 163 0
146 164 0
143 161 0
149 166 0
139 157 0
150 167 0
146 164 0
149 167 0
142 159 0
141 158 0
138 154 0
139 157 0
147 166 0
143 160 0
144 162 0
143 161 0
145 164 0
143 161 0
144 162 0
147 167 0
142 161 0
146 164 0
143 161 0
140 159 0
145 164 0
141 160 0
144 163 0
149 167 0
138 157 0
137 156 0
146 165 0
141 160 0
137 155 0
146 165 0
144 164 0
145 166 0
144 163 0
147 167 0
147 167 0
145 165 0
141 161 0
140 161 0
141 161 0
147 167 0
149 170 0
143 163 0
147 168 0
143 163 0
144 163 0
139 159 0
142 163 0
131 151 0
136 157 0
149 170 0
140 160 0
145 166 0
140 160 0
143 164 0
143 165 0
134 154 0
132 153 0
149 171 0
145 166 0
135 154 0
149 170 0
143 164 0
144 166 0
135 155 0
143 164 0
144 165 0
140 161 0
132 152 0
136 157 0
131 151 0
136 156 0
135 155 0
143 163 0
132 152 0
143 163 0
142 163 0
132 152 0
138 159 0
141 163 0
138 159 0
146 166 0
137 158 0
141 161 0
140 160 0
134 155 0
135 156 0
137 158 0
132 152 0
137 157 0
131 152 0
145 165 0
143 164 0
133 154 0
132 153 0
127 146 0
130 151 0
129 149 0
128 148 0
141 162 0
131 152 0
128 148 0
140 161 0
133 153 0
131 151 0
136 156 0
131 151 0
130 150 0
136 155 0
127 147 0
132 153 0
135 156 0
133 154 0
123 143 0
136 157 0
129 149 0
126 146 0
143 163 0
123 145 0
139 161 0
132 153 0
132 154 0
135 156 0
117 138 0
123 143 0
139 160 0
132 153 0
138 159 0
131 153 0
123 144 0
126 148 0
128 149 0
129 149 0
132 154 0
130 150 0
140 161 0
119 140 0
131 152 0
135 156 0
139 159 0
130 151 0
142 164 0
131 151 0
124 144 0
132 152 0
132 152 0
136 156 0
126 147 0
139 159 0
141 162 0
134 155 0
129 149 0
141 163 0
133 154 0
137 159 0
130 151 0
137 158 0
133 154 0
134 156 0
136 156 0
134 154 0
132 153 0
131 152 0
136 157 0
123 142 0
133 154 0
139 160 0
141 162 0
140 160 0
136 156 0
142 163 0
132 153 0
133 154 0
139 160 0
139 159 0
133 153 0
144 166 0
139 161 0
144 163 0
148 168 0
142 162 0
133 154 0
142 163 0
138 159 0
138 160 0
139 160 0
138 158 0
134 153 0
139 161 0
138 158 0
126 146 0
140 161 0
141 162 0
143 164 0
138 159 0
143 163 0
149 170 0
145 165 0
133 153 0
124 143 0
148 168 0
151 171 0
138 157 0
141 161 0
137 158 0
136 156 0
146 166 0
145 166 0
142 161 0
140 160 0
145 166 0
140 159 0
135 154 0
139 160 0
145 164 0
142 160 0
138 158 0
136 155 0
144 165 0
139 158 0
144 162 0
135 154 0
143 162 0
138 157 0
142 161 0
146 166 0
144 165 0
147 166 0
146 165 0
138 156 0
140 159 0
142 160 0
141 159 0
137 156 0
143 161 0
143 162 0
148 166 0
146 164 0
139 157 0
139 157 0
137 155 0
139 157 0
139 157 0
147 165 0
143 161 0
151 169 0
134 151 0
149 166 0
146 164 0
142 160 0
150 167 0
146 163 0
149 166 0
152 169 0
146 163 0
137 153 0
148 164 0
145 162 0
141 157 0
148 165 0
146 162 0
137 153 0
145 162 0
140 156 0
153 169 0
143 158 0
156 173 0
145 160 0
148 164 0
148 165 0
146 162 0
147 164 0
153 170 0
142 159 0
144 160 0
146 162 0
147 163 0
149 166 0
144 161 0
148 164 0
154 171 0
149 165 0
149 165 0
156 172 0
152 169 0
148 165 0
151 168 0
149 165 0
150 166 0
149 165 0
152 169 0
147 164 0
149 166 0
149 166 0
150 167 0
153 171 0
156 173 0
155 173 0
153 170 0
155 172 0
158 176 0
156 173 0
156 175 0
156 174 0
150 167 0
160 178 0
160 177 0
156 174 0
157 175 0
162 180 0
158 175 0
155 173 0
161 179 0
163 181 0
162 181 0
158 176 0
165 184 0
161 181 0
164 184 0
163 182 0
165 184 0
162 182 0
161 181 0
161 181 0
162 182 0
165 185 0
163 182 0
160 179 0
165 185 0
162 181 0
159 178 0
159 178 0
161 181 0
162 181 0
161 180 0
160 179 0
159 177 0
159 176 0
160 178 0
159 177 0
157 175 0
157 176 0
160 178 0
158 176 0
157 176 0
151 169 0
157 175 0
157 174 0
154 171 0
156 173 0
153 170 0
159 177 0
155 173 0
155 173 0
154 172 0
154 170 0
158 175 0
153 170 0
155 172 0
153 170 0
150 166 0
150 167 0
146 162 0
147 164 0
146 162 0
150 166 0
148 164 0
149 165 0
152 168 0
149 165 0
144 161 0
150 166 0
147 164 0
141 157 0
145 161 0
137 153 0
146 162 0
152 169 0
146 163 0
147 163 0
146 163 0
148 165 0
145 162 0
138 155 0
144 160 0
143 159 0
151 168 0
140 157 0
151 169 0
147 165 0
143 161 0
146 163 0
137 154 0
155 172 0
153 170 0
148 165 0
146 163 0
146 164 0
150 168 0
149 165 0
143 161 0
150 168 0
141 159 0
150 169 0
149 167 0
140 158 0
143 160 0
145 163 0
148 166 0
144 162 0
143 162 0
147 166 0
142 161 0
139 159 0
143 161 0
143 162 0
143 161 0
144 162 0
145 164 0
141 160 0
145 164 0
147 165 0
145 164 0
142 161 0
136 156 0
140 158 0
145 165 0
149 168 0
146 165 0
139 158 0
148 169 0
150 170 0
143 163 0
143 163 0
140 160 0
136 156 0
143 163 0
147 167 0
146 165 0
145 166 0
149 169 0
148 168 0
140 160 0
141 161 0
143 164 0
145 165 0
143 163 0
141 162 0
144 165 0
146 167 0
145 165 0
144 166 0
143 164 0
150 170 0
141 162 0
139 160 0
145 166 0
136 156 0
145 166 0
139 160 0
148 169 0
138 159 0
136 156 0
135 156 0
137 159 0
141 162 0
145 167 0
132 153 0
142 163 0
139 161 0
139 161 0
137 158 0
141 163 0
141 162 0
135 155 0
142 163 0
135 155 0
142 163 0
139 160 0
131 152 0
127 149 0
143 164 0
130 151 0
134 155 0
150 171 0
135 156 0
134 155 0
140 160 0
135 156 0
133 154 0
132 153 0
129 150 0
142 162 0
146 167 0
136 158 0
135 156 0
135 156 0
141 163 0
144 165 0
137 157 0
137 157 0
130 150 0
133 155 0
139 160 0
137 159 0
140 161 0
140 162 0
146 167 0
127 148 0
133 153 0
132 152 0
133 154 0
133 154 0
131 153 0
131 151 0
140 160 0
130 151 0
131 153 0
136 158 0
121 142 0
141 162 0
130 152 0
138 159 0
141 162 0
139 159 0
131 152 0
119 138 0
138 158 0
131 152 0
131 152 0
127 148 0
138 158 0
131 151 0
139 160 0
131 153 0
136 158 0
135 157 0
139 160 0
136 156 0
126 146 0
132 152 0
134 156 0
134 154 0
138 159 0
137 158 0
126 147 0
134 156 0
129 151 0
136 156 0
139 159 0
131 153 0
126 147 0
135 156 0
135 156 0
138 160 0
143 164 0
136 156 0
141 161 0
137 157 0
147 168 0
135 156 0
130 151 0
136 156 0
144 165 0
135 156 0
135 156 0
131 152 0
135 155 0
140 162 0
147 169 0
140 161 0
138 160 0
135 155 0
138 160 0
135 156 0
143 164 0
149 170 0
140 162 0
139 160 0
139 160 0
139 160 0
135 156 0
145 167 0
138 159 0
138 160 0
148 170 0
150 171 0
140 160 0
149 169 0
146 167 0
140 161 0
144 165 0
144 164 0
146 167 0
139 159 0
136 157 0
144 164 0
139 158 0
138 159 0
139 160 0
140 159 0
144 164 0
149 170 0
140 159 0
150 171 0
141 161 0
147 167 0
147 168 0
137 157 0
136 157 0
143 164 0
146 166 0
146 166 0
147 167 0
143 163 0
138 158 0
141 160 0
150 170 0
144 164 0
148 168 0
144 164 0
135 154 0
140 159 0
142 161 0
143 163 0
145 165 0
142 161 0
139 158 0
136 154 0
145 164 0
147 165 0
146 166 0
143 162 0
137 156 0
144 163 0
144 162 0
150 169 0
143 162 0
146 166 0
147 165 0
151 169 0
146 165 0
152 171 0
145 163 0
143 161 0
139 157 0
143 160 0
149 167 0
140 158 0
149 167 0
146 164 0
148 166 0
148 166 0
146 163 0
147 165 0
140 157 0
135 152 0
145 163 0
148 165 0
144 161 0
145 162 0
147 165 0
149 167 0
145 162 0
146 162 0
153 171 0
153 170 0
142 158 0
142 158 0
146 163 0
145 160 0
145 163 0
152 169 0
148 164 0
154 172 0
150 166 0
145 161 0
147 164 0
146 162 0
147 163 0
148 164 0
150 165 0
148 165 0
150 167 0
146 163 0
148 164 0
150 167 0
146 162 0
147 164 0
149 166 0
153 170 0
150 167 0
155 173 0
144 160 0
151 168 0
152 170 0
158 176 0
158 175 0
154 170 0
161 178 0
157 175 0
158 176 0
155 173 0
155 173 0
155 173 0
152 169 0
159 178 0
157 175 0
161 180 0
161 180 0
157 177 0
161 180 0
158 177 0
162 181 0
162 181 0
158 178 0
163 182 0
157 176 0
161 179 0
161 180 0
159 178 0
165 184 0
162 181 0
161 180 0
162 182 0
164 184 0
164 183 0
160 179 0
163 182 0
162 181 0
162 181 0
159 178 0
162 181 0
161 180 0
159 178 0
164 182 0
165 184 0
158 176 0
160 178 0
157 176 0
162 180 0
161 179 0
157 175 0
161 179 0
153 170 0
156 174 0
157 175 0
154 171 0
155 172 0
151 169 0
153 171 0
159 177 0
154 171 0
147 164 0
154 171 0
153 170 0
153 170 0
150 167 0
150 167 0
147 164 0
154 172 0
148 165 0
154 171 0
152 168 0
160 177 0
152 169 0
147 163 0
149 165 0
143 159 0
150 167 0
153 171 0
146 163 0
147 164 0
155 172 0
147 163 0
152 169 0
144 160 0
143 159 0
143 161 0
150 167 0
150 168 0
135 152 0
142 159 0
146 162 0
149 166 0
146 163 0
146 163 0
139 155 0
143 161 0
145 161 0
144 161 0
144 161 0
148 164 0
141 159 0
139 157 0
152 170 0
141 158 0
141 158 0
142 160 0
143 161 0
144 162 0
151 170 0
143 161 0
148 166 0
144 162 0
147 166 0
140 158 0
142 161 0
146 164 0
149 167 0
145 165 0
139 157 0
138 158 0
148 166 0
140 159 0
147 166 0
149 168 0
140 159 0
141 159 0
141 159 0
139 158 0
152 171 0
148 167 0
152 173 0
146 166 0
145 165 0
136 155 0
151 170 0
143 161 0
147 168 0
151 171 0
146 166 0
152 171 0
136 156 0
145 165 0
145 164 0
138 157 0
144 164 0
143 163 0
148 168 0
147 167 0
147 166 0
145 166 0
153 173 0
136 155 0
141 161 0
141 161 0
148 168 0
151 171 0
142 162 0
135 154 0
140 161 0
139 161 0
143 164 0
149 170 0
135 155 0
149 171 0
147 169 0
138 160 0
137 158 0
138 159 0
141 161 0
140 162 0
138 159 0
145 165 0
139 160 0
136 156 0
152 173 0
139 161 0
138 160 0
140 162 0
134 156 0
134 155 0
144 165 0
139 161 0
142 163 0
133 154 0
142 163 0
135 156 0
136 157 0
135 156 0
134 155 0
147 168 0
140 162 0
133 153 0
129 149 0
138 160 0
139 161 0
140 161 0
148 168 0
145 165 0
139 161 0
129 150 0
140 162 0
139 160 0
138 160 0
138 159 0
136 156 0
133 154 0
142 164 0
135 157 0
141 163 0
137 157 0
138 160 0
139 160 0
137 159 0
138 159 0
128 147 0
139 161 0
135 156 0
126 148 0
129 150 0
144 165 0
131 152 0
122 143 0
135 157 0
137 159 0
134 156 0
133 154 0
136 158 0
122 143 0
135 155 0
136 157 0
136 157 0
138 160 0
128 149 0
140 161 0
137 158 0
127 148 0
133 154 0
137 158 0
143 165 0
136 157 0
130 150 0
134 154 0
132 153 0
130 152 0
131 152 0
137 158 0
135 156 0
125 146 0
137 159 0
137 158 0
135 155 0
134 154 0
140 162 0
141 162 0
142 164 0
140 162 0
136 157 0
140 161 0
137 158 0
133 154 0
138 159 0
140 161 0
142 164 0
134 156 0
144 165 0
129 151 0
142 163 0
137 159 0
131 151 0
147 169 0
150 172 0
134 156 0
150 172 0
143 164 0
136 156 0
145 167 0
129 149 0
139 160 0
136 157 0
141 162 0
144 166 0
141 162 0
135 155 0
144 165 0
139 160 0
137 157 0
142 162 0
132 152 0
141 163 0
145 166 0
145 167 0
148 169 0
147 168 0
141 162 0
144 166 0
142 163 0
140 160 0
145 167 0
144 165 0
143 164 0
140 161 0
144 165 0
147 169 0
144 165 0
137 157 0
145 164 0
147 168 0
144 164 0
139 158 0
139 160 0
146 166 0
141 160 0
141 161 0
147 168 0
144 165 0
141 161 0
142 162 0
147 168 0
144 164 0
145 165 0
150 170 0
137 157 0
145 165 0
148 168 0
146 166 0
134 153 0
139 158 0
146 166 0
143 162 0
151 172 0
140 160 0
144 164 0
137 156 0
147 167 0
144 163 0
147 165 0
144 163 0
141 160 0
142 160 0
149 168 0
149 167 0
142 161 0
140 158 0
145 165 0
146 164 0
142 161 0
141 160 0
145 163 0
148 167 0
149 168 0
143 161 0
148 167 0
144 162 0
147 165 0
140 158 0
148 166 0
150 168 0
146 164 0
140 158 0
144 163 0
144 161 0
145 163 0
150 167 0
147 164 0
137 153 0
141 158 0
152 170 0
149 166 0
150 167 0
146 164 0
153 171 0
140 156 0
145 163 0
146 162 0
141 158 0
146 163 0
147 164 0
152 169 0
151 167 0
146 162 0
150 165 0
140 155 0
150 167 0
152 169 0
144 161 0
150 167 0
150 167 0
147 164 0
148 164 0
148 164 0
148 165 0
143 159 0
150 168 0
151 168 0
151 168 0
154 171 0
154 171 0
157 175 0
152 169 0
150 167 0
148 164 0
155 173 0
150 168 0
153 171 0
156 174 0
152 169 0
153 171 0
150 167 0
155 172 0
155 172 0
160 179 0
153 171 0
157 175 0
160 178 0
155 172 0
160 178 0
153 170 0
158 177 0
161 180 0
159 177 0
161 180 0
165 183 0
162 181 0
162 181 0
164 184 0
161 181 0
158 178 0
167 187 0
164 183 0
161 180 0
164 184 0
165 184 0
163 182 0
161 180 0
162 181 0
160 180 0
163 182 0
163 182 0
163 182 0
158 176 0
157 177 0
159 177 0
162 181 0
161 181 0
157 176 0
158 176 0
157 175 0
155 173 0
156 173 0
161 179 0
154 172 0
157 175 0
161 178 0
154 172 0
159 178 0
155 171 0
156 173 0
153 171 0
152 169 0
158 176 0
158 175 0
151 168 0
153 170 0
151 168 0
152 168 0
153 170 0
153 170 0
153 170 0
151 168 0
151 169 0
151 168 0
149 166 0
153 170 0
147 165 0
152 168 0
142 159 0
153 170 0
149 166 0
145 163 0
150 167 0
143 161 0
149 166 0
147 164 0
148 166 0
151 169 0
140 156 0
146 163 0
152 170 0
150 166 0
149 166 0
151 169 0
140 156 0
153 171 0
152 170 0
144 162 0
147 165 0
144 162 0
150 167 0
146 164 0
151 169 0
145 163 0
144 162 0
146 163 0
146 163 0
146 165 0
146 164 0
139 157 0
150 168 0
145 163 0
145 164 0
142 160 0
149 167 0
143 162 0
139 157 0
144 162 0
149 168 0
146 165 0
147 166 0
148 167 0
141 160 0
148 166 0
137 155 0
153 172 0
144 163 0
152 172 0
132 152 0
141 159 0
147 166 0
146 165 0
145 164 0
144 164 0
144 163 0
149 169 0
139 159 0
140 160 0
151 171 0
143 162 0
149 169 0
148 167 0
144 164 0
141 160 0
150 171 0
136 156 0
146 167 0
143 163 0
135 155 0
143 163 0
143 164 0
143 163 0
144 164 0
147 167 0
143 163 0
151 171 0
148 168 0
151 172 0
147 168 0
140 161 0
136 156 0
144 165 0
149 170 0
144 165 0
141 162 0
136 157 0
147 168 0
144 165 0
144 165 0
142 163 0
138 160 0
136 156 0
134 156 0
141 162 0
136 156 0
151 172 0
143 164 0
139 160 0
150 171 0
137 158 0
139 160 0
138 158 0
141 163 0
147 169 0
144 166 0
148 169 0
147 168 0
141 162 0
146 167 0
143 165 0
130 150 0
139 162 0
144 166 0
137 157 0
143 164 0
142 163 0
144 165 0
135 157 0
143 165 0
140 160 0
137 159 0
141 162 0
129 150 0
136 156 0
134 155 0
131 152 0
129 150 0
141 163 0
141 163 0
138 159 0
135 156 0
130 151 0
134 155 0
139 161 0
133 155 0
132 153 0
140 161 0
131 152 0
129 151 0
140 161 0
142 163 0
140 161 0
145 165 0
134 156 0
136 157 0
132 153 0
140 161 0
131 151 0
137 158 0
130 151 0
141 162 0
137 159 0
137 157 0
146 168 0
143 163 0
134 155 0
134 155 0
138 159 0
137 158 0
134 155 0
134 155 0
145 167 0
130 151 0
137 157 0
139 161 0
128 149 0
141 162 0
128 149 0
136 156 0
138 159 0
146 167 0
137 158 0
130 151 0
136 155 0
135 155 0
137 157 0
128 150 0
141 163 0
135 155 0
133 154 0
129 151 0
140 161 0
142 163 0
130 151 0
142 163 0
139 161 0
143 163 0
142 163 0
135 157 0
145 166 0
140 161 0
143 165 0
145 164 0
140 161 0
138 159 0
145 167 0
139 161 0
140 161 0
140 162 0
133 155 0
141 163 0
145 166 0
141 162 0
144 163 0
142 164 0
143 164 0
144 166 0
142 164 0
143 165 0
147 169 0
144 167 0
149 171 0
139 160 0
144 166 0
149 172 0
140 160 0
144 164 0
154 176 0
147 167 0
154 176 0
146 168 0
138 158 0
137 156 0
142 163 0
142 163 0
146 167 0
140 161 0
139 159 0
144 165 0
139 161 0
141 162 0
142 163 0
136 156 0
131 151 0
147 168 0
143 164 0
150 170 0
142 161 0
140 161 0
136 157 0
147 168 0
145 165 0
142 162 0
144 164 0
139 159 0
139 158 0
146 166 0
141 160 0
140 159 0
144 162 0
143 163 0
150 169 0
147 168 0
140 159 0
147 167 0
148 168 0
147 166 0
141 161 0
144 164 0
144 163 0
141 160 0
140 160 0
142 161 0
146 165 0
148 168 0
145 163 0
146 165 0
150 170 0
143 162 0
155 174 0
139 158 0
147 166 0
140 158 0
146 164 0
144 164 0
145 163 0
151 169 0
140 158 0
148 166 0
144 161 0
142 160 0
148 165 0
151 170 0
150 168 0
145 162 0
149 167 0
157 175 0
140 158 0
141 159 0
149 167 0
146 164 0
151 169 0
149 167 0
151 168 0
152 169 0
149 166 0
150 167 0
155 173 0
146 162 0
150 167 0
146 164 0
143 161 0
150 166 0
148 166 0
140 157 0
145 161 0
146 163 0
149 167 0
147 164 0
151 167 0
151 168 0
152 169 0
154 171 0
151 168 0
153 170 0
149 167 0
156 174 0
146 163 0
146 163 0
155 173 0
151 168 0
150 168 0
159 176 0
152 169 0
150 167 0
154 172 0
148 166 0
151 168 0
159 177 0
155 173 0
153 171 0
153 171 0
154 172 0
158 176 0
157 174 0
157 174 0
157 175 0
160 178 0
156 174 0
157 176 0
154 173 0
158 177 0
157 176 0
162 181 0
158 176 0
158 177 0
163 183 0
163 182 0
160 179 0
163 181 0
160 178 0
161 181 0
164 184 0
160 178 0
163 183 0
164 184 0
162 181 0
162 182 0
157 176 0
161 180 0
163 182 0
160 180 0
160 179 0
154 172 0
162 180 0
156 175 0
155 173 0
162 180 0
155 172 0
156 174 0
158 176 0
157 175 0
158 177 0
158 177 0
159 178 0
157 174 0
160 177 0
157 174 0
156 173 0
154 172 0
157 175 0
152 169 0
160 179 0
151 168 0
158 175 0
153 170 0
153 170 0
154 171 0
148 165 0
154 170 0
157 174 0
157 175 0
157 174 0
148 165 0
152 169 0
149 167 0
151 169 0
151 168 0
152 169 0
151 169 0
150 167 0
145 162 0
149 167 0
150 167 0
154 171 0
144 161 0
151 169 0
151 168 0
147 164 0
148 165 0
146 164 0
146 163 0
144 162 0
150 168 0
154 172 0
147 164 0
139 157 0
150 168 0
150 167 0
151 170 0
141 158 0
150 168 0
151 170 0
146 165 0
140 158 0
148 166 0
150 169 0
143 162 0
144 163 0
147 165 0
147 166 0
140 158 0
148 167 0
149 168 0
148 167 0
149 168 0
144 164 0
152 172 0
144 163 0
145 164 0
149 168 0
146 164 0
143 162 0
142 161 0
150 169 0
144 163 0
141 161 0
138 157 0
153 172 0
153 173 0
142 162 0
142 160 0
155 175 0
145 165 0
147 165 0
144 164 0
145 164 0
148 169 0
148 168 0
152 173 0
142 162 0
143 163 0
149 170 0
145 164 0
149 170 0
145 166 0
143 164 0
143 164 0
147 168 0
144 165 0
146 167 0
154 175 0
148 169 0
148 170 0
146 166 0
148 168 0
135 156 0
146 166 0
147 167 0
140 161 0
141 161 0
141 162 0
138 159 0
144 164 0
146 167 0
142 162 0
144 164 0
143 164 0
151 171 0
143 162 0
148 169 0
151 172 0
147 167 0
141 161 0
143 164 0
140 161 0
146 167 0
148 170 0
142 164 0
151 170 0
150 171 0
143 164 0
142 163 0
138 159 0
137 159 0
146 167 0
143 166 0
145 166 0
145 165 0
142 163 0
136 158 0
146 167 0
139 159 0
140 162 0
140 162 0
135 155 0
137 159 0
138 159 0
141 164 0
149 172 0
140 161 0
135 157 0
144 165 0
149 171 0
140 161 0
133 155 0
135 156 0
142 163 0
138 159 0
141 162 0
133 154 0
134 156 0
133 154 0
142 164 0
131 152 0
124 146 0
136 156 0
138 160 0
137 158 0
146 168 0
134 155 0
137 159 0
129 150 0
139 159 0
136 158 0
132 153 0
127 148 0
141 162 0
145 166 0
133 154 0
152 174 0
140 161 0
137 158 0
130 152 0
142 164 0
134 156 0
132 155 0
131 153 0
137 157 0
137 158 0
141 161 0
137 159 0
139 161 0
136 157 0
141 161 0
137 159 0
140 162 0
141 163 0
142 164 0
137 157 0
146 167 0
136 158 0
134 155 0
139 160 0
143 165 0
144 165 0
138 159 0
141 163 0
142 164 0
139 160 0
134 156 0
134 157 0
140 162 0
125 144 0
141 164 0
144 166 0
146 168 0
133 154 0
136 157 0
146 167 0
147 169 0
148 170 0
141 163 0
141 163 0
152 174 0
141 162 0
136 157 0
140 163 0
144 165 0
141 162 0
141 161 0
141 162 0
140 160 0
136 157 0
149 170 0
140 162 0
136 157 0
136 157 0
143 163 0
142 163 0
142 163 0
143 164 0
146 169 0
147 168 0
141 162 0
142 163 0
152 174 0
143 164 0
137 158 0
148 169 0
139 160 0
147 168 0
140 161 0
139 160 0
143 163 0
143 164 0
147 168 0
148 169 0
145 166 0
142 163 0
143 163 0
144 165 0
145 166 0
139 159 0
143 164 0
150 171 0
151 172 0
140 160 0
144 165 0
143 163 0
147 168 0
151 171 0
146 167 0
148 169 0
147 167 0
152 172 0
148 167 0
134 155 0
142 161 0
147 167 0
146 167 0
142 162 0
144 164 0
144 163 0
142 161 0
153 173 0
136 154 0
152 172 0
152 172 0
152 172 0
151 170 0
150 170 0
137 158 0
146 166 0
146 165 0
144 162 0
145 165 0
153 172 0
142 161 0
146 164 0
147 165 0
140 159 0
145 164 0
147 166 0
148 167 0
147 165 0
136 154 0
149 168 0
143 161 0
145 163 0
147 166 0
150 169 0
149 168 0
149 167 0
148 167 0
148 166 0
150 168 0
148 165 0
147 165 0
146 164 0
148 166 0
143 160 0
149 167 0
140 157 0
149 167 0
154 171 0
148 166 0
151 168 0
148 164 0
144 162 0
155 173 0
149 166 0
146 164 0
145 163 0
151 168 0
148 165 0
152 169 0
152 170 0
153 170 0
152 170 0
147 164 0
152 169 0
150 167 0
148 165 0
148 165 0
149 166 0
152 169 0
152 170 0
150 167 0
152 170 0
155 173 0
155 172 0
156 173 0
155 172 0
157 176 0
156 174 0
157 175 0
150 168 0
156 173 0
159 178 0
152 170 0
154 172 0
156 173 0
156 174 0
160 178 0
160 178 0
159 177 0
157 175 0
160 179 0
154 172 0
160 179 0
163 181 0
162 180 0
159 177 0
156 174 0
158 176 0
153 171 0
167 186 0
160 179 0
159 178 0
163 182 0
161 181 0
160 180 0
161 180 0
159 178 0
160 179 0
157 177 0
160 178 0
162 181 0
157 176 0
164 183 0
158 177 0
155 173 0
160 180 0
161 180 0
159 178 0
158 177 0
157 175 0
160 178 0
153 172 0
159 176 0
154 172 0
155 173 0
157 175 0
157 175 0
154 172 0
156 174 0
156 174 0
155 173 0
156 174 0
156 174 0
151 168 0
153 171 0
150 167 0
157 175 0
150 168 0
152 168 0
155 172 0
144 161 0
152 168 0
153 171 0
154 171 0
154 172 0
151 168 0
152 170 0
156 173 0
152 170 0
152 170 0
155 173 0
151 169 0
158 176 0
148 165 0
151 168 0
152 170 0
152 170 0
148 165 0
150 168 0
150 168 0
152 170 0
155 173 0
153 171 0
147 164 0
156 174 0
156 175 0
151 170 0
149 166 0
152 170 0
148 167 0
149 168 0
153 172 0
150 168 0
145 163 0
146 165 0
149 168 0
148 166 0
150 169 0
146 165 0
145 163 0
153 172 0
143 161 0
143 161 0
149 167 0
150 169 0
148 166 0
152 172 0
145 163 0
146 165 0
149 169 0
145 165 0
148 167 0
153 172 0
146 165 0
149 169 0
143 163 0
147 165 0
155 175 0
148 168 0
149 169 0
145 165 0
150 169 0
149 170 0
145 165 0
150 170 0
141 160 0
147 166 0
139 159 0
142 162 0
149 169 0
152 172 0
148 169 0
146 167 0
144 166 0
140 160 0
141 160 0
144 164 0
146 167 0
147 169 0
150 171 0
153 175 0
146 167 0
151 172 0
143 163 0
144 164 0
147 169 0
149 171 0
149 171 0
152 173 0
147 168 0
141 163 0
151 172 0
143 163 0
149 170 0
145 166 0
143 163 0
145 166 0
152 173 0
139 160 0
141 162 0
147 169 0
138 159 0
147 168 0
144 165 0
145 166 0
141 162 0
144 165 0
143 164 0
146 167 0
138 160 0
137 159 0
138 159 0
143 164 0
146 168 0
147 168 0
146 168 0
142 164 0
140 161 0
140 161 0
140 161 0
144 166 0
135 156 0
144 166 0
146 167 0
134 156 0
143 165 0
139 160 0
138 159 0
143 165 0
138 159 0
144 166 0
144 166 0
138 158 0
132 153 0
131 153 0
145 167 0
145 166 0
134 156 0
138 158 0
141 162 0
147 170 0
137 160 0
140 163 0
133 154 0
137 158 0
143 164 0
145 167 0
136 157 0
134 155 0
138 159 0
131 152 0
137 158 0
132 154 0
145 166 0
143 164 0
131 152 0
135 156 0
139 160 0
138 160 0
122 142 0
133 155 0
139 160 0
134 155 0
138 159 0
140 162 0
139 161 0
140 162 0
139 161 0
138 159 0
140 161 0
134 155 0
140 160 0
136 158 0
131 152 0
141 162 0
133 154 0
135 156 0
135 156 0
136 157 0
136 157 0
132 154 0
140 161 0
138 159 0
129 150 0
135 157 0
141 162 0
137 158 0
137 157 0
138 160 0
140 162 0
143 165 0
144 164 0
144 166 0
139 160 0
138 158 0
141 163 0
139 160 0
144 166 0
139 161 0
145 167 0
157 179 0
137 158 0
140 161 0
141 162 0
136 159 0
146 167 0
131 152 0
142 163 0
135 155 0
142 164 0
135 156 0
141 162 0
146 168 0
145 166 0
147 169 0
144 165 0
141 163 0
132 153 0
143 165 0
145 166 0
137 158 0
140 161 0
142 163 0
146 168 0
141 163 0
136 157 0
147 169 0
148 170 0
151 172 0
150 171 0
143 165 0
144 166 0
147 168 0
153 174 0
146 167 0
142 163 0
144 165 0
149 169 0
140 161 0
146 165 0
150 171 0
134 156 0
149 170 0
142 163 0
150 170 0
143 163 0
150 172 0
150 171 0
152 173 0
142 163 0
142 162 0
143 163 0
144 165 0
141 159 0
147 168 0
146 167 0
150 170 0
144 164 0
142 162 0
144 164 0
146 167 0
143 164 0
149 171 0
148 169 0
140 161 0
144 164 0
145 164 0
147 166 0
144 164 0
143 162 0
141 159 0
145 164 0
146 166 0
137 157 0
155 176 0
142 162 0
149 169 0
135 154 0
146 165 0
139 159 0
147 166 0
150 170 0
140 159 0
147 166 0
150 169 0
141 160 0
151 170 0
152 171 0
146 165 0
153 172 0
150 168 0
148 166 0
147 165 0
147 166 0
146 165 0
146 165 0
149 167 0
145 163 0
147 164 0
149 168 0
153 172 0
145 163 0
148 165 0
150 169 0
149 166 0
151 170 0
153 172 0
146 163 0
151 169 0
144 162 0
147 166 0
147 165 0
146 162 0
147 165 0
155 172 0
148 166 0
150 167 0
147 165 0
153 171 0
149 166 0
152 170 0
148 165 0
148 167 0
151 168 0
149 167 0
146 163 0
153 170 0
147 164 0
150 167 0
149 166 0
152 170 0
157 174 0
150 167 0
155 172 0
152 169 0
151 168 0
149 167 0
149 166 0
153 170 0
154 170 0
155 172 0
155 172 0
158 177 0
158 178 0
155 173 0
159 177 0
158 176 0
159 176 0
152 170 0
160 179 0
155 172 0
157 176 0
161 180 0
163 181 0
158 176 0
155 173 0
160 179 0
159 178 0
155 173 0
158 176 0
165 185 0
163 183 0
158 178 0
162 182 0
166 185 0
163 182 0
163 181 0
160 180 0
161 180 0
161 179 0
161 179 0
156 175 0
159 177 0
158 177 0
159 177 0
157 176 0
161 180 0
160 179 0
156 175 0
153 171 0
156 174 0
156 174 0
157 175 0
159 177 0
160 178 0
154 172 0
162 181 0
153 171 0
159 177 0
152 170 0
154 172 0
157 175 0
158 176 0
152 169 0
152 170 0
156 173 0
155 172 0
153 172 0
154 172 0
151 170 0
153 171 0
156 174 0
152 170 0
152 170 0
152 169 0
151 168 0
155 173 0
149 167 0
154 172 0
155 173 0
150 168 0
153 173 0
157 175 0
151 169 0
148 165 0
150 168 0
148 166 0
150 168 0
152 170 0
151 168 0
150 169 0
149 167 0
153 170 0
148 166 0
153 172 0
147 165 0
150 168 0
141 159 0
146 164 0
147 165 0
146 164 0
151 170 0
148 168 0
147 167 0
150 168 0
155 173 0
152 170 0
148 166 0
148 166 0
149 168 0
149 169 0
147 166 0
146 165 0
143 162 0
146 164 0
145 163 0
153 171 0
151 170 0
147 167 0
150 168 0
144 161 0
147 166 0
146 165 0
149 169 0
153 174 0
152 171 0
147 167 0
148 169 0
155 175 0
149 170 0
144 164 0
138 158 0
149 171 0
140 158 0
147 168 0
146 167 0
142 162 0
151 171 0
154 175 0
147 169 0
147 167 0
151 172 0
144 164 0
147 166 0
152 172 0
152 173 0
147 168 0
140 160 0
146 166 0
151 172 0
147 167 0
147 167 0
142 163 0
146 167 0
144 165 0
140 160 0
143 164 0
149 169 0
141 163 0
145 165 0
154 175 0
144 165 0
146 166 0
150 172 0
139 160 0
145 167 0
136 157 0
147 168 0
138 159 0
139 159 0
147 169 0
141 163 0
139 159 0
134 155 0
142 164 0
146 167 0
146 167 0
140 160 0
146 168 0
141 162 0
146 168 0
144 166 0
141 162 0
138 159 0
149 171 0
144 166 0
145 167 0
140 161 0
150 171 0
142 163 0
147 170 0
137 158 0
140 160 0
140 162 0
142 165 0
139 161 0
138 159 0
140 161 0
139 161 0
142 163 0
136 157 0
136 158 0
142 164 0
138 160 0
139 161 0
131 153 0
144 166 0
141 163 0
139 159 0
127 148 0
137 158 0
130 152 0
131 153 0
131 153 0
140 160 0
140 160 0
134 154 0
131 153 0
135 157 0
132 153 0
138 160 0
137 159 0
131 152 0
134 155 0
137 159 0
143 165 0
137 159 0
143 164 0
132 154 0
137 159 0
136 157 0
139 160 0
143 163 0
135 156 0
138 160 0
137 158 0
141 163 0
143 164 0
137 157 0
141 163 0
137 159 0
143 165 0
146 168 0
139 160 0
144 165 0
137 158 0
140 162 0
136 157 0
143 164 0
137 158 0
130 152 0
132 154 0
138 161 0
135 157 0
136 158 0
129 150 0
138 159 0
139 161 0
139 160 0
136 158 0
127 148 0
132 154 0
145 168 0
142 164 0
134 156 0
141 163 0
147 169 0
144 165 0
137 159 0
130 152 0
135 155 0
153 175 0
138 159 0
137 157 0
141 162 0
142 163 0
137 159 0
135 158 0
140 162 0
142 162 0
143 165 0
138 159 0
146 167 0
143 164 0
152 174 0
146 168 0
143 164 0
141 162 0
140 162 0
137 158 0
145 167 0
141 163 0
132 152 0
139 161 0
144 166 0
145 167 0
145 166 0
144 165 0
141 162 0
144 166 0
141 162 0
143 162 0
144 165 0
142 164 0
140 161 0
142 163 0
143 164 0
146 168 0
139 160 0
142 163 0
136 156 0
146 167 0
148 170 0
152 173 0
148 169 0
146 168 0
148 167 0
153 173 0
146 167 0
135 155 0
144 165 0
152 173 0
142 164 0
153 175 0
147 168 0
151 173 0
148 169 0
153 173 0
151 172 0
144 164 0
146 168 0
142 161 0
142 163 0
148 169 0
144 164 0
153 173 0
147 167 0
150 171 0
145 165 0
146 165 0
146 166 0
156 176 0
143 162 0
150 170 0
151 171 0
149 170 0
146 166 0
147 167 0
145 164 0
146 166 0
150 169 0
144 163 0
147 166 0
146 166 0
144 162 0
147 166 0
141 159 0
150 169 0
155 174 0
146 165 0
155 174 0
144 163 0
146 164 0
149 169 0
143 163 0
144 163 0
146 165 0
150 168 0
146 165 0
145 163 0
152 170 0
148 165 0
148 165 0
149 167 0
152 170 0
153 172 0
145 163 0
149 166 0
155 173 0
141 159 0
148 166 0
153 170 0
151 168 0
153 171 0
147 165 0
152 170 0
146 163 0
147 165 0
148 166 0
145 162 0
144 161 0
152 170 0
153 171 0
151 170 0
145 162 0
152 170 0
151 169 0
145 162 0
157 175 0
156 174 0
157 174 0
155 174 0
156 174 0
154 173 0
153 171 0
155 173 0
155 173 0
151 169 0
159 178 0
157 174 0
153 171 0
158 175 0
162 181 0
152 170 0
157 175 0
156 173 0
155 173 0
157 176 0
158 175 0
160 178 0
159 178 0
158 176 0
159 178 0
154 171 0
163 182 0
157 175 0
162 181 0
161 180 0
159 178 0
158 176 0
159 178 0
159 177 0
165 184 0
161 179 0
156 175 0
164 184 0
161 180 0
160 179 0
160 180 0
160 178 0
164 183 0
155 172 0
159 178 0
161 179 0
159 178 0
162 180 0
155 174 0
154 172 0
162 181 0
151 170 0
151 169 0
161 179 0
156 175 0
162 180 0
154 172 0
161 179 0
157 175 0
154 172 0
155 173 0
158 175 0
158 177 0
152 171 0
155 173 0
156 175 0
155 173 0
155 173 0
152 170 0
158 177 0
150 168 0
151 168 0
155 173 0
155 174 0
153 171 0
149 167 0
156 175 0
151 169 0
149 166 0
150 168 0
156 173 0
149 168 0
155 173 0
153 170 0
151 169 0
150 168 0
150 168 0
154 171 0
151 169 0
153 171 0
151 169 0
154 172 0
150 169 0
160 178 0
147 165 0
161 180 0
153 172 0
150 168 0
149 167 0
141 158 0
144 163 0
154 174 0
154 173 0
151 169 0
141 160 0
149 167 0
152 171 0
151 170 0
145 163 0
139 156 0
150 169 0
149 168 0
149 168 0
149 168 0
153 172 0
149 169 0
150 169 0
147 167 0
150 168 0
156 175 0
145 164 0
146 165 0
152 172 0
145 165 0
148 168 0
148 168 0
151 171 0
146 166 0
139 160 0
148 168 0
139 159 0
146 165 0
142 163 0
147 168 0
140 160 0
155 175 0
145 166 0
152 172 0
145 166 0
151 172 0
145 164 0
148 169 0
149 169 0
149 169 0
147 169 0
141 161 0
149 170 0
150 170 0
147 169 0
146 167 0
144 165 0
152 174 0
144 165 0
144 165 0
149 169 0
152 173 0
155 177 0
144 165 0
146 167 0
156 177 0
149 170 0
152 172 0
149 171 0
150 172 0
148 169 0
147 169 0
148 170 0
145 166 0
147 168 0
145 167 0
137 157 0
145 167 0
147 170 0
142 162 0
147 168 0
140 161 0
144 167 0
144 166 0
146 168 0
148 170 0
143 166 0
142 163 0
141 162 0
139 160 0
144 166 0
151 171 0
145 167 0
136 158 0
145 167 0
151 173 0
135 155 0
146 167 0
141 162 0
146 168 0
139 160 0
139 161 0
138 160 0
135 156 0
147 169 0
139 161 0
144 166 0
146 167 0
142 162 0
144 165 0
146 168 0
144 166 0
148 170 0
143 164 0
148 170 0
145 167 0
138 160 0
132 153 0
144 165 0
149 170 0
141 163 0
137 159 0
136 157 0
143 164 0
130 151 0
140 161 0
139 160 0
140 161 0
143 165 0
135 156 0
146 167 0
133 155 0
140 162 0
141 163 0
139 161 0
139 160 0
143 164 0
137 158 0
136 157 0
138 159 0
134 156 0
141 163 0
138 160 0
135 157 0
135 157 0
140 161 0
137 159 0
143 165 0
141 161 0
144 165 0
145 168 0
136 156 0
145 167 0
135 157 0
139 161 0
139 161 0
148 170 0
136 158 0
142 164 0
135 157 0
138 160 0
141 161 0
134 155 0
143 165 0
138 160 0
135 157 0
136 157 0
136 157 0
150 171 0
141 163 0
141 163 0
142 165 0
138 160 0
131 153 0
133 154 0
144 165 0
143 165 0
137 158 0
140 163 0
148 170 0
138 160 0
146 168 0
139 160 0
147 169 0
136 159 0
139 160 0
145 166 0
134 154 0
137 159 0
140 160 0
143 165 0
142 163 0
143 165 0
149 171 0
151 172 0
139 161 0
144 165 0
137 159 0
140 161 0
143 165 0
148 169 0
139 160 0
138 159 0
143 164 0
144 166 0
146 168 0
142 164 0
142 164 0
145 166 0
147 169 0
144 167 0
144 165 0
152 172 0
150 170 0
138 158 0
141 161 0
151 171 0
145 167 0
146 167 0
142 163 0
150 171 0
142 163 0
144 165 0
142 162 0
146 167 0
149 170 0
152 174 0
152 173 0
144 165 0
139 159 0
152 173 0
149 170 0
150 171 0
139 161 0
135 156 0
149 169 0
143 162 0
146 167 0
135 155 0
142 163 0
149 169 0
145 166 0
142 162 0
143 164 0
148 169 0
147 167 0
143 163 0
151 171 0
146 166 0
151 170 0
148 168 0
152 173 0
143 163 0
150 171 0
150 170 0
158 178 0
147 167 0
143 163 0
152 173 0
148 168 0
149 169 0
151 172 0
149 169 0
150 170 0
149 167 0
149 168 0
155 175 0
147 166 0
151 170 0
151 171 0
153 173 0
147 166 0
146 165 0
152 171 0
144 162 0
150 168 0
155 174 0
155 175 0
147 165 0
147 166 0
147 165 0
145 163 0
152 171 0
150 168 0
147 166 0
156 174 0
151 169 0
145 164 0
148 166 0
151 169 0
153 171 0
153 171 0
157 174 0
150 168 0
151 169 0
151 168 0
149 167 0
150 167 0
159 178 0
145 163 0
155 173 0
149 166 0
152 171 0
152 170 0
152 170 0
151 168 0
152 170 0
154 173 0
156 173 0
152 169 0
152 169 0
153 172 0
153 170 0
158 176 0
155 173 0
151 169 0
153 171 0
156 174 0
156 175 0
154 171 0
153 171 0
160 179 0
155 172 0
160 179 0
157 174 0
158 177 0
157 175 0
150 167 0
155 173 0
159 178 0
158 177 0
160 179 0
158 177 0
159 178 0
156 175 0
156 175 0
160 178 0
160 178 0
158 177 0
161 180 0
161 179 0
160 179 0
159 178 0
161 181 0
163 182 0
160 179 0
157 176 0
159 178 0
164 184 0
162 182 0
160 178 0
157 176 0
160 180 0
163 182 0
162 180 0
157 175 0
156 175 0
158 177 0
156 175 0
159 178 0
157 176 0
161 179 0
157 175 0
156 174 0
156 174 0
156 174 0
146 164 0
153 171 0
159 178 0
152 170 0
154 173 0
155 173 0
152 171 0
157 176 0
154 172 0
154 172 0
155 172 0
152 169 0
155 173 0
152 169 0
155 173 0
156 174 0
154 171 0
157 174 0
153 171 0
153 171 0
157 174 0
151 169 0
151 169 0
146 164 0
155 174 0
154 172 0
153 172 0
149 167 0
148 166 0
155 175 0
150 167 0
156 174 0
145 162 0
156 175 0
149 168 0
150 169 0
154 172 0
153 173 0
151 168 0
151 170 0
151 170 0
153 171 0
145 164 0
153 172 0
148 166 0
154 174 0
156 174 0
153 171 0
140 159 0
149 168 0
150 170 0
150 170 0
148 167 0
147 166 0
151 169 0
147 166 0
147 166 0
148 167 0
143 162 0
149 168 0
155 175 0
154 174 0
147 166 0
148 167 0
146 166 0
147 166 0
153 173 0
150 171 0
148 168 0
140 160 0
145 165 0
142 162 0
150 170 0
142 163 0
146 166 0
146 166 0
151 172 0
146 166 0
146 168 0
146 165 0
147 167 0
151 173 0
147 168 0
147 168 0
142 162 0
149 169 0
148 168 0
143 164 0
146 167 0
147 167 0
148 170 0
150 170 0
145 166 0
143 163 0
141 161 0
148 168 0
146 167 0
148 169 0
140 161 0
147 168 0
155 176 0
144 164 0
143 164 0
146 168 0
149 171 0
146 166 0
150 171 0
141 163 0
144 164 0
154 176 0
147 168 0
148 170 0
142 163 0
143 165 0
145 166 0
143 165 0
146 168 0
142 163 0
142 165 0
147 168 0
149 171 0
136 158 0
147 170 0
137 158 0
145 167 0
150 171 0
135 156 0
150 171 0
148 168 0
138 160 0
147 169 0
149 170 0
145 166 0
134 155 0
142 164 0
132 153 0
145 167 0
140 162 0
141 163 0
143 164 0
149 170 0
142 163 0
136 157 0
135 156 0
144 166 0
127 148 0
135 157 0
144 166 0
142 163 0
143 164 0
140 162 0
142 163 0
136 157 0
145 168 0
141 163 0
138 159 0
142 164 0
144 165 0
141 162 0
135 157 0
141 164 0
137 158 0
142 163 0
130 151 0
141 163 0
144 166 0
139 161 0
133 154 0
138 160 0
143 164 0
134 154 0
133 155 0
126 148 0
140 161 0
141 163 0
134 156 0
136 158 0
147 171 0
135 156 0
140 162 0
129 151 0
147 168 0
139 161 0
144 165 0
138 159 0
146 170 0
140 161 0
134 156 0
139 160 0
138 159 0
142 164 0
144 167 0
143 165 0
142 164 0
146 168 0
139 160 0
143 164 0
143 166 0
127 148 0
136 158 0
140 162 0
138 159 0
148 169 0
151 174 0
137 157 0
143 163 0
146 167 0
148 170 0
140 162 0
139 160 0
138 158 0
146 168 0
142 164 0
148 171 0
142 164 0
131 153 0
150 172 0
144 165 0
143 165 0
144 167 0
143 165 0
142 164 0
143 165 0
142 163 0
143 165 0
135 156 0
143 165 0
137 158 0
138 160 0
140 159 0
132 154 0
146 167 0
144 165 0
137 159 0
143 164 0
147 168 0
144 166 0
143 164 0
146 168 0
147 167 0
146 167 0
148 170 0
143 164 0
148 169 0
151 173 0
145 166 0
141 162 0
151 172 0
142 163 0
137 158 0
151 172 0
145 166 0
151 173 0
144 164 0
152 174 0
143 165 0
142 164 0
151 173 0
144 165 0
140 160 0
145 166 0
150 172 0
146 166 0
147 167 0
157 177 0
155 176 0
150 170 0
148 168 0
155 176 0
143 164 0
148 169 0
146 167 0
150 170 0
155 175 0
143 164 0
143 164 0
144 164 0
138 157 0
146 167 0
145 166 0
147 168 0
147 167 0
150 170 0
147 166 0
147 167 0
146 167 0
146 166 0
141 161 0
149 168 0
151 170 0
150 170 0
150 170 0
144 163 0
154 174 0
147 167 0
148 168 0
146 164 0
144 164 0
145 164 0
146 165 0
148 169 0
153 171 0
150 169 0
150 170 0
147 166 0
154 173 0
146 164 0
150 169 0
150 169 0
156 175 0
152 171 0
146 165 0
145 164 0
149 168 0
146 163 0
153 173 0
150 169 0
160 179 0
151 170 0
152 170 0
148 166 0
153 172 0
151 169 0
149 167 0
146 164 0
147 166 0
158 177 0
153 172 0
156 175 0
146 165 0
146 165 0
151 169 0
152 172 0
152 171 0
156 174 0
153 171 0
153 171 0
152 169 0
155 173 0
153 172 0
155 173 0
156 175 0
154 172 0
155 173 0
156 174 0
153 172 0
156 174 0
156 174 0
153 171 0
158 176 0
151 168 0
154 172 0
153 170 0
150 168 0
160 179 0
153 171 0
159 177 0
154 171 0
152 170 0
157 176 0
155 175 0
156 174 0
158 177 0
152 170 0
151 170 0
157 175 0
160 178 0
154 172 0
160 179 0
158 177 0
158 177 0
155 173 0
158 177 0
157 176 0
160 178 0
156 175 0
165 184 0
159 178 0
159 179 0
158 178 0
156 175 0
165 184 0
156 175 0
158 177 0
162 180 0
156 176 0
160 179 0
166 186 0
161 178 0
162 181 0
156 175 0
159 177 0
161 180 0
159 177 0
152 170 0
152 169 0
156 175 0
153 171 0
159 178 0
155 173 0
155 173 0
154 172 0
154 172 0
157 175 0
152 170 0
156 174 0
156 173 0
156 173 0
158 177 0
157 175 0
153 171 0
157 175 0
156 173 0
161 179 0
150 169 0
155 174 0
152 170 0
155 173 0
150 168 0
159 177 0
153 170 0
156 174 0
151 168 0
154 173 0
155 173 0
155 173 0
153 170 0
148 166 0
151 169 0
145 162 0
154 173 0
144 164 0
149 168 0
155 173 0
149 168 0
151 169 0
152 171 0
153 172 0
152 172 0
152 171 0
148 167 0
149 167 0
152 172 0
152 170 0
150 170 0
146 164 0
148 168 0
149 168 0
146 164 0
147 166 0
152 171 0
153 172 0
156 176 0
152 172 0
156 176 0
145 164 0
149 169 0
154 174 0
148 167 0
146 166 0
151 170 0
150 170 0
147 166 0
147 166 0
156 176 0
156 175 0
150 170 0
154 175 0
158 178 0
148 168 0
151 172 0
148 168 0
147 167 0
149 169 0
150 171 0
148 168 0
144 164 0
145 166 0
152 173 0
153 174 0
142 161 0
154 175 0
148 168 0
140 161 0
154 175 0
151 172 0
152 173 0
147 169 0
143 163 0
145 166 0
151 171 0
152 173 0
151 172 0
147 168 0
142 163 0
144 166 0
142 163 0
150 172 0
141 162 0
143 165 0
140 160 0
149 170 0
148 169 0
139 160 0
145 167 0
152 175 0
142 163 0
150 173 0
144 164 0
147 168 0
144 165 0
148 170 0
151 172 0
154 176 0
143 164 0
144 165 0
145 166 0
150 172 0
145 167 0
146 167 0
139 160 0
145 166 0
138 159 0
148 170 0
144 166 0
144 166 0
141 163 0
142 164 0
146 167 0
134 155 0
145 166 0
138 159 0
145 167 0
141 163 0
146 168 0
145 167 0
150 173 0
148 169 0
147 169 0
140 161 0
134 156 0
148 169 0
138 160 0
137 159 0
148 170 0
145 166 0
146 168 0
143 165 0
145 167 0
137 159 0
140 161 0
145 166 0
145 165 0
139 160 0
147 169 0
148 169 0
141 164 0
128 151 0
146 168 0
136 159 0
133 154 0
150 171 0
143 164 0
134 155 0
146 167 0
142 163 0
140 161 0
137 158 0
130 152 0
140 162 0
143 164 0
144 167 0
134 156 0
151 174 0
144 166 0
133 155 0
137 160 0
138 159 0
143 165 0
136 158 0
141 163 0
138 160 0
141 162 0
135 157 0
144 166 0
132 155 0
135 156 0
134 155 0
140 161 0
141 163 0
135 157 0
143 166 0
134 155 0
140 162 0
143 165 0
139 160 0
149 171 0
136 157 0
145 166 0
148 172 0
140 162 0
143 164 0
132 154 0
138 159 0
143 165 0
139 161 0
152 173 0
135 156 0
148 169 0
135 158 0
147 169 0
143 165 0
143 165 0
135 156 0
143 165 0
133 154 0
138 159 0
140 160 0
147 169 0
133 155 0
143 165 0
145 168 0
148 171 0
147 169 0
144 166 0
139 161 0
138 159 0
148 170 0
147 169 0
149 172 0
149 170 0
151 172 0
144 167 0
139 160 0
139 161 0
146 168 0
144 165 0
148 170 0
142 163 0
142 163 0
136 157 0
146 167 0
144 165 0
147 168 0
142 163 0
149 170 0
149 170 0
144 165 0
139 160 0
147 169 0
147 168 0
148 170 0
148 168 0
150 171 0
148 170 0
144 167 0
150 171 0
143 162 0
145 165 0
144 165 0
148 169 0
149 171 0
149 169 0
147 168 0
149 171 0
147 168 0
152 173 0
146 168 0
153 173 0
140 161 0
146 166 0
152 173 0
148 169 0
142 163 0
150 172 0
152 173 0
142 162 0
150 171 0
144 164 0
146 166 0
147 168 0
149 169 0
146 167 0
150 170 0
147 167 0
148 168 0
148 167 0
151 171 0
149 169 0
149 170 0
145 165 0
151 171 0
139 158 0
152 173 0
154 174 0
147 167 0
148 169 0
139 159 0
153 172 0
148 168 0
151 171 0
144 164 0
152 173 0
158 177 0
149 169 0
150 169 0
152 171 0
151 171 0
149 168 0
154 174 0
147 166 0
146 165 0
154 173 0
150 169 0
152 171 0
151 169 0
151 170 0
148 167 0
154 172 0
148 167 0
157 175 0
155 174 0
148 167 0
158 177 0
144 163 0
148 167 0
152 171 0
148 166 0
155 174 0
150 168 0
152 171 0
149 168 0
148 167 0
153 172 0
159 178 0
153 171 0
155 174 0
157 175 0
143 160 0
159 177 0
153 170 0
153 172 0
150 168 0
148 166 0
151 170 0
155 174 0
155 174 0
154 171 0
153 171 0
158 177 0
158 176 0
154 171 0
155 173 0
157 177 0
155 173 0
157 175 0
156 173 0
156 175 0
153 172 0
154 172 0
159 177 0
153 169 0
160 180 0
155 173 0
155 173 0
162 181 0
162 181 0
162 180 0
164 183 0
162 182 0
160 179 0
160 178 0
161 180 0
155 173 0
158 176 0
164 183 0
159 178 0
166 185 0
157 177 0
166 185 0
160 178 0
159 177 0
160 179 0
162 181 0
161 180 0
161 181 0
159 178 0
156 176 0
160 179 0
159 178 0
157 175 0
158 176 0
156 176 0
159 177 0
156 174 0
157 176 0
156 175 0
160 179 0
161 180 0
155 174 0
154 172 0
154 172 0
157 176 0
153 172 0
162 181 0
158 176 0
153 172 0
155 173 0
157 175 0
163 181 0
155 174 0
151 169 0
157 176 0
155 173 0
158 176 0
157 175 0
156 175 0
154 172 0
153 171 0
155 174 0
156 175 0
154 172 0
154 173 0
151 170 0
150 168 0
153 171 0
155 172 0
155 174 0
151 171 0
153 172 0
156 176 0
153 171 0
155 174 0
155 174 0
150 168 0
157 177 0
154 174 0
155 173 0
154 173 0
154 173 0
150 169 0
145 164 0
156 175 0
145 164 0
155 174 0
152 172 0
144 163 0
141 160 0
153 172 0
146 165 0
149 169 0
149 169 0
154 173 0
148 168 0
148 168 0
150 169 0
145 165 0
149 169 0
154 175 0
152 174 0
149 169 0
144 165 0
145 164 0
154 173 0
148 169 0
148 168 0
148 169 0
141 161 0
152 173 0
140 160 0
153 174 0
148 169 0
145 165 0
149 170 0
146 166 0
144 164 0
149 169 0
152 173 0
148 169 0
152 172 0
149 170 0
147 168 0
149 169 0
153 173 0
149 170 0
151 171 0
144 164 0
148 169 0
148 169 0
147 169 0
150 172 0
143 163 0
143 164 0
140 161 0
148 170 0
148 170 0
152 173 0
144 165 0
147 170 0
144 166 0
144 166 0
142 163 0
148 170 0
146 168 0
148 170 0
148 169 0
142 163 0
140 161 0
146 167 0
149 170 0
141 162 0
147 169 0
143 164 0
146 167 0
150 171 0
149 170 0
148 170 0
149 171 0
142 164 0
145 167 0
145 167 0
148 171 0
148 170 0
141 164 0
146 167 0
147 168 0
150 173 0
142 163 0
152 173 0
146 166 0
143 164 0
147 170 0
148 170 0
145 167 0
146 168 0
141 163 0
143 165 0
141 162 0
144 165 0
146 166 0
145 167 0
151 173 0
143 164 0
149 171 0
139 162 0
138 161 0
148 169 0
148 169 0
143 164 0
143 165 0
140 163 0
142 164 0
149 171 0
147 169 0
144 166 0
139 160 0
142 164 0
156 177 0
151 173 0
144 165 0
137 158 0
141 162 0
146 168 0
137 159 0
149 170 0
143 165 0
134 155 0
138 160 0
146 168 0
146 167 0
137 160 0
141 163 0
138 160 0
149 170 0
144 166 0
147 169 0
132 155 0
136 158 0
139 162 0
138 160 0
146 169 0
143 165 0
134 154 0
147 168 0
142 164 0
140 162 0
147 170 0
144 165 0
137 159 0
137 159 0
142 163 0
145 167 0
143 165 0
139 161 0
144 165 0
136 157 0
149 170 0
141 163 0
144 166 0
142 164 0
143 164 0
142 163 0
145 167 0
145 167 0
143 164 0
143 165 0
148 169 0
144 166 0
145 166 0
138 160 0
149 171 0
136 158 0
140 162 0
139 161 0
141 162 0
140 162 0
147 170 0
145 166 0
144 166 0
148 170 0
134 155 0
151 174 0
145 166 0
143 165 0
151 172 0
156 179 0
142 164 0
139 161 0
145 167 0
143 164 0
144 164 0
146 168 0
145 167 0
148 170 0
153 175 0
141 163 0
147 170 0
147 168 0
143 164 0
151 174 0
143 165 0
145 167 0
139 161 0
146 168 0
145 167 0
153 174 0
144 166 0
144 165 0
143 164 0
152 173 0
143 164 0
148 169 0
151 174 0
144 167 0
152 174 0
154 174 0
146 167 0
151 173 0
142 163 0
152 172 0
147 168 0
144 166 0
149 172 0
145 165 0
144 165 0
146 168 0
147 169 0
148 168 0
142 163 0
146 166 0
153 174 0
151 173 0
149 171 0
156 176 0
155 176 0
151 172 0
144 165 0
147 167 0
146 167 0
146 167 0
146 167 0
146 167 0
149 170 0
147 167 0
152 172 0
151 171 0
153 175 0
149 170 0
148 168 0
149 169 0
148 168 0
150 170 0
152 174 0
141 162 0
140 160 0
149 168 0
144 162 0
151 171 0
145 165 0
150 171 0
147 166 0
153 172 0
152 173 0
151 170 0
144 164 0
151 171 0
152 171 0
147 166 0
146 165 0
149 168 0
154 174 0
150 171 0
151 170 0
149 167 0
153 172 0
146 165 0
150 169 0
156 175 0
146 165 0
148 166 0
151 171 0
148 167 0
159 178 0
150 169 0
155 174 0
157 177 0
152 171 0
154 173 0
152 170 0
154 173 0
159 177 0
147 164 0
154 174 0
155 175 0
154 172 0
154 172 0
152 170 0
154 173 0
144 161 0
152 171 0
152 170 0
160 179 0
151 169 0
155 174 0
157 175 0
152 171 0
151 169 0
153 171 0
152 170 0
158 177 0
155 173 0
159 177 0
157 176 0
153 171 0
158 177 0
162 181 0
162 181 0
154 173 0
162 182 0
154 172 0
158 176 0
156 175 0
158 177 0
157 176 0
154 173 0
156 174 0
158 177 0
162 181 0
157 176 0
162 180 0
158 177 0
162 181 0
160 180 0
159 178 0
159 178 0
163 183 0
156 175 0
159 179 0
160 179 0
160 179 0
159 179 0
160 179 0
161 180 0
160 179 0
161 180 0
155 173 0
160 179 0
160 178 0
160 178 0
160 178 0
160 179 0
162 181 0
157 175 0
157 176 0
156 175 0
158 176 0
161 179 0
157 176 0
158 176 0
159 178 0
161 180 0
154 172 0
151 169 0
159 178 0
155 173 0
157 176 0
156 174 0
148 166 0
152 171 0
156 175 0
157 175 0
161 181 0
150 169 0
157 176 0
157 177 0
154 172 0
150 168 0
155 175 0
161 181 0
156 175 0
150 168 0
156 174 0
153 171 0
157 175 0
157 175 0
151 169 0
151 170 0
151 170 0
153 171 0
157 177 0
149 168 0
152 171 0
157 176 0
156 176 0
155 174 0
150 170 0
149 169 0
154 173 0
153 172 0
153 172 0
153 172 0
147 165 0
156 176 0
149 169 0
152 170 0
152 172 0
155 174 0
151 171 0
154 174 0
148 167 0
156 175 0
152 171 0
147 166 0
145 164 0
148 167 0
148 168 0
148 169 0
153 173 0
154 174 0
149 168 0
155 176 0
154 175 0
156 176 0
150 170 0
152 172 0
149 169 0
153 174 0
151 173 0
147 167 0
150 170 0
148 168 0
152 174 0
151 172 0
153 174 0
144 165 0
145 167 0
151 172 0
146 167 0
144 164 0
152 173 0
153 174 0
146 167 0
142 163 0
149 171 0
148 168 0
147 169 0
139 160 0
154 175 0
138 160 0
150 172 0
150 172 0
149 171 0
157 178 0
151 174 0
148 169 0
148 169 0
153 175 0
148 170 0
142 164 0
145 165 0
149 171 0
142 163 0
147 170 0
150 172 0
149 170 0
141 163 0
148 169 0
149 170 0
150 171 0
150 173 0
142 163 0
153 175 0
151 172 0
150 172 0
149 172 0
141 163 0
146 166 0
152 174 0
154 175 0
150 172 0
148 170 0
144 166 0
150 172 0
145 168 0
146 167 0
147 170 0
142 164 0
144 165 0
150 172 0
144 167 0
144 165 0
141 163 0
143 164 0
141 162 0
144 166 0
145 166 0
143 165 0
140 162 0
148 170 0
142 164 0
141 162 0
149 171 0
138 161 0
148 170 0
144 165 0
145 167 0
144 166 0
135 157 0
136 158 0
139 161 0
147 169 0
141 163 0
150 172 0
147 170 0
149 171 0
143 165 0
144 166 0
143 166 0
146 168 0
146 167 0
137 159 0
135 156 0
142 164 0
141 163 0
141 163 0
139 161 0
140 162 0
138 161 0
143 166 0
144 166 0
142 163 0
151 173 0
136 158 0
154 175 0
139 161 0
133 155 0
143 165 0
139 162 0
144 166 0
137 158 0
147 169 0
139 161 0
135 158 0
136 159 0
139 161 0
149 171 0
150 173 0
140 161 0
146 168 0
146 167 0
145 167 0
140 162 0
149 171 0
140 161 0
145 168 0
147 169 0
138 160 0
146 167 0
138 160 0
144 167 0
143 163 0
147 168 0
146 168 0
139 161 0
144 165 0
139 161 0
142 165 0
145 167 0
145 166 0
140 162 0
140 162 0
137 158 0
137 159 0
140 161 0
131 153 0
145 167 0
143 164 0
140 161 0
145 167 0
142 164 0
144 166 0
151 173 0
150 172 0
151 173 0
150 171 0
141 163 0
145 167 0
146 167 0
141 163 0
139 159 0
142 165 0
146 167 0
137 158 0
134 156 0
146 168 0
141 162 0
150 172 0
147 168 0
145 168 0
141 162 0
141 162 0
140 160 0
149 170 0
147 169 0
147 169 0
147 170 0
142 163 0
143 165 0
146 168 0
140 160 0
150 172 0
148 169 0
152 175 0
145 167 0
153 174 0
147 169 0
155 177 0
148 170 0
146 167 0
142 162 0
156 178 0
151 172 0
147 168 0
151 174 0
147 169 0
147 167 0
149 171 0
143 164 0
144 165 0
147 168 0
149 170 0
141 162 0
153 173 0
148 167 0
155 176 0
160 181 0
155 177 0
150 171 0
148 170 0
153 174 0
148 168 0
143 163 0
149 169 0
152 173 0
146 167 0
141 161 0
147 168 0
144 164 0
149 170 0
155 176 0
148 168 0
142 163 0
142 163 0
149 169 0
150 170 0
145 165 0
151 171 0
156 177 0
152 172 0
153 172 0
152 171 0
148 168 0
145 165 0
151 171 0
157 177 0
157 177 0
144 163 0
148 168 0
152 171 0
153 173 0
151 170 0
151 170 0
149 168 0
149 168 0
149 168 0
148 167 0
159 179 0
151 172 0
152 171 0
152 171 0
152 171 0
155 174 0
147 166 0
149 167 0
156 175 0
152 171 0
148 166 0
150 168 0
145 163 0
152 170 0
155 174 0
145 164 0
157 176 0
152 172 0
151 169 0
156 174 0
154 173 0
148 168 0
152 171 0
151 169 0
148 166 0
158 176 0
155 173 0
146 163 0
160 179 0
159 178 0
155 174 0
155 173 0
149 168 0
158 176 0
154 172 0
151 169 0
162 181 0
158 177 0
155 173 0
157 176 0
150 167 0
156 174 0
159 177 0
160 179 0
154 172 0
161 181 0
161 180 0
156 176 0
153 172 0
157 176 0
163 182 0
158 177 0
158 176 0
159 177 0
162 182 0
161 180 0
159 178 0
160 179 0
160 180 0
157 176 0
161 180 0
158 177 0
163 183 0
159 178 0
153 172 0
160 179 0
163 182 0
163 182 0
162 181 0
159 177 0
157 176 0
161 180 0
163 182 0
164 183 0
156 176 0
157 176 0
154 172 0
159 179 0
159 179 0
155 174 0
155 173 0
155 174 0
157 176 0
160 179 0
157 177 0
157 176 0
156 175 0
161 180 0
151 170 0
163 181 0
157 177 0
158 177 0
155 173 0
154 172 0
153 171 0
153 171 0
154 172 0
158 176 0
158 176 0
159 178 0
155 173 0
154 172 0
152 171 0
150 169 0
149 168 0
147 165 0
155 175 0
151 169 0
155 173 0
148 167 0
154 173 0
155 174 0
151 170 0
154 173 0
155 174 0
155 175 0
153 171 0
150 170 0
158 177 0
155 175 0
152 172 0
148 167 0
155 175 0
156 176 0
154 173 0
148 168 0
152 173 0
151 171 0
149 169 0
151 170 0
147 167 0
156 177 0
152 172 0
153 173 0
156 176 0
151 170 0
152 172 0
149 169 0
151 172 0
150 170 0
147 167 0
143 162 0
148 167 0
150 170 0
154 175 0
154 175 0
158 178 0
155 175 0
156 177 0
152 173 0
152 172 0
148 168 0
157 176 0
146 166 0
153 174 0
148 168 0
151 172 0
143 163 0
156 175 0
152 172 0
156 177 0
148 169 0
149 169 0
152 173 0
153 173 0
150 171 0
150 171 0
147 168 0
153 173 0
151 172 0
151 173 0
149 170 0
153 175 0
147 169 0
155 177 0
142 164 0
150 172 0
151 173 0
143 164 0
143 164 0
148 169 0
144 166 0
146 168 0
146 168 0
147 169 0
151 173 0
140 163 0
141 163 0
135 155 0
140 161 0
147 169 0
152 175 0
139 161 0
147 169 0
137 158 0
152 174 0
142 164 0
152 173 0
143 164 0
148 170 0
145 166 0
148 169 0
145 167 0
150 171 0
144 167 0
142 163 0
149 171 0
149 170 0
144 166 0
147 168 0
150 172 0
147 169 0
153 177 0
140 162 0
148 170 0
146 168 0
137 157 0
144 166 0
142 164 0
144 166 0
152 173 0
154 177 0
146 167 0
147 169 0
151 173 0
143 164 0
142 163 0
149 170 0
151 173 0
145 166 0
141 163 0
149 171 0
147 169 0
139 161 0
139 160 0
149 171 0
149 171 0
144 166 0
141 163 0
142 164 0
148 169 0
144 166 0
148 169 0
147 168 0
138 160 0
134 155 0
146 169 0
143 165 0
139 161 0
135 158 0
142 163 0
134 155 0
141 164 0
145 167 0
133 155 0
144 166 0
145 166 0
148 171 0
141 163 0
146 167 0
150 171 0
141 163 0
150 172 0
150 171 0
137 158 0
143 165 0
136 159 0
141 164 0
142 164 0
129 150 0
146 169 0
144 166 0
139 160 0
134 155 0
147 169 0
138 161 0
136 158 0
138 160 0
143 164 0
149 171 0
137 158 0
140 162 0
146 168 0
135 158 0
144 166 0
147 168 0
148 169 0
136 157 0
153 175 0
147 170 0
145 167 0
150 171 0
145 166 0
147 169 0
142 164 0
141 163 0
142 164 0
143 164 0
148 170 0
132 153 0
139 161 0
145 167 0
150 172 0
140 163 0
150 172 0
145 167 0
142 164 0
149 171 0
149 171 0
140 163 0
151 173 0
150 172 0
145 168 0
145 166 0
145 166 0
141 162 0
138 160 0
142 163 0
135 157 0
150 172 0
146 166 0
149 171 0
143 164 0
151 173 0
149 171 0
146 168 0
143 164 0
147 169 0
145 167 0
143 165 0
147 168 0
150 172 0
146 169 0
142 164 0
149 170 0
153 174 0
142 163 0
146 167 0
145 167 0
151 173 0
148 170 0
149 171 0
148 170 0
152 172 0
145 166 0
152 174 0
149 170 0
146 167 0
151 171 0
143 164 0
144 165 0
145 166 0
153 175 0
154 175 0
148 169 0
149 172 0
149 169 0
148 169 0
147 167 0
153 174 0
149 170 0
154 175 0
153 174 0
147 169 0
152 173 0
151 172 0
143 162 0
151 172 0
148 168 0
146 168 0
146 166 0
150 171 0
147 167 0
158 179 0
145 165 0
152 172 0
152 172 0
149 169 0
156 176 0
160 180 0
154 175 0
157 177 0
153 173 0
148 167 0
145 165 0
160 181 0
158 177 0
149 169 0
158 178 0
154 173 0
149 168 0
158 178 0
147 167 0
148 168 0
149 169 0
151 170 0
152 172 0
150 169 0
149 168 0
154 175 0
149 168 0
151 172 0
156 176 0
145 165 0
154 174 0
148 167 0
150 169 0
153 172 0
152 171 0
146 165 0
154 173 0
157 177 0
154 173 0
156 175 0
152 171 0
151 170 0
151 170 0
155 173 0
154 174 0
153 172 0
156 175 0
154 173 0
159 178 0
149 167 0
150 168 0
150 168 0
157 175 0
153 172 0
152 170 0
158 177 0
155 174 0
153 171 0
150 168 0
155 174 0
155 173 0
154 172 0
157 176 0
154 173 0
159 177 0
158 177 0
156 175 0
160 178 0
156 174 0
156 175 0
159 176 0
158 177 0
155 173 0
156 174 0
154 172 0
159 178 0
158 177 0
160 179 0
159 178 0
157 176 0
154 172 0
155 173 0
158 178 0
160 179 0
160 179 0
160 179 0
161 180 0
163 182 0
162 182 0
161 180 0
162 181 0
158 178 0
163 182 0
162 181 0
160 179 0
163 183 0
159 178 0
159 178 0
160 180 0
156 175 0
161 180 0
158 177 0
160 179 0
160 178 0
158 177 0
162 182 0
155 174 0
157 175 0
160 178 0
158 178 0
161 180 0
157 175 0
149 166 0
156 175 0
150 169 0
158 177 0
154 174 0
157 176 0
154 173 0
157 175 0
153 172 0
155 173 0
153 171 0
154 172 0
156 174 0
152 171 0
158 176 0
153 172 0
150 168 0
153 171 0
155 174 0
155 173 0
158 177 0
157 175 0
158 178 0
151 170 0
155 175 0
157 176 0
154 173 0
154 174 0
159 179 0
145 164 0
154 174 0
160 178 0
154 174 0
154 174 0
149 168 0
153 172 0
148 167 0
156 176 0
153 173 0
155 175 0
148 168 0
152 172 0
150 170 0
151 171 0
140 160 0
151 170 0
146 166 0
151 172 0
154 174 0
151 171 0
145 165 0
151 172 0
146 167 0
148 167 0
150 170 0
156 176 0
148 168 0
147 168 0
148 169 0
153 173 0
146 165 0
153 173 0
148 168 0
150 170 0
150 171 0
156 177 0
142 162 0
146 166 0
154 175 0
149 168 0
142 162 0
150 170 0
154 175 0
154 175 0
143 164 0
150 171 0
153 174 0
146 167 0
152 173 0
154 175 0
140 161 0
144 165 0
148 169 0
145 165 0
148 170 0
145 166 0
152 172 0
146 166 0
151 173 0
146 167 0
147 168 0
149 170 0
148 169 0
150 170 0
146 168 0
144 165 0
154 176 0
147 168 0
150 171 0
151 172 0
145 167 0
141 163 0
146 168 0
150 172 0
154 177 0
146 168 0
149 170 0
147 169 0
137 159 0
146 167 0
140 161 0
150 172 0
135 155 0
141 163 0
151 172 0
148 170 0
151 173 0
150 172 0
145 167 0
152 173 0
152 174 0
147 170 0
147 169 0
145 167 0
151 173 0
149 170 0
143 165 0
143 164 0
149 171 0
146 168 0
148 171 0
151 173 0
135 157 0
141 163 0
142 165 0
139 161 0
152 174 0
146 168 0
143 165 0
139 160 0
146 169 0
144 167 0
152 173 0
143 165 0
141 163 0
138 160 0
138 159 0
134 157 0
142 164 0
146 167 0
150 172 0
147 170 0
147 170 0
153 175 0
149 170 0
147 170 0
152 174 0
136 159 0
142 164 0
143 165 0
140 162 0
142 163 0
149 171 0
146 168 0
140 162 0
147 168 0
142 164 0
148 170 0
135 158 0
145 167 0
147 168 0
138 160 0
140 162 0
145 167 0
141 163 0
142 163 0
140 162 0
139 160 0
142 165 0
145 167 0
150 173 0
143 164 0
148 170 0
147 169 0
134 155 0
142 165 0
151 172 0
149 170 0
138 160 0
141 162 0
147 169 0
151 174 0
139 160 0
138 160 0
143 165 0
142 164 0
144 166 0
148 170 0
144 165 0
146 168 0
142 165 0
149 170 0
145 168 0
144 165 0
135 156 0
152 175 0
146 168 0
145 168 0
147 169 0
149 170 0
139 161 0
141 163 0
139 160 0
146 167 0
143 165 0
146 168 0
151 174 0
145 166 0
143 165 0
147 168 0
144 166 0
141 163 0
149 170 0
145 166 0
148 170 0
140 161 0
144 166 0
147 169 0
150 172 0
140 162 0
149 171 0
147 168 0
131 152 0
136 157 0
155 177 0
148 171 0
138 157 0
146 168 0
150 172 0
138 160 0
146 167 0
154 177 0
150 172 0
151 174 0
151 172 0
151 172 0
141 162 0
147 169 0
156 177 0
152 174 0
147 169 0
144 165 0
152 173 0
142 163 0
151 173 0
148 170 0
147 169 0
149 171 0
151 173 0
149 170 0
152 174 0
148 170 0
145 167 0
152 172 0
150 170 0
150 172 0
148 169 0
148 169 0
150 172 0
150 172 0
146 167 0
149 169 0
152 173 0
155 176 0
149 169 0
149 169 0
146 166 0
145 166 0
147 168 0
151 172 0
147 168 0
153 172 0
141 163 0
149 169 0
151 172 0
151 171 0
152 174 0
152 173 0
148 168 0
148 168 0
147 166 0
153 173 0
155 176 0
154 174 0
148 168 0
155 176 0
142 161 0
147 168 0
151 171 0
140 159 0
143 163 0
148 168 0
148 168 0
152 172 0
145 164 0
148 168 0
151 172 0
149 169 0
153 172 0
157 176 0
154 175 0
151 170 0
153 173 0
150 169 0
150 170 0
145 165 0
149 169 0
150 170 0
151 171 0
148 167 0
151 170 0
154 173 0
149 169 0
151 170 0
152 172 0
158 177 0
154 174 0
153 173 0
158 178 0
158 177 0
152 171 0
158 177 0
153 173 0
157 176 0
151 170 0
159 178 0
153 171 0
159 178 0
157 176 0
153 172 0
159 178 0
155 174 0
157 176 0
157 176 0
160 179 0
153 172 0
151 169 0
151 169 0
160 179 0
154 172 0
154 173 0
159 178 0
159 178 0
153 172 0
156 175 0
159 179 0
151 169 0
159 179 0
157 176 0
153 170 0
160 178 0
161 180 0
157 176 0
152 172 0
157 176 0
162 181 0
159 179 0
152 170 0
162 181 0
160 179 0
160 179 0
163 182 0
162 181 0
158 177 0
159 178 0
165 184 0
163 182 0
159 179 0
156 175 0
159 179 0
161 180 0
157 174 0
162 181 0
157 176 0
156 175 0
155 173 0
157 175 0
157 174 0
156 174 0
159 178 0
158 177 0
158 177 0
158 176 0
159 178 0
153 171 0
159 178 0
160 179 0
155 174 0
155 174 0
163 183 0
154 173 0
158 177 0
155 173 0
158 177 0
156 174 0
159 179 0
156 175 0
152 171 0
150 169 0
152 171 0
156 174 0
159 177 0
155 174 0
158 177 0
157 175 0
156 175 0
148 166 0
155 174 0
155 175 0
157 176 0
157 176 0
153 173 0
155 174 0
156 176 0
153 173 0
154 173 0
152 171 0
155 174 0
149 170 0
152 171 0
153 173 0
156 176 0
151 170 0
148 168 0
152 171 0
151 171 0
153 174 0
154 174 0
152 173 0
161 182 0
159 178 0
154 174 0
155 175 0
150 169 0
154 175 0
152 171 0
154 174 0
152 172 0
143 162 0
152 172 0
157 177 0
153 173 0
160 181 0
148 168 0
156 177 0
147 167 0
153 175 0
145 165 0
155 176 0
140 159 0
152 172 0
151 171 0
154 174 0
154 174 0
153 173 0
157 178 0
157 179 0
142 162 0
148 169 0
148 168 0
150 171 0
151 173 0
153 174 0
149 171 0
149 171 0
151 171 0
153 174 0
148 170 0
142 162 0
154 175 0
145 166 0
150 171 0
147 169 0
151 172 0
146 168 0
152 173 0
154 175 0
151 172 0
146 168 0
147 169 0
152 174 0
157 179 0
150 173 0
150 171 0
142 163 0
155 177 0
157 179 0
156 178 0
154 176 0
146 167 0
151 172 0
145 166 0
145 166 0
149 171 0
147 169 0
147 170 0
154 176 0
144 165 0
141 162 0
148 170 0
145 167 0
151 174 0
148 170 0
141 163 0
141 162 0
138 159 0
141 162 0
146 168 0
144 165 0
146 168 0
147 169 0
146 166 0
145 168 0
144 165 0
147 169 0
138 160 0
148 170 0
137 159 0
140 162 0
155 177 0
143 165 0
151 173 0
152 173 0
139 160 0
142 164 0
147 169 0
149 171 0
144 166 0
139 160 0
146 168 0
150 172 0
149 170 0
138 160 0
144 165 0
148 170 0
145 167 0
143 165 0
144 166 0
141 163 0
145 166 0
150 173 0
142 163 0
149 171 0
146 167 0
146 168 0
144 165 0
143 165 0
149 171 0
140 161 0
152 174 0
129 151 0
143 166 0
138 160 0
143 165 0
139 161 0
140 162 0
132 155 0
145 167 0
143 165 0
138 160 0
140 161 0
144 165 0
149 170 0
146 167 0
135 158 0
149 172 0
149 171 0
144 165 0
149 171 0
143 165 0
138 159 0
142 164 0
142 163 0
139 160 0
140 162 0
137 159 0
142 166 0
142 163 0
146 169 0
144 166 0
131 153 0
144 167 0
147 169 0
146 167 0
135 157 0
148 169 0
141 165 0
136 157 0
139 160 0
149 171 0
143 166 0
144 165 0
149 172 0
141 164 0
148 169 0
144 165 0
146 168 0
145 167 0
137 158 0
145 166 0
148 170 0
144 165 0
150 173 0
138 159 0
151 173 0
149 171 0
140 162 0
144 167 0
140 162 0
143 165 0
148 170 0
149 171 0
146 168 0
145 168 0
143 165 0
130 151 0
139 160 0
146 168 0
141 162 0
148 169 0
154 176 0
145 167 0
147 170 0
144 166 0
152 174 0
150 172 0
151 172 0
146 168 0
147 169 0
145 167 0
143 166 0
149 170 0
145 168 0
139 161 0
148 169 0
149 171 0
150 174 0
148 169 0
145 168 0
154 176 0
152 174 0
146 166 0
150 172 0
149 170 0
153 175 0
153 175 0
147 169 0
150 171 0
151 173 0
152 174 0
148 170 0
149 171 0
145 166 0
154 175 0
147 168 0
149 170 0
153 173 0
141 163 0
152 173 0
145 166 0
148 169 0
145 166 0
145 165 0
152 173 0
152 172 0
156 177 0
143 164 0
147 169 0
154 175 0
152 174 0
147 168 0
151 172 0
150 170 0
150 171 0
149 171 0
151 171 0
152 173 0
154 175 0
150 172 0
157 179 0
154 174 0
146 166 0
158 179 0
151 172 0
152 175 0
147 168 0
150 172 0
155 176 0
146 165 0
147 167 0
151 171 0
159 178 0
146 166 0
148 168 0
155 175 0
151 171 0
159 179 0
150 169 0
151 171 0
151 171 0
154 174 0
155 176 0
146 166 0
150 170 0
160 180 0
152 171 0
149 168 0
156 176 0
158 177 0
154 173 0
155 176 0
151 170 0
152 171 0
158 177 0
151 171 0
158 179 0
161 181 0
155 175 0
155 174 0
155 174 0
151 171 0
157 176 0
154 172 0
148 167 0
158 177 0
156 176 0
155 173 0
156 176 0
156 176 0
151 170 0
154 173 0
157 177 0
154 173 0
154 173 0
163 182 0
152 171 0
160 179 0
152 171 0
153 172 0
161 179 0
157 176 0
151 169 0
154 173 0
156 174 0
156 175 0
160 179 0
156 174 0
158 177 0
153 172 0
157 176 0
156 174 0
161 180 0
159 178 0
160 179 0
162 181 0
157 176 0
157 177 0
156 175 0
156 174 0
159 178 0
159 179 0
164 183 0
160 178 0
158 177 0
162 180 0
157 177 0
161 181 0
156 175 0
161 180 0
160 180 0
158 178 0
160 179 0
157 176 0
161 180 0
160 179 0
161 181 0
159 178 0
162 182 0
159 177 0
158 177 0
161 181 0
160 179 0
156 175 0
156 175 0
162 181 0
161 180 0
155 175 0
154 173 0
160 179 0
153 172 0
162 182 0
153 172 0
158 177 0
155 174 0
153 171 0
157 176 0
158 177 0
162 182 0
155 173 0
152 172 0
153 172 0
150 169 0
154 173 0
154 173 0
154 173 0
154 173 0
156 175 0
150 170 0
150 169 0
150 169 0
156 175 0
153 172 0
161 181 0
151 170 0
157 176 0
149 168 0
156 177 0
150 170 0
155 175 0
152 173 0
156 175 0
152 172 0
153 172 0
149 169 0
148 168 0
154 174 0
156 176 0
155 175 0
155 176 0
155 175 0
151 171 0
156 176 0
158 179 0
156 177 0
152 171 0
151 170 0
148 168 0
155 176 0
154 175 0
149 168 0
159 181 0
149 169 0
150 171 0
154 175 0
151 173 0
150 170 0
151 172 0
153 174 0
142 162 0
145 167 0
146 168 0
146 166 0
150 170 0
155 177 0
153 173 0
146 166 0
159 180 0
149 170 0
155 176 0
152 175 0
150 171 0
147 168 0
152 174 0
151 171 0
142 164 0
147 167 0
148 170 0
149 170 0
152 173 0
144 166 0
150 171 0
151 172 0
148 168 0
147 167 0
149 171 0
152 173 0
150 171 0
152 174 0
149 171 0
148 170 0
147 168 0
148 169 0
148 170 0
151 174 0
146 168 0
152 174 0
147 169 0
151 172 0
147 168 0
142 165 0
146 168 0
148 170 0
143 164 0
148 168 0
148 169 0
146 168 0
145 166 0
151 173 0
140 162 0
145 167 0
152 174 0
148 169 0
142 164 0
145 166 0
149 170 0
146 168 0
152 174 0
143 165 0
154 176 0
147 170 0
152 174 0
146 169 0
146 168 0
148 171 0
145 167 0
146 168 0
141 163 0
150 172 0
138 160 0
145 166 0
145 167 0
152 174 0
141 164 0
152 174 0
143 164 0
144 165 0
154 177 0
152 174 0
146 168 0
144 166 0
154 177 0
140 162 0
143 166 0
141 164 0
133 156 0
150 172 0
145 168 0
137 160 0
142 164 0
146 168 0
145 168 0
145 167 0
150 171 0
143 164 0
143 165 0
141 163 0
147 169 0
146 168 0
144 166 0
147 169 0
152 173 0
143 166 0
140 162 0
137 159 0
139 161 0
140 162 0
147 169 0
145 166 0
141 163 0
147 169 0
140 163 0
155 177 0
144 167 0
147 171 0
149 171 0
144 166 0
149 171 0
146 167 0
146 168 0
139 161 0
143 166 0
142 165 0
145 168 0
142 164 0
149 171 0
140 162 0
141 163 0
153 174 0
138 158 0
147 170 0
148 170 0
145 167 0
143 165 0
138 160 0
146 169 0
144 166 0
154 177 0
146 169 0
140 162 0
146 168 0
145 167 0
141 162 0
144 165 0
142 164 0
153 175 0
141 164 0
139 160 0
148 170 0
141 163 0
144 167 0
141 163 0
148 169 0
146 168 0
150 171 0
147 169 0
137 158 0
148 171 0
147 168 0
150 172 0
149 172 0
146 169 0
143 164 0
146 167 0
154 175 0
144 167 0
144 166 0
149 170 0
147 169 0
139 161 0
148 170 0
145 168 0
152 173 0
150 171 0
144 166 0
153 176 0
144 165 0
150 173 0
151 173 0
150 172 0
152 174 0
147 169 0
141 163 0
147 170 0
143 165 0
148 170 0
150 173 0
147 169 0
146 168 0
149 171 0
148 170 0
143 165 0
151 172 0
145 166 0
144 166 0
150 171 0
148 169 0
153 174 0
145 167 0
159 182 0
151 172 0
152 173 0
151 172 0
148 169 0
149 171 0
146 168 0
146 167 0
145 166 0
155 176 0
145 165 0
148 169 0
149 171 0
147 168 0
144 166 0
150 171 0
146 167 0
146 167 0
150 172 0
149 169 0
147 167 0
146 167 0
145 167 0
151 172 0
146 168 0
149 169 0
153 174 0
150 171 0
145 166 0
153 174 0
150 171 0
155 177 0
149 170 0
154 175 0
148 169 0
152 173 0
150 171 0
156 178 0
145 166 0
151 172 0
157 178 0
146 166 0
149 169 0
148 168 0
148 168 0
141 161 0
155 175 0
155 175 0
153 174 0
149 170 0
158 180 0
152 172 0
152 172 0
146 166 0
153 173 0
153 174 0
155 174 0
155 175 0
156 175 0
157 177 0
153 173 0
160 180 0
156 176 0
155 175 0
155 176 0
154 173 0
155 174 0
148 167 0
154 174 0
150 170 0
154 174 0
155 175 0
155 176 0
157 177 0
154 173 0
149 169 0
157 175 0
152 170 0
155 175 0
159 177 0
155 174 0
154 173 0
149 168 0
154 173 0
152 171 0
147 166 0
158 177 0
157 177 0
152 171 0
153 172 0
162 181 0
155 174 0
160 179 0
156 176 0
155 174 0
161 181 0
155 175 0
154 173 0
156 175 0
155 174 0
157 177 0
164 182 0
155 174 0
160 179 0
160 179 0
152 170 0
152 171 0
160 179 0
163 182 0
162 181 0
159 179 0
160 179 0
158 178 0
160 179 0
153 172 0
157 176 0
156 174 0
159 178 0
159 177 0
160 181 0
163 183 0
159 178 0
164 184 0
160 179 0
160 179 0
162 182 0
159 179 0
162 182 0
159 177 0
159 177 0
160 179 0
158 176 0
162 180 0
158 177 0
160 180 0
156 176 0
155 175 0
155 173 0
155 174 0
156 177 0
157 175 0
156 175 0
161 181 0
158 177 0
159 177 0
153 171 0
155 174 0
154 173 0
155 174 0
156 175 0
153 171 0
156 176 0
160 180 0
151 169 0
156 176 0
159 179 0
149 168 0
156 176 0
146 165 0
160 180 0
156 177 0
151 170 0
157 177 0
155 173 0
150 169 0
159 178 0
154 172 0
158 179 0
156 176 0
159 179 0
153 173 0
150 171 0
150 170 0
145 165 0
151 170 0
156 176 0
149 169 0
153 173 0
156 176 0
156 176 0
150 170 0
147 166 0
153 173 0
149 169 0
154 174 0
148 168 0
152 173 0
153 172 0
153 173 0
151 172 0
150 171 0
147 167 0
156 177 0
145 165 0
145 164 0
156 176 0
152 172 0
148 169 0
149 170 0
150 170 0
153 174 0
151 172 0
148 169 0
154 175 0
150 171 0
151 171 0
145 165 0
158 179 0
149 169 0
158 179 0
155 175 0
156 177 0
147 168 0
144 164 0
155 176 0
145 167 0
151 173 0
146 168 0
150 170 0
151 173 0
152 174 0
147 169 0
154 175 0
145 166 0
146 167 0
156 178 0
148 169 0
149 171 0
152 173 0
150 171 0
153 173 0
148 170 0
154 176 0
145 166 0
149 170 0
147 169 0
150 171 0
155 176 0
147 168 0
152 173 0
138 159 0
149 171 0
154 176 0
147 168 0
147 169 0
152 172 0
145 166 0
147 170 0
152 174 0
146 167 0
145 167 0
148 169 0
151 173 0
152 173 0
146 168 0
146 168 0
144 166 0
141 163 0
150 172 0
149 171 0
151 174 0
146 168 0
148 169 0
140 162 0
150 171 0
149 171 0
144 167 0
148 169 0
143 167 0
147 169 0
148 169 0
147 168 0
150 172 0
149 171 0
147 169 0
149 171 0
145 167 0
145 166 0
146 169 0
146 167 0
148 171 0
142 163 0
143 165 0
138 160 0
141 164 0
142 164 0
141 164 0
143 164 0
150 172 0
145 166 0
146 169 0
138 161 0
149 171 0
144 167 0
151 173 0
146 169 0
147 170 0
142 164 0
142 163 0
148 170 0
144 167 0
147 170 0
141 162 0
139 160 0
144 165 0
151 173 0
143 166 0
151 173 0
146 167 0
132 153 0
151 173 0
139 160 0
139 162 0
148 171 0
149 171 0
148 170 0
140 162 0
147 169 0
155 177 0
149 172 0
144 166 0
139 160 0
149 171 0
146 168 0
142 164 0
152 174 0
148 172 0
155 176 0
146 168 0
148 170 0
148 170 0
138 159 0
137 160 0
148 170 0
142 164 0
147 169 0
145 167 0
149 171 0
147 169 0
148 169 0
140 161 0
148 170 0
147 169 0
146 168 0
145 167 0
152 175 0
139 161 0
145 168 0
147 169 0
138 161 0
146 168 0
152 175 0
144 166 0
138 160 0
141 164 0
149 172 0
143 165 0
150 172 0
146 168 0
144 167 0
147 170 0
138 160 0
141 163 0
141 162 0
153 175 0
147 169 0
146 168 0
141 164 0
145 167 0
151 172 0
154 176 0
144 165 0
151 173 0
139 160 0
143 166 0
139 161 0
144 165 0
146 168 0
137 158 0
138 160 0
147 169 0
147 169 0
150 172 0
142 164 0
152 173 0
153 175 0
150 171 0
148 171 0
145 167 0
150 171 0
154 176 0
143 164 0
149 171 0
151 173 0
155 176 0
154 175 0
151 173 0
148 170 0
143 165 0
152 173 0
143 164 0
153 176 0
143 164 0
148 170 0
141 161 0
149 169 0
146 167 0
147 167 0
153 173 0
151 172 0
146 167 0
149 170 0
155 176 0
151 174 0
156 178 0
151 173 0
145 166 0
159 181 0
153 174 0
148 170 0
150 172 0
152 173 0
149 170 0
148 169 0
154 174 0
147 168 0
151 172 0
149 170 0
151 172 0
148 169 0
149 170 0
149 170 0
153 175 0
146 167 0
153 174 0
153 174 0
155 175 0
147 168 0
149 169 0
152 173 0
155 175 0
154 175 0
146 166 0
148 169 0
151 171 0
157 178 0
153 173 0
157 178 0
152 173 0
152 172 0
154 176 0
150 171 0
150 171 0
148 168 0
152 172 0
147 166 0
153 173 0
149 169 0
142 161 0
161 181 0
152 172 0
151 171 0
153 173 0
156 175 0
149 169 0
154 173 0
155 175 0
156 176 0
151 171 0
146 165 0
150 169 0
156 176 0
154 173 0
157 178 0
154 172 0
157 176 0
154 174 0
160 179 0
158 178 0
156 176 0
158 177 0
160 180 0
158 176 0
156 174 0
157 176 0
155 174 0
157 176 0
155 174 0
155 174 0
155 175 0
153 172 0
156 175 0
157 177 0
154 173 0
156 175 0
158 178 0
157 176 0
157 176 0
158 177 0
160 179 0
160 180 0
162 181 0
156 174 0
160 180 0
162 180 0
157 176 0
164 183 0
153 172 0
157 176 0
159 179 0
159 179 0
154 172 0
161 181 0
159 179 0
153 172 0
159 179 0
156 175 0
158 177 0
163 183 0
163 183 0
159 178 0
159 179 0
160 180 0
157 177 0
159 179 0
158 177 0
162 181 0
159 179 0
160 180 0
156 175 0
154 174 0
159 178 0
158 177 0
156 175 0
162 181 0
159 178 0
155 174 0
161 180 0
158 177 0
154 174 0
158 177 0
160 180 0
155 175 0
156 175 0
159 178 0
160 179 0
157 176 0
161 181 0
160 180 0
154 173 0
157 177 0
160 181 0
149 168 0
155 174 0
157 178 0
159 179 0
148 167 0
154 174 0
155 175 0
158 177 0
156 176 0
153 172 0
161 180 0
157 177 0
150 169 0
158 177 0
156 176 0
152 173 0
152 172 0
149 169 0
149 168 0
154 174 0
154 174 0
152 172 0
155 175 0
160 181 0
154 174 0
155 175 0
153 173 0
148 168 0
144 164 0
152 173 0
145 164 0
150 170 0
154 174 0
147 169 0
151 173 0
154 175 0
152 172 0
156 176 0
156 176 0
155 176 0
155 176 0
149 170 0
156 176 0
153 174 0
150 170 0
144 165 0
154 175 0
146 167 0
147 167 0
151 171 0
151 172 0
149 170 0
154 175 0
155 176 0
150 171 0
148 169 0
153 174 0
153 173 0
148 169 0
155 176 0
158 180 0
149 171 0
144 164 0
145 167 0
150 171 0
151 172 0
152 173 0
143 164 0
147 169 0
151 172 0
147 169 0
157 178 0
149 172 0
157 179 0
151 173 0
141 160 0
141 162 0
150 171 0
146 167 0
148 169 0
149 170 0
151 173 0
151 172 0
146 168 0
151 173 0
147 169 0
151 173 0
139 161 0
147 168 0
151 172 0
149 171 0
150 172 0
152 173 0
150 171 0
150 172 0
150 172 0
155 178 0
161 183 0
146 168 0
158 180 0
145 167 0
146 167 0
148 169 0
150 171 0
148 170 0
145 166 0
149 173 0
148 170 0
142 164 0
146 167 0
155 177 0
154 176 0
153 175 0
150 173 0
140 162 0
149 171 0
145 168 0
148 169 0
151 174 0
139 161 0
143 165 0
139 160 0
136 158 0
153 175 0
149 171 0
148 170 0
147 168 0
139 159 0
150 172 0
142 164 0
136 159 0
142 163 0
144 166 0
145 167 0
153 175 0
145 166 0
151 173 0
146 168 0
144 165 0
149 171 0
148 170 0
145 168 0
142 165 0
146 168 0
142 165 0
145 168 0
147 169 0
144 166 0
148 171 0
143 166 0
140 162 0
149 171 0
149 172 0
140 162 0
142 164 0
149 169 0
151 174 0
145 167 0
138 159 0
149 171 0
148 170 0
144 166 0
137 159 0
139 161 0
138 159 0
154 176 0
145 166 0
144 166 0
149 171 0
138 160 0
149 171 0
134 156 0
139 161 0
154 176 0
146 168 0
152 175 0
151 173 0
144 166 0
149 171 0
148 170 0
139 161 0
149 170 0
143 165 0
145 167 0
144 167 0
143 164 0
150 172 0
147 169 0
155 178 0
151 173 0
139 160 0
143 166 0
141 163 0
134 156 0
149 172 0
145 167 0
141 163 0
150 172 0
148 170 0
145 168 0
146 167 0
146 168 0
146 168 0
153 175 0
138 161 0
155 177 0
144 167 0
143 165 0
146 167 0
152 174 0
142 164 0
150 171 0
143 164 0
148 170 0
153 174 0
143 165 0
144 166 0
147 167 0
147 169 0
151 173 0
144 166 0
149 171 0
145 166 0
143 165 0
149 172 0
150 172 0
145 167 0
147 169 0
149 170 0
154 175 0
148 172 0
140 161 0
153 175 0
152 175 0
149 169 0
145 167 0
156 179 0
151 173 0
147 168 0
147 169 0
152 173 0
147 168 0
149 171 0
151 173 0
148 170 0
146 168 0
145 166 0
151 173 0
154 176 0
156 178 0
147 167 0
150 172 0
144 164 0
148 169 0
149 171 0
150 171 0
147 168 0
143 164 0
141 162 0
154 176 0
157 179 0
154 174 0
152 173 0
149 171 0
148 169 0
148 170 0
144 164 0
152 174 0
153 175 0
153 174 0
151 172 0
150 172 0
147 168 0
159 179 0
149 170 0
146 166 0
158 179 0
147 168 0
161 183 0
151 171 0
152 174 0
148 167 0
152 173 0
154 175 0
143 164 0
152 173 0
150 170 0
146 166 0
150 171 0
155 177 0
148 167 0
145 165 0
148 168 0
157 178 0
152 172 0
154 174 0
151 172 0
154 173 0
157 177 0
154 175 0
152 173 0
154 174 0
154 175 0
149 169 0
157 177 0
159 179 0
152 173 0
158 178 0
153 173 0
156 176 0
154 174 0
150 170 0
145 165 0
153 173 0
158 179 0
157 176 0
156 176 0
159 180 0
154 173 0
161 181 0
159 180 0
152 170 0
159 178 0
154 174 0
157 177 0
156 176 0
157 177 0
152 172 0
148 167 0
156 175 0
158 177 0
156 176 0
152 172 0
157 177 0
157 177 0
150 169 0
160 180 0
154 173 0
157 176 0
156 175 0
157 177 0
156 176 0
161 180 0
156 175 0
152 170 0
155 174 0
159 179 0
158 177 0
162 181 0
158 176 0
159 178 0
156 175 0
158 177 0
158 177 0
160 178 0
161 180 0
155 174 0
165 184 0
156 175 0
160 178 0
155 174 0
163 183 0
157 177 0
157 176 0
153 173 0
163 183 0
164 184 0
163 183 0
161 182 0
158 177 0
158 177 0
163 181 0
161 180 0
158 177 0
160 180 0
155 174 0
160 180 0
162 181 0
162 181 0
160 180 0
161 181 0
164 183 0
157 176 0
154 172 0
158 177 0
160 179 0
159 178 0
157 177 0
155 174 0
160 179 0
158 178 0
155 174 0
163 182 0
157 177 0
158 177 0
155 175 0
156 175 0
155 174 0
153 172 0
155 174 0
156 176 0
155 176 0
158 177 0
151 171 0
154 174 0
154 173 0
157 177 0
151 171 0
155 173 0
155 175 0
159 179 0
157 177 0
162 182 0
152 172 0
151 170 0
159 179 0
159 179 0
154 174 0
157 177 0
158 179 0
155 176 0
160 181 0
154 174 0
152 172 0
152 173 0
149 169 0
153 172 0
154 174 0
154 175 0
154 176 0
148 169 0
156 177 0
152 171 0
156 176 0
159 181 0
152 172 0
155 175 0
154 176 0
150 171 0
154 176 0
155 176 0
160 181 0
149 171 0
157 178 0
154 175 0
156 177 0
150 171 0
153 173 0
146 167 0
155 175 0
150 172 0
158 179 0
151 171 0
158 179 0
151 173 0
147 167 0
154 175 0
151 172 0
149 170 0
153 175 0
155 176 0
148 170 0
151 173 0
158 179 0
152 174 0
152 173 0
151 173 0
152 174 0
146 168 0
144 164 0
148 170 0
151 172 0
152 174 0
151 173 0
137 158 0
151 173 0
152 174 0
142 164 0
147 168 0
144 165 0
148 170 0
151 173 0
153 175 0
148 170 0
141 162 0
154 176 0
154 176 0
150 171 0
147 169 0
148 170 0
148 169 0
148 170 0
144 165 0
152 175 0
148 170 0
152 174 0
137 159 0
151 173 0
156 179 0
152 175 0
152 175 0
143 164 0
138 159 0
151 173 0
148 170 0
151 172 0
145 167 0
149 172 0
159 180 0
148 171 0
141 163 0
150 172 0
156 178 0
139 161 0
145 166 0
155 178 0
150 172 0
144 165 0
150 172 0
150 173 0
145 168 0
152 175 0
144 166 0
152 175 0
142 165 0
146 169 0
144 166 0
143 164 0
136 157 0
147 169 0
143 164 0
143 165 0
141 163 0
151 174 0
148 170 0
147 170 0
145 168 0
150 172 0
142 164 0
151 172 0
146 168 0
154 176 0
144 166 0
139 161 0
146 168 0
142 165 0
148 170 0
148 171 0
152 175 0
145 168 0
145 168 0
151 173 0
150 172 0
150 173 0
151 173 0
148 170 0
148 170 0
142 165 0
151 173 0
141 164 0
148 171 0
144 168 0
145 167 0
148 170 0
145 168 0
154 177 0
143 165 0
155 177 0
150 172 0
146 168 0
147 169 0
148 171 0
151 174 0
144 167 0
147 169 0
152 174 0
140 161 0
138 159 0
136 158 0
143 166 0
142 164 0
135 156 0
141 162 0
152 174 0
147 170 0
147 170 0
147 168 0
144 166 0
145 167 0
149 172 0
149 172 0
143 166 0
150 172 0
147 169 0
146 168 0
140 163 0
150 172 0
138 160 0
135 157 0
151 173 0
147 169 0
152 173 0
140 161 0
155 178 0
142 165 0
149 171 0
146 168 0
154 177 0
155 178 0
148 171 0
147 170 0
148 170 0
151 173 0
147 169 0
144 166 0
148 170 0
146 167 0
151 172 0
156 178 0
154 177 0
143 165 0
150 172 0
150 173 0
151 173 0
146 167 0
158 180 0
151 174 0
151 173 0
145 166 0
146 168 0
153 175 0
155 177 0
148 169 0
151 173 0
148 169 0
146 167 0
148 170 0
146 168 0
151 173 0
151 172 0
151 172 0
158 179 0
146 168 0
148 168 0
150 172 0
138 159 0
146 169 0
147 168 0
140 161 0
150 171 0
152 174 0
152 174 0
149 171 0
148 170 0
150 172 0
148 169 0
150 171 0
150 172 0
153 175 0
151 173 0
148 170 0
153 175 0
152 174 0
146 168 0
155 176 0
155 177 0
155 177 0
155 176 0
155 176 0
158 179 0
153 174 0
151 173 0
149 171 0
147 167 0
150 170 0
150 171 0
145 166 0
150 172 0
152 173 0
151 172 0
156 176 0
147 169 0
150 171 0
153 174 0
146 168 0
152 173 0
156 177 0
154 175 0
151 172 0
149 170 0
155 176 0
145 165 0
150 171 0
154 175 0
149 169 0
154 174 0
158 179 0
156 176 0
151 172 0
151 171 0
148 168 0
155 174 0
145 165 0
159 178 0
152 173 0
156 177 0
154 174 0
148 167 0
151 172 0
151 170 0
151 171 0
152 173 0
154 175 0
152 172 0
148 167 0
153 174 0
160 181 0
161 182 0
149 168 0
155 174 0
159 179 0
151 172 0
152 172 0
156 176 0
153 173 0
151 171 0
155 175 0
156 176 0
152 171 0
155 174 0
157 176 0
160 180 0
158 177 0
154 173 0
157 176 0
155 174 0
154 173 0
159 178 0
156 176 0
159 178 0
159 179 0
153 173 0
151 171 0
155 174 0
160 180 0
158 178 0
155 174 0
157 177 0
159 179 0
156 175 0
155 174 0
156 175 0
158 177 0
159 179 0
155 174 0
159 178 0
161 180 0
160 180 0
158 177 0
157 176 0
163 183 0
158 177 0
162 182 0
160 180 0
156 175 0
161 180 0
160 179 0
163 182 0
158 178 0
159 179 0
162 182 0
159 178 0
157 176 0
155 174 0
161 180 0
155 175 0
162 181 0
157 176 0
159 178 0
159 179 0
159 178 0
159 179 0
158 177 0
160 178 0
153 173 0
160 180 0
158 177 0
161 181 0
159 179 0
154 173 0
156 176 0
160 179 0
155 174 0
161 179 0
160 180 0
158 178 0
158 177 0
162 181 0
161 181 0
162 182 0
155 174 0
161 181 0
157 177 0
156 176 0
158 178 0
158 178 0
149 170 0
152 171 0
159 179 0
160 180 0
150 171 0
162 183 0
158 178 0
156 176 0
157 177 0
152 172 0
155 175 0
155 175 0
152 171 0
151 172 0
149 168 0
158 177 0
149 169 0
148 169 0
157 177 0
153 173 0
156 176 0
159 179 0
153 173 0
158 178 0
151 172 0
155 175 0
157 178 0
149 169 0
150 171 0
153 172 0
159 180 0
156 176 0
152 173 0
155 176 0
150 171 0
151 172 0
155 175 0
147 169 0
145 167 0
152 172 0
155 177 0
156 176 0
153 175 0
151 172 0
154 175 0
152 172 0
152 174 0
143 162 0
146 167 0
154 176 0
141 163 0
152 171 0
152 173 0
153 174 0
159 181 0
151 172 0
155 175 0
153 174 0
152 173 0
158 180 0
153 174 0
159 180 0
152 174 0
150 171 0
146 167 0
152 175 0
154 175 0
153 175 0
156 178 0
151 172 0
148 170 0
153 176 0
150 171 0
160 183 0
151 173 0
148 169 0
152 172 0
155 176 0
154 176 0
154 176 0
157 179 0
152 174 0
150 171 0
142 165 0
149 172 0
154 177 0
146 168 0
144 167 0
143 164 0
152 174 0
152 174 0
150 172 0
145 167 0
150 172 0
148 170 0
156 179 0
154 176 0
152 173 0
148 170 0
145 167 0
153 175 0
139 161 0
149 171 0
149 171 0
144 166 0
144 166 0
153 175 0
144 166 0
153 176 0
152 173 0
148 171 0
151 173 0
154 177 0
152 175 0
147 169 0
148 170 0
143 164 0
142 163 0
143 164 0
148 171 0
145 167 0
149 171 0
153 176 0
154 177 0
146 169 0
142 164 0
152 175 0
147 169 0
140 162 0
146 168 0
147 170 0
145 167 0
145 167 0
149 170 0
144 166 0
143 164 0
153 175 0
149 171 0
152 175 0
137 158 0
147 168 0
143 165 0
152 174 0
150 171 0
158 181 0
149 172 0
152 173 0
142 165 0
150 172 0
145 169 0
143 165 0
146 169 0
144 166 0
150 173 0
153 175 0
141 163 0
147 169 0
144 166 0
139 160 0
140 162 0
152 173 0
149 171 0
143 166 0
149 172 0
143 165 0
150 172 0
150 173 0
146 168 0
149 171 0
149 171 0
146 168 0
152 175 0
146 169 0
141 163 0
151 173 0
145 167 0
145 167 0
148 170 0
152 174 0
152 174 0
149 170 0
134 156 0
147 170 0
150 171 0
153 176 0
141 162 0
150 172 0
141 164 0
140 162 0
147 169 0
143 165 0
142 165 0
146 169 0
150 172 0
147 169 0
156 180 0
148 170 0
141 164 0
149 171 0
146 168 0
147 170 0
151 172 0
152 174 0
152 175 0
147 169 0
152 175 0
155 178 0
149 172 0
148 169 0
151 174 0
145 167 0
140 163 0
149 171 0
147 169 0
154 176 0
147 169 0
146 168 0
146 168 0
148 170 0
152 175 0
150 172 0
152 175 0
150 172 0
147 169 0
145 166 0
151 172 0
149 169 0
144 165 0
152 174 0
151 173 0
146 169 0
145 167 0
153 174 0
151 173 0
153 175 0
149 172 0
144 166 0
151 173 0
141 163 0
151 173 0
157 178 0
144 166 0
144 166 0
153 176 0
147 170 0
155 177 0
152 173 0
147 169 0
150 172 0
148 170 0
154 176 0
154 175 0
149 171 0
152 172 0
144 164 0
151 173 0
152 174 0
150 173 0
153 175 0
148 170 0
150 172 0
149 170 0
155 177 0
157 178 0
153 174 0
148 169 0
150 171 0
150 171 0
157 178 0
155 177 0
152 174 0
152 173 0
154 174 0
155 176 0
151 171 0
156 176 0
147 169 0
153 174 0
157 177 0
160 180 0
149 170 0
149 170 0
157 178 0
157 178 0
153 173 0
147 168 0
151 172 0
149 168 0
155 176 0
151 172 0
160 181 0
151 171 0
151 172 0
158 180 0
158 178 0
150 170 0
156 175 0
149 169 0
155 176 0
147 168 0
155 175 0
159 179 0
160 181 0
150 171 0
153 173 0
154 174 0
157 178 0
154 174 0
155 176 0
153 173 0
154 174 0
157 176 0
154 174 0
154 174 0
150 170 0
156 176 0
150 170 0
156 176 0
158 179 0
152 171 0
159 179 0
152 173 0
157 177 0
158 177 0
156 175 0
156 176 0
160 180 0
160 179 0
155 175 0
150 169 0
155 174 0
154 173 0
159 179 0
151 170 0
157 176 0
156 175 0
155 175 0
156 175 0
160 180 0
159 179 0
160 180 0
161 180 0
157 176 0
165 184 0
156 175 0
157 176 0
158 178 0
162 181 0
162 181 0
157 176 0
155 173 0
157 176 0
160 178 0
158 178 0
162 183 0
157 175 0
163 183 0
159 179 0
159 179 0
161 181 0
163 183 0
158 177 0
162 182 0
162 181 0
161 181 0
159 177 0
157 175 0
159 179 0
159 178 0
159 178 0
158 179 0
160 180 0
158 178 0
156 175 0
157 177 0
160 179 0
160 179 0
159 178 0
159 179 0
159 179 0
160 179 0
160 179 0
158 178 0
162 181 0
157 176 0
162 182 0
162 182 0
156 176 0
155 175 0
161 181 0
157 177 0
154 173 0
158 178 0
157 177 0
157 176 0
153 173 0
150 169 0
154 172 0
153 173 0
154 173 0
156 175 0
156 177 0
155 176 0
162 181 0
160 181 0
156 176 0
159 179 0
152 173 0
157 178 0
158 178 0
153 173 0
156 177 0
161 181 0
152 172 0
155 175 0
157 177 0
158 178 0
154 174 0
154 173 0
159 180 0
151 171 0
156 177 0
155 175 0
152 171 0
155 176 0
154 175 0
152 172 0
148 170 0
154 176 0
155 175 0
149 171 0
150 171 0
159 180 0
152 174 0
160 181 0
155 175 0
153 174 0
155 177 0
155 176 0
156 177 0
150 171 0
153 174 0
146 167 0
157 178 0
146 167 0
160 182 0
146 168 0
146 168 0
149 169 0
155 176 0
149 170 0
147 169 0
147 169 0
158 180 0
152 173 0
147 168 0
156 177 0
154 174 0
142 163 0
145 167 0
151 171 0
155 175 0
149 172 0
151 173 0
147 168 0
152 174 0
152 173 0
154 175 0
149 170 0
155 176 0
155 177 0
152 173 0
157 180 0
154 176 0
155 176 0
151 173 0
144 166 0
148 170 0
151 172 0
151 172 0
149 171 0
155 178 0
153 175 0
153 175 0
148 170 0
151 174 0
152 174 0
152 175 0
152 174 0
150 173 0
145 166 0
153 176 0
143 164 0
153 175 0
155 178 0
147 169 0
151 172 0
147 169 0
158 181 0
151 172 0
142 164 0
140 162 0
153 174 0
144 167 0
151 173 0
146 168 0
150 173 0
144 166 0
147 170 0
148 170 0
144 166 0
152 174 0
141 162 0
151 173 0
144 165 0
141 162 0
143 165 0
142 164 0
152 173 0
153 175 0
137 157 0
148 170 0
146 169 0
148 170 0
147 169 0
148 170 0
150 173 0
159 181 0
139 161 0
145 168 0
142 163 0
149 171 0
142 165 0
150 173 0
149 171 0
145 167 0
146 168 0
156 179 0
141 162 0
139 161 0
139 160 0
148 170 0
151 173 0
152 174 0
142 164 0
148 171 0
144 166 0
145 167 0
152 174 0
141 163 0
142 165 0
139 162 0
141 164 0
148 170 0
151 173 0
151 174 0
145 167 0
146 167 0
150 172 0
147 170 0
135 156 0
150 172 0
139 161 0
149 171 0
142 165 0
151 173 0
142 164 0
149 172 0
150 173 0
147 169 0
147 170 0
154 176 0
143 165 0
133 155 0
149 171 0
144 167 0
152 175 0
144 166 0
155 178 0
148 170 0
153 174 0
148 171 0
148 171 0
144 166 0
150 172 0
146 167 0
150 171 0
149 170 0
138 159 0
143 166 0
146 167 0
146 168 0
149 171 0
146 169 0
151 173 0
150 172 0
148 170 0
137 158 0
152 174 0
153 176 0
144 167 0
152 175 0
148 170 0
148 170 0
146 168 0
147 170 0
154 177 0
146 168 0
151 173 0
151 174 0
146 167 0
155 176 0
156 178 0
151 174 0
146 169 0
153 176 0
153 176 0
151 173 0
144 164 0
152 175 0
147 169 0
156 179 0
152 174 0
142 164 0
149 171 0
152 174 0
144 165 0
148 169 0
153 175 0
149 171 0
143 165 0
147 168 0
151 173 0
154 176 0
154 175 0
151 173 0
150 173 0
152 175 0
152 174 0
152 174 0
148 169 0
152 175 0
157 180 0
154 176 0
150 172 0
151 172 0
144 165 0
148 170 0
146 167 0
147 168 0
154 177 0
148 169 0
151 173 0
144 166 0
156 176 0
149 170 0
145 167 0
152 174 0
148 170 0
147 168 0
154 175 0
150 170 0
148 170 0
155 177 0
150 172 0
159 181 0
150 172 0
153 174 0
155 177 0
156 177 0
148 169 0
150 171 0
150 171 0
151 172 0
152 173 0
154 175 0
155 176 0
162 182 0
147 168 0
155 176 0
155 176 0
156 177 0
147 168 0
154 175 0
152 173 0
156 177 0
155 177 0
153 173 0
148 168 0
143 163 0
151 172 0
151 172 0
153 173 0
155 175 0
156 177 0
150 169 0
152 173 0
152 173 0
154 174 0
150 170 0
150 170 0
158 179 0
157 177 0
149 170 0
158 178 0
153 174 0
150 170 0
156 176 0
158 178 0
160 180 0
161 181 0
152 171 0
157 177 0
161 181 0
155 176 0
160 180 0
155 175 0
151 171 0
154 174 0
159 179 0
159 181 0
153 172 0
156 177 0
159 179 0
153 173 0
153 172 0
158 177 0
158 178 0
161 181 0
157 176 0
160 181 0
157 177 0
155 174 0
152 172 0
157 176 0
157 177 0
157 176 0
161 180 0
163 182 0
161 181 0
158 178 0
155 175 0
158 178 0
159 179 0
162 182 0
158 176 0
159 179 0
157 176 0
157 176 0
161 181 0
157 176 0
157 177 0
153 172 0
158 178 0
160 180 0
159 178 0
161 181 0
160 179 0
157 176 0
163 183 0
160 180 0
161 181 0
160 179 0
162 182 0
162 182 0
158 178 0
156 176 0
158 179 0
157 176 0
159 179 0
155 174 0
163 183 0
156 176 0
155 175 0
155 175 0
158 177 0
157 177 0
155 175 0
158 178 0
153 174 0
159 178 0
159 179 0
154 173 0
157 177 0
160 180 0
157 177 0
156 175 0
161 181 0
159 180 0
159 179 0
153 172 0
159 179 0
157 177 0
161 182 0
152 171 0
158 178 0
160 180 0
160 181 0
152 173 0
155 174 0
154 173 0
156 176 0
151 170 0
152 171 0
157 177 0
154 173 0
157 177 0
155 175 0
152 173 0
155 176 0
157 177 0
149 167 0
157 177 0
160 181 0
156 177 0
151 171 0
163 183 0
157 178 0
154 175 0
156 178 0
156 177 0
153 175 0
155 177 0
150 171 0
155 176 0
156 177 0
148 168 0
153 174 0
153 174 0
149 170 0
149 169 0
145 166 0
151 172 0
151 173 0
147 168 0
156 177 0
156 177 0
155 176 0
160 181 0
157 178 0
157 178 0
153 174 0
147 168 0
155 176 0
155 176 0
155 177 0
149 169 0
156 178 0
152 173 0
154 176 0
153 175 0
156 178 0
152 173 0
154 176 0
153 173 0
154 176 0
154 175 0
151 172 0
152 174 0
150 170 0
149 169 0
151 172 0
153 175 0
153 175 0
157 179 0
154 175 0
152 174 0
148 170 0
147 168 0
160 182 0
158 179 0
147 168 0
150 172 0
157 179 0
151 172 0
153 175 0
158 180 0
150 172 0
150 171 0
154 176 0
151 172 0
153 176 0
153 174 0
150 172 0
155 178 0
155 176 0
151 174 0
154 177 0
156 177 0
151 173 0
148 170 0
145 166 0
152 174 0
159 181 0
153 175 0
147 169 0
146 169 0
154 176 0
150 172 0
146 168 0
146 168 0
146 167 0
149 171 0
150 173 0
141 163 0
153 175 0
149 172 0
152 175 0
152 174 0
147 171 0
151 173 0
151 173 0
154 176 0
143 165 0
145 167 0
150 171 0
154 176 0
151 174 0
145 168 0
144 166 0
142 164 0
151 173 0
147 171 0
150 173 0
148 170 0
145 167 0
150 173 0
141 163 0
150 172 0
151 174 0
150 173 0
149 171 0
144 166 0
139 160 0
143 165 0
144 165 0
149 172 0
145 167 0
151 173 0
147 169 0
150 170 0
146 169 0
144 166 0
153 176 0
145 168 0
150 172 0
146 168 0
151 173 0
147 170 0
151 174 0
143 166 0
150 172 0
142 165 0
146 169 0
147 169 0
153 175 0
147 169 0
149 172 0
146 169 0
146 168 0
141 163 0
152 174 0
148 170 0
143 165 0
149 171 0
149 171 0
146 169 0
140 162 0
145 168 0
138 160 0
146 169 0
148 171 0
143 166 0
147 169 0
145 167 0
146 168 0
151 174 0
151 173 0
141 163 0
153 175 0
143 164 0
144 166 0
152 175 0
149 171 0
141 163 0
143 166 0
139 162 0
152 174 0
154 176 0
143 166 0
158 180 0
149 172 0
158 181 0
145 167 0
155 178 0
143 165 0
148 170 0
148 170 0
145 167 0
147 168 0
156 178 0
145 166 0
150 173 0
146 168 0
149 171 0
143 165 0
146 168 0
145 167 0
149 171 0
147 169 0
140 162 0
144 165 0
152 175 0
152 174 0
147 169 0
147 169 0
151 172 0
143 165 0
147 169 0
147 169 0
141 163 0
153 175 0
150 172 0
147 169 0
145 167 0
146 168 0
145 166 0
147 169 0
146 168 0
145 167 0
156 179 0
145 168 0
147 168 0
147 169 0
152 173 0
153 176 0
148 171 0
152 173 0
152 175 0
146 167 0
153 174 0
145 166 0
148 171 0
150 171 0
153 175 0
156 178 0
145 167 0
159 181 0
156 178 0
155 177 0
151 173 0
159 181 0
147 169 0
149 172 0
149 171 0
155 176 0
153 173 0
154 176 0
157 178 0
150 173 0
147 169 0
152 173 0
157 178 0
152 174 0
152 175 0
153 175 0
158 180 0
150 172 0
148 170 0
152 174 0
153 174 0
159 182 0
146 167 0
150 171 0
151 172 0
156 178 0
159 181 0
148 170 0
154 176 0
150 172 0
158 178 0
149 169 0
155 177 0
149 170 0
154 175 0
151 172 0
160 180 0
147 168 0
152 173 0
159 180 0
146 166 0
153 175 0
150 171 0
149 170 0
157 178 0
157 178 0
157 177 0
159 180 0
151 172 0
146 166 0
156 177 0
153 175 0
148 169 0
154 176 0
155 176 0
153 173 0
149 169 0
157 177 0
158 177 0
158 179 0
153 174 0
155 175 0
150 171 0
154 174 0
151 171 0
160 181 0
154 174 0
159 179 0
155 176 0
153 173 0
156 177 0
157 176 0
158 178 0
156 176 0
157 177 0
159 180 0
160 180 0
161 180 0
155 175 0
155 175 0
155 176 0
155 175 0
156 175 0
161 181 0
160 179 0
159 178 0
157 176 0
153 173 0
158 179 0
160 180 0
158 178 0
157 176 0
156 176 0
157 177 0
157 177 0
159 179 0
159 178 0
152 172 0
158 176 0
156 175 0
165 185 0
157 177 0
154 174 0
155 174 0
162 183 0
155 174 0
158 178 0
161 180 0
159 179 0
162 183 0
162 183 0
158 177 0
155 174 0
160 180 0
154 174 0
162 182 0
160 179 0
161 182 0
158 177 0
157 176 0
155 175 0
156 175 0
159 180 0
157 177 0
159 179 0
161 181 0
159 179 0
156 177 0
158 177 0
157 177 0
159 180 0
158 177 0
157 177 0
153 173 0
154 173 0
157 176 0
159 180 0
161 181 0
153 172 0
159 179 0
160 181 0
156 176 0
155 175 0
156 176 0
159 180 0
158 177 0
157 176 0
158 179 0
155 175 0
156 176 0
153 173 0
160 180 0
157 177 0
154 175 0
152 173 0
155 175 0
155 176 0
155 175 0
156 177 0
149 169 0
150 170 0
154 175 0
154 175 0
154 175 0
157 178 0
153 173 0
152 172 0
159 180 0
151 172 0
156 176 0
152 173 0
155 175 0
157 178 0
156 178 0
159 180 0
153 174 0
151 171 0
147 169 0
155 176 0
152 172 0
156 177 0
156 178 0
152 173 0
162 183 0
153 174 0
157 178 0
159 179 0
153 175 0
153 174 0
150 173 0
154 176 0
146 167 0
149 171 0
150 171 0
150 170 0
157 180 0
157 178 0
154 175 0
158 179 0
152 173 0
151 173 0
153 174 0
151 173 0
153 175 0
152 173 0
154 175 0
150 171 0
150 170 0
148 170 0
151 172 0
154 176 0
151 173 0
146 166 0
157 179 0
153 175 0
149 171 0
155 177 0
149 171 0
151 172 0
150 172 0
156 178 0
146 168 0
149 171 0
150 172 0
153 173 0
153 175 0
152 174 0
158 181 0
148 170 0
148 170 0
147 170 0
151 174 0
151 173 0
153 175 0
150 172 0
154 176 0
144 167 0
157 179 0
148 170 0
149 170 0
152 174 0
153 176 0
148 171 0
150 173 0
145 167 0
149 172 0
155 178 0
146 168 0
147 169 0
149 172 0
154 177 0
145 167 0
148 171 0
147 167 0
152 174 0
149 170 0
148 171 0
150 173 0
148 170 0
156 178 0
147 169 0
149 170 0
144 166 0
156 179 0
149 171 0
146 168 0
145 168 0
146 169 0
158 180 0
149 171 0
141 162 0
154 176 0
147 169 0
149 171 0
149 172 0
143 165 0
150 173 0
145 167 0
138 160 0
143 165 0
150 172 0
147 169 0
149 172 0
152 173 0
140 162 0
144 166 0
141 163 0
151 174 0
136 158 0
151 174 0
144 166 0
143 166 0
144 167 0
145 167 0
149 171 0
152 174 0
143 165 0
146 167 0
152 175 0
156 178 0
144 167 0
151 174 0
145 168 0
145 168 0
143 165 0
147 170 0
148 170 0
150 171 0
149 171 0
148 171 0
149 172 0
146 168 0
149 172 0
154 177 0
150 172 0
147 170 0
150 172 0
150 171 0
148 171 0
143 166 0
152 173 0
144 166 0
152 175 0
142 165 0
148 172 0
146 168 0
148 170 0
154 177 0
155 176 0
149 171 0
146 168 0
146 167 0
154 176 0
147 169 0
146 168 0
147 170 0
142 165 0
150 172 0
150 172 0
151 174 0
153 176 0
144 166 0
146 169 0
151 174 0
152 175 0
144 166 0
140 161 0
154 176 0
148 171 0
150 172 0
152 174 0
153 176 0
145 166 0
152 173 0
147 170 0
144 166 0
152 175 0
154 177 0
152 174 0
147 170 0
156 179 0
144 166 0
147 170 0
149 170 0
152 175 0
149 171 0
158 179 0
148 170 0
147 169 0
156 178 0
145 167 0
152 176 0
149 171 0
147 168 0
156 178 0
147 170 0
148 169 0
150 172 0
147 169 0
150 171 0
148 168 0
152 175 0
150 172 0
153 176 0
151 173 0
147 168 0
145 166 0
150 173 0
147 169 0
148 169 0
152 174 0
149 171 0
155 177 0
156 178 0
152 173 0
150 172 0
152 174 0
147 168 0
152 173 0
161 183 0
147 169 0
155 177 0
148 168 0
148 170 0
151 173 0
153 175 0
151 172 0
153 176 0
157 178 0
147 168 0
155 176 0
146 168 0
150 172 0
155 177 0
146 168 0
155 177 0
151 173 0
150 172 0
148 170 0
157 179 0
157 178 0
159 181 0
155 176 0
152 173 0
142 162 0
152 174 0
160 181 0
155 175 0
160 180 0
154 176 0
156 177 0
152 172 0
158 179 0
152 172 0
160 180 0
157 177 0
152 172 0
157 179 0
156 178 0
154 176 0
148 169 0
152 172 0
151 171 0
154 174 0
154 174 0
150 171 0
153 174 0
154 175 0
149 169 0
154 175 0
158 179 0
160 182 0
155 175 0
151 171 0
156 176 0
153 174 0
148 168 0
152 173 0
154 174 0
156 178 0
155 176 0
156 177 0
154 174 0
151 171 0
159 179 0
149 169 0
157 178 0
153 172 0
153 173 0
160 180 0
158 179 0
155 174 0
150 169 0
160 180 0
160 181 0
157 178 0
158 178 0
153 172 0
153 173 0
150 171 0
157 177 0
156 177 0
154 173 0
159 179 0
159 178 0
160 180 0
153 172 0
162 182 0
156 175 0
160 180 0
158 179 0
155 174 0
157 177 0
152 172 0
160 181 0
159 178 0
156 176 0
158 178 0
158 178 0
155 174 0
161 181 0
158 178 0
156 176 0
160 181 0
163 183 0
160 180 0
161 181 0
156 176 0
160 180 0
163 183 0
162 182 0
161 181 0
160 179 0
160 181 0
158 178 0
159 179 0
160 180 0
162 182 0
160 179 0
157 177 0
156 175 0
155 174 0
164 184 0
157 175 0
158 178 0
159 178 0
155 174 0
162 183 0
159 179 0
158 177 0
160 179 0
160 180 0
153 173 0
161 181 0
155 174 0
154 174 0
158 179 0
157 177 0
152 171 0
156 176 0
159 179 0
155 176 0
154 173 0
156 176 0
157 177 0
158 178 0
163 183 0
157 178 0
158 178 0
156 176 0
155 176 0
159 179 0
157 177 0
161 181 0
149 169 0
155 174 0
150 171 0
161 182 0
153 175 0
152 173 0
161 181 0
154 174 0
146 165 0
156 176 0
150 171 0
152 173 0
155 175 0
156 176 0
151 171 0
155 175 0
153 174 0
149 170 0
157 179 0
158 179 0
157 179 0
156 177 0
155 176 0
154 174 0
152 173 0
152 172 0
149 169 0
153 175 0
157 178 0
148 169 0
154 176 0
147 169 0
155 176 0
157 179 0
156 177 0
151 171 0
149 170 0
147 169 0
150 171 0
156 178 0
156 178 0
153 174 0
154 176 0
151 173 0
151 172 0
154 176 0
153 174 0
156 177 0
144 165 0
156 178 0
148 170 0
148 170 0
146 168 0
155 176 0
155 177 0
148 169 0
145 167 0
141 162 0
155 176 0
150 172 0
153 175 0
156 177 0
151 172 0
150 172 0
150 172 0
147 169 0
147 168 0
149 171 0
158 181 0
151 172 0
151 173 0
158 181 0
155 177 0
151 173 0
149 171 0
154 177 0
148 170 0
152 175 0
158 179 0
150 172 0
148 170 0
150 172 0
155 178 0
141 164 0
150 172 0
144 166 0
142 163 0
147 169 0
147 168 0
149 171 0
146 169 0
148 170 0
147 168 0
155 177 0
153 174 0
149 171 0
152 174 0
148 170 0
144 165 0
147 168 0
144 167 0
156 178 0
146 168 0
145 168 0
148 170 0
157 179 0
146 169 0
149 173 0
152 174 0
145 166 0
156 178 0
148 170 0
150 173 0
153 176 0
150 171 0
151 173 0
151 173 0
149 172 0
147 169 0
153 175 0
153 175 0
137 159 0
147 169 0
141 164 0
149 171 0
146 168 0
146 168 0
149 173 0
148 170 0
147 168 0
143 166 0
149 172 0
143 165 0
147 169 0
144 167 0
152 174 0
143 164 0
147 169 0
138 160 0
146 168 0
150 172 0
147 169 0
150 173 0
148 170 0
148 170 0
150 174 0
151 173 0
156 178 0
141 162 0
145 168 0
144 167 0
148 170 0
150 172 0
145 167 0
143 166 0
146 168 0
152 175 0
150 173 0
147 169 0
150 172 0
144 166 0
146 169 0
149 171 0
152 175 0
150 173 0
150 172 0
144 166 0
147 169 0
150 172 0
146 169 0
148 170 0
148 171 0
135 157 0
149 171 0
148 171 0
141 163 0
153 176 0
154 177 0
149 172 0
152 174 0
146 169 0
142 165 0
139 162 0
148 171 0
152 173 0
153 175 0
153 175 0
146 168 0
139 162 0
145 168 0
157 180 0
144 165 0
150 173 0
143 166 0
144 167 0
146 168 0
152 174 0
154 177 0
148 171 0
149 170 0
150 172 0
153 176 0
154 176 0
152 174 0
145 167 0
146 168 0
149 171 0
153 176 0
146 168 0
151 174 0
143 165 0
150 174 0
158 179 0
148 170 0
147 169 0
148 170 0
148 171 0
153 176 0
149 172 0
150 171 0
146 167 0
155 177 0
147 169 0
143 164 0
147 169 0
154 177 0
149 171 0
147 170 0
148 171 0
158 180 0
152 174 0
157 179 0
152 173 0
152 174 0
152 174 0
154 177 0
146 168 0
156 178 0
152 174 0
154 176 0
150 171 0
154 176 0
147 169 0
146 169 0
148 170 0
149 172 0
145 168 0
146 168 0
143 165 0
152 174 0
155 177 0
151 173 0
150 172 0
151 173 0
151 174 0
153 176 0
149 170 0
155 176 0
156 177 0
158 180 0
153 175 0
153 174 0
149 171 0
150 171 0
153 174 0
156 177 0
157 179 0
142 163 0
153 175 0
152 174 0
150 171 0
155 177 0
154 175 0
152 174 0
154 175 0
153 175 0
157 177 0
156 177 0
148 170 0
155 176 0
156 177 0
153 173 0
152 174 0
160 182 0
157 178 0
158 180 0
154 175 0
150 170 0
149 171 0
154 174 0
150 170 0
160 181 0
164 186 0
157 178 0
151 171 0
151 171 0
153 174 0
153 175 0
155 176 0
146 166 0
156 178 0
153 175 0
150 171 0
150 170 0
154 174 0
153 174 0
162 182 0
153 174 0
158 178 0
150 169 0
159 179 0
160 180 0
159 178 0
155 175 0
155 175 0
159 180 0
158 178 0
163 184 0
159 179 0
154 175 0
156 176 0
155 176 0
153 173 0
153 172 0
156 176 0
154 174 0
155 175 0
154 174 0
153 173 0
155 175 0
152 172 0
156 176 0
159 179 0
157 177 0
159 179 0
159 180 0
162 182 0
159 178 0
159 178 0
155 174 0
162 183 0
158 179 0
160 181 0
158 178 0
157 176 0
153 173 0
156 176 0
157 177 0
159 180 0
155 174 0
159 178 0
161 180 0
154 174 0
162 183 0
166 187 0
160 178 0
163 183 0
159 179 0
162 182 0
159 179 0
159 178 0
161 181 0
161 182 0
154 174 0
162 182 0
157 176 0
158 178 0
158 178 0
155 175 0
162 182 0
157 176 0
159 180 0
154 175 0
160 181 0
156 176 0
163 184 0
156 176 0
157 177 0
155 174 0
159 180 0
158 178 0
163 183 0
161 182 0
161 182 0
158 180 0
157 177 0
149 169 0
152 172 0
158 179 0
154 174 0
158 179 0
156 176 0
157 177 0
162 183 0
151 172 0
155 175 0
153 174 0
149 170 0
159 180 0
158 179 0
151 171 0
152 172 0
159 180 0
153 173 0
157 178 0
154 175 0
154 175 0
156 177 0
151 171 0
153 173 0
151 172 0
153 173 0
155 176 0
155 176 0
157 178 0
158 180 0
157 178 0
162 183 0
155 176 0
155 176 0
151 172 0
150 171 0
154 176 0
157 178 0
158 180 0
160 182 0
153 175 0
155 176 0
153 175 0
152 172 0
155 176 0
155 177 0
158 179 0
149 171 0
148 169 0
157 179 0
157 179 0
151 172 0
156 177 0
152 173 0
155 177 0
153 175 0
152 174 0
152 173 0
156 178 0
150 171 0
156 178 0
154 175 0
160 182 0
154 176 0
153 175 0
150 172 0
154 177 0
155 176 0
151 173 0
151 173 0
153 175 0
152 174 0
145 167 0
147 169 0
152 175 0
155 177 0
150 172 0
157 179 0
149 171 0
157 179 0
153 174 0
153 176 0
152 174 0
157 180 0
144 167 0
156 179 0
156 177 0
155 177 0
152 174 0
147 170 0
153 174 0
160 181 0
158 180 0
143 166 0
154 176 0
151 172 0
156 178 0
148 169 0
146 168 0
152 172 0
145 168 0
145 166 0
158 181 0
155 177 0
153 176 0
154 176 0
145 167 0
151 172 0
152 175 0
147 170 0
151 173 0
149 171 0
148 171 0
152 175 0
148 170 0
154 177 0
151 173 0
151 173 0
148 169 0
159 182 0
148 170 0
146 169 0
148 170 0
152 174 0
153 176 0
147 169 0
152 175 0
144 166 0
149 171 0
147 170 0
158 181 0
151 173 0
152 173 0
147 169 0
151 174 0
148 171 0
149 171 0
151 175 0
151 174 0
148 170 0
147 169 0
154 176 0
139 162 0
138 161 0
152 175 0
149 171 0
154 175 0
152 174 0
145 167 0
140 162 0
148 170 0
154 177 0
152 174 0
149 172 0
147 170 0
152 174 0
151 174 0
153 175 0
143 165 0
154 176 0
152 176 0
141 162 0
156 178 0
143 165 0
151 174 0
144 167 0
143 166 0
148 170 0
151 174 0
145 168 0
152 174 0
144 166 0
147 169 0
144 166 0
150 173 0
153 175 0
144 166 0
140 162 0
147 170 0
141 163 0
153 175 0
143 165 0
146 168 0
150 172 0
140 162 0
144 166 0
149 172 0
151 174 0
143 165 0
146 168 0
151 174 0
151 173 0
145 167 0
146 169 0
147 169 0
136 157 0
145 167 0
147 168 0
153 175 0
149 171 0
145 168 0
151 174 0
151 173 0
145 167 0
149 172 0
152 175 0
154 176 0
148 172 0
148 171 0
141 162 0
145 168 0
134 156 0
145 168 0
142 164 0
149 170 0
148 170 0
151 174 0
151 174 0
151 174 0
141 164 0
153 175 0
145 166 0
154 176 0
150 173 0
140 162 0
145 167 0
154 176 0
142 163 0
155 177 0
157 180 0
142 164 0
156 179 0
160 182 0
154 176 0
149 173 0
143 165 0
140 163 0
152 174 0
152 175 0
150 171 0
150 173 0
145 167 0
146 169 0
152 175 0
147 169 0
146 167 0
151 173 0
148 170 0
157 178 0
146 168 0
152 173 0
152 174 0
154 175 0
153 175 0
147 170 0
150 173 0
156 178 0
156 177 0
152 175 0
158 180 0
155 177 0
154 175 0
154 177 0
148 171 0
151 173 0
152 174 0
147 170 0
151 172 0
154 175 0
153 174 0
153 175 0
155 178 0
153 176 0
152 174 0
154 176 0
150 171 0
156 177 0
153 174 0
153 175 0
151 172 0
149 170 0
159 181 0
152 173 0
142 164 0
158 179 0
158 179 0
151 172 0
156 178 0
155 176 0
150 172 0
153 175 0
150 172 0
160 182 0
153 174 0
151 172 0
152 174 0
150 171 0
152 173 0
154 175 0
156 176 0
153 173 0
154 176 0
148 169 0
156 177 0
154 175 0
154 175 0
156 177 0
153 175 0
156 177 0
152 171 0
154 175 0
155 176 0
155 175 0
153 174 0
157 178 0
152 173 0
155 175 0
155 177 0
151 172 0
153 174 0
151 171 0
160 181 0
149 170 0
156 178 0
159 180 0
157 178 0
154 174 0
158 179 0
157 177 0
155 174 0
157 178 0
155 175 0
162 183 0
152 172 0
154 175 0
158 178 0
163 183 0
156 177 0
154 175 0
161 182 0
151 171 0
160 180 0
156 176 0
158 179 0
153 174 0
151 170 0
155 176 0
160 180 0
160 180 0
159 178 0
159 178 0
161 179 0
156 176 0
162 182 0
158 178 0
160 180 0
161 181 0
160 179 0
158 178 0
158 178 0
163 183 0
152 172 0
156 175 0
162 183 0
160 180 0
162 181 0
156 176 0
163 183 0
157 177 0
164 183 0
162 183 0
160 180 0
156 176 0
160 181 0
158 178 0
157 177 0
158 179 0
160 180 0
167 187 0
156 176 0
161 182 0
160 180 0
162 182 0
162 182 0
161 182 0
159 180 0
162 182 0
159 179 0
161 181 0
157 177 0
163 184 0
155 174 0
154 174 0
161 181 0
157 177 0
156 177 0
159 179 0
158 179 0
157 177 0
163 183 0
158 178 0
155 176 0
153 173 0
155 176 0
159 180 0
159 180 0
155 176 0
157 176 0
160 180 0
156 176 0
155 175 0
157 178 0
156 176 0
161 182 0
153 174 0
151 171 0
153 174 0
158 178 0
152 173 0
157 177 0
154 176 0
157 177 0
153 175 0
148 169 0
153 175 0
162 184 0
158 178 0
162 182 0
157 177 0
161 183 0
154 174 0
159 179 0
156 177 0
157 178 0
157 178 0
156 177 0
152 173 0
154 176 0
150 171 0
155 177 0
155 176 0
153 175 0
156 178 0
152 174 0
157 179 0
155 176 0
151 171 0
145 166 0
148 169 0
155 176 0
159 179 0
154 175 0
152 174 0
146 168 0
155 176 0
150 173 0
153 175 0
153 174 0
152 173 0
156 178 0
151 173 0
156 179 0
154 177 0
156 177 0
156 177 0
154 176 0
156 178 0
153 174 0
151 173 0
162 183 0
153 174 0
157 178 0
155 178 0
148 169 0
156 178 0
147 169 0
150 171 0
155 177 0
158 180 0
154 176 0
156 179 0
156 178 0
154 175 0
152 174 0
152 175 0
152 175 0
149 172 0
157 180 0
142 164 0
154 177 0
152 175 0
146 168 0
150 172 0
149 171 0
150 173 0
155 178 0
148 170 0
149 172 0
155 178 0
149 172 0
153 176 0
152 175 0
147 170 0
147 170 0
152 175 0
152 174 0
147 169 0
152 174 0
156 179 0
151 174 0
151 174 0
154 177 0
150 172 0
148 170 0
156 178 0
150 172 0
149 171 0
153 175 0
144 165 0
149 172 0
151 174 0
151 173 0
153 176 0
156 179 0
147 170 0
149 172 0
153 176 0
152 173 0
148 170 0
150 171 0
149 170 0
150 172 0
143 165 0
150 172 0
150 173 0
155 176 0
151 173 0
151 173 0
147 170 0
152 175 0
151 173 0
154 178 0
146 169 0
142 165 0
142 164 0
146 168 0
145 167 0
150 173 0
154 177 0
147 170 0
147 170 0
151 172 0
139 161 0
148 170 0
144 167 0
149 171 0
148 170 0
153 175 0
153 176 0
159 183 0
147 169 0
149 170 0
146 167 0
148 172 0
143 165 0
145 167 0
149 171 0
149 171 0
137 159 0
145 168 0
150 172 0
146 169 0
146 168 0
157 180 0
146 169 0
139 162 0
149 171 0
149 172 0
151 174 0
149 172 0
156 178 0
145 167 0
148 171 0
152 174 0
150 172 0
143 165 0
143 167 0
144 166 0
150 173 0
154 175 0
155 177 0
143 166 0
143 165 0
150 172 0
150 173 0
147 170 0
150 172 0
150 173 0
149 170 0
152 174 0
150 172 0
148 170 0
150 172 0
149 171 0
155 177 0
143 166 0
151 173 0
155 177 0
156 178 0
153 175 0
145 166 0
150 172 0
146 168 0
148 170 0
141 165 0
152 174 0
154 177 0
151 173 0
145 167 0
146 167 0
154 177 0
153 175 0
148 171 0
152 175 0
150 173 0
155 178 0
156 178 0
147 169 0
154 177 0
151 172 0
150 172 0
153 175 0
153 175 0
155 178 0
151 173 0
153 174 0
151 174 0
149 171 0
158 181 0
150 172 0
150 172 0
153 176 0
146 168 0
152 174 0
153 176 0
154 176 0
157 178 0
149 171 0
150 171 0
145 166 0
151 173 0
153 175 0
153 175 0
152 174 0
151 174 0
149 170 0
153 175 0
153 175 0
144 166 0
153 175 0
154 176 0
155 176 0
155 176 0
151 173 0
145 166 0
147 169 0
152 175 0
151 173 0
150 172 0
149 169 0
154 177 0
158 180 0
153 174 0
153 174 0
153 175 0
147 169 0
154 176 0
152 174 0
150 171 0
155 176 0
156 178 0
153 173 0
151 173 0
156 177 0
150 171 0
153 175 0
148 170 0
150 171 0
144 165 0
162 184 0
156 177 0
155 177 0
150 171 0
152 173 0
156 177 0
155 176 0
153 176 0
158 180 0
160 182 0
155 176 0
160 182 0
150 171 0
150 171 0
148 169 0
153 174 0
156 177 0
154 175 0
159 180 0
153 174 0
154 175 0
152 173 0
151 173 0
155 177 0
154 176 0
157 178 0
150 170 0
161 183 0
153 173 0
157 178 0
159 180 0
152 172 0
157 177 0
159 180 0
158 180 0
153 173 0
154 175 0
154 175 0
157 178 0
156 177 0
159 181 0
157 178 0
162 183 0
158 179 0
157 178 0
161 181 0
164 186 0
154 175 0
160 181 0
154 174 0
157 177 0
159 179 0
163 184 0
162 184 0
157 175 0
160 181 0
161 181 0
156 176 0
158 178 0
160 180 0
155 175 0
164 185 0
156 176 0
155 176 0
154 174 0
157 178 0
159 180 0
158 179 0
164 185 0
156 176 0
159 178 0
157 177 0
157 177 0
156 176 0
165 185 0
160 180 0
156 177 0
164 184 0
161 181 0
157 177 0
160 180 0
161 181 0
159 180 0
159 179 0
161 179 0
161 182 0
161 182 0
158 178 0
164 184 0
162 183 0
157 177 0
164 184 0
161 181 0
156 176 0
155 174 0
161 182 0
156 176 0
158 178 0
158 178 0
158 179 0
159 179 0
156 176 0
158 178 0
161 180 0
155 176 0
157 177 0
162 183 0
158 178 0
153 174 0
160 180 0
158 178 0
154 175 0
156 176 0
154 174 0
156 176 0
163 183 0
156 177 0
159 180 0
153 174 0
157 177 0
156 177 0
156 176 0
156 176 0
154 173 0
153 173 0
159 180 0
155 176 0
155 176 0
156 177 0
159 180 0
154 174 0
153 173 0
154 175 0
155 176 0
151 172 0
154 174 0
157 178 0
156 178 0
151 172 0
161 183 0
156 177 0
151 172 0
154 175 0
156 177 0
153 175 0
159 180 0
158 179 0
153 174 0
155 177 0
152 174 0
152 173 0
160 182 0
151 172 0
160 181 0
149 170 0
155 177 0
149 169 0
158 179 0
153 175 0
150 172 0
155 176 0
153 176 0
157 179 0
155 176 0
150 172 0
151 172 0
160 182 0
152 175 0
148 170 0
155 178 0
153 175 0
159 179 0
154 176 0
150 172 0
147 169 0
153 174 0
155 177 0
157 178 0
156 179 0
147 169 0
157 179 0
154 176 0
156 178 0
145 166 0
151 173 0
153 175 0
151 172 0
149 171 0
149 172 0
157 180 0
152 174 0
140 161 0
152 173 0
147 168 0
151 173 0
154 177 0
151 171 0
158 180 0
147 169 0
154 177 0
153 174 0
153 175 0
142 164 0
150 173 0
153 174 0
156 178 0
151 173 0
151 172 0
153 174 0
154 176 0
152 173 0
152 174 0
156 179 0
150 172 0
149 172 0
151 174 0
149 171 0
154 176 0
152 175 0
151 173 0
154 176 0
155 176 0
145 168 0
149 171 0
146 168 0
152 174 0
146 169 0
144 167 0
153 175 0
148 171 0
159 181 0
152 174 0
158 181 0
146 168 0
141 162 0
142 164 0
153 177 0
153 176 0
151 174 0
144 165 0
155 178 0
145 167 0
154 175 0
151 173 0
142 164 0
150 172 0
151 174 0
156 178 0
156 178 0
152 174 0
149 172 0
148 170 0
153 175 0
146 168 0
146 169 0
147 169 0
147 168 0
142 164 0
152 175 0
150 172 0
151 174 0
148 171 0
147 171 0
146 168 0
155 177 0
147 168 0
150 172 0
154 177 0
154 176 0
150 173 0
154 177 0
148 171 0
148 170 0
141 163 0
155 178 0
141 163 0
147 169 0
152 174 0
153 175 0
144 166 0
149 172 0
141 163 0
156 179 0
150 172 0
150 172 0
147 170 0
152 175 0
147 169 0
144 167 0
140 164 0
147 169 0
144 167 0
143 165 0
147 170 0
155 179 0
145 167 0
143 166 0
152 175 0
144 167 0
147 169 0
150 173 0
145 167 0
146 168 0
149 171 0
154 176 0
151 173 0
150 173 0
138 162 0
151 175 0
142 164 0
155 177 0
144 166 0
149 171 0
149 172 0
143 166 0
149 172 0
142 164 0
149 171 0
146 168 0
154 177 0
150 172 0
146 169 0
148 171 0
151 173 0
151 173 0
142 164 0
159 182 0
150 172 0
151 174 0
156 179 0
151 174 0
150 172 0
150 172 0
150 173 0
150 172 0
149 171 0
150 173 0
151 174 0
153 176 0
146 169 0
145 167 0
147 169 0
155 177 0
153 175 0
148 170 0
149 171 0
154 177 0
150 173 0
152 175 0
155 178 0
151 173 0
149 171 0
152 175 0
157 179 0
150 172 0
151 173 0
145 167 0
151 173 0
155 177 0
153 175 0
154 178 0
146 167 0
154 177 0
147 169 0
148 170 0
153 175 0
150 173 0
151 174 0
151 172 0
155 177 0
146 168 0
155 177 0
146 168 0
161 183 0
153 175 0
153 175 0
148 170 0
154 177 0
150 173 0
153 175 0
148 169 0
154 175 0
152 174 0
154 176 0
155 176 0
148 170 0
150 172 0
148 170 0
158 181 0
148 169 0
149 171 0
151 173 0
151 171 0
149 171 0
157 179 0
154 175 0
154 176 0
152 173 0
155 176 0
152 174 0
157 178 0
159 181 0
153 174 0
146 169 0
146 167 0
156 178 0
158 179 0
153 175 0
151 173 0
157 178 0
153 174 0
153 173 0
151 172 0
159 179 0
151 171 0
154 176 0
152 173 0
157 177 0
160 182 0
159 179 0
158 180 0
146 167 0
151 172 0
157 178 0
153 174 0
155 176 0
154 175 0
154 175 0
155 175 0
152 173 0
155 175 0
157 178 0
161 182 0
156 176 0
147 168 0
154 175 0
156 177 0
154 174 0
154 176 0
153 174 0
156 176 0
158 177 0
155 175 0
156 176 0
157 177 0
154 174 0
159 178 0
158 179 0
155 176 0
159 180 0
160 180 0
159 180 0
156 177 0
160 180 0
161 181 0
153 174 0
162 184 0
160 179 0
163 184 0
156 175 0
156 176 0
162 182 0
160 179 0
158 179 0
153 173 0
156 176 0
161 182 0
157 177 0
159 179 0
160 181 0
161 181 0
156 176 0
158 178 0
160 180 0
160 180 0
162 182 0
160 181 0
157 177 0
163 183 0
161 181 0
156 176 0
166 186 0
155 176 0
160 179 0
161 181 0
160 181 0
161 181 0
160 181 0
161 181 0
164 184 0
162 182 0
163 185 0
159 179 0
158 178 0
161 182 0
156 175 0
160 181 0
161 180 0
158 177 0
161 183 0
157 177 0
158 178 0
160 181 0
157 178 0
157 177 0
157 178 0
163 183 0
162 184 0
159 179 0
154 173 0
156 176 0
156 177 0
161 182 0
161 182 0
152 173 0
159 179 0
154 175 0
154 175 0
154 175 0
158 178 0
156 177 0
154 175 0
152 173 0
155 175 0
154 174 0
150 170 0
153 173 0
162 183 0
156 175 0
156 177 0
156 177 0
160 181 0
158 180 0
156 178 0
154 176 0
160 180 0
155 175 0
159 181 0
156 176 0
155 176 0
157 177 0
150 172 0
150 170 0
155 175 0
153 174 0
154 175 0
153 174 0
152 173 0
154 175 0
157 178 0
158 180 0
140 161 0
150 171 0
148 169 0
148 168 0
149 170 0
160 182 0
153 175 0
152 173 0
154 176 0
153 175 0
151 173 0
154 176 0
149 171 0
151 173 0
152 175 0
152 173 0
159 181 0
145 167 0
154 176 0
151 173 0
153 175 0
151 173 0
147 169 0
155 177 0
154 176 0
157 180 0
154 176 0
148 169 0
148 171 0
155 177 0
156 178 0
157 179 0
153 175 0
156 177 0
155 177 0
157 179 0
149 170 0
162 183 0
154 176 0
154 177 0
156 178 0
146 168 0
155 177 0
152 174 0
152 173 0
148 171 0
152 175 0
152 175 0
158 180 0
152 173 0
152 173 0
148 171 0
153 175 0
152 174 0
157 179 0
152 174 0
151 173 0
147 168 0
150 172 0
153 176 0
152 174 0
151 173 0
151 174 0
147 169 0
148 169 0
151 175 0
156 179 0
147 170 0
154 176 0
155 176 0
147 169 0
151 172 0
147 169 0
158 181 0
157 180 0
155 178 0
150 172 0
153 176 0
151 174 0
145 167 0
146 169 0
148 169 0
145 167 0
157 179 0
155 177 0
152 174 0
148 169 0
152 175 0
150 172 0
146 168 0
150 172 0
141 163 0
154 177 0
140 162 0
151 174 0
151 174 0
144 166 0
154 176 0
146 168 0
153 175 0
148 171 0
150 172 0
153 175 0
155 177 0
143 165 0
147 169 0
149 171 0
155 178 0
152 175 0
149 170 0
142 165 0
151 173 0
147 169 0
145 167 0
143 166 0
153 176 0
151 174 0
147 170 0
145 168 0
153 175 0
148 170 0
150 172 0
146 169 0
153 176 0
150 173 0
151 174 0
152 173 0
154 176 0
151 174 0
144 166 0
151 174 0
150 172 0
153 175 0
145 168 0
144 167 0
153 175 0
138 160 0
148 170 0
148 170 0
148 171 0
149 171 0
154 176 0
142 165 0
152 175 0
146 168 0
151 174 0
150 173 0
154 177 0
163 186 0
149 172 0
147 170 0
147 170 0
148 170 0
152 175 0
152 174 0
156 178 0
144 167 0
152 174 0
147 169 0
150 173 0
151 174 0
144 166 0
147 169 0
147 169 0
150 173 0
147 170 0
149 171 0
153 174 0
151 173 0
154 178 0
151 173 0
147 169 0
151 174 0
152 175 0
148 171 0
148 171 0
149 171 0
148 170 0
149 172 0
152 175 0
150 171 0
151 172 0
155 177 0
151 174 0
146 169 0
143 166 0
149 171 0
157 179 0
148 170 0
154 178 0
154 177 0
149 171 0
153 176 0
149 171 0
145 166 0
153 176 0
148 170 0
151 173 0
153 176 0
143 165 0
152 174 0
153 176 0
152 175 0
153 175 0
153 174 0
149 171 0
150 172 0
155 177 0
144 166 0
159 181 0
149 171 0
151 174 0
158 180 0
146 168 0
150 173 0
152 173 0
152 175 0
153 176 0
152 175 0
155 178 0
152 174 0
151 173 0
152 176 0
150 172 0
154 175 0
152 174 0
155 176 0
149 170 0
153 176 0
154 175 0
153 175 0
151 173 0
153 174 0
148 170 0
146 166 0
151 172 0
154 175 0
154 176 0
152 174 0
150 171 0
154 177 0
157 180 0
157 179 0
161 183 0
157 179 0
151 172 0
150 171 0
153 174 0
157 179 0
151 172 0
155 177 0
152 174 0
154 175 0
161 182 0
159 180 0
158 181 0
155 176 0
155 177 0
153 174 0
149 170 0
151 172 0
152 174 0
159 180 0
158 178 0
149 170 0
156 176 0
154 176 0
152 172 0
148 169 0
159 181 0
160 181 0
151 173 0
156 177 0
151 173 0
151 172 0
158 180 0
158 179 0
152 173 0
156 177 0
155 177 0
153 175 0
154 174 0
155 176 0
152 173 0
152 173 0
154 174 0
155 176 0
158 179 0
152 172 0
154 175 0
156 176 0
160 182 0
152 172 0
157 177 0
160 181 0
157 178 0
156 176 0
161 182 0
154 174 0
157 177 0
163 184 0
162 183 0
158 179 0
161 182 0
158 179 0
154 175 0
160 181 0
155 174 0
161 182 0
159 180 0
160 180 0
162 183 0
163 183 0
158 179 0
160 181 0
156 176 0
159 179 0
160 181 0
158 178 0
160 181 0
157 177 0
164 184 0
158 178 0
159 179 0
163 183 0
163 184 0
159 179 0
159 179 0
163 184 0
162 182 0
159 179 0
163 184 0
156 176 0
161 182 0
161 181 0
157 176 0
157 178 0
164 184 0
160 180 0
166 186 0
163 183 0
160 181 0
162 183 0
158 179 0
165 186 0
155 176 0
155 174 0
161 182 0
160 180 0
161 182 0
163 183 0
162 182 0
157 178 0
158 178 0
160 180 0
158 179 0
157 177 0
159 180 0
156 177 0
158 177 0
157 177 0
153 173 0
160 181 0
153 174 0
159 179 0
161 181 0
154 175 0
164 185 0
157 177 0
159 180 0
155 175 0
148 167 0
160 182 0
155 176 0
156 175 0
157 178 0
155 177 0
157 178 0
160 181 0
160 180 0
155 176 0
151 172 0
154 174 0
158 180 0
160 181 0
157 178 0
159 180 0
154 175 0
153 173 0
155 176 0
156 177 0
160 181 0
154 175 0
160 182 0
159 181 0
159 181 0
143 164 0
155 177 0
159 181 0
151 173 0
148 168 0
155 176 0
153 175 0
150 172 0
154 176 0
155 177 0
150 171 0
153 175 0
157 178 0
153 175 0
158 179 0
149 170 0
156 178 0
151 173 0
159 180 0
156 178 0
150 172 0
156 178 0
152 173 0
146 169 0
155 178 0
153 174 0
155 177 0
146 167 0
158 180 0
157 178 0
153 175 0
152 174 0
151 172 0
159 181 0
150 171 0
156 178 0
154 175 0
151 173 0
157 178 0
150 171 0
151 173 0
150 173 0
146 168 0
150 172 0
144 165 0
151 172 0
150 173 0
153 176 0
145 167 0
154 177 0
152 173 0
156 179 0
149 171 0
152 174 0
150 173 0
149 170 0
149 171 0
156 178 0
144 166 0
149 171 0
158 181 0
150 173 0
149 171 0
151 174 0
151 174 0
151 174 0
144 166 0
156 179 0
144 166 0
142 164 0
149 171 0
156 179 0
148 170 0
145 167 0
152 175 0
146 169 0
152 174 0
148 171 0
153 175 0
152 174 0
154 178 0
145 167 0
156 179 0
153 176 0
143 166 0
152 174 0
152 174 0
146 169 0
146 168 0
152 175 0
153 176 0
150 172 0
149 171 0
152 175 0
147 170 0
150 171 0
145 168 0
146 168 0
154 177 0
155 178 0
150 173 0
143 165 0
154 176 0
152 174 0
147 170 0
152 175 0
150 172 0
147 169 0
154 177 0
157 179 0
148 170 0
152 175 0
142 164 0
146 168 0
148 170 0
148 171 0
149 171 0
149 171 0
148 171 0
155 177 0
151 175 0
145 166 0
138 160 0
151 173 0
147 171 0
156 178 0
146 169 0
148 170 0
146 169 0
152 175 0
150 173 0
142 165 0
150 172 0
153 176 0
150 173 0
143 165 0
148 170 0
153 176 0
147 170 0
143 166 0
150 173 0
152 176 0
148 170 0
141 163 0
145 167 0
139 161 0
150 172 0
152 174 0
149 171 0
147 169 0
149 171 0
149 172 0
150 173 0
148 171 0
151 175 0
153 177 0
146 168 0
157 180 0
154 177 0
139 162 0
150 172 0
148 171 0
154 176 0
154 176 0
148 170 0
148 170 0
148 171 0
154 177 0
145 168 0
148 171 0
151 173 0
152 175 0
151 174 0
156 179 0
148 171 0
154 177 0
152 175 0
153 176 0
143 166 0
143 165 0
147 170 0
155 178 0
153 176 0
154 176 0
147 169 0
156 179 0
162 185 0
155 177 0
151 174 0
159 181 0
163 186 0
151 173 0
151 173 0
156 178 0
152 174 0
153 176 0
152 174 0
147 170 0
157 179 0
155 177 0
150 172 0
160 182 0
157 179 0
163 185 0
148 170 0
153 174 0
154 177 0
155 177 0
153 175 0
152 173 0
156 177 0
151 174 0
156 179 0
147 169 0
155 177 0
150 171 0
153 175 0
154 176 0
154 177 0
152 175 0
152 173 0
149 171 0
145 167 0
147 169 0
147 170 0
152 174 0
150 172 0
154 176 0
161 183 0
145 167 0
149 171 0
148 170 0
151 173 0
153 174 0
158 181 0
149 171 0
151 172 0
158 180 0
156 178 0
154 176 0
154 175 0
153 174 0
149 171 0
149 171 0
152 174 0
155 177 0
156 177 0
155 178 0
151 172 0
149 170 0
160 181 0
153 176 0
154 176 0
154 176 0
152 175 0
153 175 0
152 173 0
151 173 0
149 171 0
149 171 0
146 167 0
154 176 0
155 176 0
163 184 0
154 175 0
157 179 0
147 168 0
154 175 0
161 182 0
152 173 0
156 178 0
154 175 0
149 170 0
158 179 0
158 179 0
159 180 0
151 172 0
155 175 0
158 180 0
165 186 0
156 177 0
157 178 0
162 183 0
154 174 0
154 175 0
153 173 0
148 169 0
151 172 0
157 178 0
153 175 0
160 181 0
159 180 0
155 175 0
161 182 0
151 171 0
155 176 0
156 177 0
160 181 0
154 174 0
156 176 0
149 170 0
157 177 0
157 177 0
156 176 0
157 179 0
162 182 0
161 181 0
162 182 0
158 179 0
160 181 0
163 184 0
151 171 0
161 181 0
155 176 0
160 181 0
158 178 0
158 178 0
153 174 0
160 180 0
158 179 0
156 177 0
160 181 0
157 177 0
159 180 0
162 182 0
157 178 0
157 177 0
159 181 0
157 177 0
161 181 0
164 185 0
157 177 0
155 175 0
158 179 0
161 181 0
157 178 0
159 180 0
161 182 0
165 185 0
160 181 0
164 183 0
159 179 0
161 181 0
157 178 0
159 180 0
162 183 0
158 179 0
162 183 0
159 180 0
158 179 0
160 181 0
156 175 0
160 180 0
162 182 0
160 181 0
156 176 0
157 178 0
163 184 0
155 175 0
158 179 0
165 186 0
154 174 0
155 176 0
160 181 0
163 185 0
158 179 0
156 177 0
156 176 0
158 179 0
159 179 0
159 180 0
155 175 0
153 174 0
154 174 0
159 179 0
149 170 0
154 175 0
158 179 0
150 170 0
156 177 0
150 170 0
159 180 0
162 183 0
155 176 0
152 173 0
147 170 0
157 179 0
156 178 0
151 173 0
153 173 0
149 171 0
152 175 0
153 174 0
154 176 0
154 176 0
158 180 0
159 182 0
157 179 0
162 184 0
156 177 0
154 176 0
149 171 0
153 175 0
156 177 0
158 179 0
156 178 0
156 178 0
152 175 0
158 180 0
149 170 0
158 178 0
159 180 0
155 177 0
147 169 0
149 171 0
147 168 0
155 176 0
150 171 0
158 180 0
154 176 0
158 180 0
151 173 0
151 173 0
154 176 0
157 179 0
152 173 0
156 176 0
154 176 0
153 175 0
155 177 0
153 175 0
158 178 0
155 178 0
151 172 0
152 174 0
154 175 0
156 179 0
157 180 0
157 179 0
150 171 0
151 173 0
147 170 0
159 181 0
160 182 0
146 168 0
155 177 0
150 172 0
151 174 0
152 175 0
147 169 0
159 181 0
155 177 0
150 172 0
154 176 0
153 175 0
155 177 0
149 171 0
154 175 0
154 176 0
153 176 0
147 169 0
154 176 0
151 174 0
156 179 0
155 177 0
147 169 0
151 173 0
150 173 0
147 169 0
147 168 0
150 173 0
156 179 0
155 178 0
153 175 0
152 175 0
152 174 0
148 170 0
150 173 0
149 172 0
153 175 0
148 171 0
151 174 0
153 176 0
152 173 0
150 172 0
150 172 0
151 174 0
147 169 0
154 178 0
156 179 0
144 165 0
151 173 0
151 175 0
140 163 0
147 170 0
155 178 0
146 169 0
154 177 0
152 175 0
152 173 0
148 171 0
147 169 0
158 181 0
151 174 0
155 177 0
153 176 0
148 171 0
156 179 0
154 176 0
153 175 0
151 174 0
145 166 0
150 173 0
156 179 0
155 178 0
149 172 0
142 164 0
154 176 0
142 164 0
150 172 0
150 173 0
151 173 0
150 172 0
149 171 0
151 175 0
154 177 0
149 172 0
152 175 0
150 173 0
148 170 0
154 176 0
152 175 0
145 168 0
149 172 0
147 170 0
152 174 0
153 175 0
150 173 0
147 170 0
150 172 0
147 169 0
151 175 0
155 177 0
152 175 0
146 168 0
147 170 0
150 173 0
152 174 0
156 178 0
143 166 0
151 173 0
142 164 0
148 170 0
156 179 0
153 176 0
151 173 0
153 175 0
144 165 0
153 176 0
149 172 0
141 164 0
151 174 0
152 175 0
144 166 0
141 162 0
148 171 0
154 177 0
152 175 0
152 173 0
153 176 0
160 182 0
147 170 0
146 168 0
153 176 0
155 178 0
158 180 0
151 173 0
155 177 0
152 175 0
150 172 0
151 173 0
154 176 0
155 177 0
155 179 0
151 174 0
149 172 0
151 173 0
145 168 0
150 172 0
155 177 0
153 175 0
150 173 0
150 172 0
153 176 0
150 173 0
153 176 0
151 174 0
150 173 0
152 175 0
156 178 0
153 175 0
153 175 0
157 179 0
156 178 0
148 171 0
147 171 0
155 178 0
153 175 0
153 175 0
151 173 0
146 169 0
151 175 0
148 170 0
154 177 0
159 182 0
151 173 0
156 179 0
153 174 0
151 173 0
153 175 0
154 176 0
152 174 0
158 179 0
147 169 0
151 174 0
152 175 0
154 177 0
155 177 0
155 177 0
155 178 0
153 175 0
150 173 0
154 176 0
155 177 0
155 178 0
152 174 0
152 175 0
152 173 0
152 174 0
150 171 0
151 174 0
153 175 0
158 180 0
151 172 0
158 180 0
153 175 0
150 172 0
151 173 0
151 173 0
149 170 0
153 175 0
151 173 0
148 171 0
144 166 0
156 177 0
153 175 0
157 178 0
158 180 0
156 178 0
154 174 0
154 176 0
154 176 0
153 176 0
149 171 0
149 171 0
154 174 0
157 178 0
159 181 0
157 180 0
152 173 0
153 173 0
153 175 0
157 178 0
155 176 0
155 176 0
152 173 0
150 170 0
159 180 0
158 179 0
153 175 0
160 181 0
155 176 0
158 179 0
152 173 0
159 180 0
152 172 0
156 177 0
160 180 0
155 176 0
155 175 0
153 173 0
155 177 0
153 173 0
154 174 0
155 176 0
153 174 0
160 181 0
159 181 0
160 181 0
156 177 0
155 177 0
157 178 0
155 175 0
153 173 0
163 184 0
161 182 0
160 182 0
157 178 0
156 177 0
160 181 0
156 177 0
157 178 0
159 180 0
160 182 0
159 179 0
156 176 0
158 179 0
153 174 0
156 177 0
156 176 0
162 184 0
159 180 0
162 183 0
161 182 0
162 183 0
156 177 0
159 179 0
166 187 0
158 177 0
160 180 0
158 179 0
157 177 0
156 176 0
153 174 0
161 182 0
161 181 0
160 181 0
163 183 0
158 179 0
157 178 0
159 180 0
159 178 0
158 178 0
154 174 0
162 183 0
163 184 0
159 181 0
157 177 0
163 184 0
162 183 0
162 183 0
160 178 0
160 181 0
161 182 0
160 180 0
160 181 0
157 178 0
152 172 0
159 180 0
153 173 0
159 179 0
156 177 0
157 177 0
157 178 0
156 176 0
156 177 0
153 173 0
154 175 0
152 174 0
162 182 0
157 177 0
157 178 0
151 171 0
155 176 0
155 175 0
159 181 0
157 178 0
158 179 0
159 180 0
153 175 0
154 176 0
152 174 0
158 179 0
156 178 0
155 177 0
158 179 0
158 180 0
150 172 0
156 177 0
152 173 0
154 176 0
157 178 0
155 175 0
151 173 0
157 178 0
153 175 0
156 177 0
158 180 0
156 177 0
161 183 0
153 174 0
155 177 0
154 176 0
156 177 0
150 171 0
155 177 0
154 176 0
154 176 0
149 170 0
144 164 0
154 176 0
154 175 0
149 171 0
157 179 0
154 175 0
153 174 0
161 183 0
145 167 0
158 181 0
155 177 0
156 178 0
155 177 0
155 178 0
158 180 0
158 181 0
149 170 0
151 173 0
153 175 0
154 176 0
156 178 0
154 176 0
152 175 0
159 181 0
156 178 0
153 175 0
153 175 0
157 178 0
150 172 0
155 177 0
152 175 0
149 171 0
152 175 0
148 169 0
152 175 0
148 171 0
152 174 0
160 183 0
153 174 0
158 179 0
156 177 0
147 170 0
154 176 0
148 170 0
150 173 0
158 180 0
151 173 0
155 177 0
157 179 0
155 177 0
154 176 0
154 176 0
154 176 0
157 180 0
152 174 0
155 177 0
154 176 0
158 182 0
155 177 0
149 172 0
150 172 0
150 173 0
152 174 0
157 180 0
154 177 0
157 180 0
157 180 0
155 178 0
150 173 0
150 172 0
158 180 0
154 177 0
155 177 0
143 165 0
147 170 0
148 171 0
156 178 0
151 173 0
155 178 0
150 172 0
158 180 0
152 175 0
149 172 0
150 173 0
151 174 0
148 170 0
149 172 0
145 167 0
150 173 0
153 176 0
152 174 0
143 166 0
147 169 0
151 174 0
148 170 0
159 182 0
144 167 0
150 173 0
156 178 0
150 173 0
150 172 0
148 170 0
152 176 0
146 168 0
146 168 0
152 175 0
155 179 0
140 162 0
144 166 0
146 168 0
150 172 0
144 166 0
154 176 0
148 170 0
146 168 0
156 178 0
151 173 0
151 174 0
151 174 0
142 164 0
144 166 0
150 172 0
144 167 0
152 174 0
152 174 0
149 172 0
145 167 0
146 168 0
143 166 0
153 176 0
151 173 0
149 172 0
154 177 0
144 167 0
154 177 0
150 172 0
151 173 0
149 171 0
148 171 0
151 174 0
149 172 0
149 171 0
147 170 0
141 164 0
148 170 0
149 172 0
145 168 0
142 165 0
149 172 0
148 171 0
153 175 0
149 172 0
153 175 0
149 171 0
152 175 0
150 171 0
149 171 0
151 174 0
146 168 0
155 178 0
147 170 0
151 173 0
154 177 0
152 175 0
147 169 0
148 171 0
144 167 0
145 167 0
156 179 0
155 179 0
153 177 0
149 171 0
159 182 0
155 177 0
147 170 0
153 175 0
150 173 0
155 178 0
158 180 0
152 176 0
157 179 0
148 170 0
155 178 0
147 170 0
158 180 0
150 173 0
147 169 0
145 168 0
149 172 0
155 178 0
156 179 0
147 168 0
149 170 0
160 182 0
150 172 0
148 170 0
154 176 0
153 175 0
155 178 0
151 174 0
152 175 0
156 179 0
152 174 0
155 178 0
148 170 0
150 172 0
149 171 0
153 174 0
153 175 0
152 174 0
147 170 0
155 177 0
153 176 0
156 178 0
159 182 0
151 174 0
147 167 0
153 174 0
146 170 0
154 176 0
153 175 0
158 180 0
158 180 0
157 179 0
158 181 0
155 178 0
154 176 0
157 180 0
152 175 0
146 168 0
155 177 0
159 182 0
153 174 0
157 179 0
157 179 0
152 174 0
157 179 0
158 180 0
149 170 0
157 179 0
155 177 0
158 180 0
158 180 0
157 179 0
154 176 0
152 175 0
152 174 0
152 173 0
156 177 0
160 183 0
156 178 0
156 178 0
164 185 0
157 178 0
158 179 0
160 182 0
148 169 0
156 179 0
151 172 0
159 181 0
159 181 0
156 177 0
159 180 0
154 175 0
160 181 0
154 176 0
149 171 0
155 177 0
164 185 0
149 170 0
155 175 0
155 176 0
155 176 0
158 179 0
157 178 0
155 175 0
163 184 0
152 173 0
157 179 0
154 175 0
161 182 0
157 178 0
156 177 0
155 176 0
155 177 0
158 179 0
152 174 0
160 182 0
156 176 0
159 181 0
154 175 0
158 179 0
156 177 0
157 178 0
159 181 0
150 170 0
164 184 0
156 176 0
160 181 0
155 176 0
157 177 0
156 177 0
157 178 0
159 180 0
159 180 0
159 180 0
159 180 0
162 183 0
156 176 0
158 179 0
155 175 0
160 181 0
154 175 0
162 183 0
160 180 0
160 181 0
161 182 0
154 175 0
157 177 0
160 180 0
158 178 0
161 181 0
164 185 0
156 176 0
157 178 0
161 182 0
160 181 0
164 185 0
160 181 0
164 184 0
159 180 0
157 178 0
156 177 0
156 176 0
159 180 0
159 179 0
161 182 0
157 178 0
165 185 0
156 176 0
157 178 0
160 181 0
160 182 0
159 181 0
157 176 0
155 176 0
156 178 0
159 180 0
159 179 0
150 170 0
157 177 0
154 175 0
158 178 0
160 181 0
154 175 0
163 183 0
160 181 0
156 176 0
160 180 0
164 184 0
150 170 0
153 175 0
154 175 0
156 178 0
152 172 0
158 178 0
164 185 0
158 177 0
153 175 0
154 175 0
152 173 0
159 180 0
157 178 0
155 177 0
152 173 0
159 180 0
160 181 0
164 186 0
159 180 0
153 174 0
155 176 0
154 175 0
157 178 0
156 178 0
158 180 0
157 178 0
156 177 0
151 172 0
148 170 0
156 177 0
152 174 0
155 177 0
157 179 0
157 180 0
152 174 0
153 175 0
155 178 0
154 175 0
161 183 0
152 174 0
152 174 0
152 173 0
154 177 0
154 176 0
153 174 0
154 177 0
155 176 0
158 179 0
147 168 0
160 181 0
159 180 0
144 166 0
156 178 0
150 172 0
149 171 0
154 177 0
151 172 0
153 176 0
155 178 0
155 178 0
151 173 0
148 170 0
154 176 0
154 177 0
151 174 0
161 183 0
156 179 0
153 175 0
154 175 0
149 171 0
155 177 0
149 170 0
151 173 0
151 173 0
144 167 0
155 177 0
155 178 0
156 178 0
150 173 0
151 174 0
152 174 0
152 174 0
154 177 0
144 166 0
157 180 0
159 183 0
157 179 0
153 175 0
154 177 0
149 171 0
145 168 0
152 174 0
152 174 0
156 178 0
148 169 0
147 169 0
155 178 0
160 182 0
150 173 0
144 167 0
155 177 0
156 179 0
150 174 0
147 170 0
149 172 0
149 172 0
149 171 0
150 173 0
153 175 0
152 174 0
150 173 0
149 171 0
155 178 0
144 168 0
147 168 0
156 178 0
153 175 0
146 169 0
143 166 0
148 171 0
149 172 0
150 172 0
152 175 0
151 174 0
151 173 0
149 172 0
152 174 0
145 167 0
151 174 0
152 175 0
145 166 0
148 171 0
154 176 0
153 176 0
149 172 0
155 177 0
147 170 0
148 171 0
153 176 0
146 168 0
156 179 0
147 170 0
151 173 0
152 174 0
151 174 0
154 176 0
155 178 0
147 169 0
155 178 0
159 181 0
147 170 0
150 173 0
154 176 0
154 177 0
146 168 0
151 174 0
151 173 0
149 171 0
147 171 0
153 176 0
144 166 0
150 172 0
150 173 0
148 171 0
150 172 0
153 175 0
150 172 0
157 180 0
149 171 0
151 174 0
149 172 0
152 173 0
148 170 0
155 177 0
149 171 0
155 178 0
149 172 0
150 172 0
149 172 0
154 176 0
150 172 0
154 177 0
148 171 0
149 173 0
151 174 0
146 169 0
149 172 0
148 172 0
146 168 0
152 174 0
153 175 0
148 170 0
159 182 0
150 172 0
151 173 0
152 174 0
155 178 0
156 180 0
154 178 0
147 170 0
142 165 0
152 175 0
149 172 0
143 166 0
144 167 0
146 169 0
151 174 0
151 172 0
150 171 0
152 174 0
156 179 0
150 173 0
149 172 0
146 169 0
151 175 0
151 173 0
150 172 0
151 174 0
152 175 0
153 175 0
149 172 0
153 176 0
149 171 0
155 178 0
139 162 0
151 174 0
152 175 0
152 175 0
149 171 0
156 178 0
148 170 0
147 169 0
158 180 0
148 170 0
145 167 0
150 171 0
153 176 0
156 178 0
149 172 0
151 173 0
150 173 0
153 175 0
155 177 0
150 173 0
154 176 0
164 185 0
154 177 0
157 179 0
156 178 0
155 177 0
151 172 0
150 173 0
147 169 0
146 168 0
160 183 0
153 175 0
154 176 0
151 174 0
156 179 0
150 173 0
145 167 0
153 175 0
152 174 0
153 174 0
147 169 0
152 173 0
156 178 0
159 181 0
158 179 0
156 177 0
151 174 0
152 174 0
148 170 0
161 183 0
160 183 0
139 160 0
150 172 0
157 178 0
148 169 0
151 174 0
160 182 0
153 174 0
154 176 0
156 177 0
157 179 0
158 180 0
154 176 0
156 178 0
148 170 0
160 183 0
158 180 0
159 181 0
156 178 0
157 179 0
152 173 0
155 176 0
161 182 0
153 175 0
152 173 0
157 179 0
153 174 0
156 178 0
153 175 0
159 181 0
153 175 0
155 176 0
159 180 0
156 179 0
153 175 0
158 180 0
159 179 0
155 176 0
156 178 0
160 181 0
152 173 0
155 176 0
152 173 0
153 173 0
155 177 0
152 173 0
159 180 0
156 177 0
156 178 0
161 182 0
154 174 0
158 179 0
164 185 0
162 183 0
153 174 0
159 180 0
158 179 0
159 181 0
160 181 0
157 178 0
155 176 0
147 167 0
158 179 0
155 175 0
161 182 0
159 180 0
160 180 0
159 179 0
153 172 0
160 181 0
160 182 0
160 182 0
156 176 0
162 183 0
153 174 0
160 179 0
160 181 0
157 177 0
154 175 0
162 183 0
157 178 0
157 177 0
159 179 0
161 181 0
162 183 0
159 180 0
161 181 0
161 181 0
157 177 0
160 181 0
162 183 0
162 183 0
155 176 0
162 183 0
160 181 0
160 181 0
162 183 0
155 175 0
163 182 0
165 186 0
163 184 0
163 184 0
158 178 0
165 185 0
166 187 0
157 178 0
152 172 0
156 177 0
155 177 0
161 182 0
152 174 0
156 177 0
157 177 0
158 178 0
156 178 0
161 182 0
154 176 0
148 168 0
160 182 0
153 174 0
160 181 0
156 177 0
156 177 0
162 183 0
153 174 0
159 180 0
147 168 0
161 182 0
157 177 0
160 182 0
160 181 0
156 178 0
159 180 0
155 176 0
157 177 0
157 179 0
160 181 0
156 178 0
154 175 0
157 178 0
155 177 0
158 178 0
155 176 0
153 175 0
153 174 0
157 178 0
156 177 0
157 179 0
149 170 0
156 178 0
156 178 0
159 180 0
153 174 0
156 177 0
155 177 0
155 176 0
157 178 0
155 177 0
154 176 0
157 180 0
156 178 0
157 179 0
152 174 0
156 178 0
156 178 0
157 178 0
152 173 0
156 178 0
160 182 0
157 179 0
154 177 0
153 175 0
150 172 0
159 181 0
151 172 0
154 177 0
159 180 0
155 177 0
148 169 0
154 176 0
158 180 0
161 183 0
152 172 0
159 181 0
154 177 0
154 177 0
151 174 0
159 181 0
150 173 0
156 179 0
154 177 0
153 175 0
148 170 0
157 180 0
154 177 0
155 177 0
151 173 0
156 178 0
149 171 0
155 177 0
153 175 0
149 171 0
155 177 0
145 168 0
146 168 0
155 178 0
156 178 0
153 174 0
153 175 0
155 179 0
145 167 0
153 176 0
154 176 0
153 176 0
153 176 0
155 177 0
155 178 0
152 174 0
153 177 0
147 170 0
147 169 0
145 167 0
153 175 0
156 178 0
160 183 0
149 171 0
156 179 0
149 172 0
145 168 0
152 175 0
158 181 0
151 174 0
149 171 0
142 165 0
151 175 0
158 182 0
155 178 0
154 176 0
143 165 0
154 177 0
150 173 0
153 176 0
155 179 0
154 177 0
146 168 0
145 168 0
156 178 0
157 180 0
154 176 0
150 173 0
153 177 0
152 174 0
150 173 0
158 180 0
145 166 0
150 172 0
156 178 0
159 181 0
152 174 0
150 172 0
155 177 0
154 177 0
152 175 0
149 172 0
151 174 0
153 176 0
151 174 0
151 173 0
154 177 0
152 175 0
145 167 0
154 177 0
153 175 0
145 168 0
148 171 0
149 171 0
149 172 0
157 180 0
150 173 0
151 173 0
148 170 0
148 170 0
155 178 0
153 175 0
152 174 0
146 169 0
154 177 0
149 172 0
150 172 0
143 166 0
144 167 0
146 168 0
147 169 0
142 164 0
145 167 0
152 175 0
150 173 0
154 177 0
149 172 0
159 181 0
150 172 0
148 170 0
149 171 0
153 175 0
155 177 0
149 172 0
151 174 0
147 170 0
146 169 0
153 176 0
151 174 0
151 173 0
150 173 0
155 177 0
146 168 0
148 171 0
146 168 0
151 174 0
153 174 0
158 182 0
144 167 0
147 170 0
149 171 0
152 175 0
153 176 0
147 169 0
153 175 0
152 174 0
153 176 0
146 168 0
156 178 0
148 171 0
149 172 0
153 176 0
148 170 0
153 176 0
150 172 0
156 178 0
152 175 0
146 168 0
150 172 0
148 170 0
149 171 0
152 175 0
153 175 0
149 171 0
154 177 0
148 171 0
151 173 0
152 174 0
149 171 0
163 185 0
158 180 0
149 171 0
154 176 0
158 181 0
153 175 0
151 173 0
158 181 0
158 180 0
155 177 0
150 172 0
153 176 0
147 170 0
154 176 0
151 174 0
158 181 0
148 170 0
154 176 0
154 176 0
144 167 0
153 176 0
153 176 0
161 183 0
147 170 0
150 173 0
155 177 0
155 178 0
159 181 0
152 174 0
156 179 0
154 176 0
158 180 0
154 176 0
154 175 0
155 178 0
158 181 0
157 179 0
152 174 0
156 178 0
160 182 0
151 172 0
154 175 0
154 177 0
153 176 0
151 173 0
157 179 0
151 173 0
155 177 0
152 174 0
151 172 0
154 177 0
153 176 0
153 175 0
150 172 0
156 177 0
159 182 0
151 175 0
159 181 0
152 173 0
150 172 0
156 178 0
157 178 0
158 180 0
160 181 0
160 182 0
153 174 0
159 181 0
156 177 0
149 171 0
156 178 0
152 173 0
159 181 0
152 174 0
154 176 0
155 176 0
149 171 0
155 176 0
152 173 0
153 175 0
155 177 0
159 180 0
158 179 0
160 182 0
158 180 0
157 178 0
161 183 0
161 183 0
158 179 0
153 174 0
159 181 0
162 183 0
158 179 0
156 177 0
162 183 0
152 173 0
161 183 0
155 176 0
155 177 0
152 172 0
153 174 0
160 181 0
159 180 0
158 180 0
155 177 0
163 184 0
153 173 0
155 176 0
158 180 0
159 180 0
153 173 0
156 176 0
159 180 0
157 177 0
164 184 0
159 181 0
151 172 0
153 174 0
148 169 0
160 180 0
157 178 0
154 174 0
156 176 0
158 179 0
160 181 0
159 179 0
157 177 0
162 183 0
162 184 0
151 172 0
161 182 0
159 179 0
157 178 0
157 177 0
161 182 0
157 178 0
160 181 0
156 176 0
157 178 0
159 179 0
160 180 0
160 180 0
164 186 0
162 183 0
159 180 0
163 183 0
156 177 0
160 180 0
161 182 0
158 179 0
161 182 0
161 182 0
160 182 0
155 176 0
159 178 0
159 180 0
159 180 0
159 180 0
156 177 0
157 178 0
163 184 0
157 178 0
162 184 0
161 182 0
160 181 0
158 179 0
156 177 0
153 174 0
161 182 0
161 182 0
153 172 0
158 179 0
162 184 0
152 174 0
155 175 0
159 180 0
160 181 0
160 180 0
151 173 0
157 179 0
160 181 0
157 179 0
162 185 0
160 182 0
157 179 0
157 178 0
155 176 0
153 174 0
158 181 0
157 178 0
156 179 0
154 176 0
156 177 0
156 178 0
154 176 0
155 177 0
154 175 0
160 181 0
155 177 0
157 179 0
159 181 0
151 172 0
155 176 0
157 179 0
157 179 0
154 175 0
159 181 0
160 182 0
153 174 0
155 177 0
159 180 0
155 177 0
158 179 0
154 176 0
161 183 0
157 179 0
155 177 0
151 173 0
159 181 0
159 181 0
149 171 0
152 174 0
156 178 0
160 183 0
157 178 0
155 178 0
160 183 0
158 180 0
151 173 0
155 176 0
155 177 0
149 171 0
156 179 0
151 173 0
150 172 0
159 181 0
156 178 0
149 171 0
152 174 0
155 177 0
152 174 0
159 182 0
159 181 0
156 178 0
161 184 0
161 183 0
154 177 0
150 173 0
159 181 0
159 181 0
158 181 0
154 176 0
154 177 0
149 171 0
147 170 0
158 181 0
151 172 0
154 175 0
156 179 0
151 173 0
149 170 0
153 175 0
150 173 0
154 176 0
157 180 0
152 174 0
150 174 0
151 173 0
150 173 0
149 172 0
146 168 0
155 177 0
154 176 0
155 178 0
151 174 0
159 182 0
158 181 0
147 169 0
153 176 0
155 177 0
152 175 0
150 173 0
149 172 0
149 172 0
147 169 0
151 173 0
150 173 0
153 175 0
156 178 0
152 174 0
153 176 0
153 175 0
147 169 0
149 171 0
151 174 0
156 179 0
153 176 0
154 177 0
157 179 0
145 168 0
161 184 0
158 181 0
143 164 0
150 172 0
151 174 0
152 174 0
155 178 0
147 169 0
149 172 0
148 171 0
156 178 0
148 171 0
153 175 0
151 174 0
152 174 0
155 179 0
152 175 0
150 171 0
146 168 0
154 177 0
153 176 0
145 168 0
153 175 0
149 171 0
155 178 0
159 182 0
154 176 0
151 173 0
149 172 0
153 175 0
153 176 0
144 165 0
156 178 0
150 173 0
149 172 0
155 178 0
151 173 0
148 170 0
155 177 0
152 175 0
153 174 0
151 174 0
150 172 0
146 169 0
152 174 0
150 173 0
148 171 0
154 176 0
148 170 0
147 169 0
154 176 0
147 169 0
147 169 0
150 172 0
149 172 0
152 175 0
151 174 0
148 170 0
153 175 0
154 177 0
150 172 0
145 168 0
153 175 0
154 176 0
151 174 0
147 170 0
156 179 0
146 169 0
152 174 0
152 175 0
141 164 0
151 173 0
152 175 0
157 179 0
153 176 0
152 175 0
149 171 0
154 177 0
153 175 0
156 179 0
157 179 0
151 174 0
160 183 0
159 182 0
155 177 0
155 177 0
155 178 0
151 173 0
156 178 0
157 178 0
155 178 0
154 175 0
155 179 0
153 175 0
144 166 0
155 177 0
151 174 0
149 171 0
158 182 0
153 175 0
152 174 0
147 170 0
152 174 0
155 178 0
151 174 0
153 176 0
146 170 0
157 179 0
151 174 0
150 173 0
146 169 0
151 175 0
153 174 0
151 173 0
146 170 0
151 174 0
147 170 0
158 180 0
155 178 0
152 174 0
150 173 0
157 180 0
156 177 0
153 176 0
150 171 0
151 173 0
154 176 0
156 179 0
155 178 0
152 174 0
150 173 0
160 183 0
158 180 0
160 184 0
153 175 0
159 182 0
151 173 0
151 174 0
152 174 0
156 180 0
150 172 0
149 172 0
157 179 0
155 177 0
154 177 0
153 174 0
150 173 0
148 170 0
155 177 0
154 175 0
155 175 0
155 177 0
153 175 0
149 170 0
153 176 0
160 181 0
156 178 0
159 182 0
158 180 0
154 175 0
158 179 0
150 173 0
154 176 0
154 176 0
157 180 0
159 181 0
157 179 0
153 175 0
155 178 0
157 178 0
149 171 0
153 175 0
161 184 0
151 173 0
156 180 0
157 179 0
157 179 0
154 176 0
157 178 0
152 174 0
162 182 0
157 178 0
159 180 0
151 173 0
153 175 0
158 179 0
150 171 0
147 168 0
153 175 0
154 175 0
156 177 0
153 175 0
161 183 0
154 175 0
161 183 0
158 181 0
158 180 0
156 177 0
155 175 0
160 181 0
161 182 0
148 168 0
157 178 0
161 182 0
156 177 0
158 179 0
154 175 0
155 177 0
161 182 0
158 180 0
157 178 0
159 180 0
158 179 0
155 176 0
157 177 0
161 183 0
157 179 0
157 178 0
160 182 0
155 176 0
157 178 0
155 177 0
157 177 0
163 185 0
162 183 0
160 180 0
159 180 0
158 178 0
154 175 0
159 179 0
158 180 0
161 182 0
153 173 0
159 179 0
155 175 0
164 185 0
155 176 0
160 181 0
163 185 0
157 177 0
157 176 0
154 175 0
163 183 0
163 184 0
157 178 0
164 185 0
161 182 0
157 179 0
161 181 0
165 186 0
163 183 0
161 183 0
159 181 0
159 180 0
158 179 0
153 173 0
159 181 0
158 178 0
161 182 0
153 175 0
157 178 0
161 182 0
157 178 0
158 179 0
160 181 0
159 181 0
159 182 0
161 183 0
163 183 0
162 183 0
158 180 0
154 174 0
155 177 0
156 177 0
159 181 0
158 180 0
157 178 0
155 175 0
156 177 0
160 181 0
165 187 0
155 176 0
156 177 0
159 182 0
158 179 0
159 180 0
158 180 0
155 177 0
154 176 0
154 174 0
155 177 0
156 178 0
157 178 0
156 178 0
157 179 0
157 178 0
154 174 0
155 175 0
153 176 0
155 176 0
162 184 0
160 181 0
157 178 0
159 180 0
153 174 0
157 178 0
154 176 0
156 178 0
156 178 0
157 179 0
151 173 0
149 171 0
158 180 0
160 182 0
152 175 0
158 181 0
155 177 0
152 175 0
157 178 0
152 174 0
158 180 0
151 173 0
158 180 0
154 176 0
153 175 0
159 181 0
154 177 0
157 180 0
155 176 0
161 182 0
154 176 0
156 178 0
157 178 0
157 181 0
160 182 0
149 171 0
142 163 0
158 180 0
161 183 0
154 177 0
152 174 0
154 176 0
148 170 0
155 177 0
159 181 0
153 174 0
157 179 0
155 177 0
158 180 0
154 176 0
151 173 0
154 177 0
152 174 0
148 171 0
155 176 0
159 181 0
148 170 0
152 174 0
150 172 0
154 176 0
151 173 0
157 179 0
156 178 0
148 171 0
151 174 0
151 173 0
161 183 0
157 179 0
156 178 0
151 173 0
149 172 0
151 175 0
159 182 0
150 173 0
155 178 0
148 171 0
154 176 0
159 182 0
155 176 0
145 166 0
151 173 0
160 182 0
155 178 0
150 172 0
153 176 0
155 177 0
145 168 0
146 168 0
153 177 0
151 173 0
149 171 0
151 173 0
152 174 0
153 175 0
157 179 0
153 177 0
155 178 0
151 174 0
152 175 0
149 171 0
151 174 0
149 172 0
157 180 0
153 175 0
158 180 0
154 176 0
150 173 0
149 173 0
141 164 0
153 176 0
147 170 0
151 174 0
151 174 0
143 165 0
151 172 0
153 175 0
147 169 0
150 173 0
149 172 0
145 168 0
149 173 0
154 176 0
152 174 0
151 174 0
155 177 0
152 174 0
148 170 0
156 179 0
160 184 0
151 173 0
147 169 0
153 177 0
148 171 0
143 166 0
145 167 0
154 176 0
156 180 0
152 175 0
152 174 0
146 168 0
148 172 0
156 179 0
157 179 0
157 178 0
153 175 0
153 176 0
146 169 0
153 175 0
158 180 0
149 171 0
150 173 0
148 170 0
146 170 0
146 169 0
156 179 0
154 177 0
147 169 0
156 178 0
152 175 0
148 171 0
156 179 0
150 173 0
152 174 0
152 175 0
142 165 0
153 176 0
152 174 0
151 174 0
152 173 0
148 170 0
151 173 0
153 176 0
149 172 0
149 172 0
147 169 0
153 175 0
150 172 0
150 172 0
145 167 0
161 184 0
155 177 0
159 181 0
150 174 0
151 174 0
155 178 0
153 175 0
149 172 0
149 171 0
149 172 0
143 166 0
151 174 0
150 173 0
156 178 0
153 175 0
156 178 0
151 174 0
152 175 0
153 175 0
152 174 0
153 175 0
158 181 0
147 168 0
154 177 0
151 174 0
151 174 0
160 182 0
147 170 0
151 173 0
150 172 0
151 174 0
156 180 0
150 172 0
154 176 0
146 168 0
156 179 0
151 173 0
154 177 0
162 186 0
153 176 0
155 177 0
148 170 0
160 183 0
151 174 0
153 174 0
155 178 0
151 174 0
151 173 0
151 173 0
160 182 0
153 176 0
154 177 0
160 183 0
154 176 0
154 176 0
156 178 0
160 183 0
149 170 0
154 176 0
157 179 0
151 172 0
148 170 0
151 174 0
150 172 0
155 176 0
150 173 0
155 179 0
157 178 0
154 176 0
153 175 0
154 176 0
155 177 0
152 174 0
152 173 0
152 173 0
148 171 0
158 180 0
153 175 0
154 176 0
157 179 0
150 172 0
152 173 0
157 179 0
148 170 0
155 176 0
155 177 0
156 178 0
150 172 0
152 174 0
160 181 0
156 178 0
154 176 0
153 175 0
149 170 0
152 173 0
148 170 0
156 178 0
156 178 0
149 171 0
153 174 0
156 177 0
158 180 0
160 181 0
160 182 0
159 181 0
162 182 0
155 177 0
155 176 0
152 173 0
156 177 0
150 172 0
155 177 0
159 180 0
154 176 0
160 182 0
153 175 0
160 181 0
156 178 0
155 176 0
157 178 0
161 182 0
159 180 0
155 176 0
153 174 0
156 177 0
161 183 0
152 174 0
155 176 0
160 182 0
160 181 0
160 182 0
161 181 0
156 176 0
159 180 0
162 183 0
160 180 0
161 182 0
159 179 0
153 174 0
159 179 0
159 180 0
160 180 0
157 178 0
160 181 0
158 178 0
159 180 0
157 179 0
158 180 0
160 182 0
163 184 0
159 180 0
162 183 0
162 183 0
157 178 0
156 177 0
162 184 0
155 175 0
162 184 0
158 179 0
162 183 0
159 180 0
160 181 0
157 178 0
160 182 0
162 183 0
163 184 0
163 184 0
159 179 0
157 178 0
158 179 0
159 181 0
163 184 0
155 176 0
166 187 0
163 184 0
156 177 0
160 181 0
155 175 0
157 177 0
158 180 0
159 180 0
153 174 0
160 182 0
162 184 0
155 177 0
160 181 0
157 179 0
160 180 0
158 179 0
160 181 0
152 173 0
162 183 0
158 180 0
157 178 0
160 181 0
159 181 0
160 180 0
159 181 0
156 178 0
159 180 0
154 176 0
158 179 0
157 179 0
157 178 0
160 181 0
152 173 0
156 178 0
155 177 0
153 174 0
162 183 0
157 179 0
153 174 0
155 176 0
157 178 0
159 181 0
153 175 0
155 177 0
156 178 0
152 173 0
159 182 0
148 169 0
160 182 0
155 177 0
161 182 0
156 178 0
157 179 0
160 182 0
155 177 0
158 179 0
156 178 0
161 183 0
154 176 0
158 179 0
158 181 0
162 185 0
150 173 0
154 176 0
155 177 0
155 179 0
158 180 0
153 175 0
151 172 0
151 173 0
156 178 0
163 185 0
160 182 0
156 177 0
154 175 0
159 182 0
157 179 0
156 179 0
153 175 0
159 180 0
159 181 0
153 174 0
155 177 0
158 181 0
156 178 0
157 180 0
155 178 0
155 176 0
154 176 0
158 179 0
158 180 0
155 177 0
155 176 0
151 174 0
154 175 0
157 178 0
155 177 0
154 176 0
157 181 0
153 174 0
149 171 0
154 177 0
147 170 0
151 173 0
162 185 0
160 182 0
152 173 0
152 174 0
163 184 0
151 174 0
148 170 0
158 181 0
158 180 0
154 177 0
151 173 0
154 176 0
153 175 0
151 173 0
150 172 0
151 174 0
158 180 0
148 170 0
154 176 0
155 179 0
154 176 0
155 178 0
153 175 0
155 177 0
142 163 0
159 182 0
156 180 0
146 169 0
154 177 0
156 178 0
153 176 0
153 175 0
153 175 0
147 169 0
161 184 0
161 183 0
153 175 0
152 175 0
155 177 0
152 175 0
155 177 0
151 175 0
159 182 0
156 179 0
151 173 0
155 177 0
149 171 0
159 182 0
152 175 0
147 169 0
151 172 0
148 171 0
142 166 0
150 172 0
155 178 0
148 170 0
148 171 0
152 174 0
151 175 0
148 172 0
159 182 0
154 177 0
150 172 0
157 180 0
150 172 0
157 180 0
148 171 0
151 174 0
148 170 0
155 179 0
148 170 0
154 176 0
154 177 0
150 172 0
151 174 0
153 176 0
152 174 0
155 177 0
150 173 0
152 175 0
145 168 0
146 168 0
144 167 0
147 169 0
145 167 0
143 165 0
149 171 0
151 174 0
147 171 0
152 175 0
149 172 0
144 167 0
151 173 0
155 177 0
150 173 0
150 173 0
152 174 0
155 177 0
141 162 0
147 169 0
147 170 0
153 177 0
154 177 0
154 177 0
150 172 0
142 165 0
150 172 0
151 174 0
150 172 0
149 172 0
151 174 0
154 177 0
155 178 0
152 174 0
150 173 0
159 181 0
147 169 0
148 170 0
151 173 0
151 174 0
155 179 0
145 168 0
155 178 0
154 177 0
153 176 0
153 174 0
154 176 0
148 172 0
148 172 0
148 171 0
158 180 0
153 175 0
141 162 0
153 175 0
154 176 0
151 172 0
152 174 0
151 174 0
155 178 0
157 179 0
154 176 0
146 169 0
153 176 0
150 171 0
153 177 0
154 177 0
152 175 0
153 176 0
157 180 0
155 177 0
148 171 0
153 176 0
153 175 0
151 173 0
154 176 0
156 180 0
154 176 0
154 177 0
156 179 0
152 174 0
154 176 0
153 175 0
156 179 0
154 176 0
156 179 0
154 176 0
156 179 0
145 167 0
147 169 0
148 171 0
152 173 0
155 177 0
159 182 0
160 183 0
157 179 0
144 165 0
151 174 0
154 176 0
157 179 0
159 182 0
156 178 0
154 177 0
158 180 0
157 180 0
150 172 0
151 173 0
158 181 0
150 172 0
151 174 0
149 171 0
161 184 0
157 179 0
159 182 0
157 180 0
158 179 0
156 179 0
157 180 0
154 175 0
154 177 0
153 176 0
155 178 0
152 174 0
154 175 0
156 178 0
146 167 0
160 182 0
159 181 0
151 173 0
155 177 0
156 177 0
158 180 0
159 181 0
152 174 0
154 176 0
157 178 0
157 179 0
151 173 0
148 170 0
157 179 0
156 178 0
155 176 0
155 177 0
156 179 0
153 174 0
156 178 0
158 180 0
156 178 0
154 175 0
158 180 0
147 167 0
159 181 0
149 171 0
165 186 0
160 181 0
160 182 0
157 179 0
153 175 0
160 181 0
153 173 0
154 174 0
157 179 0
149 171 0
156 177 0
154 176 0
162 184 0
160 180 0
156 177 0
154 176 0
149 169 0
155 176 0
154 176 0
154 175 0
155 176 0
157 179 0
156 176 0
161 183 0
157 179 0
160 180 0
157 177 0
164 185 0
161 183 0
157 177 0
157 177 0
157 178 0
159 180 0
156 176 0
159 180 0
154 175 0
158 179 0
156 177 0
160 181 0
163 184 0
161 182 0
159 178 0
160 181 0
162 183 0
155 176 0
164 184 0
163 183 0
161 182 0
159 180 0
159 179 0
160 180 0
163 184 0
159 181 0
159 179 0
